(Exported by FreeCAD)
(Post Processor: grbl_post)
(Output Time:2023-02-24 20:50:52.879925)
(Begin preamble)
G17 G90
G21
(Begin operation: G54)
(Path: G54)
G54
G0 Z5.000
(Finish operation: G54)
(Begin operation: surfacing-25mm007)
(Path: surfacing-25mm007)
(surfacing-25mm007)
(Begin toolchange)
( M6 T2 )
M3 S10000
(Finish operation: surfacing-25mm007)
(Begin operation: MillFace)
(Path: MillFace)
(MillFace)
G0 Z5.000
G0 X77.500 Y-142.500
G0 Z3.000
G1 X77.500 Y-142.500 Z-0.100 F100.000
G1 X77.500 Y-2.500 Z-0.100 F200.000
G1 X65.000 Y-2.500 Z-0.100 F200.000
G1 X65.000 Y-142.500 Z-0.100 F200.000
G1 X52.500 Y-142.500 Z-0.100 F200.000
G1 X52.500 Y-2.500 Z-0.100 F200.000
G1 X40.000 Y-2.500 Z-0.100 F200.000
G1 X40.000 Y-142.500 Z-0.100 F200.000
G1 X27.500 Y-142.500 Z-0.100 F200.000
G1 X27.500 Y-2.500 Z-0.100 F200.000
G1 X15.000 Y-2.500 Z-0.100 F200.000
G1 X15.000 Y-142.500 Z-0.100 F200.000
G1 X2.500 Y-142.500 Z-0.100 F200.000
G1 X2.500 Y-2.500 Z-0.100 F200.000
G1 X-10.000 Y-2.500 Z-0.100 F200.000
G1 X-10.000 Y-142.500 Z-0.100 F200.000
G1 X-22.500 Y-142.500 Z-0.100 F200.000
G1 X-22.500 Y-2.500 Z-0.100 F200.000
G1 X-35.000 Y-2.500 Z-0.100 F200.000
G1 X-35.000 Y-142.500 Z-0.100 F200.000
G1 X-47.500 Y-142.500 Z-0.100 F200.000
G1 X-47.500 Y-2.500 Z-0.100 F200.000
G1 X-60.000 Y-2.500 Z-0.100 F200.000
G1 X-60.000 Y-142.500 Z-0.100 F200.000
G1 X-72.500 Y-142.500 Z-0.100 F200.000
G1 X-77.500 Y-142.500 Z-0.100 F200.000
G1 X-77.500 Y-2.500 Z-0.100 F200.000
G1 X-72.500 Y-2.500 Z-0.100 F200.000
G1 X-72.500 Y-142.500 Z-0.100 F200.000
G0 Z5.000
G0 Z5.000
(Finish operation: MillFace)
(Begin operation: MillFace001)
(Path: MillFace001)
(MillFace001)
G0 Z5.000
G0 X77.500 Y-5.000
G0 Z3.000
G1 X77.500 Y-5.000 Z-0.200 F100.000
G1 X-77.500 Y-5.000 Z-0.200 F200.000
G1 X-77.500 Y-2.500 Z-0.200 F200.000
G1 X77.500 Y-2.500 Z-0.200 F200.000
G1 X77.500 Y-5.000 Z-0.200 F200.000
G1 X77.500 Y-17.500 Z-0.200 F200.000
G1 X-77.500 Y-17.500 Z-0.200 F200.000
G1 X-77.500 Y-30.000 Z-0.200 F200.000
G1 X77.500 Y-30.000 Z-0.200 F200.000
G1 X77.500 Y-42.500 Z-0.200 F200.000
G1 X-77.500 Y-42.500 Z-0.200 F200.000
G1 X-77.500 Y-55.000 Z-0.200 F200.000
G1 X77.500 Y-55.000 Z-0.200 F200.000
G1 X77.500 Y-67.500 Z-0.200 F200.000
G1 X-77.500 Y-67.500 Z-0.200 F200.000
G1 X-77.500 Y-80.000 Z-0.200 F200.000
G1 X77.500 Y-80.000 Z-0.200 F200.000
G1 X77.500 Y-92.500 Z-0.200 F200.000
G1 X-77.500 Y-92.500 Z-0.200 F200.000
G1 X-77.500 Y-105.000 Z-0.200 F200.000
G1 X77.500 Y-105.000 Z-0.200 F200.000
G1 X77.500 Y-117.500 Z-0.200 F200.000
G1 X-77.500 Y-117.500 Z-0.200 F200.000
G1 X-77.500 Y-130.000 Z-0.200 F200.000
G1 X77.500 Y-130.000 Z-0.200 F200.000
G1 X77.500 Y-142.500 Z-0.200 F200.000
G1 X-77.500 Y-142.500 Z-0.200 F200.000
G0 Z5.000
G0 Z5.000
(Finish operation: MillFace001)
(Begin postamble)
M5
G17 G90
M2
