(Exported by FreeCAD)
(Post Processor: grbl_post)
(Output Time:2023-03-11 15:45:17.518195)
(Begin preamble)
G17 G90
G21
(Begin operation: G54)
(Path: G54)
G54
G0 Z5.000
(Finish operation: G54)
(Begin operation: surfacing-25mm007)
(Path: surfacing-25mm007)
(surfacing-25mm007)
(Begin toolchange)
( M6 T2 )
M3 S10000
(Finish operation: surfacing-25mm007)
(Begin operation: MillFace)
(Path: MillFace)
(MillFace)
G0 Z5.000
G0 X67.500 Y-122.500
G0 Z3.000
G1 X67.500 Y-122.500 Z-0.100 F100.000
G1 X67.500 Y-2.500 Z-0.100 F200.000
G1 X60.000 Y-2.500 Z-0.100 F200.000
G1 X60.000 Y-122.500 Z-0.100 F200.000
G1 X52.500 Y-122.500 Z-0.100 F200.000
G1 X52.500 Y-2.500 Z-0.100 F200.000
G1 X45.000 Y-2.500 Z-0.100 F200.000
G1 X45.000 Y-122.500 Z-0.100 F200.000
G1 X37.500 Y-122.500 Z-0.100 F200.000
G1 X37.500 Y-2.500 Z-0.100 F200.000
G1 X30.000 Y-2.500 Z-0.100 F200.000
G1 X30.000 Y-122.500 Z-0.100 F200.000
G1 X22.500 Y-122.500 Z-0.100 F200.000
G1 X22.500 Y-2.500 Z-0.100 F200.000
G1 X15.000 Y-2.500 Z-0.100 F200.000
G1 X15.000 Y-122.500 Z-0.100 F200.000
G1 X7.500 Y-122.500 Z-0.100 F200.000
G1 X7.500 Y-2.500 Z-0.100 F200.000
G1 X-0.000 Y-2.500 Z-0.100 F200.000
G1 X-0.000 Y-122.500 Z-0.100 F200.000
G1 X-7.500 Y-122.500 Z-0.100 F200.000
G1 X-7.500 Y-2.500 Z-0.100 F200.000
G1 X-15.000 Y-2.500 Z-0.100 F200.000
G1 X-15.000 Y-122.500 Z-0.100 F200.000
G1 X-22.500 Y-122.500 Z-0.100 F200.000
G1 X-22.500 Y-2.500 Z-0.100 F200.000
G1 X-30.000 Y-2.500 Z-0.100 F200.000
G1 X-30.000 Y-122.500 Z-0.100 F200.000
G1 X-37.500 Y-122.500 Z-0.100 F200.000
G1 X-37.500 Y-2.500 Z-0.100 F200.000
G1 X-45.000 Y-2.500 Z-0.100 F200.000
G1 X-45.000 Y-122.500 Z-0.100 F200.000
G1 X-52.500 Y-122.500 Z-0.100 F200.000
G1 X-52.500 Y-2.500 Z-0.100 F200.000
G1 X-60.000 Y-2.500 Z-0.100 F200.000
G1 X-60.000 Y-122.500 Z-0.100 F200.000
G1 X-67.500 Y-122.500 Z-0.100 F200.000
G1 X-67.500 Y-2.500 Z-0.100 F200.000
G0 Z5.000
G0 Z5.000
(Finish operation: MillFace)
(Begin operation: MillFace001)
(Path: MillFace001)
(MillFace001)
G0 Z5.000
G0 X67.500 Y-2.500
G0 Z3.000
G1 X67.500 Y-2.500 Z-0.200 F100.000
G1 X-67.500 Y-2.500 Z-0.200 F200.000
G1 X-67.500 Y-10.000 Z-0.200 F200.000
G1 X67.500 Y-10.000 Z-0.200 F200.000
G1 X67.500 Y-17.500 Z-0.200 F200.000
G1 X-67.500 Y-17.500 Z-0.200 F200.000
G1 X-67.500 Y-25.000 Z-0.200 F200.000
G1 X67.500 Y-25.000 Z-0.200 F200.000
G1 X67.500 Y-32.500 Z-0.200 F200.000
G1 X-67.500 Y-32.500 Z-0.200 F200.000
G1 X-67.500 Y-40.000 Z-0.200 F200.000
G1 X67.500 Y-40.000 Z-0.200 F200.000
G1 X67.500 Y-47.500 Z-0.200 F200.000
G1 X-67.500 Y-47.500 Z-0.200 F200.000
G1 X-67.500 Y-55.000 Z-0.200 F200.000
G1 X67.500 Y-55.000 Z-0.200 F200.000
G1 X67.500 Y-62.500 Z-0.200 F200.000
G1 X-67.500 Y-62.500 Z-0.200 F200.000
G1 X-67.500 Y-70.000 Z-0.200 F200.000
G1 X67.500 Y-70.000 Z-0.200 F200.000
G1 X67.500 Y-77.500 Z-0.200 F200.000
G1 X-67.500 Y-77.500 Z-0.200 F200.000
G1 X-67.500 Y-85.000 Z-0.200 F200.000
G1 X67.500 Y-85.000 Z-0.200 F200.000
G1 X67.500 Y-92.500 Z-0.200 F200.000
G1 X-67.500 Y-92.500 Z-0.200 F200.000
G1 X-67.500 Y-100.000 Z-0.200 F200.000
G1 X67.500 Y-100.000 Z-0.200 F200.000
G1 X67.500 Y-107.500 Z-0.200 F200.000
G1 X-67.500 Y-107.500 Z-0.200 F200.000
G1 X-67.500 Y-115.000 Z-0.200 F200.000
G1 X67.500 Y-115.000 Z-0.200 F200.000
G1 X67.500 Y-122.500 Z-0.200 F200.000
G1 X-67.500 Y-122.500 Z-0.200 F200.000
G0 Z5.000
G0 Z5.000
(Finish operation: MillFace001)
(Begin postamble)
M5
G17 G90
M2
