(Exported by FreeCAD)
(Post Processor: grbl_post)
(Output Time:2023-02-25 14:56:20.766113)
(Begin preamble)
G17 G90
G21
(Begin operation: G54)
(Path: G54)
G54
G0 Z5.000
(Finish operation: G54)
(Begin operation: surfacing-25mm007)
(Path: surfacing-25mm007)
(surfacing-25mm007)
(Begin toolchange)
( M6 T2 )
M3 S10000
(Finish operation: surfacing-25mm007)
(Begin operation: MillFace)
(Path: MillFace)
(MillFace)
G0 Z5.000
G0 X-55.000 Y-7.500
G0 Z3.000
G1 X-55.000 Y-7.500 Z-0.100 F100.000
G1 X-55.000 Y-122.500 Z-0.100 F200.000
G1 X-57.500 Y-122.500 Z-0.100 F200.000
G1 X-57.500 Y-7.500 Z-0.100 F200.000
G1 X-55.000 Y-7.500 Z-0.100 F200.000
G1 X-42.500 Y-7.500 Z-0.100 F200.000
G1 X-42.500 Y-122.500 Z-0.100 F200.000
G1 X-30.000 Y-122.500 Z-0.100 F200.000
G1 X-30.000 Y-7.500 Z-0.100 F200.000
G1 X-17.500 Y-7.500 Z-0.100 F200.000
G1 X-17.500 Y-122.500 Z-0.100 F200.000
G1 X-5.000 Y-122.500 Z-0.100 F200.000
G1 X-5.000 Y-7.500 Z-0.100 F200.000
G1 X7.500 Y-7.500 Z-0.100 F200.000
G1 X7.500 Y-122.500 Z-0.100 F200.000
G1 X20.000 Y-122.500 Z-0.100 F200.000
G1 X20.000 Y-7.500 Z-0.100 F200.000
G1 X32.500 Y-7.500 Z-0.100 F200.000
G1 X32.500 Y-122.500 Z-0.100 F200.000
G1 X45.000 Y-122.500 Z-0.100 F200.000
G1 X45.000 Y-7.500 Z-0.100 F200.000
G1 X57.500 Y-7.500 Z-0.100 F200.000
G1 X57.500 Y-122.500 Z-0.100 F200.000
G0 Z5.000
G0 Z5.000
(Finish operation: MillFace)
(Begin operation: MillFace001)
(Path: MillFace001)
(MillFace001)
G0 Z5.000
G0 X57.500 Y-10.000
G0 Z3.000
G1 X57.500 Y-10.000 Z-0.200 F100.000
G1 X-57.500 Y-10.000 Z-0.200 F200.000
G1 X-57.500 Y-7.500 Z-0.200 F200.000
G1 X57.500 Y-7.500 Z-0.200 F200.000
G1 X57.500 Y-10.000 Z-0.200 F200.000
G1 X57.500 Y-22.500 Z-0.200 F200.000
G1 X-57.500 Y-22.500 Z-0.200 F200.000
G1 X-57.500 Y-35.000 Z-0.200 F200.000
G1 X57.500 Y-35.000 Z-0.200 F200.000
G1 X57.500 Y-47.500 Z-0.200 F200.000
G1 X-57.500 Y-47.500 Z-0.200 F200.000
G1 X-57.500 Y-60.000 Z-0.200 F200.000
G1 X57.500 Y-60.000 Z-0.200 F200.000
G1 X57.500 Y-72.500 Z-0.200 F200.000
G1 X-57.500 Y-72.500 Z-0.200 F200.000
G1 X-57.500 Y-85.000 Z-0.200 F200.000
G1 X57.500 Y-85.000 Z-0.200 F200.000
G1 X57.500 Y-97.500 Z-0.200 F200.000
G1 X-57.500 Y-97.500 Z-0.200 F200.000
G1 X-57.500 Y-110.000 Z-0.200 F200.000
G1 X57.500 Y-110.000 Z-0.200 F200.000
G1 X57.500 Y-122.500 Z-0.200 F200.000
G1 X-57.500 Y-122.500 Z-0.200 F200.000
G0 Z5.000
G0 Z5.000
(Finish operation: MillFace001)
(Begin postamble)
M5
G17 G90
M2
