(Exported by FreeCAD)
(Post Processor: grbl_post)
(Output Time:2023-02-14 22:06:00.939068)
(Begin preamble)
G17 G90
G21
(Begin operation: G54)
(Path: G54)
G54
G0 Z5.000
(Finish operation: G54)
(Begin operation: surfacing-25mm007)
(Path: surfacing-25mm007)
(surfacing-25mm007)
(Begin toolchange)
( M6 T2 )
M3 S10000
(Finish operation: surfacing-25mm007)
(Begin operation: MillFace)
(Path: MillFace)
(MillFace)
G0 Z5.000
G0 X62.500 Y-117.500
G0 Z3.000
G1 X62.500 Y-117.500 Z-0.100 F100.000
G1 X62.500 Y-2.500 Z-0.100 F250.000
G1 X56.250 Y-2.500 Z-0.100 F250.000
G1 X56.250 Y-117.500 Z-0.100 F250.000
G1 X50.000 Y-117.500 Z-0.100 F250.000
G1 X50.000 Y-2.500 Z-0.100 F250.000
G1 X43.750 Y-2.500 Z-0.100 F250.000
G1 X43.750 Y-117.500 Z-0.100 F250.000
G1 X37.500 Y-117.500 Z-0.100 F250.000
G1 X37.500 Y-2.500 Z-0.100 F250.000
G1 X31.250 Y-2.500 Z-0.100 F250.000
G1 X31.250 Y-117.500 Z-0.100 F250.000
G1 X25.000 Y-117.500 Z-0.100 F250.000
G1 X25.000 Y-2.500 Z-0.100 F250.000
G1 X18.750 Y-2.500 Z-0.100 F250.000
G1 X18.750 Y-117.500 Z-0.100 F250.000
G1 X12.500 Y-117.500 Z-0.100 F250.000
G1 X12.500 Y-2.500 Z-0.100 F250.000
G1 X6.250 Y-2.500 Z-0.100 F250.000
G1 X6.250 Y-117.500 Z-0.100 F250.000
G1 X0.000 Y-117.500 Z-0.100 F250.000
G1 X0.000 Y-2.500 Z-0.100 F250.000
G1 X-6.250 Y-2.500 Z-0.100 F250.000
G1 X-6.250 Y-117.500 Z-0.100 F250.000
G1 X-12.500 Y-117.500 Z-0.100 F250.000
G1 X-12.500 Y-2.500 Z-0.100 F250.000
G1 X-18.750 Y-2.500 Z-0.100 F250.000
G1 X-18.750 Y-117.500 Z-0.100 F250.000
G1 X-25.000 Y-117.500 Z-0.100 F250.000
G1 X-25.000 Y-2.500 Z-0.100 F250.000
G1 X-31.250 Y-2.500 Z-0.100 F250.000
G1 X-31.250 Y-117.500 Z-0.100 F250.000
G1 X-37.500 Y-117.500 Z-0.100 F250.000
G1 X-37.500 Y-2.500 Z-0.100 F250.000
G1 X-43.750 Y-2.500 Z-0.100 F250.000
G1 X-43.750 Y-117.500 Z-0.100 F250.000
G1 X-50.000 Y-117.500 Z-0.100 F250.000
G1 X-50.000 Y-2.500 Z-0.100 F250.000
G1 X-56.250 Y-2.500 Z-0.100 F250.000
G1 X-56.250 Y-117.500 Z-0.100 F250.000
G1 X-62.500 Y-117.500 Z-0.100 F250.000
G1 X-62.500 Y-2.500 Z-0.100 F250.000
G0 Z5.000
G0 Z5.000
(Finish operation: MillFace)
(Begin operation: MillFace001)
(Path: MillFace001)
(MillFace001)
G0 Z5.000
G0 X-62.500 Y-5.000
G0 Z3.000
G1 X-62.500 Y-5.000 Z-0.200 F100.000
G1 X62.500 Y-5.000 Z-0.200 F250.000
G1 X62.500 Y-2.500 Z-0.200 F250.000
G1 X-62.500 Y-2.500 Z-0.200 F250.000
G1 X-62.500 Y-5.000 Z-0.200 F250.000
G1 X-62.500 Y-11.250 Z-0.200 F250.000
G1 X62.500 Y-11.250 Z-0.200 F250.000
G1 X62.500 Y-17.500 Z-0.200 F250.000
G1 X-62.500 Y-17.500 Z-0.200 F250.000
G1 X-62.500 Y-23.750 Z-0.200 F250.000
G1 X62.500 Y-23.750 Z-0.200 F250.000
G1 X62.500 Y-30.000 Z-0.200 F250.000
G1 X-62.500 Y-30.000 Z-0.200 F250.000
G1 X-62.500 Y-36.250 Z-0.200 F250.000
G1 X62.500 Y-36.250 Z-0.200 F250.000
G1 X62.500 Y-42.500 Z-0.200 F250.000
G1 X-62.500 Y-42.500 Z-0.200 F250.000
G1 X-62.500 Y-48.750 Z-0.200 F250.000
G1 X62.500 Y-48.750 Z-0.200 F250.000
G1 X62.500 Y-55.000 Z-0.200 F250.000
G1 X-62.500 Y-55.000 Z-0.200 F250.000
G1 X-62.500 Y-61.250 Z-0.200 F250.000
G1 X62.500 Y-61.250 Z-0.200 F250.000
G1 X62.500 Y-67.500 Z-0.200 F250.000
G1 X-62.500 Y-67.500 Z-0.200 F250.000
G1 X-62.500 Y-73.750 Z-0.200 F250.000
G1 X62.500 Y-73.750 Z-0.200 F250.000
G1 X62.500 Y-80.000 Z-0.200 F250.000
G1 X-62.500 Y-80.000 Z-0.200 F250.000
G1 X-62.500 Y-86.250 Z-0.200 F250.000
G1 X62.500 Y-86.250 Z-0.200 F250.000
G1 X62.500 Y-92.500 Z-0.200 F250.000
G1 X-62.500 Y-92.500 Z-0.200 F250.000
G1 X-62.500 Y-98.750 Z-0.200 F250.000
G1 X62.500 Y-98.750 Z-0.200 F250.000
G1 X62.500 Y-105.000 Z-0.200 F250.000
G1 X-62.500 Y-105.000 Z-0.200 F250.000
G1 X-62.500 Y-111.250 Z-0.200 F250.000
G1 X62.500 Y-111.250 Z-0.200 F250.000
G1 X62.500 Y-117.500 Z-0.200 F250.000
G1 X-62.500 Y-117.500 Z-0.200 F250.000
G0 Z5.000
G0 Z5.000
(Finish operation: MillFace001)
(Begin postamble)
M5
G17 G90
M2
