(Exported by FreeCAD)
(Post Processor: grbl_post)
(Output Time:2023-02-25 16:47:38.596075)
(Begin preamble)
G17 G90
G21
(Begin operation: G54)
(Path: G54)
G54
G0 Z5.000
(Finish operation: G54)
(Begin operation: surfacing-25mm007)
(Path: surfacing-25mm007)
(surfacing-25mm007)
(Begin toolchange)
( M6 T2 )
M3 S10000
(Finish operation: surfacing-25mm007)
(Begin operation: MillFace)
(Path: MillFace)
(MillFace)
G0 Z5.000
G0 X67.500 Y-127.500
G0 Z3.000
G1 X67.500 Y-127.500 Z-0.100 F100.000
G1 X67.500 Y-2.500 Z-0.100 F200.000
G1 X60.000 Y-2.500 Z-0.100 F200.000
G1 X60.000 Y-127.500 Z-0.100 F200.000
G1 X52.500 Y-127.500 Z-0.100 F200.000
G1 X52.500 Y-2.500 Z-0.100 F200.000
G1 X45.000 Y-2.500 Z-0.100 F200.000
G1 X45.000 Y-127.500 Z-0.100 F200.000
G1 X37.500 Y-127.500 Z-0.100 F200.000
G1 X37.500 Y-2.500 Z-0.100 F200.000
G1 X30.000 Y-2.500 Z-0.100 F200.000
G1 X30.000 Y-127.500 Z-0.100 F200.000
G1 X22.500 Y-127.500 Z-0.100 F200.000
G1 X22.500 Y-2.500 Z-0.100 F200.000
G1 X15.000 Y-2.500 Z-0.100 F200.000
G1 X15.000 Y-127.500 Z-0.100 F200.000
G1 X7.500 Y-127.500 Z-0.100 F200.000
G1 X7.500 Y-2.500 Z-0.100 F200.000
G1 X0.000 Y-2.500 Z-0.100 F200.000
G1 X-0.000 Y-127.500 Z-0.100 F200.000
G1 X-7.500 Y-127.500 Z-0.100 F200.000
G1 X-7.500 Y-2.500 Z-0.100 F200.000
G1 X-15.000 Y-2.500 Z-0.100 F200.000
G1 X-15.000 Y-127.500 Z-0.100 F200.000
G1 X-22.500 Y-127.500 Z-0.100 F200.000
G1 X-22.500 Y-2.500 Z-0.100 F200.000
G1 X-30.000 Y-2.500 Z-0.100 F200.000
G1 X-30.000 Y-127.500 Z-0.100 F200.000
G1 X-37.500 Y-127.500 Z-0.100 F200.000
G1 X-37.500 Y-2.500 Z-0.100 F200.000
G1 X-45.000 Y-2.500 Z-0.100 F200.000
G1 X-45.000 Y-127.500 Z-0.100 F200.000
G1 X-52.500 Y-127.500 Z-0.100 F200.000
G1 X-52.500 Y-2.500 Z-0.100 F200.000
G1 X-60.000 Y-2.500 Z-0.100 F200.000
G1 X-60.000 Y-127.500 Z-0.100 F200.000
G1 X-67.500 Y-127.500 Z-0.100 F200.000
G1 X-67.500 Y-2.500 Z-0.100 F200.000
G0 Z5.000
G0 Z5.000
(Finish operation: MillFace)
(Begin operation: MillFace001)
(Path: MillFace001)
(MillFace001)
G0 Z5.000
G0 X-67.500 Y-7.500
G0 Z3.000
G1 X-67.500 Y-7.500 Z-0.200 F100.000
G1 X-67.500 Y-2.500 Z-0.200 F200.000
G1 X67.500 Y-2.500 Z-0.200 F200.000
G1 X67.500 Y-7.500 Z-0.200 F200.000
G1 X-67.500 Y-7.500 Z-0.200 F200.000
G1 X-67.500 Y-15.000 Z-0.200 F200.000
G1 X67.500 Y-15.000 Z-0.200 F200.000
G1 X67.500 Y-22.500 Z-0.200 F200.000
G1 X-67.500 Y-22.500 Z-0.200 F200.000
G1 X-67.500 Y-30.000 Z-0.200 F200.000
G1 X67.500 Y-30.000 Z-0.200 F200.000
G1 X67.500 Y-37.500 Z-0.200 F200.000
G1 X-67.500 Y-37.500 Z-0.200 F200.000
G1 X-67.500 Y-45.000 Z-0.200 F200.000
G1 X67.500 Y-45.000 Z-0.200 F200.000
G1 X67.500 Y-52.500 Z-0.200 F200.000
G1 X-67.500 Y-52.500 Z-0.200 F200.000
G1 X-67.500 Y-60.000 Z-0.200 F200.000
G1 X67.500 Y-60.000 Z-0.200 F200.000
G1 X67.500 Y-67.500 Z-0.200 F200.000
G1 X-67.500 Y-67.500 Z-0.200 F200.000
G1 X-67.500 Y-75.000 Z-0.200 F200.000
G1 X67.500 Y-75.000 Z-0.200 F200.000
G1 X67.500 Y-82.500 Z-0.200 F200.000
G1 X-67.500 Y-82.500 Z-0.200 F200.000
G1 X-67.500 Y-90.000 Z-0.200 F200.000
G1 X67.500 Y-90.000 Z-0.200 F200.000
G1 X67.500 Y-97.500 Z-0.200 F200.000
G1 X-67.500 Y-97.500 Z-0.200 F200.000
G1 X-67.500 Y-105.000 Z-0.200 F200.000
G1 X67.500 Y-105.000 Z-0.200 F200.000
G1 X67.500 Y-112.500 Z-0.200 F200.000
G1 X-67.500 Y-112.500 Z-0.200 F200.000
G1 X-67.500 Y-120.000 Z-0.200 F200.000
G1 X67.500 Y-120.000 Z-0.200 F200.000
G1 X67.500 Y-127.500 Z-0.200 F200.000
G1 X-67.500 Y-127.500 Z-0.200 F200.000
G0 Z5.000
G0 Z5.000
(Finish operation: MillFace001)
(Begin postamble)
M5
G17 G90
M2
