(Exported by FreeCAD)
(Post Processor: grbl_post)
(Output Time:2023-01-15 12:40:29.021254)
(Begin preamble)
G17 G90
G21
(Begin operation: G54)
(Path: G54)
G54
G0 Z5.000
(Finish operation: G54)
(Begin operation: ballend-010mm001)
(Path: ballend-010mm001)
(ballend-010mm001)
(Begin toolchange)
( M6 T2 )
M3 S10000
(Finish operation: ballend-010mm001)
(Begin operation: Pocket_Shape001)
(Path: Pocket_Shape001)
(Pocket_Shape001)
G0 Z2.000
G0 X16.354 Y-1.331
G0 Z1.000
G1 X16.354 Y-1.331 Z-0.200 F100.000
G3 X15.961 Y-1.171 Z-0.200 I-0.387 J-0.387 K0.000 F150.000
G3 X15.970 Y-2.266 Z-0.200 I0.007 J-0.548 K0.000 F150.000
G3 X16.354 Y-1.331 Z-0.200 I-0.004 J0.548 K0.000 F150.000
G0 Z2.000
G0 X16.336 Y-1.348 Z2.000
G0 X16.336 Y-1.348 Z1.000
G1 X16.336 Y-1.348 Z-0.200 F100.000
G3 X16.243 Y-1.274 Z-0.200 I-0.370 J-0.368 K0.000 F150.000
G3 X15.693 Y-2.167 Z-0.200 I-0.273 J-0.448 K0.000 F150.000
G3 X15.962 Y-2.238 Z-0.200 I0.262 J0.454 K0.000 F150.000
G3 X16.336 Y-1.348 Z-0.200 I0.004 J0.522 K0.000 F150.000
G0 Z2.000
G0 Z2.000
G0 X16.336 Y-1.348
G0 X16.796 Y-1.365
G0 X16.796 Y-1.365 Z1.000
G1 X16.796 Y-1.365 Z-0.200 F100.000
G3 X16.822 Y-1.933 Z-0.200 I3.465 J-0.126 K0.000 F150.000
G3 X17.487 Y-2.207 Z-0.200 I0.431 J0.103 K0.000 F150.000
G3 X17.701 Y-1.797 Z-0.200 I-0.239 J0.385 K0.000 F150.000
G1 X17.701 Y-1.185 Z-0.200 F150.000
G1 X17.669 Y-1.185 Z-0.200 F150.000
G2 X17.652 Y-1.945 Z-0.200 I-3.130 J-0.311 K0.000 F150.000
G2 X16.840 Y-1.804 Z-0.200 I-0.397 J0.120 K0.000 F150.000
G1 X16.840 Y-1.185 Z-0.200 F150.000
G1 X16.808 Y-1.185 Z-0.200 F150.000
G3 X16.796 Y-1.365 Z-0.200 I3.453 J-0.306 K0.000 F150.000
G0 Z2.000
G0 Z2.000
G0 X16.796 Y-1.365
G0 X17.954 Y-1.210
G0 X17.954 Y-1.210 Z1.000
G1 X17.954 Y-1.210 Z-0.200 F100.000
G1 X18.312 Y-1.210 Z-0.200 F150.000
G2 X18.362 Y-1.260 Z-0.200 I-0.000 J-0.050 K0.000 F150.000
G1 X18.362 Y-2.253 Z-0.200 F150.000
G1 X18.394 Y-2.253 Z-0.200 F150.000
G1 X18.394 Y-1.260 Z-0.200 F150.000
G2 X18.444 Y-1.210 Z-0.200 I0.050 J-0.000 K0.000 F150.000
G1 X18.802 Y-1.210 Z-0.200 F150.000
G1 X18.802 Y-1.185 Z-0.200 F150.000
G1 X17.954 Y-1.185 Z-0.200 F150.000
G1 X17.954 Y-1.210 Z-0.200 F150.000
G0 Z2.000
G0 X18.366 Y-1.210 Z2.000
G0 X18.366 Y-1.210 Z1.000
G1 X18.366 Y-1.210 Z-0.200 F100.000
G1 X18.378 Y-1.239 Z-0.200 F150.000
G1 X18.390 Y-1.210 Z-0.200 F150.000
G1 X18.366 Y-1.210 Z-0.200 F150.000
G0 Z2.000
G0 Z2.000
G0 X18.366 Y-1.210
G0 X26.870 Y-1.671
G0 X26.870 Y-1.671 Z1.000
G1 X26.870 Y-1.671 Z-0.200 F100.000
G1 X26.870 Y-1.765 Z-0.200 F150.000
G1 X27.172 Y-1.765 Z-0.200 F150.000
G2 X27.222 Y-1.815 Z-0.200 I-0.000 J-0.050 K0.000 F150.000
G1 X27.222 Y-2.117 Z-0.200 F150.000
G1 X27.315 Y-2.117 Z-0.200 F150.000
G1 X27.315 Y-1.815 Z-0.200 F150.000
G2 X27.365 Y-1.765 Z-0.200 I0.050 J-0.000 K0.000 F150.000
G1 X27.666 Y-1.765 Z-0.200 F150.000
G1 X27.666 Y-1.671 Z-0.200 F150.000
G1 X27.365 Y-1.671 Z-0.200 F150.000
G2 X27.315 Y-1.621 Z-0.200 I0.000 J0.050 K0.000 F150.000
G1 X27.315 Y-1.321 Z-0.200 F150.000
G1 X27.222 Y-1.321 Z-0.200 F150.000
G1 X27.222 Y-1.621 Z-0.200 F150.000
G2 X27.172 Y-1.671 Z-0.200 I-0.050 J0.000 K0.000 F150.000
G1 X26.870 Y-1.671 Z-0.200 F150.000
G0 Z2.000
G0 X27.179 Y-1.718 Z2.000
G0 X27.179 Y-1.718 Z1.000
G1 X27.179 Y-1.718 Z-0.200 F100.000
G2 X27.269 Y-1.807 Z-0.200 I0.000 J-0.089 K0.000 F150.000
G2 X27.358 Y-1.718 Z-0.200 I0.089 J-0.000 K0.000 F150.000
G2 X27.269 Y-1.629 Z-0.200 I-0.000 J0.089 K0.000 F150.000
G2 X27.179 Y-1.718 Z-0.200 I-0.089 J0.000 K0.000 F150.000
G0 Z2.000
G0 X27.240 Z2.000
G0 X27.240 Z1.000
G1 X27.240 Y-1.718 Z-0.200 F100.000
G2 X27.269 Y-1.746 Z-0.200 I0.000 J-0.029 K0.000 F150.000
G2 X27.297 Y-1.718 Z-0.200 I0.029 J-0.000 K0.000 F150.000
G2 X27.269 Y-1.690 Z-0.200 I-0.000 J0.029 K0.000 F150.000
G2 X27.240 Y-1.718 Z-0.200 I-0.029 J0.000 K0.000 F150.000
G0 Z2.000
G0 Z2.000
G0 X27.240 Y-1.718
G0 X30.105 Y-3.492
G0 X30.105 Y-3.492 Z1.000
G1 X30.105 Y-3.492 Z-0.200 F100.000
G3 X30.092 Y-3.835 Z-0.200 I0.295 J-0.183 K0.000 F150.000
G3 X30.691 Y-3.828 Z-0.200 I0.297 J0.201 K0.000 F150.000
G2 X30.746 Y-3.885 Z-0.200 I0.006 J-0.050 K0.000 F150.000
G2 X30.551 Y-4.360 Z-0.200 I-0.497 J-0.074 K0.000 F150.000
G2 X30.145 Y-4.245 Z-0.200 I-0.157 J0.222 K0.000 F150.000
G1 X30.104 Y-4.245 Z-0.200 F150.000
G3 X30.588 Y-4.378 Z-0.200 I0.293 J0.116 K0.000 F150.000
G3 X30.606 Y-3.395 Z-0.200 I-0.564 J0.502 K0.000 F150.000
G3 X30.105 Y-3.492 Z-0.200 I-0.205 J-0.280 K0.000 F150.000
G0 Z2.000
G0 X30.131 Y-3.508 Z2.000
G0 X30.131 Y-3.508 Z1.000
G1 X30.131 Y-3.508 Z-0.200 F100.000
G3 X30.249 Y-3.933 Z-0.200 I0.261 J-0.157 K0.000 F150.000
G1 X30.385 Y-3.967 Z-0.200 F150.000
G3 X30.487 Y-3.376 Z-0.200 I0.031 J0.299 K0.000 F150.000
G3 X30.131 Y-3.508 Z-0.200 I-0.096 J-0.289 K0.000 F150.000
G0 Z2.000
G0 X30.733 Y-3.714 Z2.000
G0 X30.733 Y-3.714 Z1.000
G1 X30.733 Y-3.714 Z-0.200 F100.000
G1 X30.706 Y-3.808 Z-0.200 F150.000
G2 X30.747 Y-3.828 Z-0.200 I0.013 J-0.025 K0.000 F150.000
G1 X30.733 Y-3.714 Z-0.200 F150.000
G0 Z2.000
G0 Z2.000
G0 X30.733 Y-3.714
G0 X31.076 Y-3.575
G0 X31.076 Y-3.575 Z1.000
G1 X31.076 Y-3.575 Z-0.200 F100.000
G1 X31.417 Y-4.417 Z-0.200 F150.000
G1 X31.501 Y-4.417 Z-0.200 F150.000
G1 X31.934 Y-3.349 Z-0.200 F150.000
G1 X31.897 Y-3.349 Z-0.200 F150.000
G1 X31.506 Y-4.335 Z-0.200 F150.000
G2 X31.413 Y-4.335 Z-0.200 I-0.046 J0.018 K0.000 F150.000
G1 X31.021 Y-3.349 Z-0.200 F150.000
G1 X30.984 Y-3.349 Z-0.200 F150.000
G1 X31.076 Y-3.575 Z-0.200 F150.000
G0 Z2.000
G0 X31.432 Y-4.387 Z2.000
G0 X31.432 Y-4.387 Z1.000
G1 X31.432 Y-4.387 Z-0.200 F100.000
G3 X31.487 Y-4.386 Z-0.200 I0.028 J0.009 K0.000 F150.000
G1 X31.432 Y-4.387 Z-0.200 F150.000
G0 Z2.000
G0 Z2.000
G0 X31.432 Y-4.387
G0 X31.251 Y-2.564
G0 X31.251 Y-2.564 Z1.000
G1 X31.251 Y-2.564 Z-0.200 F100.000
G3 X31.613 Y-2.441 Z-0.200 I-0.083 J0.840 K0.000 F150.000
G1 X31.613 Y-2.338 Z-0.200 F150.000
G2 X30.634 Y-1.167 Z-0.200 I-0.448 J0.620 K0.000 F150.000
G2 X31.613 Y-1.101 Z-0.200 I0.527 J-0.524 K0.000 F150.000
G1 X31.613 Y-0.995 Z-0.200 F150.000
G3 X30.305 Y-1.672 Z-0.200 I-0.440 J-0.752 K0.000 F150.000
G1 X30.277 Y-1.680 Z-0.200 F150.000
G1 X28.162 Y-1.680 Z-0.200 F150.000
G2 X28.084 Y-1.488 Z-0.200 I0.077 J0.143 K0.000 F150.000
G3 X26.436 Y-1.907 Z-0.200 I-0.819 J-0.231 K0.000 F150.000
G3 X27.563 Y-2.515 Z-0.200 I0.829 J0.188 K0.000 F150.000
G3 X28.112 Y-1.794 Z-0.200 I-0.301 J0.799 K0.000 F150.000
G2 X28.161 Y-1.758 Z-0.200 I0.048 J-0.014 K0.000 F150.000
G1 X30.276 Y-1.758 Z-0.200 F150.000
G2 X30.360 Y-1.969 Z-0.200 I-0.087 J-0.157 K0.000 F150.000
G3 X31.251 Y-2.564 Z-0.200 I0.808 J0.244 K0.000 F150.000
G0 Z2.000
G0 X30.355 Y-1.752 Z2.000
G0 X30.355 Y-1.752 Z1.000
G1 X30.355 Y-1.752 Z-0.200 F100.000
G2 X30.355 Y-1.680 Z-0.200 I0.179 J0.036 K0.000 F150.000
G2 X30.308 Y-1.721 Z-0.200 I-0.048 J0.009 K0.000 F150.000
G2 X30.355 Y-1.752 Z-0.200 I0.005 J-0.044 K0.000 F150.000
G0 Z2.000
G0 X28.128 Y-1.716 Z2.000
G0 X28.128 Y-1.716 Z1.000
G1 X28.128 Y-1.716 Z-0.200 F100.000
G2 X28.081 Y-1.683 Z-0.200 I-0.003 J0.045 K0.000 F150.000
G2 X28.080 Y-1.760 Z-0.200 I-0.134 J-0.037 K0.000 F150.000
G2 X28.128 Y-1.716 Z-0.200 I0.053 J-0.010 K0.000 F150.000
G0 Z2.000
G0 X28.036 Y-1.716 Z2.000
G0 X28.036 Y-1.716 Z1.000
G1 X28.036 Y-1.716 Z-0.200 F100.000
G3 X27.813 Y-1.176 Z-0.200 I-0.771 J-0.003 K0.000 F150.000
G3 X26.717 Y-2.261 Z-0.200 I-0.548 J-0.543 K0.000 F150.000
G3 X28.036 Y-1.716 Z-0.200 I0.548 J0.542 K0.000 F150.000
G0 Z2.000
G0 Z2.000
G0 X28.036 Y-1.716
G0 X34.328
G0 X34.328 Z1.000
G1 X34.328 Y-1.716 Z-0.200 F100.000
G1 X34.328 Y-1.769 Z-0.200 F150.000
G1 X35.233 Y-1.769 Z-0.200 F150.000
G1 X35.233 Y-1.669 Z-0.200 F150.000
G1 X34.328 Y-1.669 Z-0.200 F150.000
G1 X34.328 Y-1.716 Z-0.200 F150.000
G0 Z2.000
G0 X34.378 Y-1.719 Z2.000
G0 X34.378 Y-1.719 Z1.000
G1 X34.378 Y-1.719 Z-0.200 F100.000
G1 X34.378 Y-1.719 Z-0.200 F150.000
G1 X35.183 Y-1.719 Z-0.200 F150.000
G1 X35.183 Y-1.719 Z-0.200 F150.000
G1 X34.378 Y-1.719 Z-0.200 F150.000
G0 Z2.000
G0 Z2.000
G0 X34.378 Y-1.719
G0 X33.928 Y-1.765
G0 X33.928 Y-1.765 Z1.000
G1 X33.928 Y-1.765 Z-0.200 F100.000
G2 X33.922 Y-1.677 Z-0.200 I0.107 J0.052 K0.000 F150.000
G2 X33.874 Y-1.721 Z-0.200 I-0.053 J0.010 K0.000 F150.000
G2 X33.928 Y-1.765 Z-0.200 I-0.002 J-0.058 K0.000 F150.000
G0 Z2.000
G0 X33.888 Y-1.794 Z2.000
G0 X33.888 Y-1.794 Z1.000
G1 X33.888 Y-1.794 Z-0.200 F100.000
G3 X35.056 Y-2.507 Z-0.200 I0.848 J0.076 K0.000 F150.000
G3 X34.439 Y-0.923 Z-0.200 I-0.319 J0.788 K0.000 F150.000
G3 X33.889 Y-1.644 Z-0.200 I0.301 J-0.799 K0.000 F150.000
G2 X33.841 Y-1.680 Z-0.200 I-0.048 J0.014 K0.000 F150.000
G1 X31.654 Y-1.680 Z-0.200 F150.000
G2 X31.539 Y-1.477 Z-0.200 I0.093 J0.187 K0.000 F150.000
G3 X30.764 Y-1.879 Z-0.200 I-0.366 J-0.242 K0.000 F150.000
G3 X31.632 Y-1.763 Z-0.200 I0.417 J0.189 K0.000 F150.000
G1 X31.654 Y-1.758 Z-0.200 F150.000
G1 X33.840 Y-1.758 Z-0.200 F150.000
G2 X33.888 Y-1.794 Z-0.200 I-0.000 J-0.050 K0.000 F150.000
G0 Z2.000
G0 X33.969 Y-1.787 Z2.000
G0 X33.969 Y-1.787 Z1.000
G1 X33.969 Y-1.787 Z-0.200 F100.000
G3 X34.732 Y-2.490 Z-0.200 I0.768 J0.067 K0.000 F150.000
G3 X34.746 Y-0.948 Z-0.200 I0.005 J0.771 K0.000 F150.000
G3 X33.969 Y-1.787 Z-0.200 I-0.009 J-0.771 K0.000 F150.000
G0 Z2.000
G0 X31.619 Y-1.716 Z2.000
G0 X31.619 Y-1.716 Z1.000
G1 X31.619 Y-1.716 Z-0.200 F100.000
G2 X31.495 Y-1.503 Z-0.200 I0.134 J0.221 K0.000 F150.000
G3 X30.811 Y-1.860 Z-0.200 I-0.323 J-0.216 K0.000 F150.000
G3 X31.420 Y-2.019 Z-0.200 I0.362 J0.142 K0.000 F150.000
G3 X31.559 Y-1.775 Z-0.200 I-0.274 J0.318 K0.000 F150.000
G2 X31.619 Y-1.716 Z-0.200 I0.072 J-0.012 K0.000 F150.000
G0 Z2.000
G0 X31.541 Y-1.723 Z2.000
G0 X31.541 Y-1.723 Z1.000
G1 X31.541 Y-1.723 Z-0.200 F100.000
G3 X31.176 Y-1.381 Z-0.200 I-0.387 J-0.048 K0.000 F150.000
G3 X30.836 Y-1.717 Z-0.200 I-0.003 J-0.337 K0.000 F150.000
G3 X31.172 Y-2.056 Z-0.200 I0.337 J-0.002 K0.000 F150.000
G3 X31.541 Y-1.723 Z-0.200 I-0.061 J0.440 K0.000 F150.000
G0 Z2.000
G0 X31.465 Y-1.723 Z2.000
G0 X31.465 Y-1.723 Z1.000
G1 X31.465 Y-1.723 Z-0.200 F100.000
G3 X30.906 Y-1.616 Z-0.200 I-0.290 J-0.000 K0.000 F150.000
G3 X31.353 Y-1.942 Z-0.200 I0.268 J-0.102 K0.000 F150.000
G3 X31.465 Y-1.742 Z-0.200 I-0.226 J0.257 K0.000 F150.000
G3 X31.465 Y-1.723 Z-0.200 I-0.289 J0.020 K0.000 F150.000
G0 Z2.000
G0 X31.260 Y-1.719 Z2.000
G0 X31.260 Y-1.719 Z1.000
G1 X31.260 Y-1.719 Z-0.200 F100.000
G3 X31.189 Y-1.636 Z-0.200 I-0.083 J0.001 K0.000 F150.000
G3 X31.147 Y-1.797 Z-0.200 I-0.015 J-0.082 K0.000 F150.000
G1 X31.170 Y-1.801 Z-0.200 F150.000
G3 X31.260 Y-1.719 Z-0.200 I0.007 J0.083 K0.000 F150.000
G0 Z2.000
G0 X31.207 Y-1.720 Z2.000
G0 X31.207 Y-1.720 Z1.000
G1 X31.207 Y-1.720 Z-0.200 F100.000
G3 X31.196 Y-1.696 Z-0.200 I-0.031 J-0.000 K0.000 F150.000
G3 X31.149 Y-1.738 Z-0.200 I-0.023 J-0.021 K0.000 F150.000
G3 X31.170 Y-1.750 Z-0.200 I0.025 J0.019 K0.000 F150.000
G3 X31.207 Y-1.720 Z-0.200 I0.006 J0.030 K0.000 F150.000
G0 Z2.000
G0 X31.176 Y-1.714 Z2.000
G0 X31.176 Y-1.714 Z1.000
G1 X31.176 Y-1.714 Z-0.200 F100.000
G3 X31.167 Y-1.720 Z-0.200 I-0.002 J-0.005 K0.000 F150.000
G1 X31.173 Y-1.724 Z-0.200 F150.000
G3 X31.176 Y-1.714 Z-0.200 I0.000 J0.005 K0.000 F150.000
G0 Z2.000
G0 X31.205 Y-1.588 Z2.000
G0 X31.205 Y-1.588 Z1.000
G1 X31.205 Y-1.588 Z-0.200 F100.000
G3 X31.128 Y-1.844 Z-0.200 I-0.031 J-0.130 K0.000 F150.000
G1 X31.171 Y-1.852 Z-0.200 F150.000
G3 X31.205 Y-1.588 Z-0.200 I0.009 J0.133 K0.000 F150.000
G0 Z2.000
G0 X31.221 Y-1.540 Z2.000
G0 X31.221 Y-1.540 Z1.000
G1 X31.221 Y-1.540 Z-0.200 F100.000
G3 X31.108 Y-1.891 Z-0.200 I-0.047 J-0.179 K0.000 F150.000
G1 X31.171 Y-1.903 Z-0.200 F150.000
G3 X31.221 Y-1.540 Z-0.200 I0.012 J0.183 K0.000 F150.000
G0 Z2.000
G0 X31.237 Y-1.492 Z2.000
G0 X31.237 Y-1.492 Z1.000
G1 X31.237 Y-1.492 Z-0.200 F100.000
G3 X31.089 Y-1.938 Z-0.200 I-0.064 J-0.227 K0.000 F150.000
G1 X31.171 Y-1.954 Z-0.200 F150.000
G3 X31.237 Y-1.492 Z-0.200 I0.012 J0.234 K0.000 F150.000
G0 Z2.000
G0 Z2.000
G0 X31.237 Y-1.492
G0 X44.229
G0 X44.229 Z1.000
G1 X44.229 Y-1.492 Z-0.200 F100.000
G1 X44.229 Y-2.253 Z-0.200 F150.000
G1 X44.261 Y-2.253 Z-0.200 F150.000
G1 X44.261 Y-1.185 Z-0.200 F150.000
G1 X44.229 Y-1.185 Z-0.200 F150.000
G1 X44.229 Y-1.492 Z-0.200 F150.000
G0 Z2.000
G0 Z2.000
G0 X44.229 Y-1.492
G0 X44.647
G0 X44.647 Z1.000
G1 X44.647 Y-1.492 Z-0.200 F100.000
G1 X44.647 Y-2.253 Z-0.200 F150.000
G1 X44.679 Y-2.253 Z-0.200 F150.000
G1 X44.679 Y-1.317 Z-0.200 F150.000
G2 X44.769 Y-1.287 Z-0.200 I0.050 J-0.000 K0.000 F150.000
G1 X45.476 Y-2.253 Z-0.200 F150.000
G1 X45.554 Y-2.253 Z-0.200 F150.000
G1 X45.554 Y-1.185 Z-0.200 F150.000
G1 X45.522 Y-1.185 Z-0.200 F150.000
G1 X45.522 Y-2.117 Z-0.200 F150.000
G2 X45.431 Y-2.147 Z-0.200 I-0.050 J0.000 K0.000 F150.000
G1 X44.724 Y-1.185 Z-0.200 F150.000
G1 X44.647 Y-1.185 Z-0.200 F150.000
G1 X44.647 Y-1.492 Z-0.200 F150.000
G0 Z2.000
G0 X44.672 Y-1.274 Z2.000
G0 X44.672 Y-1.274 Z1.000
G1 X44.672 Y-1.274 Z-0.200 F100.000
G2 X44.739 Y-1.247 Z-0.200 I0.043 J-0.009 K0.000 F150.000
G3 X44.672 Y-1.210 Z-0.200 I-0.047 J-0.006 K0.000 F150.000
G1 X44.672 Y-1.274 Z-0.200 F150.000
G0 Z2.000
G0 X45.457 Y-2.185 Z2.000
G0 X45.457 Y-2.185 Z1.000
G1 X45.457 Y-2.185 Z-0.200 F100.000
G3 X45.529 Y-2.228 Z-0.200 I0.052 J0.005 K0.000 F150.000
G1 X45.529 Y-2.160 Z-0.200 F150.000
G2 X45.457 Y-2.185 Z-0.200 I-0.044 J0.012 K0.000 F150.000
G0 Z2.000
G0 Z2.000
(Finish operation: Pocket_Shape001)
(Begin postamble)
M5
G17 G90
M2
