(Exported by FreeCAD)
(Post Processor: grbl_post)
(Output Time:2023-04-10 19:17:10.167405)
(Begin preamble)
G17 G90
G21
(Begin operation: G54)
(Path: G54)
G54
G0 Z5.000
(Finish operation: G54)
(Begin operation: ballend-012mm001)
(Path: ballend-012mm001)
(ballend-012mm001)
(Begin toolchange)
( M6 T2 )
M3 S10000
(Finish operation: ballend-012mm001)
(Begin operation: ENGRAVE 0.12MM)
(Path: ENGRAVE 0.12MM)
(ENGRAVE 0.12MM)
G0 Z0.500
G0 X16.346 Y-1.342
G0 Z0.300
G1 X16.346 Y-1.342 Z-0.200 F100.000
G3 X16.263 Y-1.277 Z-0.200 I-0.358 J-0.370 K0.000 F150.000
G2 X16.414 Y-2.003 Z-0.200 I-0.322 J-0.446 K0.000 F150.000
G3 X16.346 Y-1.342 Z-0.200 I-0.426 J0.290 K0.000 F150.000
G0 Z0.500
G0 X16.243 Y-1.263 Z0.500
G0 X16.243 Y-1.263 Z0.300
G1 X16.243 Y-1.263 Z-0.200 F100.000
G3 X15.532 Y-2.040 Z-0.200 I-0.286 J-0.452 K0.000 F150.000
G3 X15.804 Y-2.225 Z-0.200 I0.359 J0.237 K0.000 F150.000
G2 X16.123 Y-1.210 Z-0.200 I0.171 J0.504 K0.000 F150.000
G1 X16.243 Y-1.263 Z-0.200 F150.000
G0 Z0.500
G0 X16.387 Y-2.045 Z0.500
G0 X16.387 Y-2.045 Z0.300
G1 X16.387 Y-2.045 Z-0.200 F100.000
G2 X16.290 Y-2.142 Z-0.200 I-0.265 J0.168 K0.000 F150.000
G3 X16.387 Y-2.045 Z-0.200 I-0.067 J0.164 K0.000 F150.000
G0 Z0.500
G0 X16.227 Y-2.185 Z0.500
G0 X16.227 Y-2.185 Z0.300
G1 X16.227 Y-2.185 Z-0.200 F100.000
G2 X15.849 Y-2.233 Z-0.200 I-0.253 J0.479 K0.000 F150.000
G3 X16.183 Y-2.216 Z-0.200 I0.143 J0.471 K0.000 F150.000
G1 X16.227 Y-2.185 Z-0.200 F150.000
G0 Z0.500
G0 Z0.500
G0 X16.227 Y-2.185
G0 X16.845 Y-1.992
G0 X16.845 Y-1.992 Z0.300
G1 X16.845 Y-1.992 Z-0.200 F100.000
G3 X17.141 Y-2.234 Z-0.200 I0.331 J0.103 K0.000 F150.000
G2 X16.830 Y-1.804 Z-0.200 I0.093 J0.394 K0.000 F150.000
G1 X16.830 Y-1.195 Z-0.200 F150.000
G1 X16.818 Y-1.195 Z-0.200 F150.000
G3 X16.832 Y-1.931 Z-0.200 I3.396 J-0.301 K0.000 F150.000
G3 X16.845 Y-1.992 Z-0.200 I0.344 J0.042 K0.000 F150.000
G0 Z0.500
G0 X17.162 Y-2.238 Z0.500
G0 X17.162 Y-2.238 Z0.300
G1 X17.162 Y-2.238 Z-0.200 F100.000
G3 X17.483 Y-2.198 Z-0.200 I0.114 J0.393 K0.000 F150.000
G3 X17.691 Y-1.797 Z-0.200 I-0.235 J0.377 K0.000 F150.000
G1 X17.691 Y-1.195 Z-0.200 F150.000
G1 X17.679 Y-1.195 Z-0.200 F150.000
G2 X17.661 Y-1.948 Z-0.200 I-3.044 J-0.306 K0.000 F150.000
G2 X17.162 Y-2.238 Z-0.200 I-0.400 J0.115 K0.000 F150.000
G0 Z0.500
G0 Z0.500
G0 X17.162 Y-2.238
G0 X18.372 Y-2.243
G0 X18.372 Y-2.243 Z0.300
G1 X18.372 Y-2.243 Z-0.200 F100.000
G1 X18.384 Y-2.243 Z-0.200 F150.000
G1 X18.384 Y-1.260 Z-0.200 F150.000
G2 X18.444 Y-1.200 Z-0.200 I0.060 J-0.000 K0.000 F150.000
G1 X18.792 Y-1.200 Z-0.200 F150.000
G1 X18.792 Y-1.195 Z-0.200 F150.000
G1 X17.964 Y-1.195 Z-0.200 F150.000
G1 X17.964 Y-1.200 Z-0.200 F150.000
G1 X18.312 Y-1.200 Z-0.200 F150.000
G2 X18.372 Y-1.260 Z-0.200 I-0.000 J-0.060 K0.000 F150.000
G1 X18.372 Y-2.243 Z-0.200 F150.000
G0 Z0.500
G0 Z0.500
G0 X18.372 Y-2.243
G0 X30.066 Y-3.635
G0 X30.066 Y-3.635 Z0.300
G1 X30.066 Y-3.635 Z-0.200 F100.000
G3 X30.101 Y-3.830 Z-0.200 I0.334 J-0.040 K0.000 F150.000
G3 X30.533 Y-3.950 Z-0.200 I0.281 J0.176 K0.000 F150.000
G2 X30.221 Y-3.401 Z-0.200 I-0.144 J0.281 K0.000 F150.000
G2 X30.687 Y-3.820 Z-0.200 I0.173 J-0.276 K0.000 F150.000
G2 X30.756 Y-3.886 Z-0.200 I0.012 J-0.057 K0.000 F150.000
G2 X30.557 Y-4.368 Z-0.200 I-0.506 J-0.073 K0.000 F150.000
G2 X30.118 Y-4.255 Z-0.200 I-0.165 J0.270 K0.000 F150.000
G3 X30.582 Y-4.370 Z-0.200 I0.278 J0.127 K0.000 F150.000
G3 X30.600 Y-3.404 Z-0.200 I-0.559 J0.494 K0.000 F150.000
G3 X30.066 Y-3.635 Z-0.200 I-0.200 J-0.271 K0.000 F150.000
G0 Z0.500
G0 X30.727 Y-3.790 Z0.500
G0 X30.727 Y-3.790 Z0.300
G1 X30.727 Y-3.790 Z-0.200 F100.000
G3 X30.723 Y-3.796 Z-0.200 I0.001 J-0.005 K0.000 F150.000
G3 X30.728 Y-3.800 Z-0.200 I0.005 J0.001 K0.000 F150.000
G1 X30.727 Y-3.790 Z-0.200 F150.000
G0 Z0.500
G0 Z0.500
G0 X30.727 Y-3.790
G0 X31.111 Y-3.635
G0 X31.111 Y-3.635 Z0.300
G1 X31.111 Y-3.635 Z-0.200 F100.000
G1 X31.424 Y-4.407 Z-0.200 F150.000
G1 X31.495 Y-4.407 Z-0.200 F150.000
G1 X31.919 Y-3.359 Z-0.200 F150.000
G1 X31.904 Y-3.359 Z-0.200 F150.000
G1 X31.515 Y-4.339 Z-0.200 F150.000
G2 X31.403 Y-4.339 Z-0.200 I-0.056 J0.022 K0.000 F150.000
G1 X31.014 Y-3.359 Z-0.200 F150.000
G1 X30.999 Y-3.359 Z-0.200 F150.000
G1 X31.111 Y-3.635 Z-0.200 F150.000
G0 Z0.500
G0 Z0.500
G0 X31.111 Y-3.635
G0 X44.239 Y-2.243
G0 X44.239 Y-2.243 Z0.300
G1 X44.239 Y-2.243 Z-0.200 F100.000
G1 X44.251 Y-2.243 Z-0.200 F150.000
G1 X44.251 Y-1.195 Z-0.200 F150.000
G1 X44.239 Y-1.195 Z-0.200 F150.000
G1 X44.239 Y-2.243 Z-0.200 F150.000
G0 Z0.500
G0 Z0.500
G0 X44.239 Y-2.243
G0 X44.657
G0 X44.657 Z0.300
G1 X44.657 Y-2.243 Z-0.200 F100.000
G1 X44.669 Y-2.243 Z-0.200 F150.000
G1 X44.669 Y-1.317 Z-0.200 F150.000
G2 X44.777 Y-1.281 Z-0.200 I0.060 J-0.000 K0.000 F150.000
G1 X45.481 Y-2.243 Z-0.200 F150.000
G1 X45.544 Y-2.243 Z-0.200 F150.000
G1 X45.544 Y-1.195 Z-0.200 F150.000
G1 X45.532 Y-1.195 Z-0.200 F150.000
G1 X45.532 Y-2.117 Z-0.200 F150.000
G2 X45.423 Y-2.153 Z-0.200 I-0.060 J-0.000 K0.000 F150.000
G1 X44.719 Y-1.195 Z-0.200 F150.000
G1 X44.657 Y-1.195 Z-0.200 F150.000
G1 X44.657 Y-2.243 Z-0.200 F150.000
G0 Z0.500
G0 X45.487 Y-2.201 Z0.500
G0 X45.487 Y-2.201 Z0.300
G1 X45.487 Y-2.201 Z-0.200 F100.000
G3 X45.514 Y-2.213 Z-0.200 I0.018 J0.004 K0.000 F150.000
G1 X45.514 Y-2.190 Z-0.200 F150.000
G1 X45.487 Y-2.201 Z-0.200 F150.000
G0 Z0.500
G0 X44.711 Y-1.234 Z0.500
G0 X44.711 Y-1.234 Z0.300
G1 X44.711 Y-1.234 Z-0.200 F100.000
G3 X44.687 Y-1.225 Z-0.200 I-0.016 J-0.004 K0.000 F150.000
G1 X44.687 Y-1.244 Z-0.200 F150.000
G1 X44.711 Y-1.234 Z-0.200 F150.000
G0 Z0.500
G0 Z0.500
(Finish operation: ENGRAVE 0.12MM)
(Begin operation: ballend-015mm003)
(Path: ballend-015mm003)
(ballend-015mm003)
(Begin toolchange)
( M6 T3 )
M3 S10000
(Finish operation: ballend-015mm003)
(Begin operation: ENGRAVE 0.15MM)
(Path: ENGRAVE 0.15MM)
(ENGRAVE 0.15MM)
G0 Z0.500
G0 X27.290 Y-1.346
G0 Z0.300
G1 X27.290 Y-1.346 Z-0.200 F100.000
G1 X27.247 Y-1.346 Z-0.200 F150.000
G2 X27.225 Y-1.674 Z-0.200 I-0.407 J-0.138 K0.000 F150.000
G2 X26.895 Y-1.696 Z-0.200 I-0.191 J0.387 K0.000 F150.000
G1 X26.895 Y-1.740 Z-0.200 F150.000
G2 X27.225 Y-1.762 Z-0.200 I0.138 J-0.409 K0.000 F150.000
G2 X27.247 Y-2.092 Z-0.200 I-0.387 J-0.191 K0.000 F150.000
G1 X27.290 Y-2.092 Z-0.200 F150.000
G2 X27.312 Y-1.762 Z-0.200 I0.409 J0.138 K0.000 F150.000
G2 X27.641 Y-1.740 Z-0.200 I0.191 J-0.385 K0.000 F150.000
G1 X27.641 Y-1.696 Z-0.200 F150.000
G2 X27.312 Y-1.674 Z-0.200 I-0.138 J0.407 K0.000 F150.000
G2 X27.290 Y-1.346 Z-0.200 I0.385 J0.191 K0.000 F150.000
G0 Z0.500
G0 X27.272 Y-1.710 Z0.500
G0 X27.272 Y-1.710 Z0.300
G1 X27.272 Y-1.710 Z-0.200 F100.000
G3 X27.266 Y-1.726 Z-0.200 I-0.003 J-0.008 K0.000 F150.000
G3 X27.272 Y-1.710 Z-0.200 I0.003 J0.008 K0.000 F150.000
G0 Z0.500
G0 Z0.500
G0 X27.272 Y-1.710
G0 X27.709 Y-1.059
G0 X27.709 Y-1.059 Z0.300
G1 X27.709 Y-1.059 Z-0.200 F100.000
G3 X26.697 Y-2.276 Z-0.200 I-0.444 J-0.660 K0.000 F150.000
G3 X27.822 Y-2.287 Z-0.200 I0.569 J0.557 K0.000 F150.000
G3 X27.833 Y-1.162 Z-0.200 I-0.557 J0.568 K0.000 F150.000
G3 X27.709 Y-1.059 Z-0.200 I-0.568 J-0.557 K0.000 F150.000
G0 Z0.500
G0 X27.726 Y-1.034 Z0.500
G0 X27.726 Y-1.034 Z0.300
G1 X27.726 Y-1.034 Z-0.200 F100.000
G3 X26.460 Y-1.902 Z-0.200 I-0.461 J-0.685 K0.000 F150.000
G3 X27.553 Y-2.492 Z-0.200 I0.804 J0.183 K0.000 F150.000
G3 X28.088 Y-1.787 Z-0.200 I-0.292 J0.778 K0.000 F150.000
G2 X28.161 Y-1.733 Z-0.200 I0.072 J-0.021 K0.000 F150.000
G1 X30.276 Y-1.733 Z-0.200 F150.000
G2 X30.384 Y-1.961 Z-0.200 I-0.086 J-0.180 K0.000 F150.000
G3 X31.588 Y-2.429 Z-0.200 I0.786 J0.239 K0.000 F150.000
G1 X31.588 Y-2.382 Z-0.200 F150.000
G2 X30.619 Y-1.147 Z-0.200 I-0.424 J0.664 K0.000 F150.000
G2 X31.588 Y-1.056 Z-0.200 I0.539 J-0.536 K0.000 F150.000
G1 X31.588 Y-1.011 Z-0.200 F150.000
G3 X30.351 Y-1.645 Z-0.200 I-0.419 J-0.706 K0.000 F150.000
G2 X30.277 Y-1.705 Z-0.200 I-0.074 J0.015 K0.000 F150.000
G1 X28.162 Y-1.705 Z-0.200 F150.000
G2 X28.060 Y-1.495 Z-0.200 I0.076 J0.167 K0.000 F150.000
G3 X27.726 Y-1.034 Z-0.200 I-0.795 J-0.224 K0.000 F150.000
G0 Z0.500
G0 X28.096 Y-1.715 Z0.500
G0 X28.096 Y-1.715 Z0.300
G1 X28.096 Y-1.715 Z-0.200 F100.000
G1 X28.096 Y-1.722 Z-0.200 F150.000
G1 X28.100 Y-1.717 Z-0.200 F150.000
G1 X28.096 Y-1.715 Z-0.200 F150.000
G0 Z0.500
G0 Z0.500
G0 X28.096 Y-1.715
G0 X34.353
G0 X34.353 Z0.300
G1 X34.353 Y-1.715 Z-0.200 F100.000
G1 X34.353 Y-1.744 Z-0.200 F150.000
G1 X35.208 Y-1.744 Z-0.200 F150.000
G1 X35.208 Y-1.694 Z-0.200 F150.000
G1 X34.353 Y-1.694 Z-0.200 F150.000
G1 X34.353 Y-1.715 Z-0.200 F150.000
G0 Z0.500
G0 Z0.500
G0 X34.353 Y-1.715
G0 X33.913 Y-1.650
G0 X33.913 Y-1.650 Z0.300
G1 X33.913 Y-1.650 Z-0.200 F100.000
G2 X33.841 Y-1.705 Z-0.200 I-0.072 J0.021 K0.000 F150.000
G1 X31.654 Y-1.705 Z-0.200 F150.000
G2 X31.517 Y-1.490 Z-0.200 I0.090 J0.209 K0.000 F150.000
G3 X30.788 Y-1.869 Z-0.200 I-0.344 J-0.229 K0.000 F150.000
G3 X31.583 Y-1.783 Z-0.200 I0.386 J0.152 K0.000 F150.000
G2 X31.654 Y-1.733 Z-0.200 I0.071 J-0.024 K0.000 F150.000
G1 X33.840 Y-1.733 Z-0.200 F150.000
G2 X33.912 Y-1.787 Z-0.200 I0.000 J-0.075 K0.000 F150.000
G3 X35.046 Y-2.484 Z-0.200 I0.824 J0.070 K0.000 F150.000
G3 X34.448 Y-0.946 Z-0.200 I-0.310 J0.765 K0.000 F150.000
G3 X33.913 Y-1.650 Z-0.200 I0.293 J-0.778 K0.000 F150.000
G0 Z0.500
G0 X33.944 Y-1.653 Z0.500
G0 X33.944 Y-1.653 Z0.300
G1 X33.944 Y-1.653 Z-0.200 F100.000
G3 X34.729 Y-2.515 Z-0.200 I0.793 J-0.066 K0.000 F150.000
G3 X34.751 Y-0.924 Z-0.200 I0.008 J0.796 K0.000 F150.000
G3 X33.944 Y-1.653 Z-0.200 I-0.013 J-0.796 K0.000 F150.000
G0 Z0.500
G0 X31.559 Y-1.720 Z0.500
G0 X31.559 Y-1.720 Z0.300
G1 X31.559 Y-1.720 Z-0.200 F100.000
G3 X31.529 Y-1.680 Z-0.200 I-0.043 J-0.001 K0.000 F150.000
G3 X30.820 Y-1.719 Z-0.200 I-0.353 J-0.041 K0.000 F150.000
G3 X31.397 Y-1.992 Z-0.200 I0.353 J0.001 K0.000 F150.000
G3 X31.526 Y-1.764 Z-0.200 I-0.257 J0.297 K0.000 F150.000
G3 X31.559 Y-1.720 Z-0.200 I-0.010 J0.042 K0.000 F150.000
G0 Z0.500
G0 X31.470 Y-1.721 Z0.500
G0 X31.470 Y-1.721 Z0.300
G1 X31.470 Y-1.721 Z-0.200 F100.000
G3 X30.901 Y-1.615 Z-0.200 I-0.295 J-0.002 K0.000 F150.000
G3 X31.356 Y-1.946 Z-0.200 I0.273 J-0.104 K0.000 F150.000
G3 X31.470 Y-1.744 Z-0.200 I-0.228 J0.260 K0.000 F150.000
G3 X31.470 Y-1.721 Z-0.200 I-0.294 J0.021 K0.000 F150.000
G0 Z0.500
G0 X31.287 Y-1.719 Z0.500
G0 X31.287 Y-1.719 Z0.300
G1 X31.287 Y-1.719 Z-0.200 F100.000
G3 X31.197 Y-1.612 Z-0.200 I-0.108 J0.001 K0.000 F150.000
G3 X31.137 Y-1.820 Z-0.200 I-0.023 J-0.106 K0.000 F150.000
G1 X31.170 Y-1.826 Z-0.200 F150.000
G3 X31.287 Y-1.719 Z-0.200 I0.008 J0.108 K0.000 F150.000
G0 Z0.500
G0 X31.222 Y-1.719 Z0.500
G0 X31.222 Y-1.719 Z0.300
G1 X31.222 Y-1.719 Z-0.200 F100.000
G3 X31.208 Y-1.686 Z-0.200 I-0.047 J0.000 K0.000 F150.000
G3 X31.138 Y-1.749 Z-0.200 I-0.034 J-0.032 K0.000 F150.000
G3 X31.170 Y-1.765 Z-0.200 I0.036 J0.029 K0.000 F150.000
G3 X31.222 Y-1.719 Z-0.200 I0.005 J0.046 K0.000 F150.000
G0 Z0.500
G0 X31.178 Y-1.712 Z0.500
G0 X31.178 Y-1.712 Z0.300
G1 X31.178 Y-1.712 Z-0.200 F100.000
G3 X31.166 Y-1.722 Z-0.200 I-0.005 J-0.006 K0.000 F150.000
G1 X31.173 Y-1.727 Z-0.200 F150.000
G3 X31.178 Y-1.712 Z-0.200 I0.001 J0.008 K0.000 F150.000
G0 Z0.500
G0 X31.216 Y-1.554 Z0.500
G0 X31.216 Y-1.554 Z0.300
G1 X31.216 Y-1.554 Z-0.200 F100.000
G3 X31.114 Y-1.877 Z-0.200 I-0.042 J-0.164 K0.000 F150.000
G1 X31.171 Y-1.888 Z-0.200 F150.000
G3 X31.216 Y-1.554 Z-0.200 I0.011 J0.168 K0.000 F150.000
G0 Z0.500
G0 X31.235 Y-1.496 Z0.500
G0 X31.235 Y-1.496 Z0.300
G1 X31.235 Y-1.496 Z-0.200 F100.000
G3 X31.091 Y-1.933 Z-0.200 I-0.062 J-0.222 K0.000 F150.000
G1 X31.171 Y-1.949 Z-0.200 F150.000
G3 X31.235 Y-1.496 Z-0.200 I0.012 J0.229 K0.000 F150.000
G0 Z0.500
G0 Z0.500
(Finish operation: ENGRAVE 0.15MM)
(Begin operation: ballend-020mm001)
(Path: ballend-020mm001)
(ballend-020mm001)
(Begin toolchange)
( M6 T4 )
M3 S10000
(Finish operation: ballend-020mm001)
(Begin operation: ENGRAVE CONTROLS 0.20MM)
(Path: ENGRAVE CONTROLS 0.20MM)
(ENGRAVE CONTROLS 0.20MM)
G0 Z0.500
G0 X7.663 Y-24.950
G0 Z0.300
G1 X7.663 Y-24.950 Z-0.200 F100.000
G1 X7.537 Y-24.950 Z-0.200 F150.000
G1 X6.908 Y-26.633 Z-0.200 F150.000
G2 X6.721 Y-26.634 Z-0.200 I-0.094 J0.035 K0.000 F150.000
G1 X6.088 Y-24.950 Z-0.200 F150.000
G1 X5.962 Y-24.950 Z-0.200 F150.000
G1 X6.699 Y-26.832 Z-0.200 F150.000
G1 X6.929 Y-26.832 Z-0.200 F150.000
G1 X7.663 Y-24.950 Z-0.200 F150.000
G0 Z0.500
G0 X7.590 Y-25.000 Z0.500
G0 X7.590 Y-25.000 Z0.300
G1 X7.590 Y-25.000 Z-0.200 F100.000
G1 X7.572 Y-25.000 Z-0.200 F150.000
G1 X7.162 Y-26.098 Z-0.200 F150.000
G1 X7.590 Y-25.000 Z-0.200 F150.000
G0 Z0.500
G0 X6.244 Y-25.507 Z0.500
G0 X6.244 Y-25.507 Z0.300
G1 X6.244 Y-25.507 Z-0.200 F100.000
G1 X6.053 Y-25.000 Z-0.200 F150.000
G1 X6.035 Y-25.000 Z-0.200 F150.000
G1 X6.480 Y-26.136 Z-0.200 F150.000
G1 X6.244 Y-25.507 Z-0.200 F150.000
G0 Z0.500
G0 X6.686 Y-26.661 Z0.500
G0 X6.686 Y-26.661 Z0.300
G1 X6.686 Y-26.661 Z-0.200 F100.000
G1 X6.733 Y-26.782 Z-0.200 F150.000
G1 X6.895 Y-26.782 Z-0.200 F150.000
G1 X6.938 Y-26.670 Z-0.200 F150.000
G2 X6.686 Y-26.661 Z-0.200 I-0.124 J0.059 K0.000 F150.000
G0 Z0.500
G0 Z0.500
G0 X6.686 Y-26.661
G0 X8.113 Y-26.217
G0 X8.113 Y-26.217 Z0.300
G1 X8.113 Y-26.217 Z-0.200 F100.000
G3 X9.928 Y-26.031 Z-0.200 I0.889 J0.277 K0.000 F150.000
G3 X9.868 Y-25.497 Z-0.200 I-1.107 J0.145 K0.000 F150.000
G3 X8.072 Y-25.889 Z-0.200 I-0.866 J-0.341 K0.000 F150.000
G3 X8.113 Y-26.217 Z-0.200 I0.930 J-0.051 K0.000 F150.000
G0 Z0.500
G0 X8.168 Y-26.199 Z0.500
G0 X8.168 Y-26.199 Z0.300
G1 X8.168 Y-26.199 Z-0.200 F100.000
G3 X8.338 Y-26.520 Z-0.200 I0.967 J0.308 K0.000 F150.000
G2 X8.370 Y-25.223 Z-0.200 I0.865 J0.627 K0.000 F150.000
G3 X8.168 Y-26.199 Z-0.200 I0.765 J-0.668 K0.000 F150.000
G0 Z0.500
G0 X8.210 Y-26.187 Z0.500
G0 X8.210 Y-26.187 Z0.300
G1 X8.210 Y-26.187 Z-0.200 F100.000
G3 X9.724 Y-26.342 Z-0.200 I0.787 J0.221 K0.000 F150.000
G3 X9.812 Y-25.728 Z-0.200 I-0.955 J0.451 K0.000 F150.000
G3 X8.184 Y-25.881 Z-0.200 I-0.813 J-0.088 K0.000 F150.000
G3 X8.210 Y-26.187 Z-0.200 I0.813 J-0.085 K0.000 F150.000
G0 Z0.500
G0 X8.341 Y-26.525 Z0.500
G0 X8.341 Y-26.525 Z0.300
G1 X8.341 Y-26.525 Z-0.200 F100.000
G3 X8.414 Y-26.593 Z-0.200 I0.157 J0.095 K0.000 F150.000
G1 X8.341 Y-26.525 Z-0.200 F150.000
G0 Z0.500
G0 X9.626 Y-26.567 Z0.500
G0 X9.626 Y-26.567 Z0.300
G1 X9.626 Y-26.567 Z-0.200 F100.000
G3 X9.821 Y-25.515 Z-0.200 I-0.767 J0.686 K0.000 F150.000
G3 X9.628 Y-25.216 Z-0.200 I-0.522 J-0.124 K0.000 F150.000
G2 X9.626 Y-26.567 Z-0.200 I-0.807 J-0.675 K0.000 F150.000
G0 Z0.500
G0 Z0.500
G0 X9.626 Y-26.567
G0 X10.548
G0 X10.548 Z0.300
G1 X10.548 Y-26.567 Z-0.200 F100.000
G1 X10.548 Y-26.832 Z-0.200 F150.000
G1 X10.661 Y-26.832 Z-0.200 F150.000
G1 X10.661 Y-24.118 Z-0.200 F150.000
G1 X10.548 Y-24.118 Z-0.200 F150.000
G1 X10.548 Y-26.567 Z-0.200 F150.000
G0 Z0.500
G0 X10.598 Z0.500
G0 X10.598 Z0.300
G1 X10.598 Y-26.567 Z-0.200 F100.000
G1 X10.598 Y-26.782 Z-0.200 F150.000
G1 X10.611 Y-26.782 Z-0.200 F150.000
G1 X10.611 Y-24.168 Z-0.200 F150.000
G1 X10.598 Y-24.168 Z-0.200 F150.000
G1 X10.598 Y-26.567 Z-0.200 F150.000
G0 Z0.500
G0 Z0.500
G0 X10.598 Y-26.567
G0 X11.406 Y-26.335
G0 X11.406 Y-26.335 Z0.300
G1 X11.406 Y-26.335 Z-0.200 F100.000
G3 X12.479 Y-26.774 Z-0.200 I0.710 J0.204 K0.000 F150.000
G3 X12.732 Y-26.537 Z-0.200 I-0.526 J0.815 K0.000 F150.000
G2 X12.904 Y-26.607 Z-0.200 I0.072 J-0.069 K0.000 F150.000
G1 X12.904 Y-26.832 Z-0.200 F150.000
G1 X13.017 Y-26.832 Z-0.200 F150.000
G1 X13.017 Y-24.950 Z-0.200 F150.000
G1 X12.904 Y-24.950 Z-0.200 F150.000
G1 X12.903 Y-26.065 Z-0.200 F150.000
G2 X11.517 Y-26.262 Z-0.200 I-0.706 J-0.008 K0.000 F150.000
G1 X11.493 Y-26.053 Z-0.200 F150.000
G1 X11.493 Y-24.950 Z-0.200 F150.000
G1 X11.381 Y-24.950 Z-0.200 F150.000
G1 X11.381 Y-26.055 Z-0.200 F150.000
G3 X11.406 Y-26.335 Z-0.200 I0.735 J-0.075 K0.000 F150.000
G0 Z0.500
G0 X12.893 Y-26.403 Z0.500
G0 X12.893 Y-26.403 Z0.300
G1 X12.893 Y-26.403 Z-0.200 F100.000
G3 X12.937 Y-26.497 Z-0.200 I0.111 J-0.005 K0.000 F150.000
G1 X12.937 Y-26.320 Z-0.200 F150.000
G3 X12.893 Y-26.403 Z-0.200 I0.067 J-0.088 K0.000 F150.000
G0 Z0.500
G0 Z0.500
G0 X12.893 Y-26.403
G0 X13.758
G0 X13.758 Z0.300
G1 X13.758 Y-26.403 Z-0.200 F100.000
G1 X13.758 Y-26.832 Z-0.200 F150.000
G1 X13.870 Y-26.832 Z-0.200 F150.000
G1 X13.871 Y-25.672 Z-0.200 F150.000
G2 X14.002 Y-25.255 Z-0.200 I0.672 J0.018 K0.000 F150.000
G2 X13.870 Y-25.166 Z-0.200 I-0.039 J0.085 K0.000 F150.000
G1 X13.870 Y-24.950 Z-0.200 F150.000
G1 X13.758 Y-24.950 Z-0.200 F150.000
G1 X13.758 Y-26.403 Z-0.200 F150.000
G0 Z0.500
G0 X13.838 Y-25.397 Z0.500
G0 X13.838 Y-25.397 Z0.300
G1 X13.838 Y-25.397 Z-0.200 F100.000
G3 X13.838 Y-25.281 Z-0.200 I-0.011 J0.058 K0.000 F150.000
G1 X13.838 Y-25.397 Z-0.200 F150.000
G0 Z0.500
G0 X14.102 Y-25.158 Z0.500
G0 X14.102 Y-25.158 Z0.300
G1 X14.102 Y-25.158 Z-0.200 F100.000
G2 X15.148 Y-25.683 Z-0.200 I0.419 J-0.469 K0.000 F150.000
G1 X15.148 Y-26.832 Z-0.200 F150.000
G1 X15.261 Y-26.832 Z-0.200 F150.000
G1 X15.262 Y-25.672 Z-0.200 F150.000
G2 X16.516 Y-25.485 Z-0.200 I0.636 J0.035 K0.000 F150.000
G1 X16.539 Y-25.683 Z-0.200 F150.000
G1 X16.539 Y-26.832 Z-0.200 F150.000
G1 X16.651 Y-26.832 Z-0.200 F150.000
G1 X16.651 Y-25.681 Z-0.200 F150.000
G3 X15.344 Y-25.298 Z-0.200 I-0.688 J0.074 K0.000 F150.000
G2 X15.183 Y-25.295 Z-0.200 I-0.080 J0.060 K0.000 F150.000
G3 X14.102 Y-25.158 Z-0.200 I-0.582 J-0.259 K0.000 F150.000
G0 Z0.500
G0 X15.163 Y-25.376 Z0.500
G0 X15.163 Y-25.376 Z0.300
G1 X15.163 Y-25.376 Z-0.200 F100.000
G2 X15.208 Y-25.499 Z-0.200 I-0.193 J-0.139 K0.000 F150.000
G2 X15.225 Y-25.408 Z-0.200 I0.281 J-0.006 K0.000 F150.000
G2 X15.163 Y-25.376 Z-0.200 I-0.009 J0.059 K0.000 F150.000
G0 Z0.500
G0 Z0.500
G0 X15.163 Y-25.376
G0 X17.247 Y-25.747
G0 X17.247 Y-25.747 Z0.300
G1 X17.247 Y-25.747 Z-0.200 F100.000
G3 X18.740 Y-26.708 Z-0.200 I0.947 J-0.169 K0.000 F150.000
G3 X18.985 Y-26.432 Z-0.200 I-0.517 J0.706 K0.000 F150.000
G3 X18.805 Y-26.506 Z-0.200 I-0.065 J-0.098 K0.000 F150.000
G2 X17.375 Y-25.968 Z-0.200 I-0.616 J0.531 K0.000 F150.000
G1 X17.463 Y-25.916 Z-0.200 F150.000
G1 X19.107 Y-25.916 Z-0.200 F150.000
G3 X17.259 Y-25.689 Z-0.200 I-0.930 J0.066 K0.000 F150.000
G3 X17.247 Y-25.747 Z-0.200 I0.935 J-0.227 K0.000 F150.000
G0 Z0.500
G0 X17.328 Y-25.825 Z0.500
G0 X17.328 Y-25.825 Z0.300
G1 X17.328 Y-25.825 Z-0.200 F100.000
G3 X17.326 Y-25.913 Z-0.200 I0.211 J-0.049 K0.000 F150.000
G3 X17.328 Y-25.825 Z-0.200 I-0.012 J0.045 K0.000 F150.000
G0 Z0.500
G0 X17.386 Y-25.783 Z0.500
G0 X17.386 Y-25.783 Z0.300
G1 X17.386 Y-25.783 Z-0.200 F100.000
G3 X17.467 Y-25.825 Z-0.200 I0.081 J0.058 K0.000 F150.000
G1 X18.882 Y-25.825 Z-0.200 F150.000
G1 X18.968 Y-25.776 Z-0.200 F150.000
G3 X17.372 Y-25.694 Z-0.200 I-0.801 J-0.014 K0.000 F150.000
G3 X17.386 Y-25.783 Z-0.200 I0.095 J-0.031 K0.000 F150.000
G0 Z0.500
G0 X19.012 Y-25.836 Z0.500
G0 X19.012 Y-25.836 Z0.300
G1 X19.012 Y-25.836 Z-0.200 F100.000
G1 X19.019 Y-25.836 Z-0.200 F150.000
G1 X19.018 Y-25.829 Z-0.200 F150.000
G1 X19.012 Y-25.836 Z-0.200 F150.000
G0 Z0.500
G0 Z0.500
G0 X19.012 Y-25.836
G0 X45.178 Y-25.910
G0 X45.178 Y-25.910 Z0.300
G1 X45.178 Y-25.910 Z-0.200 F100.000
G3 X45.882 Y-26.843 Z-0.200 I0.966 J-0.003 K0.000 F150.000
G3 X46.487 Y-26.777 Z-0.200 I0.215 J0.840 K0.000 F150.000
G3 X46.763 Y-26.534 Z-0.200 I-0.359 J0.688 K0.000 F150.000
G2 X46.940 Y-26.598 Z-0.200 I0.077 J-0.064 K0.000 F150.000
G1 X46.940 Y-26.832 Z-0.200 F150.000
G1 X47.052 Y-26.832 Z-0.200 F150.000
G1 X47.052 Y-24.118 Z-0.200 F150.000
G1 X46.940 Y-24.118 Z-0.200 F150.000
G1 X46.940 Y-25.188 Z-0.200 F150.000
G2 X46.764 Y-25.252 Z-0.200 I-0.100 J0.000 K0.000 F150.000
G3 X45.204 Y-25.689 Z-0.200 I-0.689 J-0.541 K0.000 F150.000
G3 X45.178 Y-25.910 Z-0.200 I0.940 J-0.224 K0.000 F150.000
G0 Z0.500
G0 X45.292 Y-25.908 Z0.500
G0 X45.292 Y-25.908 Z0.300
G1 X45.292 Y-25.908 Z-0.200 F100.000
G3 X45.677 Y-26.651 Z-0.200 I0.936 J0.015 K0.000 F150.000
G3 X46.956 Y-25.901 Z-0.200 I0.457 J0.686 K0.000 F150.000
G3 X45.753 Y-25.087 Z-0.200 I-0.824 J0.078 K0.000 F150.000
G3 X45.292 Y-25.908 Z-0.200 I0.476 J-0.807 K0.000 F150.000
G0 Z0.500
G0 X46.892 Y-26.430 Z0.500
G0 X46.892 Y-26.430 Z0.300
G1 X46.892 Y-26.430 Z-0.200 F100.000
G2 X46.972 Y-26.486 Z-0.200 I0.002 J-0.083 K0.000 F150.000
G1 X46.972 Y-26.249 Z-0.200 F150.000
G2 X46.892 Y-26.430 Z-0.200 I-0.365 J0.053 K0.000 F150.000
G0 Z0.500
G0 X46.972 Y-25.537 Z0.500
G0 X46.972 Y-25.537 Z0.300
G1 X46.972 Y-25.537 Z-0.200 F100.000
G1 X46.972 Y-25.303 Z-0.200 F150.000
G3 X46.946 Y-25.444 Z-0.200 I-0.003 J-0.072 K0.000 F150.000
G1 X46.972 Y-25.537 Z-0.200 F150.000
G0 Z0.500
G0 Z0.500
G0 X46.972 Y-25.537
G0 X47.793
G0 X47.793 Z0.300
G1 X47.793 Y-25.537 Z-0.200 F100.000
G1 X47.793 Y-26.832 Z-0.200 F150.000
G1 X47.905 Y-26.832 Z-0.200 F150.000
G2 X47.947 Y-25.700 Z-0.200 I4.251 J0.410 K0.000 F150.000
G2 X48.086 Y-25.413 Z-0.200 I0.709 J-0.167 K0.000 F150.000
G2 X47.905 Y-25.362 Z-0.200 I-0.084 J0.049 K0.000 F150.000
G1 X47.905 Y-24.950 Z-0.200 F150.000
G1 X47.793 Y-24.950 Z-0.200 F150.000
G1 X47.793 Y-25.537 Z-0.200 F150.000
G0 Z0.500
G0 X47.873 Z0.500
G0 X47.873 Z0.300
G1 X47.873 Y-25.537 Z-0.200 F100.000
G1 X47.873 Y-25.668 Z-0.200 F150.000
G2 X47.930 Y-25.516 Z-0.200 I0.791 J-0.207 K0.000 F150.000
G2 X47.873 Y-25.469 Z-0.200 I-0.002 J0.055 K0.000 F150.000
G1 X47.873 Y-25.537 Z-0.200 F150.000
G0 Z0.500
G0 X48.106 Y-25.383 Z0.500
G0 X48.106 Y-25.383 Z0.300
G1 X48.106 Y-25.383 Z-0.200 F100.000
G2 X48.692 Y-25.036 Z-0.200 I0.617 J-0.373 K0.000 F150.000
G1 X48.692 Y-24.924 Z-0.200 F150.000
G3 X48.106 Y-25.383 Z-0.200 I0.060 J-0.681 K0.000 F150.000
G0 Z0.500
G0 Z0.500
G0 X48.106 Y-25.383
G0 X49.229
G0 X49.229 Z0.300
G1 X49.229 Y-25.383 Z-0.200 F100.000
G1 X49.229 Y-26.832 Z-0.200 F150.000
G1 X49.341 Y-26.832 Z-0.200 F150.000
G1 X49.341 Y-24.950 Z-0.200 F150.000
G1 X49.229 Y-24.950 Z-0.200 F150.000
G1 X49.229 Y-25.383 Z-0.200 F150.000
G0 Z0.500
G0 X49.279 Z0.500
G0 X49.279 Z0.300
G1 X49.279 Y-25.383 Z-0.200 F100.000
G1 X49.279 Y-26.782 Z-0.200 F150.000
G1 X49.291 Y-26.782 Z-0.200 F150.000
G1 X49.291 Y-25.000 Z-0.200 F150.000
G1 X49.279 Y-25.000 Z-0.200 F150.000
G1 X49.279 Y-25.383 Z-0.200 F150.000
G0 Z0.500
G0 Z0.500
G0 X49.279 Y-25.383
G0 Y-24.400
G0 Y-24.400 Z0.300
G1 X49.279 Y-24.400 Z-0.200 F100.000
G1 X49.354 Y-24.400 Z-0.200 F150.000
G1 X49.354 Y-24.193 Z-0.200 F150.000
G1 X49.217 Y-24.193 Z-0.200 F150.000
G1 X49.217 Y-24.400 Z-0.200 F150.000
G1 X49.279 Y-24.400 Z-0.200 F150.000
G0 Z0.500
G0 Y-24.350 Z0.500
G0 Y-24.350 Z0.300
G1 X49.279 Y-24.350 Z-0.200 F100.000
G1 X49.304 Y-24.350 Z-0.200 F150.000
G1 X49.304 Y-24.243 Z-0.200 F150.000
G1 X49.267 Y-24.243 Z-0.200 F150.000
G1 X49.267 Y-24.350 Z-0.200 F150.000
G1 X49.279 Y-24.350 Z-0.200 F150.000
G0 Z0.500
G0 Z0.500
G0 X49.279 Y-24.350
G0 X49.879 Y-24.950
G0 X49.879 Y-24.950 Z0.300
G1 X49.879 Y-24.950 Z-0.200 F100.000
G1 X50.617 Y-26.832 Z-0.200 F150.000
G1 X50.847 Y-26.832 Z-0.200 F150.000
G1 X51.581 Y-24.950 Z-0.200 F150.000
G1 X51.455 Y-24.950 Z-0.200 F150.000
G1 X50.826 Y-26.633 Z-0.200 F150.000
G2 X50.639 Y-26.634 Z-0.200 I-0.094 J0.035 K0.000 F150.000
G1 X50.005 Y-24.950 Z-0.200 F150.000
G1 X49.879 Y-24.950 Z-0.200 F150.000
G0 Z0.500
G0 X49.953 Y-25.000 Z0.500
G0 X49.953 Y-25.000 Z0.300
G1 X49.953 Y-25.000 Z-0.200 F100.000
G1 X50.398 Y-26.136 Z-0.200 F150.000
G1 X49.971 Y-25.000 Z-0.200 F150.000
G1 X49.953 Y-25.000 Z-0.200 F150.000
G0 Z0.500
G0 X51.301 Y-25.504 Z0.500
G0 X51.301 Y-25.504 Z0.300
G1 X51.301 Y-25.504 Z-0.200 F100.000
G1 X51.079 Y-26.098 Z-0.200 F150.000
G1 X51.508 Y-25.000 Z-0.200 F150.000
G1 X51.490 Y-25.000 Z-0.200 F150.000
G1 X51.301 Y-25.504 Z-0.200 F150.000
G0 Z0.500
G0 X50.856 Y-26.670 Z0.500
G0 X50.856 Y-26.670 Z0.300
G1 X50.856 Y-26.670 Z-0.200 F100.000
G2 X50.604 Y-26.661 Z-0.200 I-0.124 J0.059 K0.000 F150.000
G1 X50.651 Y-26.782 Z-0.200 F150.000
G1 X50.813 Y-26.782 Z-0.200 F150.000
G1 X50.856 Y-26.670 Z-0.200 F150.000
G0 Z0.500
G0 Z0.500
G0 X50.856 Y-26.670
G0 X51.997 Y-26.249
G0 X51.997 Y-26.249 Z0.300
G1 X51.997 Y-26.249 Z-0.200 F100.000
G3 X53.447 Y-26.707 Z-0.200 I0.902 J0.333 K0.000 F150.000
G3 X53.677 Y-26.432 Z-0.200 I-0.358 J0.535 K0.000 F150.000
G1 X53.563 Y-26.432 Z-0.200 F150.000
G2 X52.081 Y-25.968 Z-0.200 I-0.670 J0.460 K0.000 F150.000
G1 X52.168 Y-25.916 Z-0.200 F150.000
G1 X53.812 Y-25.916 Z-0.200 F150.000
G3 X51.965 Y-25.689 Z-0.200 I-0.930 J0.066 K0.000 F150.000
G3 X51.997 Y-26.249 Z-0.200 I0.935 J-0.227 K0.000 F150.000
G0 Z0.500
G0 X52.032 Y-25.913 Z0.500
G0 X52.032 Y-25.913 Z0.300
G1 X52.032 Y-25.913 Z-0.200 F100.000
G3 X52.034 Y-25.825 Z-0.200 I-0.012 J0.045 K0.000 F150.000
G3 X52.032 Y-25.913 Z-0.200 I0.211 J-0.049 K0.000 F150.000
G0 Z0.500
G0 X52.113 Y-25.805 Z0.500
G0 X52.113 Y-25.805 Z0.300
G1 X52.113 Y-25.805 Z-0.200 F100.000
G3 X52.173 Y-25.825 Z-0.200 I0.060 J0.080 K0.000 F150.000
G1 X53.588 Y-25.825 Z-0.200 F150.000
G1 X53.674 Y-25.776 Z-0.200 F150.000
G3 X52.077 Y-25.694 Z-0.200 I-0.801 J-0.014 K0.000 F150.000
G3 X52.113 Y-25.805 Z-0.200 I0.095 J-0.031 K0.000 F150.000
G0 Z0.500
G0 X53.718 Y-25.836 Z0.500
G0 X53.718 Y-25.836 Z0.300
G1 X53.718 Y-25.836 Z-0.200 F100.000
G1 X53.724 Y-25.836 Z-0.200 F150.000
G1 X53.724 Y-25.829 Z-0.200 F150.000
G1 X53.718 Y-25.836 Z-0.200 F150.000
G0 Z0.500
G0 Z0.500
G0 X53.718 Y-25.836
G0 X45.434 Y-54.156
G0 X45.434 Y-54.156 Z0.300
G1 X45.434 Y-54.156 Z-0.200 F100.000
G1 X45.322 Y-54.156 Z-0.200 F150.000
G1 X45.322 Y-56.870 Z-0.200 F150.000
G1 X45.434 Y-56.870 Z-0.200 F150.000
G2 X45.463 Y-56.566 Z-0.200 I0.382 J0.117 K0.000 F150.000
G2 X45.713 Y-56.693 Z-0.200 I0.067 J-0.179 K0.000 F150.000
G3 X46.653 Y-56.830 Z-0.200 I0.583 J0.704 K0.000 F150.000
G3 X46.488 Y-54.977 Z-0.200 I-0.463 J0.893 K0.000 F150.000
G3 X45.609 Y-55.292 Z-0.200 I-0.224 J-0.761 K0.000 F150.000
G2 X45.434 Y-55.226 Z-0.200 I-0.075 J0.066 K0.000 F150.000
G1 X45.434 Y-54.156 Z-0.200 F150.000
G0 Z0.500
G0 X45.917 Y-55.113 Z0.500
G0 X45.917 Y-55.113 Z0.300
G1 X45.917 Y-55.113 Z-0.200 F100.000
G3 X45.867 Y-56.739 Z-0.200 I0.418 J-0.827 K0.000 F150.000
G3 X47.047 Y-56.166 Z-0.200 I0.371 J0.737 K0.000 F150.000
G3 X46.066 Y-55.054 Z-0.200 I-0.832 J0.255 K0.000 F150.000
G3 X45.917 Y-55.113 Z-0.200 I0.269 J-0.886 K0.000 F150.000
G0 Z0.500
G0 X45.480 Y-55.393 Z0.500
G0 X45.480 Y-55.393 Z0.300
G1 X45.480 Y-55.393 Z-0.200 F100.000
G2 X45.402 Y-55.338 Z-0.200 I-0.001 J0.081 K0.000 F150.000
G1 X45.402 Y-55.570 Z-0.200 F150.000
G2 X45.480 Y-55.393 Z-0.200 I0.360 J-0.053 K0.000 F150.000
G0 Z0.500
G0 X45.402 Y-56.297 Z0.500
G0 X45.402 Y-56.297 Z0.300
G1 X45.402 Y-56.297 Z-0.200 F100.000
G1 X45.402 Y-56.521 Z-0.200 F150.000
G3 X45.431 Y-56.385 Z-0.200 I0.012 J0.069 K0.000 F150.000
G1 X45.402 Y-56.297 Z-0.200 F150.000
G0 Z0.500
G0 Z0.500
G0 X45.402 Y-56.297
G0 X47.670 Y-56.090
G0 X47.670 Y-56.090 Z0.300
G1 X47.670 Y-56.090 Z-0.200 F100.000
G3 X48.968 Y-56.816 Z-0.200 I0.898 J0.082 K0.000 F150.000
G3 X49.245 Y-56.573 Z-0.200 I-0.359 J0.688 K0.000 F150.000
G2 X49.422 Y-56.637 Z-0.200 I0.077 J-0.064 K0.000 F150.000
G1 X49.422 Y-56.870 Z-0.200 F150.000
G1 X49.534 Y-56.870 Z-0.200 F150.000
G1 X49.534 Y-54.989 Z-0.200 F150.000
G1 X49.422 Y-54.989 Z-0.200 F150.000
G2 X49.392 Y-55.297 Z-0.200 I-0.387 J-0.119 K0.000 F150.000
G2 X49.138 Y-55.164 Z-0.200 I-0.066 J0.184 K0.000 F150.000
G3 X47.670 Y-55.928 Z-0.200 I-0.576 J-0.686 K0.000 F150.000
G3 X47.670 Y-56.090 Z-0.200 I0.898 J-0.080 K0.000 F150.000
G0 Z0.500
G0 X47.781 Y-56.073 Z0.500
G0 X47.781 Y-56.073 Z0.300
G1 X47.781 Y-56.073 Z-0.200 F100.000
G3 X48.246 Y-56.740 Z-0.200 I0.904 J0.135 K0.000 F150.000
G3 X49.438 Y-55.939 Z-0.200 I0.370 J0.737 K0.000 F150.000
G3 X48.465 Y-55.051 Z-0.200 I-0.820 J0.079 K0.000 F150.000
G3 X47.781 Y-56.073 Z-0.200 I0.220 J-0.887 K0.000 F150.000
G0 Z0.500
G0 X49.373 Y-56.469 Z0.500
G0 X49.373 Y-56.469 Z0.300
G1 X49.373 Y-56.469 Z-0.200 F100.000
G2 X49.454 Y-56.524 Z-0.200 I0.002 J-0.083 K0.000 F150.000
G1 X49.454 Y-56.287 Z-0.200 F150.000
G2 X49.373 Y-56.469 Z-0.200 I-0.365 J0.053 K0.000 F150.000
G0 Z0.500
G0 X49.454 Y-55.575 Z0.500
G0 X49.454 Y-55.575 Z0.300
G1 X49.454 Y-55.575 Z-0.200 F100.000
G1 X49.454 Y-55.342 Z-0.200 F150.000
G3 X49.427 Y-55.483 Z-0.200 I-0.003 J-0.072 K0.000 F150.000
G1 X49.454 Y-55.575 Z-0.200 F150.000
G0 Z0.500
G0 Z0.500
G0 X49.454 Y-55.575
G0 X50.174 Y-55.485
G0 X50.174 Y-55.485 Z0.300
G1 X50.174 Y-55.485 Z-0.200 F100.000
G3 X50.478 Y-55.832 Z-0.200 I0.408 J0.051 K0.000 F150.000
G3 X51.150 Y-56.008 Z-0.200 I2.291 J7.380 K0.000 F150.000
G2 X51.543 Y-56.275 Z-0.200 I-0.048 J-0.493 K0.000 F150.000
G2 X51.291 Y-56.775 Z-0.200 I-0.356 J-0.134 K0.000 F150.000
G2 X50.350 Y-56.587 Z-0.200 I-0.340 J0.746 K0.000 F150.000
G2 X50.283 Y-56.416 Z-0.200 I0.393 J0.254 K0.000 F150.000
G1 X50.151 Y-56.416 Z-0.200 F150.000
G3 X50.931 Y-56.903 Z-0.200 I0.671 J0.208 K0.000 F150.000
G3 X51.490 Y-56.762 Z-0.200 I0.057 J0.955 K0.000 F150.000
G3 X51.388 Y-55.986 Z-0.200 I-0.226 J0.365 K0.000 F150.000
G3 X50.715 Y-55.813 Z-0.200 I-1.980 J-6.321 K0.000 F150.000
G2 X50.325 Y-55.557 Z-0.200 I0.052 J0.504 K0.000 F150.000
G2 X50.728 Y-55.031 Z-0.200 I0.367 J0.136 K0.000 F150.000
G2 X51.341 Y-55.152 Z-0.200 I0.181 J-0.698 K0.000 F150.000
G2 X51.471 Y-55.347 Z-0.200 I-0.202 J-0.275 K0.000 F150.000
G1 X51.590 Y-55.347 Z-0.200 F150.000
G3 X50.901 Y-54.956 Z-0.200 I-0.591 J-0.239 K0.000 F150.000
G3 X50.348 Y-55.096 Z-0.200 I-0.070 J-0.890 K0.000 F150.000
G3 X50.174 Y-55.485 Z-0.200 I0.235 J-0.338 K0.000 F150.000
G0 Z0.500
G0 X50.227 Y-55.480 Z0.500
G0 X50.227 Y-55.480 Z0.300
G1 X50.227 Y-55.480 Z-0.200 F100.000
G3 X50.564 Y-55.804 Z-0.200 I0.359 J0.035 K0.000 F150.000
G2 X50.285 Y-55.247 Z-0.200 I0.076 J0.386 K0.000 F150.000
G3 X50.227 Y-55.480 Z-0.200 I0.301 J-0.198 K0.000 F150.000
G0 Z0.500
G0 X50.286 Y-55.244 Z0.500
G0 X50.286 Y-55.244 Z0.300
G1 X50.286 Y-55.244 Z-0.200 F100.000
G1 X50.300 Y-55.221 Z-0.200 F150.000
G3 X50.286 Y-55.244 Z-0.200 I0.023 J-0.029 K0.000 F150.000
G0 Z0.500
G0 X51.478 Y-55.264 Z0.500
G0 X51.478 Y-55.264 Z0.300
G1 X51.478 Y-55.264 Z-0.200 F100.000
G3 X51.515 Y-55.297 Z-0.200 I0.032 J-0.001 K0.000 F150.000
G3 X51.483 Y-55.247 Z-0.200 I-0.124 J-0.043 K0.000 F150.000
G3 X51.478 Y-55.264 Z-0.200 I0.027 J-0.018 K0.000 F150.000
G0 Z0.500
G0 X51.329 Y-56.012 Z0.500
G0 X51.329 Y-56.012 Z0.300
G1 X51.329 Y-56.012 Z-0.200 F100.000
G3 X51.274 Y-56.005 Z-0.200 I-0.073 J-0.369 K0.000 F150.000
G2 X51.604 Y-56.522 Z-0.200 I-0.065 J-0.405 K0.000 F150.000
G3 X51.329 Y-56.012 Z-0.200 I-0.348 J0.141 K0.000 F150.000
G0 Z0.500
G0 X51.580 Y-56.586 Z0.500
G0 X51.580 Y-56.586 Z0.300
G1 X51.580 Y-56.586 Z-0.200 F100.000
G1 X51.567 Y-56.609 Z-0.200 F150.000
G3 X51.580 Y-56.586 Z-0.200 I-0.020 J0.026 K0.000 F150.000
G0 Z0.500
G0 X50.306 Y-56.609 Z0.500
G0 X50.306 Y-56.609 Z0.300
G1 X50.306 Y-56.609 Z-0.200 F100.000
G2 X50.247 Y-56.466 Z-0.200 I0.327 J0.219 K0.000 F150.000
G1 X50.216 Y-56.466 Z-0.200 F150.000
G3 X50.306 Y-56.609 Z-0.200 I0.280 J0.077 K0.000 F150.000
G0 Z0.500
G0 Z0.500
G0 X50.306 Y-56.609
G0 X52.156 Y-56.416
G0 X52.156 Y-56.416 Z0.300
G1 X52.156 Y-56.416 Z-0.200 F100.000
G3 X52.937 Y-56.903 Z-0.200 I0.694 J0.244 K0.000 F150.000
G3 X53.496 Y-56.762 Z-0.200 I0.057 J0.956 K0.000 F150.000
G3 X53.393 Y-55.986 Z-0.200 I-0.226 J0.365 K0.000 F150.000
G3 X52.721 Y-55.813 Z-0.200 I-1.999 J-6.399 K0.000 F150.000
G2 X52.331 Y-55.557 Z-0.200 I0.052 J0.504 K0.000 F150.000
G2 X52.734 Y-55.031 Z-0.200 I0.367 J0.136 K0.000 F150.000
G2 X53.348 Y-55.152 Z-0.200 I0.181 J-0.698 K0.000 F150.000
G2 X53.477 Y-55.347 Z-0.200 I-0.202 J-0.275 K0.000 F150.000
G1 X53.585 Y-55.347 Z-0.200 F150.000
G3 X52.908 Y-54.956 Z-0.200 I-0.593 J-0.245 K0.000 F150.000
G3 X52.354 Y-55.096 Z-0.200 I-0.070 J-0.890 K0.000 F150.000
G3 X52.485 Y-55.832 Z-0.200 I0.236 J-0.338 K0.000 F150.000
G3 X53.157 Y-56.008 Z-0.200 I2.259 J7.259 K0.000 F150.000
G2 X53.550 Y-56.275 Z-0.200 I-0.048 J-0.493 K0.000 F150.000
G2 X53.298 Y-56.775 Z-0.200 I-0.356 J-0.134 K0.000 F150.000
G2 X52.357 Y-56.587 Z-0.200 I-0.340 J0.746 K0.000 F150.000
G2 X52.289 Y-56.416 Z-0.200 I0.393 J0.254 K0.000 F150.000
G1 X52.156 Y-56.416 Z-0.200 F150.000
G0 Z0.500
G0 X52.233 Y-56.466 Z0.500
G0 X52.233 Y-56.466 Z0.300
G1 X52.233 Y-56.466 Z-0.200 F100.000
G3 X52.313 Y-56.609 Z-0.200 I0.236 J0.039 K0.000 F150.000
G2 X52.254 Y-56.466 Z-0.200 I0.327 J0.219 K0.000 F150.000
G1 X52.233 Y-56.466 Z-0.200 F150.000
G0 Z0.500
G0 X52.476 Y-55.784 Z0.500
G0 X52.476 Y-55.784 Z0.300
G1 X52.476 Y-55.784 Z-0.200 F100.000
G3 X52.571 Y-55.804 Z-0.200 I0.123 J0.343 K0.000 F150.000
G2 X52.292 Y-55.246 Z-0.200 I0.075 J0.386 K0.000 F150.000
G3 X52.476 Y-55.784 Z-0.200 I0.307 J-0.195 K0.000 F150.000
G0 Z0.500
G0 X52.293 Y-55.244 Z0.500
G0 X52.293 Y-55.244 Z0.300
G1 X52.293 Y-55.244 Z-0.200 F100.000
G1 X52.307 Y-55.221 Z-0.200 F150.000
G3 X52.293 Y-55.244 Z-0.200 I0.023 J-0.029 K0.000 F150.000
G0 Z0.500
G0 X53.280 Y-56.005 Z0.500
G0 X53.280 Y-56.005 Z0.300
G1 X53.280 Y-56.005 Z-0.200 F100.000
G2 X53.611 Y-56.522 Z-0.200 I-0.065 J-0.405 K0.000 F150.000
G3 X53.280 Y-56.005 Z-0.200 I-0.348 J0.142 K0.000 F150.000
G0 Z0.500
G0 X53.587 Y-56.586 Z0.500
G0 X53.587 Y-56.586 Z0.300
G1 X53.587 Y-56.586 Z-0.200 F100.000
G1 X53.574 Y-56.609 Z-0.200 F150.000
G3 X53.587 Y-56.586 Z-0.200 I-0.020 J0.026 K0.000 F150.000
G0 Z0.500
G0 Z0.500
G0 X53.587 Y-56.586
G0 X36.166 Y-55.924
G0 X36.166 Y-55.924 Z0.300
G1 X36.166 Y-55.924 Z-0.200 F100.000
G3 X34.322 Y-55.702 Z-0.200 I-0.931 J0.035 K0.000 F150.000
G3 X35.799 Y-56.746 Z-0.200 I0.931 J-0.249 K0.000 F150.000
G3 X36.043 Y-56.471 Z-0.200 I-0.539 J0.725 K0.000 F150.000
G3 X35.831 Y-56.582 Z-0.200 I-0.066 J-0.133 K0.000 F150.000
G2 X34.435 Y-56.002 Z-0.200 I-0.583 J0.566 K0.000 F150.000
G1 X34.520 Y-55.954 Z-0.200 F150.000
G1 X36.164 Y-55.954 Z-0.200 F150.000
G3 X36.166 Y-55.924 Z-0.200 I-0.930 J0.066 K0.000 F150.000
G0 Z0.500
G0 X36.076 Y-55.874 Z0.500
G0 X36.076 Y-55.874 Z0.300
G1 X36.076 Y-55.874 Z-0.200 F100.000
G1 X36.076 Y-55.868 Z-0.200 F150.000
G1 X36.070 Y-55.874 Z-0.200 F150.000
G1 X36.076 Y-55.874 Z-0.200 F150.000
G0 Z0.500
G0 X36.026 Y-55.814 Z0.500
G0 X36.026 Y-55.814 Z0.300
G1 X36.026 Y-55.814 Z-0.200 F100.000
G3 X34.429 Y-55.732 Z-0.200 I-0.801 J-0.014 K0.000 F150.000
G3 X34.525 Y-55.863 Z-0.200 I0.095 J-0.031 K0.000 F150.000
G1 X35.940 Y-55.863 Z-0.200 F150.000
G1 X36.026 Y-55.814 Z-0.200 F150.000
G0 Z0.500
G0 X34.420 Y-55.909 Z0.500
G0 X34.420 Y-55.909 Z0.300
G1 X34.420 Y-55.909 Z-0.200 F100.000
G2 X34.387 Y-55.865 Z-0.200 I0.014 J0.045 K0.000 F150.000
G3 X34.384 Y-55.950 Z-0.200 I0.194 J-0.049 K0.000 F150.000
G1 X34.420 Y-55.909 Z-0.200 F150.000
G0 Z0.500
G0 Z0.500
G0 X34.420 Y-55.909
G0 X33.688
G0 X33.688 Z0.300
G1 X33.688 Y-55.909 Z-0.200 F100.000
G1 X33.688 Y-54.156 Z-0.200 F150.000
G1 X33.575 Y-54.156 Z-0.200 F150.000
G1 X33.575 Y-56.870 Z-0.200 F150.000
G1 X33.688 Y-56.870 Z-0.200 F150.000
G1 X33.688 Y-55.909 Z-0.200 F150.000
G0 Z0.500
G0 X33.638 Z0.500
G0 X33.638 Z0.300
G1 X33.638 Y-55.909 Z-0.200 F100.000
G1 X33.638 Y-54.206 Z-0.200 F150.000
G1 X33.625 Y-54.206 Z-0.200 F150.000
G1 X33.625 Y-56.820 Z-0.200 F150.000
G1 X33.638 Y-56.820 Z-0.200 F150.000
G1 X33.638 Y-55.909 Z-0.200 F150.000
G0 Z0.500
G0 Z0.500
G0 X33.638 Y-55.909
G0 X32.973 Y-55.921
G0 X32.973 Y-55.921 Z0.300
G1 X32.973 Y-55.921 Z-0.200 F100.000
G3 X32.265 Y-54.977 Z-0.200 I-1.006 J-0.017 K0.000 F150.000
G3 X31.386 Y-55.292 Z-0.200 I-0.224 J-0.761 K0.000 F150.000
G2 X31.211 Y-55.226 Z-0.200 I-0.075 J0.066 K0.000 F150.000
G1 X31.211 Y-54.156 Z-0.200 F150.000
G1 X31.099 Y-54.156 Z-0.200 F150.000
G1 X31.099 Y-56.870 Z-0.200 F150.000
G1 X31.211 Y-56.870 Z-0.200 F150.000
G2 X31.240 Y-56.567 Z-0.200 I0.381 J0.116 K0.000 F150.000
G2 X31.461 Y-56.663 Z-0.200 I0.067 J-0.148 K0.000 F150.000
G3 X32.430 Y-56.831 Z-0.200 I0.614 J0.666 K0.000 F150.000
G3 X32.973 Y-55.921 Z-0.200 I-0.463 J0.893 K0.000 F150.000
G0 Z0.500
G0 X32.852 Y-55.915 Z0.500
G0 X32.852 Y-55.915 Z0.300
G1 X32.852 Y-55.915 Z-0.200 F100.000
G3 X31.583 Y-55.155 Z-0.200 I-0.839 J0.039 K0.000 F150.000
G3 X31.557 Y-56.687 Z-0.200 I0.582 J-0.776 K0.000 F150.000
G3 X32.850 Y-55.940 Z-0.200 I0.460 J0.697 K0.000 F150.000
G3 X32.852 Y-55.915 Z-0.200 I-0.837 J0.064 K0.000 F150.000
G0 Z0.500
G0 X31.257 Y-55.393 Z0.500
G0 X31.257 Y-55.393 Z0.300
G1 X31.257 Y-55.393 Z-0.200 F100.000
G2 X31.179 Y-55.338 Z-0.200 I-0.001 J0.081 K0.000 F150.000
G1 X31.179 Y-55.571 Z-0.200 F150.000
G2 X31.257 Y-55.393 Z-0.200 I0.360 J-0.053 K0.000 F150.000
G0 Z0.500
G0 X31.179 Y-56.303 Z0.500
G0 X31.179 Y-56.303 Z0.300
G1 X31.179 Y-56.303 Z-0.200 F100.000
G1 X31.179 Y-56.522 Z-0.200 F150.000
G3 X31.212 Y-56.396 Z-0.200 I0.012 J0.064 K0.000 F150.000
G2 X31.179 Y-56.303 Z-0.200 I0.379 J0.187 K0.000 F150.000
G0 Z0.500
G0 Z0.500
G0 X31.179 Y-56.303
G0 X30.516 Y-55.954
G0 X30.516 Y-55.954 Z0.300
G1 X30.516 Y-55.954 Z-0.200 F100.000
G3 X28.673 Y-55.703 Z-0.200 I-0.930 J0.066 K0.000 F150.000
G3 X30.150 Y-56.746 Z-0.200 I0.932 J-0.248 K0.000 F150.000
G3 X30.381 Y-56.471 Z-0.200 I-0.358 J0.535 K0.000 F150.000
G3 X30.182 Y-56.582 Z-0.200 I-0.059 J-0.128 K0.000 F150.000
G2 X28.784 Y-56.007 Z-0.200 I-0.583 J0.570 K0.000 F150.000
G1 X28.872 Y-55.954 Z-0.200 F150.000
G1 X30.516 Y-55.954 Z-0.200 F150.000
G0 Z0.500
G0 X30.428 Y-55.874 Z0.500
G0 X30.428 Y-55.874 Z0.300
G1 X30.428 Y-55.874 Z-0.200 F100.000
G1 X30.427 Y-55.868 Z-0.200 F150.000
G1 X30.421 Y-55.874 Z-0.200 F150.000
G1 X30.428 Y-55.874 Z-0.200 F150.000
G0 Z0.500
G0 X30.377 Y-55.814 Z0.500
G0 X30.377 Y-55.814 Z0.300
G1 X30.377 Y-55.814 Z-0.200 F100.000
G3 X28.781 Y-55.732 Z-0.200 I-0.801 J-0.015 K0.000 F150.000
G3 X28.876 Y-55.863 Z-0.200 I0.095 J-0.031 K0.000 F150.000
G1 X30.291 Y-55.863 Z-0.200 F150.000
G1 X30.377 Y-55.814 Z-0.200 F150.000
G0 Z0.500
G0 X28.769 Y-55.905 Z0.500
G0 X28.769 Y-55.905 Z0.300
G1 X28.769 Y-55.905 Z-0.200 F100.000
G3 X28.738 Y-55.865 Z-0.200 I-0.045 J-0.003 K0.000 F150.000
G3 X28.735 Y-55.951 Z-0.200 I0.196 J-0.049 K0.000 F150.000
G3 X28.769 Y-55.905 Z-0.200 I-0.011 J0.044 K0.000 F150.000
G0 Z0.500
G0 Z0.500
G0 X28.769 Y-55.905
G0 X28.297 Y-55.074
G0 X28.297 Y-55.074 Z0.300
G1 X28.297 Y-55.074 Z-0.200 F100.000
G1 X28.297 Y-54.962 Z-0.200 F150.000
G3 X27.721 Y-55.397 Z-0.200 I0.057 J-0.674 K0.000 F150.000
G2 X28.297 Y-55.074 Z-0.200 I0.609 J-0.409 K0.000 F150.000
G0 Z0.500
G0 X27.683 Y-55.459 Z0.500
G0 X27.683 Y-55.459 Z0.300
G1 X27.683 Y-55.459 Z-0.200 F100.000
G2 X27.510 Y-55.401 Z-0.200 I-0.077 J0.055 K0.000 F150.000
G1 X27.510 Y-54.989 Z-0.200 F150.000
G1 X27.398 Y-54.989 Z-0.200 F150.000
G1 X27.398 Y-56.870 Z-0.200 F150.000
G1 X27.510 Y-56.870 Z-0.200 F150.000
G2 X27.552 Y-55.738 Z-0.200 I4.251 J0.410 K0.000 F150.000
G2 X27.683 Y-55.459 Z-0.200 I0.741 J-0.177 K0.000 F150.000
G0 Z0.500
G0 X27.534 Y-55.554 Z0.500
G0 X27.534 Y-55.554 Z0.300
G1 X27.534 Y-55.554 Z-0.200 F100.000
G2 X27.478 Y-55.508 Z-0.200 I-0.002 J0.054 K0.000 F150.000
G1 X27.478 Y-55.706 Z-0.200 F150.000
G2 X27.534 Y-55.554 Z-0.200 I0.849 J-0.226 K0.000 F150.000
G0 Z0.500
G0 Z0.500
G0 X27.534 Y-55.554
G0 X26.856 Y-55.064
G0 X26.856 Y-55.064 Z0.300
G1 X26.856 Y-55.064 Z-0.200 F100.000
G1 X26.856 Y-54.989 Z-0.200 F150.000
G1 X26.478 Y-54.989 Z-0.200 F150.000
G2 X26.378 Y-54.889 Z-0.200 I-0.000 J0.100 K0.000 F150.000
G1 X26.378 Y-54.243 Z-0.200 F150.000
G1 X26.266 Y-54.243 Z-0.200 F150.000
G1 X26.266 Y-54.889 Z-0.200 F150.000
G2 X26.166 Y-54.989 Z-0.200 I-0.100 J-0.000 K0.000 F150.000
G1 X25.841 Y-54.989 Z-0.200 F150.000
G1 X25.841 Y-55.064 Z-0.200 F150.000
G1 X26.166 Y-55.064 Z-0.200 F150.000
G2 X26.266 Y-55.164 Z-0.200 I0.000 J-0.100 K0.000 F150.000
G1 X26.266 Y-56.870 Z-0.200 F150.000
G1 X26.378 Y-56.870 Z-0.200 F150.000
G1 X26.378 Y-55.164 Z-0.200 F150.000
G2 X26.478 Y-55.064 Z-0.200 I0.100 J0.000 K0.000 F150.000
G1 X26.856 Y-55.064 Z-0.200 F150.000
G0 Z0.500
G0 X26.376 Y-55.036 Z0.500
G0 X26.376 Y-55.036 Z0.300
G1 X26.376 Y-55.036 Z-0.200 F100.000
G2 X26.327 Y-54.946 Z-0.200 I0.020 J0.069 K0.000 F150.000
G2 X26.268 Y-55.017 Z-0.200 I-0.065 J-0.006 K0.000 F150.000
G2 X26.317 Y-55.106 Z-0.200 I-0.020 J-0.069 K0.000 F150.000
G2 X26.376 Y-55.036 Z-0.200 I0.065 J0.006 K0.000 F150.000
G0 Z0.500
G0 Z0.500
G0 X26.376 Y-55.036
G0 X19.482
G0 X19.482 Z0.300
G1 X19.482 Y-55.036 Z-0.200 F100.000
G1 X19.482 Y-54.962 Z-0.200 F150.000
G3 X18.906 Y-55.397 Z-0.200 I0.057 J-0.674 K0.000 F150.000
G2 X19.482 Y-55.074 Z-0.200 I0.609 J-0.409 K0.000 F150.000
G1 X19.482 Y-55.036 Z-0.200 F150.000
G0 Z0.500
G0 X18.868 Y-55.459 Z0.500
G0 X18.868 Y-55.459 Z0.300
G1 X18.868 Y-55.459 Z-0.200 F100.000
G2 X18.695 Y-55.401 Z-0.200 I-0.077 J0.055 K0.000 F150.000
G1 X18.695 Y-54.989 Z-0.200 F150.000
G1 X18.583 Y-54.989 Z-0.200 F150.000
G1 X18.583 Y-56.870 Z-0.200 F150.000
G1 X18.695 Y-56.870 Z-0.200 F150.000
G2 X18.737 Y-55.738 Z-0.200 I4.251 J0.410 K0.000 F150.000
G2 X18.868 Y-55.459 Z-0.200 I0.741 J-0.177 K0.000 F150.000
G0 Z0.500
G0 X18.719 Y-55.554 Z0.500
G0 X18.719 Y-55.554 Z0.300
G1 X18.719 Y-55.554 Z-0.200 F100.000
G2 X18.663 Y-55.508 Z-0.200 I-0.002 J0.054 K0.000 F150.000
G1 X18.663 Y-55.706 Z-0.200 F150.000
G2 X18.719 Y-55.554 Z-0.200 I0.849 J-0.226 K0.000 F150.000
G0 Z0.500
G0 Z0.500
G0 X18.719 Y-55.554
G0 X17.842
G0 X17.842 Z0.300
G1 X17.842 Y-55.554 Z-0.200 F100.000
G1 X17.842 Y-54.989 Z-0.200 F150.000
G1 X17.729 Y-54.989 Z-0.200 F150.000
G1 X17.728 Y-56.104 Z-0.200 F150.000
G2 X16.342 Y-56.300 Z-0.200 I-0.706 J-0.008 K0.000 F150.000
G1 X16.318 Y-56.092 Z-0.200 F150.000
G1 X16.318 Y-54.989 Z-0.200 F150.000
G1 X16.206 Y-54.989 Z-0.200 F150.000
G1 X16.206 Y-56.094 Z-0.200 F150.000
G3 X17.302 Y-56.814 Z-0.200 I0.735 J-0.075 K0.000 F150.000
G3 X17.554 Y-56.580 Z-0.200 I-0.513 J0.805 K0.000 F150.000
G2 X17.729 Y-56.646 Z-0.200 I0.076 J-0.065 K0.000 F150.000
G1 X17.729 Y-56.870 Z-0.200 F150.000
G1 X17.842 Y-56.870 Z-0.200 F150.000
G1 X17.842 Y-55.554 Z-0.200 F150.000
G0 Z0.500
G0 X17.762 Y-56.351 Z0.500
G0 X17.762 Y-56.351 Z0.300
G1 X17.762 Y-56.351 Z-0.200 F100.000
G2 X17.706 Y-56.485 Z-0.200 I-0.258 J0.029 K0.000 F150.000
G1 X17.762 Y-56.534 Z-0.200 F150.000
G1 X17.762 Y-56.351 Z-0.200 F150.000
G0 Z0.500
G0 Z0.500
G0 X17.762 Y-56.351
G0 X15.556 Y-56.064
G0 X15.556 Y-56.064 Z0.300
G1 X15.556 Y-56.064 Z-0.200 F100.000
G3 X15.369 Y-55.335 Z-0.200 I-1.008 J0.131 K0.000 F150.000
G2 X15.324 Y-56.590 Z-0.200 I-0.871 J-0.597 K0.000 F150.000
G3 X15.556 Y-56.064 Z-0.200 I-0.776 J0.656 K0.000 F150.000
G0 Z0.500
G0 X15.504 Y-56.058 Z0.500
G0 X15.504 Y-56.058 Z0.300
G1 X15.504 Y-56.058 Z-0.200 F100.000
G3 X15.491 Y-55.767 Z-0.200 I-0.906 J0.107 K0.000 F150.000
G3 X13.863 Y-55.919 Z-0.200 I-0.813 J-0.088 K0.000 F150.000
G3 X14.312 Y-56.739 Z-0.200 I0.878 J-0.052 K0.000 F150.000
G3 X15.115 Y-56.703 Z-0.200 I0.366 J0.796 K0.000 F150.000
G3 X15.504 Y-56.058 Z-0.200 I-0.517 J0.752 K0.000 F150.000
G0 Z0.500
G0 X15.615 Y-56.073 Z0.500
G0 X15.615 Y-56.073 Z0.300
G1 X15.615 Y-56.073 Z-0.200 F100.000
G3 X14.975 Y-54.996 Z-0.200 I-1.000 J0.135 K0.000 F150.000
G3 X13.750 Y-55.927 Z-0.200 I-0.299 J-0.877 K0.000 F150.000
G3 X15.179 Y-56.775 Z-0.200 I0.931 J-0.059 K0.000 F150.000
G3 X15.615 Y-56.073 Z-0.200 I-0.564 J0.837 K0.000 F150.000
G0 Z0.500
G0 X15.335 Y-55.286 Z0.500
G0 X15.335 Y-55.286 Z0.300
G1 X15.335 Y-55.286 Z-0.200 F100.000
G3 X15.268 Y-55.223 Z-0.200 I-0.142 J-0.084 K0.000 F150.000
G1 X15.335 Y-55.286 Z-0.200 F150.000
G0 Z0.500
G0 X14.060 Y-55.253 Z0.500
G0 X14.060 Y-55.253 Z0.300
G1 X14.060 Y-55.253 Z-0.200 F100.000
G3 X14.043 Y-56.590 Z-0.200 I0.758 J-0.678 K0.000 F150.000
G2 X14.060 Y-55.253 Z-0.200 I0.827 J0.658 K0.000 F150.000
G0 Z0.500
G0 Z0.500
G0 X14.060 Y-55.253
G0 X13.379 Y-55.064
G0 X13.379 Y-55.064 Z0.300
G1 X13.379 Y-55.064 Z-0.200 F100.000
G1 X13.379 Y-54.989 Z-0.200 F150.000
G1 X13.001 Y-54.989 Z-0.200 F150.000
G2 X12.901 Y-54.889 Z-0.200 I-0.000 J0.100 K0.000 F150.000
G1 X12.901 Y-54.243 Z-0.200 F150.000
G1 X12.789 Y-54.243 Z-0.200 F150.000
G1 X12.789 Y-54.889 Z-0.200 F150.000
G2 X12.689 Y-54.989 Z-0.200 I-0.100 J-0.000 K0.000 F150.000
G1 X12.364 Y-54.989 Z-0.200 F150.000
G1 X12.364 Y-55.064 Z-0.200 F150.000
G1 X12.689 Y-55.064 Z-0.200 F150.000
G2 X12.789 Y-55.164 Z-0.200 I0.000 J-0.100 K0.000 F150.000
G1 X12.789 Y-56.870 Z-0.200 F150.000
G1 X12.901 Y-56.870 Z-0.200 F150.000
G1 X12.901 Y-55.164 Z-0.200 F150.000
G2 X13.001 Y-55.064 Z-0.200 I0.100 J0.000 K0.000 F150.000
G1 X13.379 Y-55.064 Z-0.200 F150.000
G0 Z0.500
G0 X12.899 Y-55.036 Z0.500
G0 X12.899 Y-55.036 Z0.300
G1 X12.899 Y-55.036 Z-0.200 F100.000
G2 X12.850 Y-54.946 Z-0.200 I0.020 J0.069 K0.000 F150.000
G2 X12.791 Y-55.017 Z-0.200 I-0.065 J-0.006 K0.000 F150.000
G2 X12.839 Y-55.106 Z-0.200 I-0.020 J-0.069 K0.000 F150.000
G2 X12.899 Y-55.036 Z-0.200 I0.065 J0.006 K0.000 F150.000
G0 Z0.500
G0 Z0.500
G0 X12.899 Y-55.036
G0 X11.849 Y-55.433
G0 X11.849 Y-55.433 Z0.300
G1 X11.849 Y-55.433 Z-0.200 F100.000
G3 X10.544 Y-55.280 Z-0.200 I-0.692 J-0.262 K0.000 F150.000
G2 X10.370 Y-55.213 Z-0.200 I-0.074 J0.067 K0.000 F150.000
G1 X10.370 Y-54.989 Z-0.200 F150.000
G1 X10.258 Y-54.989 Z-0.200 F150.000
G1 X10.258 Y-56.870 Z-0.200 F150.000
G1 X10.370 Y-56.870 Z-0.200 F150.000
G1 X10.371 Y-55.755 Z-0.200 F150.000
G2 X11.756 Y-55.551 Z-0.200 I0.706 J0.011 K0.000 F150.000
G1 X11.781 Y-55.767 Z-0.200 F150.000
G1 X11.781 Y-56.870 Z-0.200 F150.000
G1 X11.893 Y-56.870 Z-0.200 F150.000
G1 X11.893 Y-55.765 Z-0.200 F150.000
G3 X11.849 Y-55.433 Z-0.200 I-0.736 J0.071 K0.000 F150.000
G0 Z0.500
G0 X10.391 Y-55.372 Z0.500
G0 X10.391 Y-55.372 Z0.300
G1 X10.391 Y-55.372 Z-0.200 F100.000
G1 X10.338 Y-55.325 Z-0.200 F150.000
G1 X10.338 Y-55.498 Z-0.200 F150.000
G2 X10.391 Y-55.372 Z-0.200 I0.243 J-0.029 K0.000 F150.000
G0 Z0.500
G0 Z0.500
G0 X10.391 Y-55.372
G0 X9.596 Y-55.628
G0 X9.596 Y-55.628 Z0.300
G1 X9.596 Y-55.628 Z-0.200 F100.000
G3 X9.006 Y-54.996 Z-0.200 I-0.969 J-0.312 K0.000 F150.000
G3 X7.874 Y-55.477 Z-0.200 I-0.300 J-0.866 K0.000 F150.000
G3 X8.426 Y-56.866 Z-0.200 I0.893 J-0.449 K0.000 F150.000
G3 X9.210 Y-56.775 Z-0.200 I0.287 J0.952 K0.000 F150.000
G3 X9.596 Y-55.628 Z-0.200 I-0.584 J0.835 K0.000 F150.000
G0 Z0.500
G0 X9.553 Y-55.641 Z0.500
G0 X9.553 Y-55.641 Z0.300
G1 X9.553 Y-55.641 Z-0.200 F100.000
G3 X9.339 Y-55.256 Z-0.200 I-0.973 J-0.288 K0.000 F150.000
G2 X9.336 Y-56.606 Z-0.200 I-0.809 J-0.673 K0.000 F150.000
G3 X9.553 Y-55.641 Z-0.200 I-0.756 J0.677 K0.000 F150.000
G0 Z0.500
G0 X9.511 Y-55.652 Z0.500
G0 X9.511 Y-55.652 Z0.300
G1 X9.511 Y-55.652 Z-0.200 F100.000
G3 X8.299 Y-55.145 Z-0.200 I-0.798 J-0.205 K0.000 F150.000
G3 X8.257 Y-56.688 Z-0.200 I0.550 J-0.787 K0.000 F150.000
G3 X9.533 Y-55.939 Z-0.200 I0.456 J0.685 K0.000 F150.000
G3 X9.511 Y-55.652 Z-0.200 I-0.819 J0.083 K0.000 F150.000
G0 Z0.500
G0 X8.097 Y-55.243 Z0.500
G0 X8.097 Y-55.243 Z0.300
G1 X8.097 Y-55.243 Z-0.200 F100.000
G3 X8.116 Y-56.630 Z-0.200 I0.745 J-0.684 K0.000 F150.000
G2 X8.097 Y-55.243 Z-0.200 I0.772 J0.704 K0.000 F150.000
G0 Z0.500
G0 Z0.500
G0 X8.097 Y-55.243
G0 X7.265 Y-55.442
G0 X7.265 Y-55.442 Z0.300
G1 X7.265 Y-55.442 Z-0.200 F100.000
G3 X6.440 Y-54.956 Z-0.200 I-0.772 J-0.368 K0.000 F150.000
G3 X5.552 Y-56.218 Z-0.200 I0.018 J-0.956 K0.000 F150.000
G3 X6.722 Y-56.868 Z-0.200 I0.881 J0.208 K0.000 F150.000
G1 X6.872 Y-56.814 Z-0.200 F150.000
G3 X7.265 Y-56.416 Z-0.200 I-0.248 J0.638 K0.000 F150.000
G3 X7.064 Y-56.548 Z-0.200 I-0.061 J-0.125 K0.000 F150.000
G2 X5.629 Y-55.915 Z-0.200 I-0.610 J0.560 K0.000 F150.000
G2 X7.082 Y-55.334 Z-0.200 I0.824 J0.046 K0.000 F150.000
G3 X7.265 Y-55.442 Z-0.200 I0.122 J-0.003 K0.000 F150.000
G0 Z0.500
G0 X7.186 Y-55.392 Z0.500
G0 X7.186 Y-55.392 Z0.300
G1 X7.186 Y-55.392 Z-0.200 F100.000
G3 X7.140 Y-55.335 Z-0.200 I-0.106 J-0.037 K0.000 F150.000
G3 X7.186 Y-55.392 Z-0.200 I0.039 J-0.016 K0.000 F150.000
G0 Z0.500
G0 X6.216 Y-55.035 Z0.500
G0 X6.216 Y-55.035 Z0.300
G1 X6.216 Y-55.035 Z-0.200 F100.000
G3 X5.601 Y-56.207 Z-0.200 I0.249 J-0.878 K0.000 F150.000
G3 X6.049 Y-56.765 Z-0.200 I0.796 J0.181 K0.000 F150.000
G2 X6.096 Y-55.071 Z-0.200 I0.492 J0.834 K0.000 F150.000
G1 X6.216 Y-55.035 Z-0.200 F150.000
G0 Z0.500
G0 X7.149 Y-56.475 Z0.500
G0 X7.149 Y-56.475 Z0.300
G1 X7.149 Y-56.475 Z-0.200 F100.000
G3 X7.127 Y-56.538 Z-0.200 I0.029 J-0.045 K0.000 F150.000
G3 X7.186 Y-56.466 Z-0.200 I-0.073 J0.121 K0.000 F150.000
G3 X7.149 Y-56.475 Z-0.200 I-0.008 J-0.053 K0.000 F150.000
G0 Z0.500
G0 Z0.500
(Finish operation: ENGRAVE CONTROLS 0.20MM)
(Begin operation: ENGRAVE GRAPHIC 0.20MM)
(Path: ENGRAVE GRAPHIC 0.20MM)
(ENGRAVE GRAPHIC 0.20MM)
G0 Z0.500
G0 X21.185 Y-64.145
G0 Z0.300
G1 X21.185 Y-64.145 Z-0.200 F100.000
G3 X20.782 Y-63.723 Z-0.200 I-123927.742 J-118730.931 K0.000 F150.000
G1 X20.500 Y-63.723 Z-0.200 F150.000
G3 X20.042 Y-64.442 Z-0.200 I64750.600 J-41240.018 K0.000 F150.000
G3 X19.951 Y-64.857 Z-0.200 I54941.758 J-12060.730 K0.000 F150.000
G1 X19.923 Y-64.908 Z-0.200 F150.000
G3 X19.160 Y-65.645 Z-0.200 I263987.597 J-273346.315 K0.000 F150.000
G2 X18.567 Y-65.766 Z-0.200 I-0.706 J1.939 K0.000 F150.000
G2 X18.174 Y-65.509 Z-0.200 I14576.280 J22246.711 K0.000 F150.000
G1 X18.129 Y-65.425 Z-0.200 F150.000
G1 X18.129 Y-65.150 Z-0.200 F150.000
G2 X17.762 Y-64.713 Z-0.200 I87363.033 J73511.522 K0.000 F150.000
G1 X17.739 Y-64.659 Z-0.200 F150.000
G2 X17.566 Y-63.069 Z-0.200 I68160.512 J7408.086 K0.000 F150.000
G3 X17.189 Y-62.245 Z-0.200 I-100161.445 J-45855.244 K0.000 F150.000
G3 X16.698 Y-61.754 Z-0.200 I-16241.685 J-16241.188 K0.000 F150.000
G1 X16.404 Y-61.754 Z-0.200 F150.000
G3 X15.654 Y-62.772 Z-0.200 I2.314 J-2.491 K0.000 F150.000
G2 X15.286 Y-62.757 Z-0.200 I-0.176 J0.194 K0.000 F150.000
G2 X15.018 Y-62.054 Z-0.200 I137392.795 J52471.302 K0.000 F150.000
G2 X14.564 Y-61.339 Z-0.200 I386156.515 J244893.423 K0.000 F150.000
G1 X14.150 Y-61.379 Z-0.200 F150.000
G3 X13.649 Y-62.386 Z-0.200 I272142.153 J-135352.867 K0.000 F150.000
G2 X13.210 Y-64.179 Z-0.200 I-33.118 J7.169 K0.000 F150.000
G2 X12.595 Y-64.761 Z-0.200 I-42772.361 J45126.382 K0.000 F150.000
G2 X12.188 Y-64.761 Z-0.200 I-0.203 J0.721 K0.000 F150.000
G1 X12.159 Y-64.696 Z-0.200 F150.000
G1 X12.095 Y-63.699 Z-0.200 F150.000
G3 X11.566 Y-63.219 Z-0.200 I-146061.296 J-161163.426 K0.000 F150.000
G3 X10.725 Y-62.767 Z-0.200 I-54805.271 J-101747.034 K0.000 F150.000
G3 X10.501 Y-63.014 Z-0.200 I9790.794 J-8860.817 K0.000 F150.000
G1 X10.294 Y-64.084 Z-0.200 F150.000
G1 X10.288 Y-65.247 Z-0.200 F150.000
G2 X10.599 Y-65.856 Z-0.200 I-147351.684 J-75173.680 K0.000 F150.000
G3 X11.204 Y-66.294 Z-0.200 I69138.266 J95441.126 K0.000 F150.000
G3 X12.420 Y-66.490 Z-0.200 I1579.545 J9789.201 K0.000 F150.000
G2 X12.340 Y-66.888 Z-0.200 I-0.131 J-0.181 K0.000 F150.000
G1 X12.344 Y-67.169 Z-0.200 F150.000
G3 X12.731 Y-67.958 Z-0.200 I125435.711 J61434.138 K0.000 F150.000
G2 X12.576 Y-68.226 Z-0.200 I-0.255 J-0.031 K0.000 F150.000
G3 X10.084 Y-68.561 Z-0.200 I11.820 J-97.368 K0.000 F150.000
G3 X8.133 Y-69.056 Z-0.200 I88721.844 J-349410.045 K0.000 F150.000
G2 X7.256 Y-69.458 Z-0.200 I-32666.405 J71351.769 K0.000 F150.000
G2 X6.969 Y-69.467 Z-0.200 I-0.164 J0.652 K0.000 F150.000
G1 X6.450 Y-70.042 Z-0.200 F150.000
G2 X5.174 Y-72.369 Z-0.200 I-2963146.122 J1625259.990 K0.000 F150.000
G2 X4.860 Y-73.196 Z-0.200 I-1072688.947 J407588.069 K0.000 F150.000
G3 X4.143 Y-75.992 Z-0.200 I5080423.709 J-1301504.605 K0.000 F150.000
G3 X3.869 Y-77.947 Z-0.200 I1101649.380 J-154534.103 K0.000 F150.000
G1 X3.979 Y-81.200 Z-0.200 F150.000
G2 X4.230 Y-82.421 Z-0.200 I-210814.404 J-43330.955 K0.000 F150.000
G1 X4.440 Y-82.830 Z-0.200 F150.000
G2 X5.437 Y-83.525 Z-0.200 I-150364.498 J-215655.383 K0.000 F150.000
G3 X5.868 Y-83.709 Z-0.200 I8856.363 J20768.341 K0.000 F150.000
G1 X6.176 Y-83.712 Z-0.200 F150.000
G3 X9.425 Y-84.532 Z-0.200 I10.004 J32.813 K0.000 F150.000
G3 X11.994 Y-84.681 Z-0.200 I2.148 J14.809 K0.000 F150.000
G1 X13.090 Y-84.690 Z-0.200 F150.000
G3 X13.998 Y-84.476 Z-0.200 I-65644.828 J278946.640 K0.000 F150.000
G2 X14.364 Y-84.237 Z-0.200 I4784.458 J-7301.708 K0.000 F150.000
G2 X14.593 Y-83.423 Z-0.200 I103809.968 J-29176.293 K0.000 F150.000
G3 X14.659 Y-82.145 Z-0.200 I-1503243.317 J78163.152 K0.000 F150.000
G2 X15.239 Y-81.955 Z-0.200 I0.383 J-0.190 K0.000 F150.000
G3 X15.490 Y-82.396 Z-0.200 I30067.584 J17109.130 K0.000 F150.000
G3 X16.418 Y-82.283 Z-0.200 I0.195 J2.275 K0.000 F150.000
G1 X16.949 Y-82.172 Z-0.200 F150.000
G1 X17.062 Y-82.102 Z-0.200 F150.000
G1 X17.062 Y-81.514 Z-0.200 F150.000
G1 X17.117 Y-81.425 Z-0.200 F150.000
G3 X17.724 Y-81.116 Z-0.200 I-115914.212 J227212.049 K0.000 F150.000
G1 X17.807 Y-80.854 Z-0.200 F150.000
G3 X17.483 Y-80.416 Z-0.200 I-47386.197 J-35033.828 K0.000 F150.000
G2 X17.487 Y-80.292 Z-0.200 I0.080 J0.059 K0.000 F150.000
G3 X17.885 Y-79.819 Z-0.200 I-68415.325 J57568.214 K0.000 F150.000
G3 X17.810 Y-79.520 Z-0.200 I-18869.611 J-4735.292 K0.000 F150.000
G2 X18.002 Y-79.329 Z-0.200 I0.221 J-0.029 K0.000 F150.000
G2 X18.905 Y-78.878 Z-0.200 I15.845 J-30.642 K0.000 F150.000
G3 X19.399 Y-78.463 Z-0.200 I-19740.912 J23461.267 K0.000 F150.000
G2 X19.606 Y-77.968 Z-0.200 I272183.442 J-113723.584 K0.000 F150.000
G1 X19.606 Y-77.593 Z-0.200 F150.000
G2 X19.690 Y-77.495 Z-0.200 I0.100 J0.000 K0.000 F150.000
G1 X20.018 Y-77.442 Z-0.200 F150.000
G3 X20.771 Y-77.228 Z-0.200 I-0.152 J1.970 K0.000 F150.000
G1 X21.172 Y-77.078 Z-0.200 F150.000
G3 X21.320 Y-76.656 Z-0.200 I-81873.180 J28541.352 K0.000 F150.000
G1 X21.397 Y-76.591 Z-0.200 F150.000
G2 X22.468 Y-76.406 Z-0.200 I35.232 J-200.764 K0.000 F150.000
G1 X22.848 Y-76.406 Z-0.200 F150.000
G3 X23.100 Y-75.886 Z-0.200 I-0.625 J0.624 K0.000 F150.000
G1 X23.156 Y-75.660 Z-0.200 F150.000
G2 X23.410 Y-75.553 Z-0.200 I0.210 J-0.143 K0.000 F150.000
G2 X24.945 Y-75.345 Z-0.200 I10.438 J-71.303 K0.000 F150.000
G2 X25.104 Y-75.187 Z-0.200 I113358.434 J-113358.347 K0.000 F150.000
G2 X24.990 Y-74.739 Z-0.200 I5830.094 J1484.142 K0.000 F150.000
G2 X24.519 Y-74.598 Z-0.200 I2205.230 J7381.077 K0.000 F150.000
G2 X24.447 Y-74.503 Z-0.200 I0.029 J0.096 K0.000 F150.000
G1 X24.447 Y-74.275 Z-0.200 F150.000
G1 X24.287 Y-74.142 Z-0.200 F150.000
G3 X24.035 Y-74.222 Z-0.200 I13534.181 J-42640.988 K0.000 F150.000
G3 X23.786 Y-74.746 Z-0.200 I22662.468 J-10807.245 K0.000 F150.000
G1 X23.721 Y-74.799 Z-0.200 F150.000
G2 X21.424 Y-75.293 Z-0.200 I-4.558 J15.624 K0.000 F150.000
G1 X20.957 Y-75.293 Z-0.200 F150.000
G2 X20.737 Y-75.084 Z-0.200 I0.523 J0.772 K0.000 F150.000
G2 X18.462 Y-75.455 Z-0.200 I-3.734 J15.743 K0.000 F150.000
G1 X17.142 Y-75.630 Z-0.200 F150.000
G2 X16.803 Y-75.725 Z-0.200 I-27208.179 J96528.248 K0.000 F150.000
G3 X16.759 Y-76.105 Z-0.200 I4440.429 J-515.013 K0.000 F150.000
G2 X16.658 Y-76.193 Z-0.200 I-0.099 J0.012 K0.000 F150.000
G1 X15.653 Y-76.178 Z-0.200 F150.000
G2 X15.211 Y-76.407 Z-0.200 I-8290.329 J16031.112 K0.000 F150.000
G1 X15.211 Y-76.742 Z-0.200 F150.000
G2 X15.427 Y-76.980 Z-0.200 I-3349.449 J-3031.343 K0.000 F150.000
G1 X15.534 Y-76.980 Z-0.200 F150.000
G3 X15.807 Y-76.678 Z-0.200 I-15969.221 J14452.286 K0.000 F150.000
G2 X16.301 Y-76.762 Z-0.200 I0.145 J-0.638 K0.000 F150.000
G2 X16.360 Y-77.035 Z-0.200 I-0.301 J-0.208 K0.000 F150.000
G1 X16.316 Y-77.080 Z-0.200 F150.000
G1 X15.834 Y-77.323 Z-0.200 F150.000
G1 X15.834 Y-77.323 Z-0.200 F150.000
G1 X15.370 Y-77.557 Z-0.200 F150.000
G1 X15.196 Y-77.767 Z-0.200 F150.000
G2 X14.824 Y-78.869 Z-0.200 I-1018835.435 J343680.149 K0.000 F150.000
G1 X14.754 Y-78.934 Z-0.200 F150.000
G3 X13.845 Y-79.302 Z-0.200 I0.188 J-1.770 K0.000 F150.000
G1 X13.432 Y-79.546 Z-0.200 F150.000
G2 X13.231 Y-79.487 Z-0.200 I-0.070 J0.130 K0.000 F150.000
G2 X12.760 Y-77.219 Z-0.200 I9.622 J3.181 K0.000 F150.000
G2 X12.127 Y-73.361 Z-0.200 I280.173 J47.986 K0.000 F150.000
G1 X11.947 Y-72.114 Z-0.200 F150.000
G2 X11.997 Y-69.149 Z-0.200 I638.783 J-9.362 K0.000 F150.000
G2 X12.191 Y-68.478 Z-0.200 I352772.563 J-101625.754 K0.000 F150.000
G2 X12.277 Y-68.406 Z-0.200 I0.096 J-0.028 K0.000 F150.000
G1 X12.763 Y-68.358 Z-0.200 F150.000
G2 X12.873 Y-68.460 Z-0.200 I0.010 J-0.100 K0.000 F150.000
G1 X12.819 Y-70.394 Z-0.200 F150.000
G2 X13.171 Y-71.212 Z-0.200 I-404536.429 J-174026.772 K0.000 F150.000
G2 X13.119 Y-71.424 Z-0.200 I-0.287 J-0.043 K0.000 F150.000
G1 X13.071 Y-71.551 Z-0.200 F150.000
G2 X12.750 Y-73.764 Z-0.200 I-8909633.202 J1291066.726 K0.000 F150.000
G1 X12.750 Y-75.047 Z-0.200 F150.000
G2 X12.899 Y-75.105 Z-0.200 I-425.551 J-1109.142 K0.000 F150.000
G2 X13.443 Y-74.824 Z-0.200 I88192.784 J-170964.147 K0.000 F150.000
G2 X14.776 Y-73.504 Z-0.200 I479.505 J-482.959 K0.000 F150.000
G2 X15.301 Y-73.130 Z-0.200 I55222.252 J-77551.815 K0.000 F150.000
G2 X15.427 Y-73.137 Z-0.200 I0.058 J-0.081 K0.000 F150.000
G3 X16.486 Y-74.108 Z-0.200 I594904.435 J649233.568 K0.000 F150.000
G2 X18.502 Y-75.016 Z-0.200 I-501505.661 J-1113241.136 K0.000 F150.000
G2 X18.661 Y-74.913 Z-0.200 I5103.088 J-7917.732 K0.000 F150.000
G1 X18.613 Y-73.115 Z-0.200 F150.000
G2 X18.465 Y-72.552 Z-0.200 I9651.898 J2529.437 K0.000 F150.000
G1 X18.329 Y-72.500 Z-0.200 F150.000
G1 X18.315 Y-72.513 Z-0.200 F150.000
G2 X18.481 Y-73.094 Z-0.200 I-44.984 J-13.132 K0.000 F150.000
G2 X18.595 Y-74.694 Z-0.200 I-2259963.849 J-160820.657 K0.000 F150.000
G2 X18.314 Y-74.801 Z-0.200 I-0.190 J0.077 K0.000 F150.000
G1 X18.270 Y-74.791 Z-0.200 F150.000
G1 X17.345 Y-74.348 Z-0.200 F150.000
G1 X17.345 Y-74.348 Z-0.200 F150.000
G1 X16.394 Y-73.887 Z-0.200 F150.000
G3 X15.466 Y-72.996 Z-0.200 I-105798.546 J-110109.588 K0.000 F150.000
G1 X15.249 Y-72.996 Z-0.200 F150.000
G3 X14.009 Y-74.092 Z-0.200 I4.389 J-6.214 K0.000 F150.000
G1 X13.207 Y-74.855 Z-0.200 F150.000
G2 X12.878 Y-74.783 Z-0.200 I-0.136 J0.165 K0.000 F150.000
G2 X13.014 Y-72.759 Z-0.200 I7.479 J0.514 K0.000 F150.000
G1 X13.149 Y-71.774 Z-0.200 F150.000
G2 X13.427 Y-71.589 Z-0.200 I0.216 J-0.022 K0.000 F150.000
G3 X14.073 Y-72.203 Z-0.200 I156396.077 J164405.409 K0.000 F150.000
G2 X15.368 Y-72.631 Z-0.200 I-37562.285 J-113653.725 K0.000 F150.000
G1 X15.711 Y-72.631 Z-0.200 F150.000
G2 X16.107 Y-72.320 Z-0.200 I15066.712 J-19153.576 K0.000 F150.000
G1 X16.216 Y-72.310 Z-0.200 F150.000
G3 X16.816 Y-72.631 Z-0.200 I34685.203 J64715.048 K0.000 F150.000
G1 X17.676 Y-72.631 Z-0.200 F150.000
G3 X18.069 Y-72.164 Z-0.200 I-97406.701 J81961.372 K0.000 F150.000
G2 X18.271 Y-71.754 Z-0.200 I136940.508 J-67518.979 K0.000 F150.000
G1 X18.475 Y-70.870 Z-0.200 F150.000
G1 X18.393 Y-70.788 Z-0.200 F150.000
G1 X18.330 Y-70.827 Z-0.200 F150.000
G2 X18.135 Y-71.751 Z-0.200 I-64.419 J13.052 K0.000 F150.000
G2 X17.486 Y-72.524 Z-0.200 I-1.215 J0.362 K0.000 F150.000
G1 X16.653 Y-72.444 Z-0.200 F150.000
G2 X16.170 Y-72.011 Z-0.200 I3.538 J4.433 K0.000 F150.000
G1 X16.077 Y-72.011 Z-0.200 F150.000
G2 X15.756 Y-72.461 Z-0.200 I-15105.257 J10755.715 K0.000 F150.000
G1 X15.674 Y-72.503 Z-0.200 F150.000
G1 X15.367 Y-72.498 Z-0.200 F150.000
G2 X14.123 Y-72.084 Z-0.200 I1432964.721 J4302810.870 K0.000 F150.000
G2 X13.560 Y-71.512 Z-0.200 I8.204 J8.648 K0.000 F150.000
G3 X12.958 Y-70.527 Z-0.200 I-320317.368 J-195628.629 K0.000 F150.000
G1 X12.944 Y-70.472 Z-0.200 F150.000
G1 X13.031 Y-67.815 Z-0.200 F150.000
G2 X12.601 Y-67.360 Z-0.200 I0.204 J0.624 K0.000 F150.000
G1 X12.472 Y-67.111 Z-0.200 F150.000
G2 X12.659 Y-66.806 Z-0.200 I0.280 J0.038 K0.000 F150.000
G1 X12.914 Y-66.806 Z-0.200 F150.000
G2 X13.077 Y-66.560 Z-0.200 I0.261 J0.004 K0.000 F150.000
G2 X13.302 Y-66.589 Z-0.200 I0.077 J-0.286 K0.000 F150.000
G1 X13.330 Y-66.678 Z-0.200 F150.000
G1 X13.277 Y-66.958 Z-0.200 F150.000
G1 X13.277 Y-66.958 Z-0.200 F150.000
G1 X13.229 Y-67.215 Z-0.200 F150.000
G3 X13.483 Y-68.090 Z-0.200 I111788.530 J32497.175 K0.000 F150.000
G3 X13.758 Y-68.365 Z-0.200 I11396.368 J11396.089 K0.000 F150.000
G1 X14.120 Y-68.365 Z-0.200 F150.000
G2 X14.639 Y-68.044 Z-0.200 I85365.637 J-138124.937 K0.000 F150.000
G2 X14.776 Y-68.074 Z-0.200 I0.053 J-0.085 K0.000 F150.000
G3 X15.020 Y-68.446 Z-0.200 I11299.079 J7403.150 K0.000 F150.000
G3 X15.773 Y-68.693 Z-0.200 I2939.263 J8985.610 K0.000 F150.000
G1 X16.134 Y-68.693 Z-0.200 F150.000
G3 X16.511 Y-68.355 Z-0.200 I-4.711 J5.630 K0.000 F150.000
G3 X16.448 Y-68.280 Z-0.200 I-773.562 J-641.954 K0.000 F150.000
G3 X16.073 Y-68.565 Z-0.200 I42.125 J-55.716 K0.000 F150.000
G1 X15.993 Y-68.583 Z-0.200 F150.000
G2 X15.014 Y-68.257 Z-0.200 I0.268 J2.437 K0.000 F150.000
G1 X14.914 Y-67.996 Z-0.200 F150.000
G1 X14.935 Y-67.890 Z-0.200 F150.000
G2 X15.648 Y-67.164 Z-0.200 I129697.656 J-127287.331 K0.000 F150.000
G2 X15.994 Y-67.134 Z-0.200 I0.209 J-0.397 K0.000 F150.000
G1 X16.080 Y-67.183 Z-0.200 F150.000
G3 X17.124 Y-68.190 Z-0.200 I1.698 J0.716 K0.000 F150.000
G1 X17.660 Y-68.369 Z-0.200 F150.000
G3 X18.002 Y-68.116 Z-0.200 I0.052 J0.287 K0.000 F150.000
G1 X18.047 Y-67.968 Z-0.200 F150.000
G1 X18.047 Y-67.179 Z-0.200 F150.000
G3 X17.916 Y-66.991 Z-0.200 I-0.244 J-0.030 K0.000 F150.000
G2 X17.986 Y-66.726 Z-0.200 I0.128 J0.108 K0.000 F150.000
G2 X18.557 Y-66.724 Z-0.200 I0.408 J-26.712 K0.000 F150.000
G2 X18.657 Y-66.824 Z-0.200 I0.000 J-0.100 K0.000 F150.000
G1 X18.657 Y-67.085 Z-0.200 F150.000
G1 X18.749 Y-67.160 Z-0.200 F150.000
G2 X18.912 Y-67.351 Z-0.200 I-0.101 J-0.252 K0.000 F150.000
G2 X18.862 Y-67.940 Z-0.200 I-8701.363 J728.586 K0.000 F150.000
G2 X18.641 Y-68.034 Z-0.200 I-0.162 J0.075 K0.000 F150.000
G3 X18.420 Y-68.114 Z-0.200 I-0.043 J-0.225 K0.000 F150.000
G1 X18.452 Y-69.370 Z-0.200 F150.000
G2 X17.845 Y-69.630 Z-0.200 I-0.478 J0.277 K0.000 F150.000
G1 X17.583 Y-69.632 Z-0.200 F150.000
G2 X17.436 Y-69.484 Z-0.200 I0.058 J0.205 K0.000 F150.000
G3 X15.619 Y-69.437 Z-0.200 I-1.041 J-5.063 K0.000 F150.000
G1 X14.711 Y-69.491 Z-0.200 F150.000
G3 X14.389 Y-69.813 Z-0.200 I20159.014 J-20159.273 K0.000 F150.000
G2 X14.132 Y-70.696 Z-0.200 I-302371.868 J87901.567 K0.000 F150.000
G3 X14.243 Y-70.872 Z-0.200 I21270.177 J13375.767 K0.000 F150.000
G3 X16.708 Y-71.077 Z-0.200 I107398.658 J1292134.271 K0.000 F150.000
G2 X17.388 Y-70.982 Z-0.200 I103593.831 J-743021.742 K0.000 F150.000
G3 X17.856 Y-70.515 Z-0.200 I-16668.725 J16669.142 K0.000 F150.000
G1 X17.927 Y-70.486 Z-0.200 F150.000
G1 X21.030 Y-70.503 Z-0.200 F150.000
G3 X21.185 Y-70.317 Z-0.200 I-4308.886 J3576.196 K0.000 F150.000
G2 X21.106 Y-69.223 Z-0.200 I1188990.694 J85075.997 K0.000 F150.000
G2 X21.259 Y-69.131 Z-0.200 I0.100 J0.007 K0.000 F150.000
G3 X21.500 Y-69.282 Z-0.200 I12248.587 J19612.791 K0.000 F150.000
G2 X21.658 Y-69.222 Z-0.200 I235.288 J-612.790 K0.000 F150.000
G1 X21.658 Y-69.187 Z-0.200 F150.000
G2 X21.106 Y-68.915 Z-0.200 I33859.482 J68797.182 K0.000 F150.000
G2 X18.963 Y-68.277 Z-0.200 I206629.631 J693735.989 K0.000 F150.000
G2 X18.899 Y-68.142 Z-0.200 I0.029 J0.096 K0.000 F150.000
G1 X19.015 Y-67.865 Z-0.200 F150.000
G1 X19.015 Y-67.865 Z-0.200 F150.000
G1 X19.117 Y-67.622 Z-0.200 F150.000
G1 X18.950 Y-67.127 Z-0.200 F150.000
G2 X18.979 Y-66.840 Z-0.200 I0.362 J0.108 K0.000 F150.000
G1 X19.052 Y-66.810 Z-0.200 F150.000
G2 X20.651 Y-66.846 Z-0.200 I-139707.973 J-6362136.369 K0.000 F150.000
G1 X20.775 Y-66.681 Z-0.200 F150.000
G1 X20.775 Y-66.681 Z-0.200 F150.000
G3 X21.010 Y-66.142 Z-0.200 I-0.540 J0.556 K0.000 F150.000
G1 X21.010 Y-66.142 Z-0.200 F150.000
G1 X21.105 Y-65.783 Z-0.200 F150.000
G1 X21.185 Y-64.145 Z-0.200 F150.000
G0 Z0.500
G0 X21.104 Y-64.176 Z0.500
G0 X21.104 Y-64.176 Z0.300
G1 X21.104 Y-64.176 Z-0.200 F100.000
G3 X21.103 Y-64.175 Z-0.200 I-0.001 J0.000 K0.000 F150.000
G1 X21.104 Y-64.176 Z-0.200 F150.000
G0 Z0.500
G0 X21.033 Y-64.198 Z0.500
G0 X21.033 Y-64.198 Z0.300
G1 X21.033 Y-64.198 Z-0.200 F100.000
G2 X20.700 Y-63.865 Z-0.200 I27816.135 J27816.302 K0.000 F150.000
G3 X20.538 Y-63.894 Z-0.200 I-0.071 J-0.071 K0.000 F150.000
G2 X20.005 Y-65.050 Z-0.200 I-289256.145 J133326.683 K0.000 F150.000
G2 X19.179 Y-65.805 Z-0.200 I-70645.727 J77296.698 K0.000 F150.000
G2 X18.215 Y-65.903 Z-0.200 I-0.860 J3.691 K0.000 F150.000
G2 X18.090 Y-65.751 Z-0.200 I1209.165 J991.276 K0.000 F150.000
G3 X17.914 Y-65.092 Z-0.200 I-89268.152 J-23862.429 K0.000 F150.000
G1 X17.872 Y-65.035 Z-0.200 F150.000
G3 X17.528 Y-64.809 Z-0.200 I-8789.177 J-13413.604 K0.000 F150.000
G1 X17.492 Y-64.014 Z-0.200 F150.000
G1 X17.454 Y-63.168 Z-0.200 F150.000
G3 X17.107 Y-62.392 Z-0.200 I-23.738 J-10.165 K0.000 F150.000
G3 X16.644 Y-61.902 Z-0.200 I-15.696 J-14.376 K0.000 F150.000
G3 X16.505 Y-61.898 Z-0.200 I-0.072 J-0.069 K0.000 F150.000
G3 X16.200 Y-62.174 Z-0.200 I13780.732 J-15227.965 K0.000 F150.000
G3 X15.530 Y-63.195 Z-0.200 I100.091 J-66.328 K0.000 F150.000
G1 X15.342 Y-63.195 Z-0.200 F150.000
G1 X15.199 Y-63.022 Z-0.200 F150.000
G1 X15.043 Y-62.568 Z-0.200 F150.000
G3 X14.527 Y-61.519 Z-0.200 I-2.619 J-0.638 K0.000 F150.000
G3 X14.221 Y-61.531 Z-0.200 I-0.147 J-0.163 K0.000 F150.000
G3 X13.687 Y-62.721 Z-0.200 I295553.047 J-132655.850 K0.000 F150.000
G3 X13.366 Y-64.273 Z-0.200 I262.325 J-55.110 K0.000 F150.000
G1 X13.240 Y-64.508 Z-0.200 F150.000
G3 X13.069 Y-64.541 Z-0.200 I-0.049 J-0.208 K0.000 F150.000
G2 X12.660 Y-65.000 Z-0.200 I-26931.660 J23995.958 K0.000 F150.000
G1 X12.225 Y-65.000 Z-0.200 F150.000
G3 X11.914 Y-64.782 Z-0.200 I-37248.956 J-53180.054 K0.000 F150.000
G2 X11.995 Y-63.996 Z-0.200 I501470.907 J-51752.640 K0.000 F150.000
G3 X11.809 Y-63.646 Z-0.200 I-0.592 J-0.092 K0.000 F150.000
G2 X10.898 Y-63.019 Z-0.200 I70773.189 J102760.656 K0.000 F150.000
G1 X10.839 Y-63.002 Z-0.200 F150.000
G3 X10.597 Y-63.239 Z-0.200 I0.119 J-0.363 K0.000 F150.000
G1 X10.507 Y-63.829 Z-0.200 F150.000
G3 X10.416 Y-65.107 Z-0.200 I4.203 J-0.941 K0.000 F150.000
G3 X10.589 Y-65.470 Z-0.200 I0.843 J0.179 K0.000 F150.000
G1 X10.752 Y-65.788 Z-0.200 F150.000
G3 X11.282 Y-66.168 Z-0.200 I3.257 J3.986 K0.000 F150.000
G1 X12.180 Y-66.334 Z-0.200 F150.000
G3 X14.488 Y-66.523 Z-0.200 I220.630 J2680.644 K0.000 F150.000
G3 X20.522 Y-66.677 Z-0.200 I7.262 J165.877 K0.000 F150.000
G1 X20.607 Y-66.631 Z-0.200 F150.000
G3 X20.845 Y-66.262 Z-0.200 I-23239.153 J14984.934 K0.000 F150.000
G3 X21.063 Y-64.272 Z-0.200 I-8.992 J1.990 K0.000 F150.000
G1 X21.033 Y-64.198 Z-0.200 F150.000
G0 Z0.500
G0 X20.748 Y-63.804 Z0.500
G0 X20.748 Y-63.804 Z0.300
G1 X20.748 Y-63.804 Z-0.200 F100.000
G3 X20.747 Y-63.803 Z-0.200 I-0.001 J-0.000 K0.000 F150.000
G1 X20.748 Y-63.804 Z-0.200 F150.000
G0 Z0.500
G0 X20.356 Y-64.099 Z0.500
G0 X20.356 Y-64.099 Z0.300
G1 X20.356 Y-64.099 Z-0.200 F100.000
G1 X20.195 Y-64.447 Z-0.200 F150.000
G1 X20.195 Y-64.447 Z-0.200 F150.000
G1 X20.058 Y-64.745 Z-0.200 F150.000
G2 X20.117 Y-64.473 Z-0.200 I31970.670 J-7017.916 K0.000 F150.000
G2 X20.356 Y-64.099 Z-0.200 I27137.217 J-17283.275 K0.000 F150.000
G0 Z0.500
G0 X21.027 Y-65.735 Z0.500
G0 X21.027 Y-65.735 Z0.300
G1 X21.027 Y-65.735 Z-0.200 F100.000
G2 X21.012 Y-65.821 Z-0.200 I-10699.327 J1880.458 K0.000 F150.000
G3 X21.027 Y-65.735 Z-0.200 I-0.196 J0.079 K0.000 F150.000
G0 Z0.500
G0 X20.865 Y-66.379 Z0.500
G0 X20.865 Y-66.379 Z0.300
G1 X20.865 Y-66.379 Z-0.200 F100.000
G1 X20.845 Y-66.456 Z-0.200 F150.000
G2 X20.612 Y-66.765 Z-0.200 I-29583.817 J22333.331 K0.000 F150.000
G1 X19.903 Y-66.749 Z-0.200 F150.000
G1 X20.521 Y-66.757 Z-0.200 F150.000
G1 X20.588 Y-66.745 Z-0.200 F150.000
G3 X20.865 Y-66.379 Z-0.200 I-0.425 J0.609 K0.000 F150.000
G0 Z0.500
G0 X19.007 Y-66.737 Z0.500
G0 X19.007 Y-66.737 Z0.300
G1 X19.007 Y-66.737 Z-0.200 F100.000
G1 X18.691 Y-66.733 Z-0.200 F150.000
G2 X18.737 Y-67.047 Z-0.200 I-0.285 J-0.202 K0.000 F150.000
G3 X18.876 Y-67.162 Z-0.200 I7488.464 J9023.032 K0.000 F150.000
G2 X18.994 Y-66.739 Z-0.200 I0.336 J0.134 K0.000 F150.000
G1 X19.007 Y-66.737 Z-0.200 F150.000
G0 Z0.500
G0 X18.815 Y-66.815 Z0.500
G0 X18.815 Y-66.815 Z0.300
G1 X18.815 Y-66.815 Z-0.200 F100.000
G1 X18.815 Y-66.815 Z-0.200 F150.000
G1 X18.815 Y-66.815 Z-0.200 F150.000
G1 X18.815 Y-66.815 Z-0.200 F150.000
G0 Z0.500
G0 X18.981 Y-67.478 Z0.500
G0 X18.981 Y-67.478 Z0.300
G1 X18.981 Y-67.478 Z-0.200 F100.000
G2 X18.954 Y-67.805 Z-0.200 I-4915.488 J411.582 K0.000 F150.000
G3 X18.981 Y-67.478 Z-0.200 I-0.169 J0.179 K0.000 F150.000
G0 Z0.500
G0 X18.840 Y-68.076 Z0.500
G0 X18.840 Y-68.076 Z0.300
G1 X18.840 Y-68.076 Z-0.200 F100.000
G2 X18.570 Y-68.115 Z-0.200 I-0.249 J0.780 K0.000 F150.000
G1 X18.501 Y-68.158 Z-0.200 F150.000
G1 X18.512 Y-68.581 Z-0.200 F150.000
G2 X18.666 Y-68.410 Z-0.200 I0.180 J-0.007 K0.000 F150.000
G1 X18.975 Y-68.364 Z-0.200 F150.000
G2 X18.840 Y-68.076 Z-0.200 I0.025 J0.187 K0.000 F150.000
G0 Z0.500
G0 X18.743 Y-68.192 Z0.500
G0 X18.743 Y-68.192 Z0.300
G1 X18.743 Y-68.192 Z-0.200 F100.000
G3 X18.582 Y-68.202 Z-0.200 I-0.072 J-0.139 K0.000 F150.000
G1 X18.586 Y-68.352 Z-0.200 F150.000
G2 X18.777 Y-68.312 Z-0.200 I0.218 J-0.572 K0.000 F150.000
G2 X18.743 Y-68.192 Z-0.200 I0.075 J0.087 K0.000 F150.000
G0 Z0.500
G0 X18.797 Y-68.455 Z0.500
G0 X18.797 Y-68.455 Z0.300
G1 X18.797 Y-68.455 Z-0.200 F100.000
G3 X18.677 Y-68.489 Z-0.200 I0.168 J-0.814 K0.000 F150.000
G3 X18.592 Y-68.582 Z-0.200 I0.015 J-0.099 K0.000 F150.000
G3 X18.546 Y-69.384 Z-0.200 I5357.032 J-306.871 K0.000 F150.000
G3 X18.657 Y-69.489 Z-0.200 I0.100 J-0.006 K0.000 F150.000
G1 X19.126 Y-69.435 Z-0.200 F150.000
G2 X20.700 Y-69.279 Z-0.200 I4.533 J-37.615 K0.000 F150.000
G3 X20.717 Y-68.949 Z-0.200 I-0.086 J0.170 K0.000 F150.000
G2 X19.061 Y-68.443 Z-0.200 I3.187 J13.403 K0.000 F150.000
G3 X18.797 Y-68.455 Z-0.200 I-0.096 J-0.826 K0.000 F150.000
G0 Z0.500
G0 X17.933 Y-68.178 Z0.500
G0 X17.933 Y-68.178 Z0.300
G1 X17.933 Y-68.178 Z-0.200 F100.000
G3 X17.945 Y-68.124 Z-0.200 I-0.263 J0.084 K0.000 F150.000
G1 X17.945 Y-68.124 Z-0.200 F150.000
G1 X17.994 Y-67.994 Z-0.200 F150.000
G1 X18.001 Y-67.161 Z-0.200 F150.000
G3 X17.771 Y-66.976 Z-0.200 I-0.263 J-0.091 K0.000 F150.000
G2 X16.458 Y-66.866 Z-0.200 I1820.816 J21842.550 K0.000 F150.000
G1 X16.409 Y-66.875 Z-0.200 F150.000
G3 X16.253 Y-67.271 Z-0.200 I0.679 J-0.496 K0.000 F150.000
G2 X16.399 Y-67.653 Z-0.200 I-56167.053 J-21356.749 K0.000 F150.000
G3 X17.375 Y-68.255 Z-0.200 I3.928 J5.278 K0.000 F150.000
G1 X17.375 Y-68.255 Z-0.200 F150.000
G3 X17.662 Y-68.312 Z-0.200 I0.245 J0.488 K0.000 F150.000
G3 X17.842 Y-68.310 Z-0.200 I0.088 J0.187 K0.000 F150.000
G3 X17.933 Y-68.178 Z-0.200 I-0.172 J0.216 K0.000 F150.000
G0 Z0.500
G0 X17.807 Y-66.906 Z0.500
G0 X17.807 Y-66.906 Z0.300
G1 X17.807 Y-66.906 Z-0.200 F100.000
G2 X17.841 Y-66.720 Z-0.200 I0.302 J0.040 K0.000 F150.000
G1 X17.863 Y-66.709 Z-0.200 F150.000
G2 X14.481 Y-66.603 Z-0.200 I482.829 J15419.781 K0.000 F150.000
G2 X13.318 Y-66.508 Z-0.200 I60.408 J746.890 K0.000 F150.000
G2 X13.394 Y-66.770 Z-0.200 I-0.096 J-0.170 K0.000 F150.000
G2 X13.763 Y-66.685 Z-0.200 I0.647 J-1.965 K0.000 F150.000
G1 X15.363 Y-66.737 Z-0.200 F150.000
G2 X15.537 Y-66.917 Z-0.200 I-0.006 J-0.180 K0.000 F150.000
G1 X15.537 Y-67.163 Z-0.200 F150.000
G2 X15.994 Y-67.054 Z-0.200 I0.319 J-0.328 K0.000 F150.000
G2 X16.179 Y-67.193 Z-0.200 I-0.029 J-0.231 K0.000 F150.000
G2 X16.352 Y-66.815 Z-0.200 I1.098 J-0.275 K0.000 F150.000
G1 X16.465 Y-66.787 Z-0.200 F150.000
G3 X17.777 Y-66.896 Z-0.200 I1822.134 J21842.513 K0.000 F150.000
G1 X17.807 Y-66.906 Z-0.200 F150.000
G0 Z0.500
G0 X17.731 Y-66.812 Z0.500
G0 X17.731 Y-66.812 Z0.300
G1 X17.731 Y-66.812 Z-0.200 F100.000
G1 X17.738 Y-66.785 Z-0.200 F150.000
G1 X17.210 Y-66.768 Z-0.200 F150.000
G1 X17.731 Y-66.812 Z-0.200 F150.000
G0 Z0.500
G0 X18.253 Y-65.823 Z0.500
G0 X18.253 Y-65.823 Z0.300
G1 X18.253 Y-65.823 Z-0.200 F100.000
G1 X18.508 Y-65.823 Z-0.200 F150.000
G2 X18.131 Y-65.575 Z-0.200 I13774.780 J21023.442 K0.000 F150.000
G1 X18.124 Y-65.567 Z-0.200 F150.000
G3 X18.253 Y-65.823 Z-0.200 I0.538 J0.110 K0.000 F150.000
G0 Z0.500
G0 X18.049 Y-65.288 Z0.500
G0 X18.049 Y-65.288 Z0.300
G1 X18.049 Y-65.288 Z-0.200 F100.000
G3 X18.006 Y-65.128 Z-0.200 I-0.116 J0.055 K0.000 F150.000
G1 X18.049 Y-65.288 Z-0.200 F150.000
G0 Z0.500
G0 X17.817 Y-64.903 Z0.500
G0 X17.817 Y-64.903 Z0.300
G1 X17.817 Y-64.903 Z-0.200 F100.000
G2 X17.659 Y-64.668 Z-0.200 I0.306 J0.376 K0.000 F150.000
G2 X17.561 Y-63.762 Z-0.200 I37618.779 J4088.812 K0.000 F150.000
G3 X17.606 Y-64.765 Z-0.200 I14128.303 J639.050 K0.000 F150.000
G2 X17.817 Y-64.903 Z-0.200 I-5496.675 J-8389.238 K0.000 F150.000
G0 Z0.500
G0 X16.358 Y-66.742 Z0.500
G0 X16.358 Y-66.742 Z0.300
G1 X16.358 Y-66.742 Z-0.200 F100.000
G1 X15.513 Y-66.715 Z-0.200 F150.000
G2 X15.617 Y-67.003 Z-0.200 I-0.224 J-0.245 K0.000 F150.000
G2 X16.146 Y-67.031 Z-0.200 I0.234 J-0.584 K0.000 F150.000
G2 X16.358 Y-66.742 Z-0.200 I0.377 J-0.054 K0.000 F150.000
G0 Z0.500
G0 X16.153 Y-66.815 Z0.500
G0 X16.153 Y-66.815 Z0.300
G1 X16.153 Y-66.815 Z-0.200 F100.000
G1 X15.663 Y-66.800 Z-0.200 F150.000
G1 X15.692 Y-66.898 Z-0.200 F150.000
G2 X16.103 Y-66.921 Z-0.200 I0.162 J-0.796 K0.000 F150.000
G2 X16.153 Y-66.815 Z-0.200 I0.239 J-0.048 K0.000 F150.000
G0 Z0.500
G0 X15.468 Y-66.958 Z0.500
G0 X15.468 Y-66.958 Z0.300
G1 X15.468 Y-66.958 Z-0.200 F100.000
G3 X15.457 Y-66.917 Z-0.200 I-0.515 J-0.107 K0.000 F150.000
G3 X15.361 Y-66.817 Z-0.200 I-0.100 J-0.000 K0.000 F150.000
G1 X13.761 Y-66.765 Z-0.200 F150.000
G1 X13.585 Y-66.799 Z-0.200 F150.000
G3 X13.355 Y-66.941 Z-0.200 I-0.037 J-0.197 K0.000 F150.000
G3 X13.468 Y-67.861 Z-0.200 I10696.237 J1314.056 K0.000 F150.000
G3 X13.621 Y-68.059 Z-0.200 I0.393 J0.145 K0.000 F150.000
G1 X13.749 Y-68.203 Z-0.200 F150.000
G3 X14.338 Y-68.219 Z-0.200 I0.342 J1.716 K0.000 F150.000
G1 X14.709 Y-67.969 Z-0.200 F150.000
G3 X15.269 Y-67.486 Z-0.200 I-0.516 J1.164 K0.000 F150.000
G3 X15.468 Y-66.958 Z-0.200 I-0.316 J0.420 K0.000 F150.000
G0 Z0.500
G0 X14.836 Y-67.980 Z0.500
G0 X14.836 Y-67.980 Z0.300
G1 X14.836 Y-67.980 Z-0.200 F100.000
G1 X14.799 Y-68.005 Z-0.200 F150.000
G1 X14.840 Y-68.029 Z-0.200 F150.000
G2 X14.836 Y-67.980 Z-0.200 I0.074 J0.031 K0.000 F150.000
G0 Z0.500
G0 X14.931 Y-69.558 Z0.500
G0 X14.931 Y-69.558 Z0.300
G1 X14.931 Y-69.558 Z-0.200 F100.000
G1 X14.746 Y-69.569 Z-0.200 F150.000
G1 X14.707 Y-69.608 Z-0.200 F150.000
G2 X14.985 Y-69.660 Z-0.200 I0.097 J-0.252 K0.000 F150.000
G2 X15.188 Y-69.543 Z-0.200 I0.319 J-0.318 K0.000 F150.000
G1 X14.931 Y-69.558 Z-0.200 F150.000
G0 Z0.500
G0 X14.887 Y-69.684 Z0.500
G0 X14.887 Y-69.684 Z0.300
G1 X14.887 Y-69.684 Z-0.200 F100.000
G3 X14.734 Y-69.677 Z-0.200 I-0.088 J-0.252 K0.000 F150.000
G3 X14.466 Y-69.904 Z-0.200 I0.139 J-0.436 K0.000 F150.000
G3 X14.537 Y-70.206 Z-0.200 I0.148 J-0.125 K0.000 F150.000
G3 X14.936 Y-70.077 Z-0.200 I0.034 J0.576 K0.000 F150.000
G3 X14.936 Y-69.707 Z-0.200 I-0.347 J0.185 K0.000 F150.000
G3 X14.887 Y-69.684 Z-0.200 I-0.136 J-0.229 K0.000 F150.000
G0 Z0.500
G0 X15.011 Y-69.766 Z0.500
G0 X15.011 Y-69.766 Z0.300
G1 X15.011 Y-69.766 Z-0.200 F100.000
G3 X15.203 Y-70.041 Z-0.200 I0.311 J0.012 K0.000 F150.000
G3 X15.944 Y-70.041 Z-0.200 I0.556 J22497.052 K0.000 F150.000
G1 X16.027 Y-69.997 Z-0.200 F150.000
G3 X16.013 Y-69.778 Z-0.200 I-0.271 J0.093 K0.000 F150.000
G3 X15.878 Y-69.555 Z-0.200 I-0.192 J0.036 K0.000 F150.000
G1 X15.226 Y-69.612 Z-0.200 F150.000
G3 X15.011 Y-69.766 Z-0.200 I0.094 J-0.357 K0.000 F150.000
G0 Z0.500
G0 X15.040 Y-70.021 Z0.500
G0 X15.040 Y-70.021 Z0.300
G1 X15.040 Y-70.021 Z-0.200 F100.000
G2 X14.970 Y-70.143 Z-0.200 I-0.124 J-0.010 K0.000 F150.000
G2 X15.155 Y-70.106 Z-0.200 I501.294 J-2506.204 K0.000 F150.000
G2 X15.040 Y-70.021 Z-0.200 I0.035 J0.167 K0.000 F150.000
G0 Z0.500
G0 X15.071 Y-70.205 Z0.500
G0 X15.071 Y-70.205 Z0.300
G1 X15.071 Y-70.205 Z-0.200 F100.000
G3 X14.776 Y-70.271 Z-0.200 I0.443 J-2.641 K0.000 F150.000
G2 X14.358 Y-70.556 Z-0.200 I-16543.991 J24330.363 K0.000 F150.000
G3 X14.404 Y-70.738 Z-0.200 I0.056 J-0.083 K0.000 F150.000
G3 X15.307 Y-70.823 Z-0.200 I1964.003 J20931.553 K0.000 F150.000
G3 X15.520 Y-70.687 Z-0.200 I-0.159 J0.483 K0.000 F150.000
G3 X15.390 Y-70.171 Z-0.200 I-1.311 J-0.058 K0.000 F150.000
G3 X15.071 Y-70.205 Z-0.200 I0.125 J-2.675 K0.000 F150.000
G0 Z0.500
G0 X15.435 Y-70.121 Z0.500
G0 X15.435 Y-70.121 Z0.300
G1 X15.435 Y-70.121 Z-0.200 F100.000
G2 X15.516 Y-70.238 Z-0.200 I-0.083 J-0.143 K0.000 F150.000
G2 X15.598 Y-70.121 Z-0.200 I0.121 J0.002 K0.000 F150.000
G2 X15.435 Y-70.121 Z-0.200 I-0.012 J4871.732 K0.000 F150.000
G0 Z0.500
G0 X15.614 Y-70.200 Z0.500
G0 X15.614 Y-70.200 Z0.300
G1 X15.614 Y-70.200 Z-0.200 F100.000
G1 X15.685 Y-70.170 Z-0.200 F150.000
G1 X16.424 Y-70.170 Z-0.200 F150.000
G2 X16.526 Y-70.461 Z-0.200 I-0.096 J-0.197 K0.000 F150.000
G2 X16.622 Y-70.818 Z-0.200 I-36099.596 J-9675.183 K0.000 F150.000
G2 X16.436 Y-70.929 Z-0.200 I-0.128 J0.003 K0.000 F150.000
G3 X15.798 Y-70.848 Z-0.200 I-3.669 J-26.239 K0.000 F150.000
G2 X15.614 Y-70.200 Z-0.200 I0.293 J0.433 K0.000 F150.000
G0 Z0.500
G0 X16.040 Y-70.090 Z0.500
G0 X16.040 Y-70.090 Z0.300
G1 X16.040 Y-70.090 Z-0.200 F100.000
G1 X16.254 Y-70.090 Z-0.200 F150.000
G2 X16.120 Y-69.909 Z-0.200 I0.290 J0.355 K0.000 F150.000
G2 X16.040 Y-70.090 Z-0.200 I-0.164 J-0.035 K0.000 F150.000
G0 Z0.500
G0 X16.220 Y-69.943 Z0.500
G0 X16.220 Y-69.943 Z0.300
G1 X16.220 Y-69.943 Z-0.200 F100.000
G3 X16.453 Y-70.041 Z-0.200 I0.210 J0.171 K0.000 F150.000
G3 X17.033 Y-69.838 Z-0.200 I-5.217 J15.804 K0.000 F150.000
G3 X16.998 Y-69.513 Z-0.200 I-0.117 J0.152 K0.000 F150.000
G1 X16.352 Y-69.513 Z-0.200 F150.000
G3 X16.220 Y-69.943 Z-0.200 I0.078 J-0.259 K0.000 F150.000
G0 Z0.500
G0 X16.084 Y-69.723 Z0.500
G0 X16.084 Y-69.723 Z0.300
G1 X16.084 Y-69.723 Z-0.200 F100.000
G2 X16.245 Y-69.480 Z-0.200 I0.701 J-0.287 K0.000 F150.000
G1 X15.964 Y-69.496 Z-0.200 F150.000
G1 X15.979 Y-69.500 Z-0.200 F150.000
G2 X16.084 Y-69.723 Z-0.200 I-0.200 J-0.230 K0.000 F150.000
G0 Z0.500
G0 X16.498 Y-70.114 Z0.500
G0 X16.498 Y-70.114 Z0.300
G1 X16.498 Y-70.114 Z-0.200 F100.000
G1 X16.530 Y-70.124 Z-0.200 F150.000
G2 X16.604 Y-70.300 Z-0.200 I-0.138 J-0.162 K0.000 F150.000
G2 X16.843 Y-70.186 Z-0.200 I0.193 J-0.096 K0.000 F150.000
G1 X17.105 Y-70.252 Z-0.200 F150.000
G2 X17.024 Y-69.927 Z-0.200 I0.061 J0.188 K0.000 F150.000
G2 X16.498 Y-70.114 Z-0.200 I-0.797 J1.408 K0.000 F150.000
G0 Z0.500
G0 X16.651 Y-70.141 Z0.500
G0 X16.651 Y-70.141 Z0.300
G1 X16.651 Y-70.141 Z-0.200 F100.000
G3 X16.653 Y-70.154 Z-0.200 I0.022 J-0.004 K0.000 F150.000
G1 X16.692 Y-70.132 Z-0.200 F150.000
G3 X16.651 Y-70.141 Z-0.200 I-0.019 J-0.013 K0.000 F150.000
G0 Z0.500
G0 X16.755 Y-70.109 Z0.500
G0 X16.755 Y-70.109 Z0.300
G1 X16.755 Y-70.109 Z-0.200 F100.000
G2 X16.901 Y-70.118 Z-0.200 I0.056 J-0.283 K0.000 F150.000
G2 X16.895 Y-70.058 Z-0.200 I0.049 J0.035 K0.000 F150.000
G2 X16.755 Y-70.109 Z-0.200 I-760.720 J2103.540 K0.000 F150.000
G0 Z0.500
G0 X16.788 Y-70.267 Z0.500
G0 X16.788 Y-70.267 Z0.300
G1 X16.788 Y-70.267 Z-0.200 F100.000
G3 X16.632 Y-70.398 Z-0.200 I0.043 J-0.209 K0.000 F150.000
G3 X16.724 Y-70.670 Z-0.200 I0.374 J-0.025 K0.000 F150.000
G1 X16.724 Y-70.670 Z-0.200 F150.000
G3 X16.848 Y-70.906 Z-0.200 I0.484 J0.103 K0.000 F150.000
G3 X17.131 Y-70.882 Z-0.200 I0.112 J0.355 K0.000 F150.000
G3 X17.571 Y-70.600 Z-0.200 I0.017 J0.457 K0.000 F150.000
G3 X17.518 Y-70.440 Z-0.200 I-0.077 J0.064 K0.000 F150.000
G2 X16.823 Y-70.263 Z-0.200 I45816.101 J180490.304 K0.000 F150.000
G3 X16.788 Y-70.267 Z-0.200 I0.008 J-0.214 K0.000 F150.000
G0 Z0.500
G0 X17.075 Y-70.109 Z0.500
G0 X17.075 Y-70.109 Z0.300
G1 X17.075 Y-70.109 Z-0.200 F100.000
G2 X17.046 Y-70.041 Z-0.200 I0.313 J0.172 K0.000 F150.000
G2 X17.269 Y-69.899 Z-0.200 I0.206 J-0.078 K0.000 F150.000
G2 X20.417 Y-69.414 Z-0.200 I3.909 J-14.920 K0.000 F150.000
G2 X20.525 Y-69.504 Z-0.200 I0.009 J-0.100 K0.000 F150.000
G1 X20.590 Y-70.187 Z-0.200 F150.000
G2 X20.416 Y-70.370 Z-0.200 I-0.222 J0.037 K0.000 F150.000
G2 X18.016 Y-70.341 Z-0.200 I60.522 J5100.190 K0.000 F150.000
G2 X17.277 Y-70.277 Z-0.200 I68676.568 J795678.485 K0.000 F150.000
G2 X17.075 Y-70.109 Z-0.200 I0.111 J0.340 K0.000 F150.000
G0 Z0.500
G0 X17.139 Y-69.854 Z0.500
G0 X17.139 Y-69.854 Z0.300
G1 X17.139 Y-69.854 Z-0.200 F100.000
G1 X17.247 Y-69.822 Z-0.200 F150.000
G1 X17.247 Y-69.822 Z-0.200 F150.000
G2 X17.747 Y-69.711 Z-0.200 I0.814 J-2.477 K0.000 F150.000
G2 X17.388 Y-69.559 Z-0.200 I-0.106 J0.249 K0.000 F150.000
G1 X17.136 Y-69.530 Z-0.200 F150.000
G2 X17.139 Y-69.854 Z-0.200 I-0.268 J-0.165 K0.000 F150.000
G0 Z0.500
G0 X17.258 Y-69.735 Z0.500
G0 X17.258 Y-69.735 Z0.300
G1 X17.258 Y-69.735 Z-0.200 F100.000
G1 X17.391 Y-69.697 Z-0.200 F150.000
G3 X17.258 Y-69.625 Z-0.200 I-0.103 J-0.032 K0.000 F150.000
G1 X17.258 Y-69.735 Z-0.200 F150.000
G0 Z0.500
G0 X17.570 Y-70.382 Z0.500
G0 X17.570 Y-70.382 Z0.300
G1 X17.570 Y-70.382 Z-0.200 F100.000
G2 X17.645 Y-70.612 Z-0.200 I-0.047 J-0.142 K0.000 F150.000
G2 X17.912 Y-70.412 Z-0.200 I0.374 J-0.219 K0.000 F150.000
G1 X17.570 Y-70.382 Z-0.200 F150.000
G0 Z0.500
G0 X16.821 Y-70.980 Z0.500
G0 X16.821 Y-70.980 Z0.300
G1 X16.821 Y-70.980 Z-0.200 F100.000
G2 X16.699 Y-70.808 Z-0.200 I0.174 J0.253 K0.000 F150.000
G2 X16.627 Y-70.990 Z-0.200 I-0.161 J-0.042 K0.000 F150.000
G3 X16.821 Y-70.980 Z-0.200 I0.076 J0.434 K0.000 F150.000
G0 Z0.500
G0 X15.775 Y-70.919 Z0.500
G0 X15.775 Y-70.919 Z0.300
G1 X15.775 Y-70.919 Z-0.200 F100.000
G2 X15.583 Y-70.727 Z-0.200 I0.107 J0.300 K0.000 F150.000
G2 X15.364 Y-70.885 Z-0.200 I-0.363 J0.272 K0.000 F150.000
G1 X15.463 Y-70.893 Z-0.200 F150.000
G1 X15.463 Y-70.893 Z-0.200 F150.000
G1 X15.775 Y-70.919 Z-0.200 F150.000
G0 Z0.500
G0 X16.118 Y-72.091 Z0.500
G0 X16.118 Y-72.091 Z0.300
G1 X16.118 Y-72.091 Z-0.200 F100.000
G2 X15.926 Y-72.361 Z-0.200 I-8655.849 J6163.362 K0.000 F150.000
G2 X16.162 Y-72.218 Z-0.200 I0.337 J-0.293 K0.000 F150.000
G2 X16.342 Y-72.287 Z-0.200 I-0.036 J-0.365 K0.000 F150.000
G2 X16.138 Y-72.091 Z-0.200 I7438.588 J7764.384 K0.000 F150.000
G1 X16.118 Y-72.091 Z-0.200 F150.000
G0 Z0.500
G0 X16.815 Y-72.540 Z0.500
G0 X16.815 Y-72.540 Z0.300
G1 X16.815 Y-72.540 Z-0.200 F100.000
G3 X16.934 Y-72.551 Z-0.200 I0.070 J0.105 K0.000 F150.000
G1 X16.815 Y-72.540 Z-0.200 F150.000
G0 Z0.500
G0 X17.623 Y-72.551 Z0.500
G0 X17.623 Y-72.551 Z0.300
G1 X17.623 Y-72.551 Z-0.200 F100.000
G3 X17.687 Y-72.494 Z-0.200 I0.008 J0.055 K0.000 F150.000
G1 X17.623 Y-72.551 Z-0.200 F150.000
G0 Z0.500
G0 X18.396 Y-74.881 Z0.500
G0 X18.396 Y-74.881 Z0.300
G1 X18.396 Y-74.881 Z-0.200 F100.000
G3 X18.580 Y-74.870 Z-0.200 I0.085 J0.118 K0.000 F150.000
G1 X18.580 Y-74.853 Z-0.200 F150.000
G2 X18.396 Y-74.881 Z-0.200 I-0.134 J0.268 K0.000 F150.000
G0 Z0.500
G0 X18.483 Y-75.533 Z0.500
G0 X18.483 Y-75.533 Z0.300
G1 X18.483 Y-75.533 Z-0.200 F100.000
G1 X18.472 Y-75.534 Z-0.200 F150.000
G1 X18.120 Y-75.581 Z-0.200 F150.000
G2 X18.245 Y-75.745 Z-0.200 I-0.041 J-0.161 K0.000 F150.000
G3 X18.254 Y-76.105 Z-0.200 I0.652 J-0.164 K0.000 F150.000
G2 X18.828 Y-75.828 Z-0.200 I0.507 J-0.318 K0.000 F150.000
G2 X18.973 Y-75.468 Z-0.200 I0.143 J0.152 K0.000 F150.000
G1 X18.483 Y-75.533 Z-0.200 F150.000
G0 Z0.500
G0 X18.504 Y-75.691 Z0.500
G0 X18.504 Y-75.691 Z0.300
G1 X18.504 Y-75.691 Z-0.200 F100.000
G2 X18.597 Y-75.679 Z-0.200 I4680.786 J-35344.647 K0.000 F150.000
G1 X18.597 Y-75.690 Z-0.200 F150.000
G3 X18.405 Y-75.759 Z-0.200 I0.019 J-0.354 K0.000 F150.000
G3 X18.400 Y-75.705 Z-0.200 I-0.210 J0.007 K0.000 F150.000
G2 X18.504 Y-75.691 Z-0.200 I4680.890 J-35344.633 K0.000 F150.000
G0 Z0.500
G0 X18.493 Y-75.612 Z0.500
G0 X18.493 Y-75.612 Z0.300
G1 X18.493 Y-75.612 Z-0.200 F100.000
G2 X18.687 Y-75.587 Z-0.200 I13214.885 J-99785.583 K0.000 F150.000
G3 X18.688 Y-75.762 Z-0.200 I0.152 J-0.087 K0.000 F150.000
G3 X18.325 Y-75.918 Z-0.200 I-0.011 J-0.471 K0.000 F150.000
G3 X18.289 Y-75.639 Z-0.200 I-0.425 J0.087 K0.000 F150.000
G2 X18.493 Y-75.612 Z-0.200 I13215.090 J-99785.556 K0.000 F150.000
G0 Z0.500
G0 X18.589 Y-75.932 Z0.500
G0 X18.589 Y-75.932 Z0.300
G1 X18.589 Y-75.932 Z-0.200 F100.000
G2 X19.765 Y-75.817 Z-0.200 I115647.435 J-1176924.295 K0.000 F150.000
G2 X19.946 Y-76.025 Z-0.200 I-0.065 J-0.240 K0.000 F150.000
G2 X20.067 Y-76.454 Z-0.200 I-0.531 J-0.381 K0.000 F150.000
G2 X20.072 Y-76.764 Z-0.200 I-0.372 J-0.161 K0.000 F150.000
G2 X19.339 Y-77.003 Z-0.200 I-2.586 J6.687 K0.000 F150.000
G3 X18.657 Y-77.016 Z-0.200 I110.498 J-5990.428 K0.000 F150.000
G2 X18.560 Y-76.948 Z-0.200 I-0.002 J0.100 K0.000 F150.000
G3 X18.312 Y-76.219 Z-0.200 I-98635.767 J-33608.561 K0.000 F150.000
G2 X18.344 Y-76.109 Z-0.200 I0.095 J0.032 K0.000 F150.000
G2 X18.589 Y-75.932 Z-0.200 I0.418 J-0.321 K0.000 F150.000
G0 Z0.500
G0 X18.846 Y-75.742 Z0.500
G0 X18.846 Y-75.742 Z0.300
G1 X18.846 Y-75.742 Z-0.200 F100.000
G2 X18.888 Y-75.591 Z-0.200 I0.081 J0.059 K0.000 F150.000
G2 X19.736 Y-75.389 Z-0.200 I0.777 J-1.377 K0.000 F150.000
G2 X20.739 Y-75.263 Z-0.200 I1.975 J-11.677 K0.000 F150.000
G1 X20.779 Y-75.319 Z-0.200 F150.000
G1 X20.901 Y-75.755 Z-0.200 F150.000
G2 X21.110 Y-76.953 Z-0.200 I-4.190 J-1.350 K0.000 F150.000
G2 X20.359 Y-77.267 Z-0.200 I-3.949 J8.405 K0.000 F150.000
G2 X19.623 Y-77.362 Z-0.200 I-27894.321 J214282.876 K0.000 F150.000
G1 X19.542 Y-77.426 Z-0.200 F150.000
G2 X19.478 Y-77.477 Z-0.200 I-0.052 J-0.000 K0.000 F150.000
G2 X19.470 Y-77.944 Z-0.200 I-1.170 J-0.214 K0.000 F150.000
G2 X19.243 Y-78.489 Z-0.200 I-79163.373 J33076.628 K0.000 F150.000
G2 X18.463 Y-78.929 Z-0.200 I-1.933 J2.515 K0.000 F150.000
G2 X18.198 Y-78.950 Z-0.200 I-0.150 J0.206 K0.000 F150.000
G1 X18.002 Y-78.744 Z-0.200 F150.000
G2 X17.779 Y-78.467 Z-0.200 I0.223 J0.408 K0.000 F150.000
G2 X17.856 Y-78.366 Z-0.200 I0.136 J-0.022 K0.000 F150.000
G1 X17.856 Y-78.366 Z-0.200 F150.000
G2 X18.548 Y-78.120 Z-0.200 I4.225 J-10.820 K0.000 F150.000
G2 X18.786 Y-77.912 Z-0.200 I8272.548 J-9449.373 K0.000 F150.000
G1 X18.786 Y-77.638 Z-0.200 F150.000
G2 X18.543 Y-77.508 Z-0.200 I19884.552 J37154.847 K0.000 F150.000
G1 X17.621 Y-77.508 Z-0.200 F150.000
G2 X16.740 Y-77.737 Z-0.200 I-57289.029 J220850.237 K0.000 F150.000
G2 X16.261 Y-77.496 Z-0.200 I0.186 J0.965 K0.000 F150.000
G2 X16.244 Y-77.363 Z-0.200 I0.065 J0.076 K0.000 F150.000
G3 X16.750 Y-76.628 Z-0.200 I-305652.234 J210294.215 K0.000 F150.000
G2 X16.940 Y-75.826 Z-0.200 I16403.181 J-3895.946 K0.000 F150.000
G2 X17.037 Y-75.749 Z-0.200 I0.097 J-0.023 K0.000 F150.000
G3 X18.052 Y-75.646 Z-0.200 I-0.424 J9.187 K0.000 F150.000
G2 X18.165 Y-75.745 Z-0.200 I0.014 J-0.099 K0.000 F150.000
G3 X18.299 Y-76.567 Z-0.200 I1.546 J-0.170 K0.000 F150.000
G1 X18.426 Y-77.022 Z-0.200 F150.000
G2 X18.687 Y-77.162 Z-0.200 I-29535.995 J-55189.221 K0.000 F150.000
G1 X19.562 Y-77.078 Z-0.200 F150.000
G2 X20.158 Y-76.874 Z-0.200 I36868.703 J-107508.330 K0.000 F150.000
G2 X20.287 Y-76.667 Z-0.200 I3684.648 J-2298.918 K0.000 F150.000
G2 X20.025 Y-75.835 Z-0.200 I166032.162 J52337.656 K0.000 F150.000
G1 X19.850 Y-75.768 Z-0.200 F150.000
G1 X19.850 Y-75.768 Z-0.200 F150.000
G1 X19.653 Y-75.693 Z-0.200 F150.000
G3 X18.939 Y-75.782 Z-0.200 I42149.169 J-337965.408 K0.000 F150.000
G2 X18.846 Y-75.742 Z-0.200 I-0.012 J0.099 K0.000 F150.000
G0 Z0.500
G0 X20.153 Y-76.509 Z0.500
G0 X20.153 Y-76.509 Z0.300
G1 X20.153 Y-76.509 Z-0.200 F100.000
G2 X20.167 Y-76.707 Z-0.200 I-0.298 J-0.120 K0.000 F150.000
G1 X20.199 Y-76.656 Z-0.200 F150.000
G1 X20.153 Y-76.509 Z-0.200 F150.000
G0 Z0.500
G0 X21.085 Y-76.124 Z0.500
G0 X21.085 Y-76.124 Z0.300
G1 X21.085 Y-76.124 Z-0.200 F100.000
G2 X21.207 Y-75.947 Z-0.200 I0.170 J0.013 K0.000 F150.000
G2 X21.030 Y-75.924 Z-0.200 I-0.053 J0.284 K0.000 F150.000
G1 X21.085 Y-76.124 Z-0.200 F150.000
G0 Z0.500
G0 X21.165 Z0.500
G0 X21.165 Z0.300
G1 X21.165 Y-76.124 Z-0.200 F100.000
G1 X21.165 Y-76.435 Z-0.200 F150.000
G3 X21.296 Y-76.530 Z-0.200 I0.100 J-0.000 K0.000 F150.000
G3 X21.616 Y-76.428 Z-0.200 I-1182.686 J3726.857 K0.000 F150.000
G3 X22.782 Y-76.233 Z-0.200 I-6007.653 J35884.582 K0.000 F150.000
G1 X22.859 Y-76.169 Z-0.200 F150.000
G2 X22.995 Y-75.802 Z-0.200 I4742.903 J-1754.270 K0.000 F150.000
G3 X22.901 Y-75.667 Z-0.200 I-0.094 J0.035 K0.000 F150.000
G1 X22.548 Y-75.667 Z-0.200 F150.000
G3 X21.239 Y-76.017 Z-0.200 I34.308 J-131.072 K0.000 F150.000
G3 X21.165 Y-76.113 Z-0.200 I0.026 J-0.097 K0.000 F150.000
G1 X21.165 Y-76.124 Z-0.200 F150.000
G0 Z0.500
G0 X21.172 Y-75.883 Z0.500
G0 X21.172 Y-75.883 Z0.300
G1 X21.172 Y-75.883 Z-0.200 F100.000
G2 X21.001 Y-75.767 Z-0.200 I0.006 J0.193 K0.000 F150.000
G2 X21.030 Y-75.450 Z-0.200 I0.397 J0.123 K0.000 F150.000
G1 X21.101 Y-75.421 Z-0.200 F150.000
G1 X21.468 Y-75.421 Z-0.200 F150.000
G2 X24.672 Y-74.756 Z-0.200 I14.613 J-62.382 K0.000 F150.000
G2 X24.967 Y-74.901 Z-0.200 I-0.027 J-0.428 K0.000 F150.000
G2 X24.904 Y-75.196 Z-0.200 I-0.212 J-0.109 K0.000 F150.000
G2 X24.601 Y-75.284 Z-0.200 I-5.886 J19.610 K0.000 F150.000
G2 X22.637 Y-75.537 Z-0.200 I-34409.257 J267280.627 K0.000 F150.000
G2 X21.255 Y-75.867 Z-0.200 I-43.696 J179.762 K0.000 F150.000
G2 X21.172 Y-75.883 Z-0.200 I-0.077 J0.177 K0.000 F150.000
G0 Z0.500
G0 X20.921 Y-75.530 Z0.500
G0 X20.921 Y-75.530 Z0.300
G1 X20.921 Y-75.530 Z-0.200 F100.000
G2 X21.039 Y-75.373 Z-0.200 I0.134 J0.022 K0.000 F150.000
G2 X20.865 Y-75.330 Z-0.200 I-0.041 J0.206 K0.000 F150.000
G1 X20.921 Y-75.530 Z-0.200 F150.000
G0 Z0.500
G0 X20.709 Y-75.176 Z0.500
G0 X20.709 Y-75.176 Z0.300
G1 X20.709 Y-75.176 Z-0.200 F100.000
G3 X20.694 Y-75.175 Z-0.200 I-0.008 J-0.003 K0.000 F150.000
G1 X20.709 Y-75.176 Z-0.200 F150.000
G0 Z0.500
G0 X21.162 Y-76.572 Z0.500
G0 X21.162 Y-76.572 Z0.300
G1 X21.162 Y-76.572 Z-0.200 F100.000
G1 X21.194 Y-76.775 Z-0.200 F150.000
G2 X21.262 Y-76.606 Z-0.200 I0.294 J-0.021 K0.000 F150.000
G2 X21.162 Y-76.572 Z-0.200 I-0.026 J0.086 K0.000 F150.000
G0 Z0.500
G0 X22.713 Y-76.326 Z0.500
G0 X22.713 Y-76.326 Z0.300
G1 X22.713 Y-76.326 Z-0.200 F100.000
G3 X22.820 Y-76.302 Z-0.200 I0.046 J0.046 K0.000 F150.000
G2 X22.713 Y-76.326 Z-0.200 I-0.109 J0.238 K0.000 F150.000
G0 Z0.500
G0 X23.063 Y-75.699 Z0.500
G0 X23.063 Y-75.699 Z0.300
G1 X23.063 Y-75.699 Z-0.200 F100.000
G2 X23.132 Y-75.554 Z-0.200 I0.258 J-0.032 K0.000 F150.000
G1 X22.872 Y-75.587 Z-0.200 F150.000
G2 X23.063 Y-75.699 Z-0.200 I0.028 J-0.171 K0.000 F150.000
G0 Z0.500
G0 X23.767 Y-74.856 Z0.500
G0 X23.767 Y-74.856 Z0.300
G1 X23.767 Y-74.856 Z-0.200 F100.000
G1 X24.094 Y-74.784 Z-0.200 F150.000
G2 X23.957 Y-74.572 Z-0.200 I0.041 J0.176 K0.000 F150.000
G2 X23.767 Y-74.856 Z-0.200 I-0.404 J0.065 K0.000 F150.000
G0 Z0.500
G0 X24.056 Y-74.650 Z0.500
G0 X24.056 Y-74.650 Z0.300
G1 X24.056 Y-74.650 Z-0.200 F100.000
G3 X24.372 Y-74.689 Z-0.200 I0.176 J0.126 K0.000 F150.000
G3 X24.066 Y-74.374 Z-0.200 I-0.215 J0.098 K0.000 F150.000
G3 X24.037 Y-74.619 Z-0.200 I0.281 J-0.158 K0.000 F150.000
G3 X24.056 Y-74.650 Z-0.200 I0.195 J0.095 K0.000 F150.000
G0 Z0.500
G0 X24.123 Y-74.279 Z0.500
G0 X24.123 Y-74.279 Z0.300
G1 X24.123 Y-74.279 Z-0.200 F100.000
G2 X24.367 Y-74.375 Z-0.200 I0.018 J-0.312 K0.000 F150.000
G3 X24.191 Y-74.257 Z-0.200 I-0.106 J0.033 K0.000 F150.000
G1 X24.123 Y-74.279 Z-0.200 F150.000
G0 Z0.500
G0 X24.469 Y-74.656 Z0.500
G0 X24.469 Y-74.656 Z0.300
G1 X24.469 Y-74.656 Z-0.200 F100.000
G1 X24.453 Y-74.706 Z-0.200 F150.000
G1 X24.537 Y-74.687 Z-0.200 F150.000
G2 X24.469 Y-74.656 Z-0.200 I0.014 J0.120 K0.000 F150.000
G0 Z0.500
G0 X21.026 Y-70.400 Z0.500
G0 X21.026 Y-70.400 Z0.300
G1 X21.026 Y-70.400 Z-0.200 F100.000
G3 X21.089 Y-70.109 Z-0.200 I-0.150 J0.185 K0.000 F150.000
G1 X21.083 Y-70.129 Z-0.200 F150.000
G2 X20.669 Y-70.170 Z-0.200 I-0.240 J0.317 K0.000 F150.000
G2 X20.487 Y-70.420 Z-0.200 I-0.269 J0.004 K0.000 F150.000
G1 X20.992 Y-70.423 Z-0.200 F150.000
G3 X21.026 Y-70.400 Z-0.200 I-0.116 J0.208 K0.000 F150.000
G0 Z0.500
G0 X20.985 Y-70.332 Z0.500
G0 X20.985 Y-70.332 Z0.300
G1 X20.985 Y-70.332 Z-0.200 F100.000
G3 X21.020 Y-70.261 Z-0.200 I-0.040 J0.064 K0.000 F150.000
G2 X20.733 Y-70.273 Z-0.200 I-0.159 J0.386 K0.000 F150.000
G2 X20.701 Y-70.341 Z-0.200 I-0.089 J-0.001 K0.000 F150.000
G1 X20.955 Y-70.343 Z-0.200 F150.000
G3 X20.985 Y-70.332 Z-0.200 I-0.010 J0.075 K0.000 F150.000
G0 Z0.500
G0 X20.937 Y-70.123 Z0.500
G0 X20.937 Y-70.123 Z0.300
G1 X20.937 Y-70.123 Z-0.200 F100.000
G3 X21.008 Y-69.789 Z-0.200 I-0.095 J0.195 K0.000 F150.000
G3 X20.773 Y-69.759 Z-0.200 I-0.153 J-0.269 K0.000 F150.000
G3 X20.702 Y-70.094 Z-0.200 I0.095 J-0.195 K0.000 F150.000
G3 X20.937 Y-70.123 Z-0.200 I0.153 J0.269 K0.000 F150.000
G0 Z0.500
G0 X21.064 Y-69.756 Z0.500
G0 X21.064 Y-69.756 Z0.300
G1 X21.064 Y-69.756 Z-0.200 F100.000
G1 X21.026 Y-69.229 Z-0.200 F150.000
G2 X21.190 Y-69.046 Z-0.200 I0.148 J0.032 K0.000 F150.000
G3 X20.787 Y-68.904 Z-0.200 I-0.620 J-1.117 K0.000 F150.000
G2 X20.528 Y-69.375 Z-0.200 I-0.183 J-0.206 K0.000 F150.000
G2 X20.629 Y-69.753 Z-0.200 I-0.322 J-0.289 K0.000 F150.000
G2 X21.064 Y-69.756 Z-0.200 I0.216 J-0.224 K0.000 F150.000
G0 Z0.500
G0 X20.973 Y-69.609 Z0.500
G0 X20.973 Y-69.609 Z0.300
G1 X20.973 Y-69.609 Z-0.200 F100.000
G2 X20.972 Y-69.102 Z-0.200 I0.945 J0.256 K0.000 F150.000
G1 X21.014 Y-69.055 Z-0.200 F150.000
G1 X20.950 Y-69.035 Z-0.200 F150.000
G2 X20.667 Y-69.442 Z-0.200 I-0.285 J-0.104 K0.000 F150.000
G2 X20.697 Y-69.620 Z-0.200 I-0.319 J-0.145 K0.000 F150.000
G2 X20.973 Y-69.609 Z-0.200 I0.153 J-0.378 K0.000 F150.000
G0 Z0.500
G0 X20.887 Y-69.519 Z0.500
G0 X20.887 Y-69.519 Z0.300
G1 X20.887 Y-69.519 Z-0.200 F100.000
G1 X20.883 Y-69.460 Z-0.200 F150.000
G1 X20.766 Y-69.502 Z-0.200 F150.000
G1 X20.768 Y-69.521 Z-0.200 F150.000
G2 X20.887 Y-69.519 Z-0.200 I0.062 J-0.190 K0.000 F150.000
G0 Z0.500
G0 X20.197 Y-68.728 Z0.500
G0 X20.197 Y-68.728 Z0.300
G1 X20.197 Y-68.728 Z-0.200 F100.000
G2 X19.910 Y-68.642 Z-0.200 I28452.917 J95527.508 K0.000 F150.000
G3 X20.197 Y-68.728 Z-0.200 I0.822 J2.235 K0.000 F150.000
G0 Z0.500
G0 X18.591 Y-69.553 Z0.500
G0 X18.591 Y-69.553 Z0.300
G1 X18.591 Y-69.553 Z-0.200 F100.000
G2 X18.496 Y-69.479 Z-0.200 I0.003 J0.103 K0.000 F150.000
G2 X18.326 Y-69.602 Z-0.200 I-0.388 J0.355 K0.000 F150.000
G1 X18.591 Y-69.553 Z-0.200 F150.000
G0 Z0.500
G0 X14.616 Y-70.284 Z0.500
G0 X14.616 Y-70.284 Z0.300
G1 X14.616 Y-70.284 Z-0.200 F100.000
G2 X14.370 Y-70.167 Z-0.200 I-0.045 J0.223 K0.000 F150.000
G2 X14.256 Y-70.559 Z-0.200 I-227643.248 J66177.680 K0.000 F150.000
G2 X14.616 Y-70.284 Z-0.200 I2.050 J-2.310 K0.000 F150.000
G0 Z0.500
G0 X14.406 Y-70.330 Z0.500
G0 X14.406 Y-70.330 Z0.300
G1 X14.406 Y-70.330 Z-0.200 F100.000
G1 X14.406 Y-70.329 Z-0.200 F150.000
G1 X14.405 Y-70.330 Z-0.200 F150.000
G1 X14.406 Y-70.330 Z-0.200 F150.000
G0 Z0.500
G0 X14.246 Y-70.591 Z0.500
G0 X14.246 Y-70.591 Z0.300
G1 X14.246 Y-70.591 Z-0.200 F100.000
G3 X14.257 Y-70.744 Z-0.200 I0.073 J-0.072 K0.000 F150.000
G1 X14.257 Y-70.744 Z-0.200 F150.000
G3 X14.358 Y-70.801 Z-0.200 I0.072 J0.009 K0.000 F150.000
G2 X14.246 Y-70.591 Z-0.200 I0.034 J0.153 K0.000 F150.000
G0 Z0.500
G0 X13.268 Y-71.188 Z0.500
G0 X13.268 Y-71.188 Z0.300
G1 X13.268 Y-71.188 Z-0.200 F100.000
G1 X13.198 Y-71.073 Z-0.200 F150.000
G2 X13.149 Y-71.571 Z-0.200 I-0.418 J-0.210 K0.000 F150.000
G1 X13.139 Y-71.639 Z-0.200 F150.000
G2 X13.475 Y-71.526 Z-0.200 I0.208 J-0.062 K0.000 F150.000
G1 X13.268 Y-71.188 Z-0.200 F150.000
G0 Z0.500
G0 X13.302 Y-71.396 Z0.500
G0 X13.302 Y-71.396 Z0.300
G1 X13.302 Y-71.396 Z-0.200 F100.000
G1 X13.295 Y-71.414 Z-0.200 F150.000
G1 X13.312 Y-71.413 Z-0.200 F150.000
G1 X13.302 Y-71.396 Z-0.200 F150.000
G0 Z0.500
G0 X11.849 Y-71.395 Z0.500
G0 X11.849 Y-71.395 Z0.300
G1 X11.849 Y-71.395 Z-0.200 F100.000
G1 X11.851 Y-69.256 Z-0.200 F150.000
G2 X11.999 Y-68.615 Z-0.200 I174014.928 J-40338.462 K0.000 F150.000
G3 X11.842 Y-68.448 Z-0.200 I-0.163 J0.004 K0.000 F150.000
G3 X7.983 Y-69.294 Z-0.200 I1.747 J-17.193 K0.000 F150.000
G3 X7.804 Y-69.534 Z-0.200 I0.005 J-0.190 K0.000 F150.000
G3 X8.115 Y-69.878 Z-0.200 I29026.138 J26256.383 K0.000 F150.000
G1 X8.530 Y-70.600 Z-0.200 F150.000
G2 X9.177 Y-72.548 Z-0.200 I-3754342.272 J-1247757.452 K0.000 F150.000
G2 X9.353 Y-74.153 Z-0.200 I-1941586.475 J-212201.476 K0.000 F150.000
G3 X9.508 Y-74.459 Z-0.200 I4.625 J2.159 K0.000 F150.000
G2 X8.935 Y-75.750 Z-0.200 I-552681.119 J245291.068 K0.000 F150.000
G3 X8.444 Y-76.063 Z-0.200 I1.748 J-3.287 K0.000 F150.000
G3 X8.527 Y-76.284 Z-0.200 I0.309 J-0.010 K0.000 F150.000
G1 X8.527 Y-76.284 Z-0.200 F150.000
G1 X8.594 Y-76.411 Z-0.200 F150.000
G1 X8.648 Y-77.251 Z-0.200 F150.000
G3 X8.832 Y-78.725 Z-0.200 I5.173 J-0.102 K0.000 F150.000
G1 X8.832 Y-78.725 Z-0.200 F150.000
G1 X8.955 Y-79.303 Z-0.200 F150.000
G2 X8.882 Y-79.687 Z-0.200 I-32468.933 J6206.596 K0.000 F150.000
G3 X8.980 Y-79.806 Z-0.200 I0.098 J-0.019 K0.000 F150.000
G1 X10.606 Y-79.806 Z-0.200 F150.000
G1 X10.606 Y-79.806 Z-0.200 F150.000
G1 X12.231 Y-79.806 Z-0.200 F150.000
G3 X13.067 Y-79.629 Z-0.200 I-16.932 J82.029 K0.000 F150.000
G3 X13.141 Y-79.499 Z-0.200 I-0.021 J0.098 K0.000 F150.000
G2 X12.722 Y-78.008 Z-0.200 I6.484 J2.625 K0.000 F150.000
G1 X12.646 Y-77.934 Z-0.200 F150.000
G2 X11.846 Y-77.733 Z-0.200 I0.609 J4.115 K0.000 F150.000
G3 X11.484 Y-77.935 Z-0.200 I-0.079 J-0.285 K0.000 F150.000
G2 X11.462 Y-79.052 Z-0.200 I-608.862 J11.629 K0.000 F150.000
G3 X11.139 Y-79.104 Z-0.200 I0.510 J-4.237 K0.000 F150.000
G2 X10.728 Y-78.332 Z-0.200 I3.768 J2.503 K0.000 F150.000
G3 X10.420 Y-78.313 Z-0.200 I-0.164 J-0.158 K0.000 F150.000
G1 X10.189 Y-78.610 Z-0.200 F150.000
G2 X9.582 Y-79.107 Z-0.200 I-0.827 J0.390 K0.000 F150.000
G3 X9.226 Y-78.713 Z-0.200 I-20.127 J-17.819 K0.000 F150.000
G3 X9.772 Y-77.661 Z-0.200 I-38.665 J20.728 K0.000 F150.000
G3 X9.647 Y-77.407 Z-0.200 I-0.316 J0.002 K0.000 F150.000
G3 X9.130 Y-77.229 Z-0.200 I-1.880 J-4.621 K0.000 F150.000
G1 X9.013 Y-77.099 Z-0.200 F150.000
G2 X9.024 Y-76.715 Z-0.200 I0.175 J0.187 K0.000 F150.000
G2 X9.566 Y-76.621 Z-0.200 I1.324 J-5.992 K0.000 F150.000
G3 X9.847 Y-76.456 Z-0.200 I0.024 J0.281 K0.000 F150.000
G3 X9.907 Y-74.826 Z-0.200 I-18.630 J1.508 K0.000 F150.000
G2 X10.191 Y-74.829 Z-0.200 I0.092 J-5.199 K0.000 F150.000
G2 X10.707 Y-75.805 Z-0.200 I-4.684 J-3.101 K0.000 F150.000
G3 X10.962 Y-75.817 Z-0.200 I0.134 J0.115 K0.000 F150.000
G2 X11.205 Y-75.531 Z-0.200 I0.607 J-0.269 K0.000 F150.000
G2 X11.789 Y-75.267 Z-0.200 I2.221 J-4.133 K0.000 F150.000
G2 X11.924 Y-75.498 Z-0.200 I-2083.329 J-1209.972 K0.000 F150.000
G2 X11.735 Y-76.142 Z-0.200 I-2.874 J0.492 K0.000 F150.000
G3 X11.660 Y-76.616 Z-0.200 I0.384 J-0.304 K0.000 F150.000
G3 X12.385 Y-77.231 Z-0.200 I2.766 J2.531 K0.000 F150.000
G3 X12.607 Y-77.066 Z-0.200 I0.052 J0.161 K0.000 F150.000
G2 X11.849 Y-72.191 Z-0.200 I155.740 J26.715 K0.000 F150.000
G1 X11.849 Y-71.395 Z-0.200 F150.000
G0 Z0.500
G0 X12.079 Y-68.574 Z0.500
G0 X12.079 Y-68.574 Z0.300
G1 X12.079 Y-68.574 Z-0.200 F100.000
G2 X12.201 Y-68.353 Z-0.200 I0.177 J0.046 K0.000 F150.000
G1 X11.898 Y-68.391 Z-0.200 F150.000
G2 X12.079 Y-68.574 Z-0.200 I-0.035 J-0.216 K0.000 F150.000
G0 Z0.500
G0 X12.606 Y-68.293 Z0.500
G0 X12.606 Y-68.293 Z0.300
G1 X12.606 Y-68.293 Z-0.200 F100.000
G2 X12.933 Y-68.379 Z-0.200 I0.122 J-0.199 K0.000 F150.000
G1 X12.950 Y-67.858 Z-0.200 F150.000
G2 X12.677 Y-67.666 Z-0.200 I0.214 J0.595 K0.000 F150.000
G2 X12.818 Y-68.033 Z-0.200 I-0.494 J-0.402 K0.000 F150.000
G2 X12.606 Y-68.293 Z-0.200 I-0.341 J0.062 K0.000 F150.000
G0 Z0.500
G0 X12.818 Y-68.210 Z0.500
G0 X12.818 Y-68.210 Z0.300
G1 X12.818 Y-68.210 Z-0.200 F100.000
G1 X12.858 Y-68.217 Z-0.200 F150.000
G1 X12.861 Y-68.141 Z-0.200 F150.000
G1 X12.818 Y-68.210 Z-0.200 F150.000
G0 Z0.500
G0 X12.421 Y-66.949 Z0.500
G0 X12.421 Y-66.949 Z0.300
G1 X12.421 Y-66.949 Z-0.200 F100.000
G1 X12.437 Y-66.922 Z-0.200 F150.000
G3 X12.421 Y-66.949 Z-0.200 I-0.000 J-0.018 K0.000 F150.000
G0 Z0.500
G0 X12.577 Y-66.751 Z0.500
G0 X12.577 Y-66.751 Z0.300
G1 X12.577 Y-66.751 Z-0.200 F100.000
G2 X12.862 Y-66.718 Z-0.200 I0.204 J-0.521 K0.000 F150.000
G2 X13.056 Y-66.486 Z-0.200 I0.216 J0.017 K0.000 F150.000
G1 X12.486 Y-66.439 Z-0.200 F150.000
G2 X12.577 Y-66.751 Z-0.200 I-0.175 J-0.221 K0.000 F150.000
G0 Z0.500
G0 X12.664 Y-66.646 Z0.500
G0 X12.664 Y-66.646 Z0.300
G1 X12.664 Y-66.646 Z-0.200 F100.000
G1 X12.804 Y-66.646 Z-0.200 F150.000
G2 X12.847 Y-66.549 Z-0.200 I0.202 J-0.032 K0.000 F150.000
G1 X12.653 Y-66.533 Z-0.200 F150.000
G2 X12.664 Y-66.646 Z-0.200 I-0.302 J-0.085 K0.000 F150.000
G0 Z0.500
G0 X13.469 Y-66.600 Z0.500
G0 X13.469 Y-66.600 Z0.300
G1 X13.469 Y-66.600 Z-0.200 F100.000
G1 X13.479 Y-66.658 Z-0.200 F150.000
G2 X13.689 Y-66.618 Z-0.200 I0.674 J-2.993 K0.000 F150.000
G1 X13.469 Y-66.600 Z-0.200 F150.000
G0 Z0.500
G0 X12.624 Y-64.920 Z0.500
G0 X12.624 Y-64.920 Z0.300
G1 X12.624 Y-64.920 Z-0.200 F100.000
G3 X13.009 Y-64.488 Z-0.200 I-26140.876 J23292.143 K0.000 F150.000
G2 X13.192 Y-64.428 Z-0.200 I0.159 J-0.175 K0.000 F150.000
G3 X13.308 Y-64.160 Z-0.200 I-0.394 J0.328 K0.000 F150.000
G1 X13.265 Y-64.237 Z-0.200 F150.000
G2 X12.650 Y-64.819 Z-0.200 I-44729.915 J47191.715 K0.000 F150.000
G2 X12.153 Y-64.836 Z-0.200 I-0.273 J0.718 K0.000 F150.000
G1 X12.079 Y-64.701 Z-0.200 F150.000
G1 X12.050 Y-64.246 Z-0.200 F150.000
G1 X11.999 Y-64.744 Z-0.200 F150.000
G2 X12.251 Y-64.920 Z-0.200 I-29637.479 J-42313.724 K0.000 F150.000
G1 X12.624 Y-64.920 Z-0.200 F150.000
G0 Z0.500
G0 X12.024 Y-63.847 Z0.500
G0 X12.024 Y-63.847 Z0.300
G1 X12.024 Y-63.847 Z-0.200 F100.000
G3 X11.897 Y-63.627 Z-0.200 I-0.177 J0.044 K0.000 F150.000
