(Exported by FreeCAD)
(Post Processor: grbl_post)
(Output Time:2023-01-15 12:40:40.259147)
(Begin preamble)
G17 G90
G21
(Begin operation: G54)
(Path: G54)
G54
G0 Z5.000
(Finish operation: G54)
(Begin operation: ballend-020mm001)
(Path: ballend-020mm001)
(ballend-020mm001)
(Begin toolchange)
( M6 T2 )
M3 S10000
(Finish operation: ballend-020mm001)
(Begin operation: Pocket_Shape)
(Path: Pocket_Shape)
(Pocket_Shape)
G0 Z2.000
G0 X7.663 Y-24.950
G0 Z1.000
G1 X7.663 Y-24.950 Z-0.200 F100.000
G1 X7.537 Y-24.950 Z-0.200 F150.000
G1 X6.908 Y-26.633 Z-0.200 F150.000
G2 X6.721 Y-26.634 Z-0.200 I-0.094 J0.035 K0.000 F150.000
G1 X6.088 Y-24.950 Z-0.200 F150.000
G1 X5.962 Y-24.950 Z-0.200 F150.000
G1 X6.699 Y-26.832 Z-0.200 F150.000
G1 X6.929 Y-26.832 Z-0.200 F150.000
G1 X7.663 Y-24.950 Z-0.200 F150.000
G0 Z2.000
G0 X7.590 Y-25.000 Z2.000
G0 X7.590 Y-25.000 Z1.000
G1 X7.590 Y-25.000 Z-0.200 F100.000
G1 X7.572 Y-25.000 Z-0.200 F150.000
G1 X7.162 Y-26.098 Z-0.200 F150.000
G1 X7.590 Y-25.000 Z-0.200 F150.000
G0 Z2.000
G0 X6.244 Y-25.507 Z2.000
G0 X6.244 Y-25.507 Z1.000
G1 X6.244 Y-25.507 Z-0.200 F100.000
G1 X6.053 Y-25.000 Z-0.200 F150.000
G1 X6.035 Y-25.000 Z-0.200 F150.000
G1 X6.480 Y-26.136 Z-0.200 F150.000
G1 X6.244 Y-25.507 Z-0.200 F150.000
G0 Z2.000
G0 X6.686 Y-26.661 Z2.000
G0 X6.686 Y-26.661 Z1.000
G1 X6.686 Y-26.661 Z-0.200 F100.000
G1 X6.733 Y-26.782 Z-0.200 F150.000
G1 X6.895 Y-26.782 Z-0.200 F150.000
G1 X6.938 Y-26.670 Z-0.200 F150.000
G2 X6.686 Y-26.661 Z-0.200 I-0.124 J0.059 K0.000 F150.000
G0 Z2.000
G0 Z2.000
G0 X6.686 Y-26.661
G0 X8.113 Y-26.217
G0 X8.113 Y-26.217 Z1.000
G1 X8.113 Y-26.217 Z-0.200 F100.000
G3 X9.928 Y-26.031 Z-0.200 I0.889 J0.277 K0.000 F150.000
G3 X9.868 Y-25.497 Z-0.200 I-1.107 J0.145 K0.000 F150.000
G3 X8.072 Y-25.889 Z-0.200 I-0.866 J-0.341 K0.000 F150.000
G3 X8.113 Y-26.217 Z-0.200 I0.930 J-0.051 K0.000 F150.000
G0 Z2.000
G0 X8.170 Y-26.199 Z2.000
G0 X8.170 Y-26.199 Z1.000
G1 X8.170 Y-26.199 Z-0.200 F100.000
G3 X8.338 Y-26.520 Z-0.200 I0.977 J0.307 K0.000 F150.000
G2 X8.370 Y-25.223 Z-0.200 I0.847 J0.627 K0.000 F150.000
G3 X8.170 Y-26.199 Z-0.200 I0.777 J-0.668 K0.000 F150.000
G0 Z2.000
G0 X8.221 Y-26.181 Z2.000
G0 X8.221 Y-26.181 Z1.000
G1 X8.221 Y-26.181 Z-0.200 F100.000
G3 X8.237 Y-26.224 Z-0.200 I0.876 J0.300 K0.000 F150.000
G3 X9.823 Y-25.901 Z-0.200 I0.773 J0.259 K0.000 F150.000
G3 X8.610 Y-25.095 Z-0.200 I-0.819 J0.083 K0.000 F150.000
G3 X8.221 Y-26.181 Z-0.200 I0.487 J-0.787 K0.000 F150.000
G0 Z2.000
G0 X8.341 Y-26.525 Z2.000
G0 X8.341 Y-26.525 Z1.000
G1 X8.341 Y-26.525 Z-0.200 F100.000
G3 X8.414 Y-26.593 Z-0.200 I0.157 J0.095 K0.000 F150.000
G1 X8.341 Y-26.525 Z-0.200 F150.000
G0 Z2.000
G0 X9.626 Y-26.567 Z2.000
G0 X9.626 Y-26.567 Z1.000
G1 X9.626 Y-26.567 Z-0.200 F100.000
G3 X9.821 Y-25.515 Z-0.200 I-0.767 J0.686 K0.000 F150.000
G3 X9.628 Y-25.216 Z-0.200 I-0.522 J-0.124 K0.000 F150.000
G2 X9.626 Y-26.567 Z-0.200 I-0.807 J-0.675 K0.000 F150.000
G0 Z2.000
G0 Z2.000
G0 X9.626 Y-26.567
G0 X10.548
G0 X10.548 Z1.000
G1 X10.548 Y-26.567 Z-0.200 F100.000
G1 X10.548 Y-26.832 Z-0.200 F150.000
G1 X10.661 Y-26.832 Z-0.200 F150.000
G1 X10.661 Y-24.118 Z-0.200 F150.000
G1 X10.548 Y-24.118 Z-0.200 F150.000
G1 X10.548 Y-26.567 Z-0.200 F150.000
G0 Z2.000
G0 X10.598 Z2.000
G0 X10.598 Z1.000
G1 X10.598 Y-26.567 Z-0.200 F100.000
G1 X10.598 Y-26.782 Z-0.200 F150.000
G1 X10.611 Y-26.782 Z-0.200 F150.000
G1 X10.611 Y-24.168 Z-0.200 F150.000
G1 X10.598 Y-24.168 Z-0.200 F150.000
G1 X10.598 Y-26.567 Z-0.200 F150.000
G0 Z2.000
G0 Z2.000
G0 X10.598 Y-26.567
G0 X11.406 Y-26.335
G0 X11.406 Y-26.335 Z1.000
G1 X11.406 Y-26.335 Z-0.200 F100.000
G3 X12.479 Y-26.774 Z-0.200 I0.710 J0.204 K0.000 F150.000
G3 X12.732 Y-26.537 Z-0.200 I-0.526 J0.815 K0.000 F150.000
G2 X12.904 Y-26.607 Z-0.200 I0.072 J-0.069 K0.000 F150.000
G1 X12.904 Y-26.832 Z-0.200 F150.000
G1 X13.017 Y-26.832 Z-0.200 F150.000
G1 X13.017 Y-24.950 Z-0.200 F150.000
G1 X12.904 Y-24.950 Z-0.200 F150.000
G1 X12.903 Y-26.065 Z-0.200 F150.000
G2 X11.517 Y-26.262 Z-0.200 I-0.706 J-0.006 K0.000 F150.000
G1 X11.493 Y-26.053 Z-0.200 F150.000
G1 X11.493 Y-24.950 Z-0.200 F150.000
G1 X11.381 Y-24.950 Z-0.200 F150.000
G1 X11.381 Y-26.055 Z-0.200 F150.000
G3 X11.406 Y-26.335 Z-0.200 I0.735 J-0.075 K0.000 F150.000
G0 Z2.000
G0 X12.893 Y-26.403 Z2.000
G0 X12.893 Y-26.403 Z1.000
G1 X12.893 Y-26.403 Z-0.200 F100.000
G3 X12.937 Y-26.497 Z-0.200 I0.111 J-0.005 K0.000 F150.000
G1 X12.937 Y-26.320 Z-0.200 F150.000
G3 X12.893 Y-26.403 Z-0.200 I0.067 J-0.088 K0.000 F150.000
G0 Z2.000
G0 Z2.000
G0 X12.893 Y-26.403
G0 X13.758
G0 X13.758 Z1.000
G1 X13.758 Y-26.403 Z-0.200 F100.000
G1 X13.758 Y-26.832 Z-0.200 F150.000
G1 X13.870 Y-26.832 Z-0.200 F150.000
G1 X13.871 Y-25.672 Z-0.200 F150.000
G2 X14.002 Y-25.255 Z-0.200 I0.672 J0.018 K0.000 F150.000
G2 X13.870 Y-25.166 Z-0.200 I-0.039 J0.085 K0.000 F150.000
G1 X13.870 Y-24.950 Z-0.200 F150.000
G1 X13.758 Y-24.950 Z-0.200 F150.000
G1 X13.758 Y-26.403 Z-0.200 F150.000
G0 Z2.000
G0 X13.838 Y-25.397 Z2.000
G0 X13.838 Y-25.397 Z1.000
G1 X13.838 Y-25.397 Z-0.200 F100.000
G3 X13.838 Y-25.281 Z-0.200 I-0.011 J0.058 K0.000 F150.000
G1 X13.838 Y-25.397 Z-0.200 F150.000
G0 Z2.000
G0 X14.102 Y-25.158 Z2.000
G0 X14.102 Y-25.158 Z1.000
G1 X14.102 Y-25.158 Z-0.200 F100.000
G2 X15.148 Y-25.683 Z-0.200 I0.419 J-0.469 K0.000 F150.000
G1 X15.148 Y-26.832 Z-0.200 F150.000
G1 X15.261 Y-26.832 Z-0.200 F150.000
G1 X15.262 Y-25.672 Z-0.200 F150.000
G2 X16.516 Y-25.485 Z-0.200 I0.636 J0.035 K0.000 F150.000
G1 X16.539 Y-25.683 Z-0.200 F150.000
G1 X16.539 Y-26.832 Z-0.200 F150.000
G1 X16.651 Y-26.832 Z-0.200 F150.000
G1 X16.651 Y-25.681 Z-0.200 F150.000
G3 X15.344 Y-25.298 Z-0.200 I-0.688 J0.074 K0.000 F150.000
G2 X15.183 Y-25.295 Z-0.200 I-0.080 J0.060 K0.000 F150.000
G3 X14.102 Y-25.158 Z-0.200 I-0.582 J-0.259 K0.000 F150.000
G0 Z2.000
G0 X15.163 Y-25.376 Z2.000
G0 X15.163 Y-25.376 Z1.000
G1 X15.163 Y-25.376 Z-0.200 F100.000
G2 X15.208 Y-25.499 Z-0.200 I-0.193 J-0.139 K0.000 F150.000
G2 X15.225 Y-25.408 Z-0.200 I0.281 J-0.006 K0.000 F150.000
G2 X15.163 Y-25.376 Z-0.200 I-0.009 J0.059 K0.000 F150.000
G0 Z2.000
G0 Z2.000
G0 X15.163 Y-25.376
G0 X17.252 Y-25.697
G0 X17.252 Y-25.697 Z1.000
G1 X17.252 Y-25.697 Z-0.200 F100.000
G3 X17.243 Y-25.889 Z-0.200 I0.920 J-0.142 K0.000 F150.000
G3 X18.975 Y-26.432 Z-0.200 I0.937 J-0.046 K0.000 F150.000
G3 X18.811 Y-26.500 Z-0.200 I-0.059 J-0.089 K0.000 F150.000
G2 X17.375 Y-25.968 Z-0.200 I-0.622 J0.526 K0.000 F150.000
G1 X17.463 Y-25.916 Z-0.200 F150.000
G1 X19.107 Y-25.916 Z-0.200 F150.000
G3 X19.038 Y-25.497 Z-0.200 I-1.102 J0.034 K0.000 F150.000
G3 X17.252 Y-25.697 Z-0.200 I-0.866 J-0.341 K0.000 F150.000
G0 Z2.000
G0 X17.368 Y-25.712 Z2.000
G0 X17.368 Y-25.712 Z1.000
G1 X17.368 Y-25.712 Z-0.200 F100.000
G3 X17.467 Y-25.825 Z-0.200 I0.099 J-0.013 K0.000 F150.000
G1 X18.882 Y-25.825 Z-0.200 F150.000
G1 X18.968 Y-25.776 Z-0.200 F150.000
G3 X17.372 Y-25.694 Z-0.200 I-0.801 J-0.014 K0.000 F150.000
G3 X17.368 Y-25.712 Z-0.200 I0.095 J-0.031 K0.000 F150.000
G0 Z2.000
G0 X17.328 Y-25.825 Z2.000
G0 X17.328 Y-25.825 Z1.000
G1 X17.328 Y-25.825 Z-0.200 F100.000
G3 X17.326 Y-25.913 Z-0.200 I0.211 J-0.049 K0.000 F150.000
G3 X17.328 Y-25.825 Z-0.200 I-0.012 J0.045 K0.000 F150.000
G0 Z2.000
G0 X19.012 Y-25.836 Z2.000
G0 X19.012 Y-25.836 Z1.000
G1 X19.012 Y-25.836 Z-0.200 F100.000
G1 X19.019 Y-25.836 Z-0.200 F150.000
G1 X19.018 Y-25.829 Z-0.200 F150.000
G1 X19.012 Y-25.836 Z-0.200 F150.000
G0 Z2.000
G0 Z2.000
G0 X19.012 Y-25.836
G0 X45.178 Y-25.910
G0 X45.178 Y-25.910 Z1.000
G1 X45.178 Y-25.910 Z-0.200 F100.000
G3 X45.882 Y-26.843 Z-0.200 I0.966 J-0.003 K0.000 F150.000
G3 X46.487 Y-26.777 Z-0.200 I0.215 J0.840 K0.000 F150.000
G3 X46.763 Y-26.534 Z-0.200 I-0.359 J0.688 K0.000 F150.000
G2 X46.940 Y-26.598 Z-0.200 I0.077 J-0.064 K0.000 F150.000
G1 X46.940 Y-26.832 Z-0.200 F150.000
G1 X47.052 Y-26.832 Z-0.200 F150.000
G1 X47.052 Y-24.118 Z-0.200 F150.000
G1 X46.940 Y-24.118 Z-0.200 F150.000
G1 X46.940 Y-25.188 Z-0.200 F150.000
G2 X46.764 Y-25.252 Z-0.200 I-0.100 J0.000 K0.000 F150.000
G3 X45.204 Y-25.689 Z-0.200 I-0.689 J-0.541 K0.000 F150.000
G3 X45.178 Y-25.910 Z-0.200 I0.940 J-0.224 K0.000 F150.000
G0 Z2.000
G0 X45.289 Y-25.909 Z2.000
G0 X45.289 Y-25.909 Z1.000
G1 X45.289 Y-25.909 Z-0.200 F100.000
G3 X45.677 Y-26.651 Z-0.200 I0.917 J0.008 K0.000 F150.000
G3 X46.956 Y-25.901 Z-0.200 I0.457 J0.686 K0.000 F150.000
G3 X45.983 Y-25.012 Z-0.200 I-0.820 J0.079 K0.000 F150.000
G3 X45.289 Y-25.909 Z-0.200 I0.222 J-0.889 K0.000 F150.000
G0 Z2.000
G0 X46.892 Y-26.430 Z2.000
G0 X46.892 Y-26.430 Z1.000
G1 X46.892 Y-26.430 Z-0.200 F100.000
G2 X46.972 Y-26.486 Z-0.200 I0.002 J-0.083 K0.000 F150.000
G1 X46.972 Y-26.249 Z-0.200 F150.000
G2 X46.892 Y-26.430 Z-0.200 I-0.365 J0.053 K0.000 F150.000
G0 Z2.000
G0 X46.972 Y-25.537 Z2.000
G0 X46.972 Y-25.537 Z1.000
G1 X46.972 Y-25.537 Z-0.200 F100.000
G1 X46.972 Y-25.303 Z-0.200 F150.000
G3 X46.946 Y-25.444 Z-0.200 I-0.003 J-0.072 K0.000 F150.000
G1 X46.972 Y-25.537 Z-0.200 F150.000
G0 Z2.000
G0 Z2.000
G0 X46.972 Y-25.537
G0 X47.793
G0 X47.793 Z1.000
G1 X47.793 Y-25.537 Z-0.200 F100.000
G1 X47.793 Y-26.832 Z-0.200 F150.000
G1 X47.905 Y-26.832 Z-0.200 F150.000
G2 X47.947 Y-25.700 Z-0.200 I4.251 J0.410 K0.000 F150.000
G2 X48.086 Y-25.413 Z-0.200 I0.709 J-0.167 K0.000 F150.000
G2 X47.905 Y-25.362 Z-0.200 I-0.084 J0.049 K0.000 F150.000
G1 X47.905 Y-24.950 Z-0.200 F150.000
G1 X47.793 Y-24.950 Z-0.200 F150.000
G1 X47.793 Y-25.537 Z-0.200 F150.000
G0 Z2.000
G0 X47.873 Z2.000
G0 X47.873 Z1.000
G1 X47.873 Y-25.537 Z-0.200 F100.000
G1 X47.873 Y-25.668 Z-0.200 F150.000
G2 X47.930 Y-25.516 Z-0.200 I0.791 J-0.207 K0.000 F150.000
G2 X47.873 Y-25.469 Z-0.200 I-0.002 J0.055 K0.000 F150.000
G1 X47.873 Y-25.537 Z-0.200 F150.000
G0 Z2.000
G0 X48.106 Y-25.383 Z2.000
G0 X48.106 Y-25.383 Z1.000
G1 X48.106 Y-25.383 Z-0.200 F100.000
G2 X48.692 Y-25.036 Z-0.200 I0.617 J-0.373 K0.000 F150.000
G1 X48.692 Y-24.924 Z-0.200 F150.000
G3 X48.106 Y-25.383 Z-0.200 I0.060 J-0.681 K0.000 F150.000
G0 Z2.000
G0 Z2.000
G0 X48.106 Y-25.383
G0 X49.229
G0 X49.229 Z1.000
G1 X49.229 Y-25.383 Z-0.200 F100.000
G1 X49.229 Y-26.832 Z-0.200 F150.000
G1 X49.341 Y-26.832 Z-0.200 F150.000
G1 X49.341 Y-24.950 Z-0.200 F150.000
G1 X49.229 Y-24.950 Z-0.200 F150.000
G1 X49.229 Y-25.383 Z-0.200 F150.000
G0 Z2.000
G0 X49.279 Z2.000
G0 X49.279 Z1.000
G1 X49.279 Y-25.383 Z-0.200 F100.000
G1 X49.279 Y-26.782 Z-0.200 F150.000
G1 X49.291 Y-26.782 Z-0.200 F150.000
G1 X49.291 Y-25.000 Z-0.200 F150.000
G1 X49.279 Y-25.000 Z-0.200 F150.000
G1 X49.279 Y-25.383 Z-0.200 F150.000
G0 Z2.000
G0 Z2.000
G0 X49.279 Y-25.383
G0 Y-24.400
G0 Y-24.400 Z1.000
G1 X49.279 Y-24.400 Z-0.200 F100.000
G1 X49.354 Y-24.400 Z-0.200 F150.000
G1 X49.354 Y-24.193 Z-0.200 F150.000
G1 X49.217 Y-24.193 Z-0.200 F150.000
G1 X49.217 Y-24.400 Z-0.200 F150.000
G1 X49.279 Y-24.400 Z-0.200 F150.000
G0 Z2.000
G0 Y-24.350 Z2.000
G0 Y-24.350 Z1.000
G1 X49.279 Y-24.350 Z-0.200 F100.000
G1 X49.304 Y-24.350 Z-0.200 F150.000
G1 X49.304 Y-24.243 Z-0.200 F150.000
G1 X49.267 Y-24.243 Z-0.200 F150.000
G1 X49.267 Y-24.350 Z-0.200 F150.000
G1 X49.279 Y-24.350 Z-0.200 F150.000
G0 Z2.000
G0 Z2.000
G0 X49.279 Y-24.350
G0 X49.879 Y-24.950
G0 X49.879 Y-24.950 Z1.000
G1 X49.879 Y-24.950 Z-0.200 F100.000
G1 X50.617 Y-26.832 Z-0.200 F150.000
G1 X50.847 Y-26.832 Z-0.200 F150.000
G1 X51.581 Y-24.950 Z-0.200 F150.000
G1 X51.455 Y-24.950 Z-0.200 F150.000
G1 X50.826 Y-26.633 Z-0.200 F150.000
G2 X50.639 Y-26.634 Z-0.200 I-0.094 J0.035 K0.000 F150.000
G1 X50.005 Y-24.950 Z-0.200 F150.000
G1 X49.879 Y-24.950 Z-0.200 F150.000
G0 Z2.000
G0 X49.953 Y-25.000 Z2.000
G0 X49.953 Y-25.000 Z1.000
G1 X49.953 Y-25.000 Z-0.200 F100.000
G1 X50.398 Y-26.136 Z-0.200 F150.000
G1 X49.971 Y-25.000 Z-0.200 F150.000
G1 X49.953 Y-25.000 Z-0.200 F150.000
G0 Z2.000
G0 X51.301 Y-25.504 Z2.000
G0 X51.301 Y-25.504 Z1.000
G1 X51.301 Y-25.504 Z-0.200 F100.000
G1 X51.079 Y-26.098 Z-0.200 F150.000
G1 X51.508 Y-25.000 Z-0.200 F150.000
G1 X51.490 Y-25.000 Z-0.200 F150.000
G1 X51.301 Y-25.504 Z-0.200 F150.000
G0 Z2.000
G0 X50.856 Y-26.670 Z2.000
G0 X50.856 Y-26.670 Z1.000
G1 X50.856 Y-26.670 Z-0.200 F100.000
G2 X50.604 Y-26.661 Z-0.200 I-0.124 J0.059 K0.000 F150.000
G1 X50.651 Y-26.782 Z-0.200 F150.000
G1 X50.813 Y-26.782 Z-0.200 F150.000
G1 X50.856 Y-26.670 Z-0.200 F150.000
G0 Z2.000
G0 Z2.000
G0 X50.856 Y-26.670
G0 X51.997 Y-26.249
G0 X51.997 Y-26.249 Z1.000
G1 X51.997 Y-26.249 Z-0.200 F100.000
G3 X53.447 Y-26.707 Z-0.200 I0.902 J0.333 K0.000 F150.000
G3 X53.677 Y-26.432 Z-0.200 I-0.358 J0.535 K0.000 F150.000
G1 X53.563 Y-26.432 Z-0.200 F150.000
G2 X52.084 Y-25.962 Z-0.200 I-0.670 J0.453 K0.000 F150.000
G1 X52.168 Y-25.916 Z-0.200 F150.000
G1 X53.812 Y-25.916 Z-0.200 F150.000
G3 X51.965 Y-25.689 Z-0.200 I-0.930 J0.066 K0.000 F150.000
G3 X51.997 Y-26.249 Z-0.200 I0.935 J-0.227 K0.000 F150.000
G0 Z2.000
G0 X52.031 Y-25.912 Z2.000
G0 X52.031 Y-25.912 Z1.000
G1 X52.031 Y-25.912 Z-0.200 F100.000
G1 X52.069 Y-25.871 Z-0.200 F150.000
G2 X52.034 Y-25.825 Z-0.200 I0.014 J0.047 K0.000 F150.000
G3 X52.031 Y-25.912 Z-0.200 I0.209 J-0.049 K0.000 F150.000
G0 Z2.000
G0 X52.112 Y-25.804 Z2.000
G0 X52.112 Y-25.804 Z1.000
G1 X52.112 Y-25.804 Z-0.200 F100.000
G3 X52.173 Y-25.825 Z-0.200 I0.060 J0.080 K0.000 F150.000
G1 X53.588 Y-25.825 Z-0.200 F150.000
G1 X53.674 Y-25.776 Z-0.200 F150.000
G3 X52.077 Y-25.694 Z-0.200 I-0.801 J-0.014 K0.000 F150.000
G3 X52.112 Y-25.804 Z-0.200 I0.095 J-0.031 K0.000 F150.000
G0 Z2.000
G0 X53.718 Y-25.836 Z2.000
G0 X53.718 Y-25.836 Z1.000
G1 X53.718 Y-25.836 Z-0.200 F100.000
G1 X53.724 Y-25.836 Z-0.200 F150.000
G1 X53.724 Y-25.829 Z-0.200 F150.000
G1 X53.718 Y-25.836 Z-0.200 F150.000
G0 Z2.000
G0 Z2.000
G0 X53.718 Y-25.836
G0 X45.434 Y-54.156
G0 X45.434 Y-54.156 Z1.000
G1 X45.434 Y-54.156 Z-0.200 F100.000
G1 X45.322 Y-54.156 Z-0.200 F150.000
G1 X45.322 Y-56.870 Z-0.200 F150.000
G1 X45.434 Y-56.870 Z-0.200 F150.000
G2 X45.463 Y-56.566 Z-0.200 I0.382 J0.117 K0.000 F150.000
G2 X45.713 Y-56.693 Z-0.200 I0.067 J-0.179 K0.000 F150.000
G3 X46.653 Y-56.830 Z-0.200 I0.583 J0.704 K0.000 F150.000
G3 X46.488 Y-54.977 Z-0.200 I-0.463 J0.893 K0.000 F150.000
G3 X45.609 Y-55.292 Z-0.200 I-0.224 J-0.761 K0.000 F150.000
G2 X45.434 Y-55.226 Z-0.200 I-0.075 J0.066 K0.000 F150.000
G1 X45.434 Y-54.156 Z-0.200 F150.000
G0 Z2.000
G0 X45.917 Y-55.113 Z2.000
G0 X45.917 Y-55.113 Z1.000
G1 X45.917 Y-55.113 Z-0.200 F100.000
G3 X45.867 Y-56.739 Z-0.200 I0.418 J-0.827 K0.000 F150.000
G3 X47.047 Y-56.166 Z-0.200 I0.371 J0.737 K0.000 F150.000
G3 X46.066 Y-55.054 Z-0.200 I-0.832 J0.255 K0.000 F150.000
G3 X45.917 Y-55.113 Z-0.200 I0.269 J-0.886 K0.000 F150.000
G0 Z2.000
G0 X45.480 Y-55.393 Z2.000
G0 X45.480 Y-55.393 Z1.000
G1 X45.480 Y-55.393 Z-0.200 F100.000
G2 X45.402 Y-55.338 Z-0.200 I-0.001 J0.081 K0.000 F150.000
G1 X45.402 Y-55.570 Z-0.200 F150.000
G2 X45.480 Y-55.393 Z-0.200 I0.360 J-0.053 K0.000 F150.000
G0 Z2.000
G0 X45.402 Y-56.297 Z2.000
G0 X45.402 Y-56.297 Z1.000
G1 X45.402 Y-56.297 Z-0.200 F100.000
G1 X45.402 Y-56.521 Z-0.200 F150.000
G3 X45.431 Y-56.385 Z-0.200 I0.012 J0.069 K0.000 F150.000
G1 X45.402 Y-56.297 Z-0.200 F150.000
G0 Z2.000
G0 Z2.000
G0 X45.402 Y-56.297
G0 X47.670 Y-56.090
G0 X47.670 Y-56.090 Z1.000
G1 X47.670 Y-56.090 Z-0.200 F100.000
G3 X48.968 Y-56.816 Z-0.200 I0.898 J0.082 K0.000 F150.000
G3 X49.245 Y-56.573 Z-0.200 I-0.359 J0.688 K0.000 F150.000
G2 X49.422 Y-56.637 Z-0.200 I0.077 J-0.064 K0.000 F150.000
G1 X49.422 Y-56.870 Z-0.200 F150.000
G1 X49.534 Y-56.870 Z-0.200 F150.000
G1 X49.534 Y-54.989 Z-0.200 F150.000
G1 X49.422 Y-54.989 Z-0.200 F150.000
G2 X49.392 Y-55.297 Z-0.200 I-0.387 J-0.119 K0.000 F150.000
G2 X49.140 Y-55.166 Z-0.200 I-0.066 J0.181 K0.000 F150.000
G3 X47.670 Y-55.928 Z-0.200 I-0.577 J-0.685 K0.000 F150.000
G3 X47.670 Y-56.090 Z-0.200 I0.898 J-0.080 K0.000 F150.000
G0 Z2.000
G0 X47.788 Y-56.075 Z2.000
G0 X47.788 Y-56.075 Z1.000
G1 X47.788 Y-56.075 Z-0.200 F100.000
G3 X48.246 Y-56.740 Z-0.200 I0.871 J0.110 K0.000 F150.000
G3 X48.835 Y-56.795 Z-0.200 I0.370 J0.773 K0.000 F150.000
G3 X49.426 Y-55.767 Z-0.200 I-0.269 J0.839 K0.000 F150.000
G3 X47.782 Y-55.916 Z-0.200 I-0.820 J-0.097 K0.000 F150.000
G3 X47.788 Y-56.075 Z-0.200 I0.876 J-0.049 K0.000 F150.000
G0 Z2.000
G0 X49.373 Y-56.469 Z2.000
G0 X49.373 Y-56.469 Z1.000
G1 X49.373 Y-56.469 Z-0.200 F100.000
G2 X49.454 Y-56.524 Z-0.200 I0.002 J-0.083 K0.000 F150.000
G1 X49.454 Y-56.287 Z-0.200 F150.000
G2 X49.373 Y-56.469 Z-0.200 I-0.365 J0.053 K0.000 F150.000
G0 Z2.000
G0 X49.454 Y-55.575 Z2.000
G0 X49.454 Y-55.575 Z1.000
G1 X49.454 Y-55.575 Z-0.200 F100.000
G1 X49.454 Y-55.342 Z-0.200 F150.000
G3 X49.427 Y-55.483 Z-0.200 I-0.010 J-0.071 K0.000 F150.000
G1 X49.454 Y-55.575 Z-0.200 F150.000
G0 Z2.000
G0 Z2.000
G0 X49.454 Y-55.575
G0 X50.174 Y-55.485
G0 X50.174 Y-55.485 Z1.000
G1 X50.174 Y-55.485 Z-0.200 F100.000
G3 X50.478 Y-55.832 Z-0.200 I0.408 J0.051 K0.000 F150.000
G3 X51.150 Y-56.008 Z-0.200 I2.291 J7.380 K0.000 F150.000
G2 X51.543 Y-56.275 Z-0.200 I-0.048 J-0.493 K0.000 F150.000
G2 X51.291 Y-56.775 Z-0.200 I-0.356 J-0.134 K0.000 F150.000
G2 X50.350 Y-56.587 Z-0.200 I-0.340 J0.746 K0.000 F150.000
G2 X50.283 Y-56.416 Z-0.200 I0.393 J0.254 K0.000 F150.000
G1 X50.151 Y-56.416 Z-0.200 F150.000
G3 X50.931 Y-56.903 Z-0.200 I0.671 J0.208 K0.000 F150.000
G3 X51.490 Y-56.762 Z-0.200 I0.057 J0.955 K0.000 F150.000
G3 X51.388 Y-55.986 Z-0.200 I-0.226 J0.365 K0.000 F150.000
G3 X50.715 Y-55.813 Z-0.200 I-1.980 J-6.321 K0.000 F150.000
G2 X50.328 Y-55.570 Z-0.200 I0.062 J0.526 K0.000 F150.000
G2 X50.728 Y-55.031 Z-0.200 I0.364 J0.147 K0.000 F150.000
G2 X51.341 Y-55.152 Z-0.200 I0.181 J-0.698 K0.000 F150.000
G2 X51.471 Y-55.347 Z-0.200 I-0.202 J-0.275 K0.000 F150.000
G1 X51.590 Y-55.347 Z-0.200 F150.000
G3 X50.901 Y-54.956 Z-0.200 I-0.591 J-0.239 K0.000 F150.000
G3 X50.348 Y-55.096 Z-0.200 I-0.070 J-0.890 K0.000 F150.000
G3 X50.174 Y-55.485 Z-0.200 I0.235 J-0.338 K0.000 F150.000
G0 Z2.000
G0 X50.227 Y-55.480 Z2.000
G0 X50.227 Y-55.480 Z1.000
G1 X50.227 Y-55.480 Z-0.200 F100.000
G3 X50.564 Y-55.804 Z-0.200 I0.359 J0.035 K0.000 F150.000
G2 X50.285 Y-55.247 Z-0.200 I0.070 J0.384 K0.000 F150.000
G3 X50.227 Y-55.480 Z-0.200 I0.301 J-0.198 K0.000 F150.000
G0 Z2.000
G0 X50.286 Y-55.244 Z2.000
G0 X50.286 Y-55.244 Z1.000
G1 X50.286 Y-55.244 Z-0.200 F100.000
G1 X50.300 Y-55.221 Z-0.200 F150.000
G3 X50.286 Y-55.244 Z-0.200 I0.023 J-0.029 K0.000 F150.000
G0 Z2.000
G0 X51.483 Y-55.247 Z2.000
G0 X51.483 Y-55.247 Z1.000
G1 X51.483 Y-55.247 Z-0.200 F100.000
G1 X51.485 Y-55.250 Z-0.200 F150.000
G3 X51.483 Y-55.247 Z-0.200 I-0.006 J-0.001 K0.000 F150.000
G0 Z2.000
G0 X51.502 Y-55.283 Z2.000
G0 X51.502 Y-55.283 Z1.000
G1 X51.502 Y-55.283 Z-0.200 F100.000
G3 X51.509 Y-55.297 Z-0.200 I0.006 J-0.006 K0.000 F150.000
G1 X51.502 Y-55.283 Z-0.200 F150.000
G0 Z2.000
G0 X51.338 Y-56.014 Z2.000
G0 X51.338 Y-56.014 Z1.000
G1 X51.338 Y-56.014 Z-0.200 F100.000
G3 X51.274 Y-56.005 Z-0.200 I-0.082 J-0.367 K0.000 F150.000
G2 X51.604 Y-56.522 Z-0.200 I-0.065 J-0.405 K0.000 F150.000
G3 X51.338 Y-56.014 Z-0.200 I-0.348 J0.141 K0.000 F150.000
G0 Z2.000
G0 X51.580 Y-56.586 Z2.000
G0 X51.580 Y-56.586 Z1.000
G1 X51.580 Y-56.586 Z-0.200 F100.000
G1 X51.567 Y-56.609 Z-0.200 F150.000
G3 X51.580 Y-56.586 Z-0.200 I-0.020 J0.026 K0.000 F150.000
G0 Z2.000
G0 X50.306 Y-56.609 Z2.000
G0 X50.306 Y-56.609 Z1.000
G1 X50.306 Y-56.609 Z-0.200 F100.000
G2 X50.247 Y-56.466 Z-0.200 I0.327 J0.219 K0.000 F150.000
G1 X50.220 Y-56.466 Z-0.200 F150.000
G3 X50.306 Y-56.609 Z-0.200 I0.268 J0.065 K0.000 F150.000
G0 Z2.000
G0 Z2.000
G0 X50.306 Y-56.609
G0 X52.156 Y-56.416
G0 X52.156 Y-56.416 Z1.000
G1 X52.156 Y-56.416 Z-0.200 F100.000
G3 X52.937 Y-56.903 Z-0.200 I0.694 J0.244 K0.000 F150.000
G3 X53.496 Y-56.762 Z-0.200 I0.057 J0.956 K0.000 F150.000
G3 X53.393 Y-55.986 Z-0.200 I-0.226 J0.365 K0.000 F150.000
G3 X52.721 Y-55.813 Z-0.200 I-1.999 J-6.399 K0.000 F150.000
G2 X52.331 Y-55.557 Z-0.200 I0.052 J0.504 K0.000 F150.000
G2 X52.734 Y-55.031 Z-0.200 I0.367 J0.136 K0.000 F150.000
G2 X53.348 Y-55.152 Z-0.200 I0.181 J-0.698 K0.000 F150.000
G2 X53.477 Y-55.347 Z-0.200 I-0.202 J-0.275 K0.000 F150.000
G1 X53.594 Y-55.347 Z-0.200 F150.000
G3 X52.908 Y-54.956 Z-0.200 I-0.587 J-0.232 K0.000 F150.000
G3 X52.354 Y-55.096 Z-0.200 I-0.070 J-0.890 K0.000 F150.000
G3 X52.485 Y-55.832 Z-0.200 I0.236 J-0.338 K0.000 F150.000
G3 X53.157 Y-56.008 Z-0.200 I2.259 J7.259 K0.000 F150.000
G2 X53.550 Y-56.275 Z-0.200 I-0.048 J-0.493 K0.000 F150.000
G2 X53.298 Y-56.775 Z-0.200 I-0.356 J-0.134 K0.000 F150.000
G2 X52.357 Y-56.587 Z-0.200 I-0.340 J0.746 K0.000 F150.000
G2 X52.289 Y-56.416 Z-0.200 I0.393 J0.254 K0.000 F150.000
G1 X52.156 Y-56.416 Z-0.200 F150.000
G0 Z2.000
G0 X52.233 Y-56.466 Z2.000
G0 X52.233 Y-56.466 Z1.000
G1 X52.233 Y-56.466 Z-0.200 F100.000
G3 X52.313 Y-56.609 Z-0.200 I0.236 J0.039 K0.000 F150.000
G2 X52.254 Y-56.466 Z-0.200 I0.327 J0.219 K0.000 F150.000
G1 X52.233 Y-56.466 Z-0.200 F150.000
G0 Z2.000
G0 X52.476 Y-55.784 Z2.000
G0 X52.476 Y-55.784 Z1.000
G1 X52.476 Y-55.784 Z-0.200 F100.000
G3 X52.571 Y-55.804 Z-0.200 I0.123 J0.343 K0.000 F150.000
G2 X52.292 Y-55.246 Z-0.200 I0.075 J0.386 K0.000 F150.000
G3 X52.476 Y-55.784 Z-0.200 I0.307 J-0.195 K0.000 F150.000
G0 Z2.000
G0 X52.293 Y-55.244 Z2.000
G0 X52.293 Y-55.244 Z1.000
G1 X52.293 Y-55.244 Z-0.200 F100.000
G1 X52.307 Y-55.221 Z-0.200 F150.000
G3 X52.293 Y-55.244 Z-0.200 I0.023 J-0.029 K0.000 F150.000
G0 Z2.000
G0 X53.491 Y-55.248 Z2.000
G0 X53.491 Y-55.248 Z1.000
G1 X53.491 Y-55.248 Z-0.200 F100.000
G1 X53.502 Y-55.268 Z-0.200 F150.000
G3 X53.491 Y-55.248 Z-0.200 I-0.043 J-0.012 K0.000 F150.000
G0 Z2.000
G0 X53.506 Y-55.275 Z2.000
G0 X53.506 Y-55.275 Z1.000
G1 X53.506 Y-55.275 Z-0.200 F100.000
G3 X53.518 Y-55.297 Z-0.200 I0.010 J-0.009 K0.000 F150.000
G1 X53.506 Y-55.275 Z-0.200 F150.000
G0 Z2.000
G0 X53.343 Y-56.014 Z2.000
G0 X53.343 Y-56.014 Z1.000
G1 X53.343 Y-56.014 Z-0.200 F100.000
G3 X53.280 Y-56.005 Z-0.200 I-0.081 J-0.367 K0.000 F150.000
G2 X53.611 Y-56.522 Z-0.200 I-0.065 J-0.405 K0.000 F150.000
G3 X53.343 Y-56.014 Z-0.200 I-0.348 J0.142 K0.000 F150.000
G0 Z2.000
G0 X53.587 Y-56.586 Z2.000
G0 X53.587 Y-56.586 Z1.000
G1 X53.587 Y-56.586 Z-0.200 F100.000
G1 X53.574 Y-56.609 Z-0.200 F150.000
G3 X53.587 Y-56.586 Z-0.200 I-0.020 J0.026 K0.000 F150.000
G0 Z2.000
G0 Z2.000
G0 X53.587 Y-56.586
G0 X41.993 Y-62.452
G0 X41.993 Y-62.452 Z1.000
G1 X41.993 Y-62.452 Z-0.200 F100.000
G1 X42.114 Y-62.809 Z-0.200 F150.000
G2 X42.242 Y-63.385 Z-0.200 I-0.781 J-0.475 K0.000 F150.000
G2 X41.908 Y-63.455 Z-0.200 I-0.257 J0.398 K0.000 F150.000
G2 X41.739 Y-63.251 Z-0.200 I2381.658 J1976.892 K0.000 F150.000
G3 X41.269 Y-62.258 Z-0.200 I-177254.959 J-83827.400 K0.000 F150.000
G3 X40.680 Y-62.020 Z-0.200 I-1.025 J-1.691 K0.000 F150.000
G2 X39.602 Y-62.397 Z-0.200 I-92317.526 J263918.476 K0.000 F150.000
G1 X39.602 Y-62.392 Z-0.200 F150.000
G1 X39.905 Y-62.226 Z-0.200 F150.000
G3 X40.739 Y-61.593 Z-0.200 I-0.871 J2.013 K0.000 F150.000
G1 X40.772 Y-61.519 Z-0.200 F150.000
G3 X40.638 Y-60.674 Z-0.200 I-1.319 J0.224 K0.000 F150.000
G3 X40.309 Y-60.086 Z-0.200 I-0.887 J-0.109 K0.000 F150.000
G3 X39.756 Y-59.869 Z-0.200 I-0.395 J-0.194 K0.000 F150.000
G2 X37.769 Y-60.706 Z-0.200 I-153950.145 J365003.712 K0.000 F150.000
G1 X37.769 Y-60.706 Z-0.200 F150.000
G3 X37.691 Y-60.394 Z-0.200 I-59878.354 J-15030.925 K0.000 F150.000
G1 X39.273 Y-59.728 Z-0.200 F150.000
G1 X39.647 Y-59.645 Z-0.200 F150.000
G1 X39.647 Y-59.645 Z-0.200 F150.000
G2 X40.366 Y-59.654 Z-0.200 I0.350 J-0.719 K0.000 F150.000
G3 X40.660 Y-60.028 Z-0.200 I20963.344 J16489.594 K0.000 F150.000
G3 X41.095 Y-61.363 Z-0.200 I509178.750 J165819.971 K0.000 F150.000
G3 X40.761 Y-61.815 Z-0.200 I19198.203 J-14194.279 K0.000 F150.000
G3 X40.830 Y-61.973 Z-0.200 I0.080 J-0.059 K0.000 F150.000
G3 X41.234 Y-62.020 Z-0.200 I28370.734 J246131.836 K0.000 F150.000
G2 X41.710 Y-62.933 Z-0.200 I-580642.217 J-303095.220 K0.000 F150.000
G1 X41.798 Y-62.987 Z-0.200 F150.000
G3 X42.068 Y-62.861 Z-0.200 I0.083 J0.174 K0.000 F150.000
G2 X41.991 Y-62.451 Z-0.200 I6586.259 J1235.787 K0.000 F150.000
G1 X41.993 Y-62.452 Z-0.200 F150.000
G0 Z2.000
G0 X42.094 Y-62.997 Z2.000
G0 X42.094 Y-62.997 Z1.000
G1 X42.094 Y-62.997 Z-0.200 F100.000
G2 X41.730 Y-63.044 Z-0.200 I-0.228 J0.330 K0.000 F150.000
G3 X41.896 Y-63.315 Z-0.200 I0.612 J0.189 K0.000 F150.000
G1 X41.896 Y-63.315 Z-0.200 F150.000
G3 X42.162 Y-63.330 Z-0.200 I0.141 J0.135 K0.000 F150.000
G3 X42.094 Y-62.997 Z-0.200 I-0.523 J0.066 K0.000 F150.000
G0 Z2.000
G0 X42.049 Y-63.115 Z2.000
G0 X42.049 Y-63.115 Z1.000
G1 X42.049 Y-63.115 Z-0.200 F100.000
G2 X41.867 Y-63.147 Z-0.200 I-0.170 J0.425 K0.000 F150.000
G3 X42.030 Y-63.295 Z-0.200 I0.215 J0.073 K0.000 F150.000
G3 X42.049 Y-63.115 Z-0.200 I-0.065 J0.098 K0.000 F150.000
G0 Z2.000
G0 X42.018 Y-63.179 Z2.000
G0 X42.018 Y-63.179 Z1.000
G1 X42.018 Y-63.179 Z-0.200 F100.000
G2 X41.962 Y-63.191 Z-0.200 I-0.044 J0.069 K0.000 F150.000
G3 X42.032 Y-63.241 Z-0.200 I0.049 J-0.005 K0.000 F150.000
G1 X42.032 Y-63.219 Z-0.200 F150.000
G1 X42.018 Y-63.179 Z-0.200 F150.000
G0 Z2.000
G0 X41.191 Y-62.112 Z2.000
G0 X41.191 Y-62.112 Z1.000
G1 X41.191 Y-62.112 Z-0.200 F100.000
G3 X41.135 Y-62.089 Z-0.200 I-0.036 J-0.008 K0.000 F150.000
G1 X41.191 Y-62.112 Z-0.200 F150.000
G0 Z2.000
G0 X40.685 Y-61.945 Z2.000
G0 X40.685 Y-61.945 Z1.000
G1 X40.685 Y-61.945 Z-0.200 F100.000
G2 X40.757 Y-61.685 Z-0.200 I0.239 J0.074 K0.000 F150.000
G2 X40.360 Y-62.047 Z-0.200 I-12.151 J12.938 K0.000 F150.000
G1 X40.654 Y-61.944 Z-0.200 F150.000
G1 X40.685 Y-61.945 Z-0.200 F150.000
G0 Z2.000
G0 X40.810 Y-61.613 Z2.000
G0 X40.810 Y-61.613 Z1.000
G1 X40.810 Y-61.613 Z-0.200 F100.000
G3 X40.713 Y-60.647 Z-0.200 I-1.218 J0.365 K0.000 F150.000
G3 X40.368 Y-60.031 Z-0.200 I-0.970 J-0.138 K0.000 F150.000
G3 X39.725 Y-59.795 Z-0.200 I-0.459 J-0.257 K0.000 F150.000
G2 X37.824 Y-60.597 Z-0.200 I-146482.387 J347298.174 K0.000 F150.000
G3 X37.785 Y-60.442 Z-0.200 I-26912.203 J-6755.601 K0.000 F150.000
G1 X39.298 Y-59.805 Z-0.200 F150.000
G1 X39.665 Y-59.723 Z-0.200 F150.000
G2 X40.320 Y-59.725 Z-0.200 I0.325 J-0.652 K0.000 F150.000
G3 X40.589 Y-60.066 Z-0.200 I18353.597 J14436.785 K0.000 F150.000
G3 X41.006 Y-61.348 Z-0.200 I503674.183 J164027.363 K0.000 F150.000
G3 X40.810 Y-61.613 Z-0.200 I10884.517 J-8047.561 K0.000 F150.000
G0 Z2.000
G0 X40.364 Y-59.910 Z2.000
G0 X40.364 Y-59.910 Z1.000
G1 X40.364 Y-59.910 Z-0.200 F100.000
G3 X40.251 Y-59.790 Z-0.200 I-0.133 J-0.013 K0.000 F150.000
G1 X40.364 Y-59.910 Z-0.200 F150.000
G0 Z2.000
G0 Z2.000
G0 X40.364 Y-59.910
G0 X39.984 Y-60.263
G0 X39.984 Y-60.263 Z1.000
G1 X39.984 Y-60.263 Z-0.200 F100.000
G2 X40.239 Y-60.538 Z-0.200 I-8407.682 J-7833.161 K0.000 F150.000
G2 X40.419 Y-61.341 Z-0.200 I-815709.474 J-182537.412 K0.000 F150.000
G1 X40.278 Y-61.602 Z-0.200 F150.000
G2 X39.421 Y-62.069 Z-0.200 I-11879.875 J21790.591 K0.000 F150.000
G3 X38.811 Y-60.668 Z-0.200 I-231530.351 J-100732.615 K0.000 F150.000
G2 X39.807 Y-60.265 Z-0.200 I4.546 J-9.793 K0.000 F150.000
G1 X39.952 Y-60.229 Z-0.200 F150.000
G2 X39.984 Y-60.263 Z-0.200 I-8407.650 J-7833.196 K0.000 F150.000
G0 Z2.000
G0 X39.949 Y-60.327 Z2.000
G0 X39.949 Y-60.327 Z1.000
G1 X39.949 Y-60.327 Z-0.200 F100.000
G3 X39.826 Y-60.343 Z-0.200 I-0.051 J-0.094 K0.000 F150.000
G3 X39.203 Y-60.583 Z-0.200 I0.385 J-1.931 K0.000 F150.000
G1 X38.916 Y-60.709 Z-0.200 F150.000
G2 X39.459 Y-61.957 Z-0.200 I-198749.126 J-86471.858 K0.000 F150.000
G3 X39.953 Y-61.688 Z-0.200 I-6800.969 J12475.919 K0.000 F150.000
G2 X39.559 Y-61.789 Z-0.200 I-0.353 J0.556 K0.000 F150.000
G1 X39.449 Y-61.695 Z-0.200 F150.000
G2 X39.087 Y-60.950 Z-0.200 I200198.826 J97264.966 K0.000 F150.000
G2 X39.263 Y-60.571 Z-0.200 I0.412 J0.039 K0.000 F150.000
G3 X39.765 Y-60.363 Z-0.200 I-24964.329 J60269.831 K0.000 F150.000
G2 X40.003 Y-60.402 Z-0.200 I0.071 J-0.319 K0.000 F150.000
G3 X39.949 Y-60.327 Z-0.200 I-0.105 J-0.019 K0.000 F150.000
G0 Z2.000
G0 X39.924 Y-60.444 Z2.000
G0 X39.924 Y-60.444 Z1.000
G1 X39.924 Y-60.444 Z-0.200 F100.000
G2 X40.165 Y-60.589 Z-0.200 I-0.093 J-0.429 K0.000 F150.000
G1 X40.265 Y-60.890 Z-0.200 F150.000
G1 X40.364 Y-61.192 Z-0.200 F150.000
G2 X39.877 Y-61.630 Z-0.200 I-0.553 J0.125 K0.000 F150.000
G2 X39.567 Y-61.707 Z-0.200 I-0.248 J0.335 K0.000 F150.000
G1 X39.521 Y-61.660 Z-0.200 F150.000
G2 X39.159 Y-60.915 Z-0.200 I261134.658 J126869.933 K0.000 F150.000
G2 X39.293 Y-60.645 Z-0.200 I0.376 J-0.018 K0.000 F150.000
G1 X39.544 Y-60.541 Z-0.200 F150.000
G1 X39.544 Y-60.541 Z-0.200 F150.000
G2 X39.924 Y-60.444 Z-0.200 I0.287 J-0.332 K0.000 F150.000
G0 Z2.000
G0 X39.023 Y-60.750 Z2.000
G0 X39.023 Y-60.750 Z1.000
G1 X39.023 Y-60.750 Z-0.200 F100.000
G3 X39.022 Y-60.752 Z-0.200 I-0.000 J-0.001 K0.000 F150.000
G1 X39.023 Y-60.750 Z-0.200 F150.000
G0 Z2.000
G0 X39.495 Y-61.840 Z2.000
G0 X39.495 Y-61.840 Z1.000
G1 X39.495 Y-61.840 Z-0.200 F100.000
G1 X39.498 Y-61.845 Z-0.200 F150.000
G1 X39.502 Y-61.843 Z-0.200 F150.000
G1 X39.495 Y-61.840 Z-0.200 F150.000
G0 Z2.000
G0 Z2.000
G0 X39.495 Y-61.840
G0 X39.018 Y-62.048
G0 X39.018 Y-62.048 Z1.000
G1 X39.018 Y-62.048 Z-0.200 F100.000
G2 X40.405 Y-65.224 Z-0.200 I-5805104.241 J-2533639.061 K0.000 F150.000
G1 X40.405 Y-65.244 Z-0.200 F150.000
G3 X39.819 Y-65.543 Z-0.200 I24462.631 J-47951.294 K0.000 F150.000
G1 X39.810 Y-65.543 Z-0.200 F150.000
G3 X39.394 Y-64.629 Z-0.200 I-414100.520 J-188450.546 K0.000 F150.000
G1 X39.460 Y-64.576 Z-0.200 F150.000
G1 X39.460 Y-64.576 Z-0.200 F150.000
G1 X39.574 Y-64.485 Z-0.200 F150.000
G3 X39.780 Y-64.302 Z-0.200 I0.019 J0.186 K0.000 F150.000
G1 X39.211 Y-62.996 Z-0.200 F150.000
G1 X39.211 Y-62.996 Z-0.200 F150.000
G1 X38.642 Y-61.690 Z-0.200 F150.000
G1 X38.579 Y-61.634 Z-0.200 F150.000
G3 X38.249 Y-61.777 Z-0.200 I0.008 J-0.470 K0.000 F150.000
G3 X37.938 Y-61.053 Z-0.200 I-14868.885 J-6395.840 K0.000 F150.000
G1 X38.208 Y-60.931 Z-0.200 F150.000
G1 X38.208 Y-60.931 Z-0.200 F150.000
G1 X38.477 Y-60.810 Z-0.200 F150.000
G1 X38.479 Y-60.812 Z-0.200 F150.000
G2 X39.018 Y-62.048 Z-0.200 I-5805103.702 J-2533640.296 K0.000 F150.000
G0 Z2.000
G0 X38.945 Y-62.080 Z2.000
G0 X38.945 Y-62.080 Z1.000
G1 X38.945 Y-62.080 Z-0.200 F100.000
G2 X40.308 Y-65.203 Z-0.200 I-5972507.801 J-2606702.376 K0.000 F150.000
G3 X39.849 Y-65.437 Z-0.200 I19040.137 J-37322.201 K0.000 F150.000
G3 X39.492 Y-64.652 Z-0.200 I-278102.538 J-126559.951 K0.000 F150.000
G1 X39.510 Y-64.638 Z-0.200 F150.000
G1 X39.510 Y-64.638 Z-0.200 F150.000
G1 X39.613 Y-64.557 Z-0.200 F150.000
G3 X39.854 Y-64.270 Z-0.200 I-0.011 J0.254 K0.000 F150.000
G1 X39.285 Y-62.964 Z-0.200 F150.000
G1 X39.285 Y-62.964 Z-0.200 F150.000
G1 X38.715 Y-61.658 Z-0.200 F150.000
G1 X38.675 Y-61.600 Z-0.200 F150.000
G3 X38.288 Y-61.666 Z-0.200 I-0.148 J-0.299 K0.000 F150.000
G3 X38.043 Y-61.094 Z-0.200 I-11703.708 J-5034.346 K0.000 F150.000
G2 X38.437 Y-60.916 Z-0.200 I20899.839 J-46346.973 K0.000 F150.000
G2 X38.945 Y-62.080 Z-0.200 I-5972507.293 J-2606703.540 K0.000 F150.000
G0 Z2.000
G0 X38.596 Y-61.481 Z2.000
G0 X38.596 Y-61.481 Z1.000
G1 X38.596 Y-61.481 Z-0.200 F100.000
G3 X38.327 Y-61.554 Z-0.200 I-0.086 J-0.216 K0.000 F150.000
G3 X38.147 Y-61.134 Z-0.200 I-8657.583 J-3724.064 K0.000 F150.000
G2 X38.396 Y-61.022 Z-0.200 I12876.748 J-28555.136 K0.000 F150.000
G1 X38.596 Y-61.481 Z-0.200 F150.000
G0 Z2.000
G0 X38.477 Y-61.408 Z2.000
G0 X38.477 Y-61.408 Z1.000
G1 X38.477 Y-61.408 Z-0.200 F100.000
G1 X38.355 Y-61.128 Z-0.200 F150.000
G1 X38.252 Y-61.175 Z-0.200 F150.000
G2 X38.367 Y-61.442 Z-0.200 I-5536.703 J-2381.938 K0.000 F150.000
G2 X38.477 Y-61.408 Z-0.200 I0.126 J-0.207 K0.000 F150.000
G0 Z2.000
G0 X39.905 Y-64.479 Z2.000
G0 X39.905 Y-64.479 Z1.000
G1 X39.905 Y-64.479 Z-0.200 F100.000
G2 X39.591 Y-64.676 Z-0.200 I-6.991 J10.757 K0.000 F150.000
G2 X39.888 Y-65.328 Z-0.200 I-312635.061 J-142276.038 K0.000 F150.000
G2 X40.205 Y-65.166 Z-0.200 I13806.830 J-27063.154 K0.000 F150.000
G1 X39.905 Y-64.479 Z-0.200 F150.000
G0 Z2.000
G0 X39.872 Y-64.604 Z2.000
G0 X39.872 Y-64.604 Z1.000
G1 X39.872 Y-64.604 Z-0.200 F100.000
G2 X39.690 Y-64.700 Z-0.200 I-0.362 J0.469 K0.000 F150.000
G2 X39.926 Y-65.219 Z-0.200 I-167676.904 J-76307.646 K0.000 F150.000
G2 X40.101 Y-65.129 Z-0.200 I7507.638 J-14715.923 K0.000 F150.000
G1 X39.872 Y-64.604 Z-0.200 F150.000
G0 Z2.000
G0 X39.840 Y-64.730 Z2.000
G0 X39.840 Y-64.730 Z1.000
G1 X39.840 Y-64.730 Z-0.200 F100.000
G2 X39.799 Y-64.748 Z-0.200 I-0.064 J0.090 K0.000 F150.000
G2 X39.964 Y-65.109 Z-0.200 I-135303.405 J-61574.810 K0.000 F150.000
G2 X39.998 Y-65.092 Z-0.200 I1265.880 J-2481.274 K0.000 F150.000
G1 X39.840 Y-64.730 Z-0.200 F150.000
G0 Z2.000
G0 Z2.000
G0 X39.840 Y-64.730
G0 X38.901 Y-64.732
G0 X38.901 Y-64.732 Z1.000
G1 X38.901 Y-64.732 Z-0.200 F100.000
G1 X38.901 Y-65.365 Z-0.200 F150.000
G3 X38.446 Y-65.790 Z-0.200 I105540.313 J-112981.883 K0.000 F150.000
G1 X38.076 Y-65.916 Z-0.200 F150.000
G2 X37.338 Y-66.041 Z-0.200 I-0.549 J0.997 K0.000 F150.000
G1 X37.338 Y-66.041 Z-0.200 F150.000
G1 X36.990 Y-66.039 Z-0.200 F150.000
G2 X36.609 Y-65.628 Z-0.200 I0.837 J1.161 K0.000 F150.000
G1 X36.609 Y-65.628 Z-0.200 F150.000
G1 X36.443 Y-65.387 Z-0.200 F150.000
G2 X35.237 Y-62.333 Z-0.200 I3358461.185 J1326274.905 K0.000 F150.000
G1 X35.222 Y-61.758 Z-0.200 F150.000
G3 X35.536 Y-61.336 Z-0.200 I-89506.352 J66763.691 K0.000 F150.000
G3 X36.372 Y-60.899 Z-0.200 I-45022.179 J86087.337 K0.000 F150.000
G1 X37.143 Y-60.899 Z-0.200 F150.000
G3 X37.628 Y-61.413 Z-0.200 I58001.636 J54702.172 K0.000 F150.000
G2 X38.901 Y-64.732 Z-0.200 I-2497673.269 J-958425.106 K0.000 F150.000
G0 Z2.000
G0 X38.781 Y-64.732 Z2.000
G0 X38.781 Y-64.732 Z1.000
G1 X38.781 Y-64.732 Z-0.200 F100.000
G3 X38.762 Y-64.561 Z-0.200 I-0.795 J-0.001 K0.000 F150.000
G2 X37.551 Y-61.574 Z-0.200 I738553.474 J299419.662 K0.000 F150.000
G1 X37.513 Y-61.528 Z-0.200 F150.000
G3 X37.126 Y-61.275 Z-0.200 I-15454.270 J-23585.993 K0.000 F150.000
G3 X36.199 Y-61.451 Z-0.200 I-0.263 J-1.144 K0.000 F150.000
G3 X35.485 Y-61.977 Z-0.200 I0.264 J-1.106 K0.000 F150.000
G3 X35.464 Y-62.549 Z-0.200 I3.221 J-0.405 K0.000 F150.000
G3 X36.587 Y-65.305 Z-0.200 I470312.521 J191732.768 K0.000 F150.000
G3 X37.026 Y-65.743 Z-0.200 I0.686 J0.248 K0.000 F150.000
G3 X37.601 Y-65.734 Z-0.200 I0.134 J10.487 K0.000 F150.000
G2 X38.506 Y-65.334 Z-0.200 I130541.296 J-295174.900 K0.000 F150.000
G3 X38.781 Y-64.732 Z-0.200 I-0.520 J0.601 K0.000 F150.000
G0 Z2.000
G0 X38.821 Y-64.945 Z2.000
G0 X38.821 Y-64.945 Z1.000
G1 X38.821 Y-64.945 Z-0.200 F100.000
G1 X38.821 Y-65.331 Z-0.200 F150.000
G3 X38.404 Y-65.720 Z-0.200 I103376.329 J-110665.320 K0.000 F150.000
G1 X38.051 Y-65.841 Z-0.200 F150.000
G2 X37.339 Y-65.961 Z-0.200 I-0.529 J0.962 K0.000 F150.000
G1 X37.338 Y-65.961 Z-0.200 F150.000
G2 X36.712 Y-65.638 Z-0.200 I-0.116 J0.542 K0.000 F150.000
G3 X36.922 Y-65.790 Z-0.200 I0.483 J0.446 K0.000 F150.000
G3 X37.634 Y-65.807 Z-0.200 I0.421 J2.644 K0.000 F150.000
G2 X38.538 Y-65.407 Z-0.200 I130541.296 J-295174.900 K0.000 F150.000
G3 X38.821 Y-64.945 Z-0.200 I-0.414 J0.571 K0.000 F150.000
G0 Z2.000
G0 X38.519 Y-65.503 Z2.000
G0 X38.519 Y-65.503 Z1.000
G1 X38.519 Y-65.503 Z-0.200 F100.000
G1 X38.362 Y-65.650 Z-0.200 F150.000
G3 X37.676 Y-65.884 Z-0.200 I45533.043 J-133632.170 K0.000 F150.000
G1 X37.652 Y-65.883 Z-0.200 F150.000
G1 X37.666 Y-65.880 Z-0.200 F150.000
G2 X38.519 Y-65.503 Z-0.200 I123175.275 J-278519.089 K0.000 F150.000
G0 Z2.000
G0 X36.590 Y-65.460 Z2.000
G0 X36.590 Y-65.460 Z1.000
G1 X36.590 Y-65.460 Z-0.200 F100.000
G2 X36.357 Y-64.950 Z-0.200 I1.418 J0.958 K0.000 F150.000
G3 X36.590 Y-65.460 Z-0.200 I1.223 J0.253 K0.000 F150.000
G0 Z2.000
G0 X35.377 Y-62.470 Z2.000
G0 X35.377 Y-62.470 Z1.000
G1 X35.377 Y-62.470 Z-0.200 F100.000
G1 X35.386 Y-62.031 Z-0.200 F150.000
G2 X35.786 Y-61.547 Z-0.200 I0.900 J-0.336 K0.000 F150.000
G2 X36.599 Y-61.194 Z-0.200 I10.900 J-23.998 K0.000 F150.000
G2 X37.363 Y-61.335 Z-0.200 I0.264 J-0.711 K0.000 F150.000
G2 X37.564 Y-61.470 Z-0.200 I-0.116 J-0.388 K0.000 F150.000
G1 X37.559 Y-61.457 Z-0.200 F150.000
G2 X37.108 Y-60.979 Z-0.200 I57581.837 J54307.190 K0.000 F150.000
G1 X36.392 Y-60.979 Z-0.200 F150.000
G2 X35.589 Y-61.399 Z-0.200 I-45142.473 J86315.343 K0.000 F150.000
G2 X35.302 Y-61.783 Z-0.200 I-105892.542 J78985.627 K0.000 F150.000
G1 X35.316 Y-62.317 Z-0.200 F150.000
G1 X35.377 Y-62.470 Z-0.200 F150.000
G0 Z2.000
G0 X35.384 Y-61.845 Z2.000
G0 X35.384 Y-61.845 Z1.000
G1 X35.384 Y-61.845 Z-0.200 F100.000
G2 X36.134 Y-61.304 Z-0.200 I1.046 J-0.662 K0.000 F150.000
G2 X37.122 Y-61.110 Z-0.200 I0.730 J-1.107 K0.000 F150.000
G1 X37.074 Y-61.059 Z-0.200 F150.000
G1 X36.412 Y-61.059 Z-0.200 F150.000
G2 X35.642 Y-61.461 Z-0.200 I-40642.457 J77710.966 K0.000 F150.000
G2 X35.383 Y-61.809 Z-0.200 I-91908.063 J68554.529 K0.000 F150.000
G1 X35.384 Y-61.845 Z-0.200 F150.000
G0 Z2.000
G0 X36.271 Y-61.189 Z2.000
G0 X36.271 Y-61.189 Z1.000
G1 X36.271 Y-61.189 Z-0.200 F100.000
G1 X36.451 Y-61.109 Z-0.200 F150.000
G3 X36.271 Y-61.189 Z-0.200 I-0.013 J-0.212 K0.000 F150.000
G0 Z2.000
G0 Z2.000
G0 X36.271 Y-61.189
G0 X36.505 Y-61.714
G0 X36.505 Y-61.714 Z1.000
G1 X36.505 Y-61.714 Z-0.200 F100.000
G3 X35.952 Y-61.990 Z-0.200 I2.912 J-6.525 K0.000 F150.000
G3 X35.845 Y-62.315 Z-0.200 I0.230 J-0.255 K0.000 F150.000
G1 X35.844 Y-62.511 Z-0.200 F150.000
G3 X37.002 Y-65.249 Z-0.200 I91.332 J37.022 K0.000 F150.000
G3 X37.331 Y-65.373 Z-0.200 I0.239 J0.135 K0.000 F150.000
G1 X37.518 Y-65.374 Z-0.200 F150.000
G2 X38.286 Y-65.020 Z-0.200 I19.506 J-41.353 K0.000 F150.000
G3 X38.408 Y-64.669 Z-0.200 I-1.009 J0.548 K0.000 F150.000
G1 X37.316 Y-61.973 Z-0.200 F150.000
G3 X36.881 Y-61.652 Z-0.200 I-0.415 J-0.109 K0.000 F150.000
G1 X36.643 Y-61.654 Z-0.200 F150.000
G3 X36.505 Y-61.714 Z-0.200 I2.775 J-6.585 K0.000 F150.000
G0 Z2.000
G0 X36.538 Y-61.787 Z2.000
G0 X36.538 Y-61.787 Z1.000
G1 X36.538 Y-61.787 Z-0.200 F100.000
G3 X36.008 Y-62.051 Z-0.200 I2.742 J-6.166 K0.000 F150.000
G3 X35.925 Y-62.317 Z-0.200 I0.191 J-0.205 K0.000 F150.000
G1 X35.924 Y-62.496 Z-0.200 F150.000
G3 X37.070 Y-65.204 Z-0.200 I90.347 J36.623 K0.000 F150.000
G3 X37.331 Y-65.293 Z-0.200 I0.183 J0.108 K0.000 F150.000
G1 X37.500 Y-65.294 Z-0.200 F150.000
G2 X38.225 Y-64.960 Z-0.200 I18.418 J-39.037 K0.000 F150.000
G3 X38.324 Y-64.675 Z-0.200 I-0.819 J0.445 K0.000 F150.000
G1 X37.245 Y-62.010 Z-0.200 F150.000
G3 X36.874 Y-61.732 Z-0.200 I-0.354 J-0.087 K0.000 F150.000
G1 X36.660 Y-61.734 Z-0.200 F150.000
G3 X36.538 Y-61.787 Z-0.200 I2.619 J-6.219 K0.000 F150.000
G0 Z2.000
G0 X36.570 Y-61.860 Z2.000
G0 X36.570 Y-61.860 Z1.000
G1 X36.570 Y-61.860 Z-0.200 F100.000
G3 X36.064 Y-62.112 Z-0.200 I2.571 J-5.806 K0.000 F150.000
G3 X36.005 Y-62.319 Z-0.200 I0.151 J-0.154 K0.000 F150.000
G3 X36.069 Y-62.635 Z-0.200 I0.408 J-0.083 K0.000 F150.000
G2 X36.281 Y-62.245 Z-0.200 I0.404 J0.033 K0.000 F150.000
G2 X36.626 Y-62.034 Z-0.200 I0.328 J-0.149 K0.000 F150.000
G2 X37.137 Y-62.085 Z-0.200 I-59886.215 J-602648.458 K0.000 F150.000
G1 X37.198 Y-62.108 Z-0.200 F150.000
G3 X36.678 Y-61.814 Z-0.200 I-0.384 J-0.072 K0.000 F150.000
G3 X36.570 Y-61.860 Z-0.200 I2.464 J-5.852 K0.000 F150.000
G0 Z2.000
G0 X36.603 Y-61.926 Z2.000
G0 X36.603 Y-61.926 Z1.000
G1 X36.603 Y-61.926 Z-0.200 F100.000
G3 X36.539 Y-61.964 Z-0.200 I0.177 J-0.361 K0.000 F150.000
G2 X37.044 Y-61.996 Z-0.200 I-0.035 J-4.679 K0.000 F150.000
G3 X36.859 Y-61.892 Z-0.200 I-0.163 J-0.075 K0.000 F150.000
G3 X36.603 Y-61.926 Z-0.200 I-0.079 J-0.395 K0.000 F150.000
G0 Z2.000
G0 X36.631 Y-62.112 Z2.000
G0 X36.631 Y-62.112 Z1.000
G1 X36.631 Y-62.112 Z-0.200 F100.000
G3 X36.473 Y-62.166 Z-0.200 I0.070 J-0.464 K0.000 F150.000
G2 X36.201 Y-62.437 Z-0.200 I-12284.684 J12284.458 K0.000 F150.000
G3 X36.163 Y-62.929 Z-0.200 I0.513 J-0.287 K0.000 F150.000
G2 X36.841 Y-64.503 Z-0.200 I-694407.116 J-298916.142 K0.000 F150.000
G3 X37.212 Y-64.802 Z-0.200 I1.217 J1.133 K0.000 F150.000
G3 X37.803 Y-64.543 Z-0.200 I-0.068 J0.959 K0.000 F150.000
G3 X38.012 Y-64.276 Z-0.200 I-0.176 J0.353 K0.000 F150.000
G3 X37.987 Y-63.857 Z-0.200 I-3.717 J-0.014 K0.000 F150.000
G2 X37.275 Y-62.270 Z-0.200 I607293.799 J272274.734 K0.000 F150.000
G1 X37.231 Y-62.209 Z-0.200 F150.000
G3 X36.873 Y-62.139 Z-0.200 I-0.286 J-0.515 K0.000 F150.000
G3 X36.631 Y-62.112 Z-0.200 I-0.172 J-0.436 K0.000 F150.000
G0 Z2.000
G0 X36.623 Y-62.195 Z2.000
G0 X36.623 Y-62.195 Z1.000
G1 X36.623 Y-62.195 Z-0.200 F100.000
G3 X36.610 Y-62.194 Z-0.200 I-65874.849 J-662912.914 K0.000 F150.000
G3 X36.229 Y-62.565 Z-0.200 I0.547 J-0.944 K0.000 F150.000
G3 X36.237 Y-62.897 Z-0.200 I0.812 J-0.147 K0.000 F150.000
G2 X36.914 Y-64.471 Z-0.200 I-744308.095 J-320396.549 K0.000 F150.000
G3 X37.074 Y-64.610 Z-0.200 I0.345 J0.237 K0.000 F150.000
G3 X37.297 Y-64.723 Z-0.200 I0.216 J0.149 K0.000 F150.000
G3 X37.573 Y-64.626 Z-0.200 I-306.116 J867.850 K0.000 F150.000
G3 X37.897 Y-64.356 Z-0.200 I-4.385 J5.605 K0.000 F150.000
G3 X37.914 Y-63.890 Z-0.200 I-1.266 J0.278 K0.000 F150.000
G2 X37.202 Y-62.303 Z-0.200 I641021.882 J287396.347 K0.000 F150.000
G1 X37.121 Y-62.244 Z-0.200 F150.000
G3 X36.623 Y-62.195 Z-0.200 I-65875.348 J-662912.865 K0.000 F150.000
G0 Z2.000
G0 X36.406 Y-62.025 Z2.000
G0 X36.406 Y-62.025 Z1.000
G1 X36.406 Y-62.025 Z-0.200 F100.000
G3 X36.120 Y-62.173 Z-0.200 I1.232 J-2.728 K0.000 F150.000
G3 X36.085 Y-62.328 Z-0.200 I0.117 J-0.107 K0.000 F150.000
G2 X36.406 Y-62.025 Z-0.200 I2.852 J-2.691 K0.000 F150.000
G0 Z2.000
G0 X36.945 Y-64.712 Z2.000
G0 X36.945 Y-64.712 Z1.000
G1 X36.945 Y-64.712 Z-0.200 F100.000
G1 X37.138 Y-65.158 Z-0.200 F150.000
G3 X37.332 Y-65.213 Z-0.200 I0.127 J0.080 K0.000 F150.000
G1 X37.482 Y-65.214 Z-0.200 F150.000
G2 X38.163 Y-64.900 Z-0.200 I17.327 J-36.715 K0.000 F150.000
G3 X38.240 Y-64.681 Z-0.200 I-0.629 J0.343 K0.000 F150.000
G1 X38.086 Y-64.300 Z-0.200 F150.000
G2 X37.855 Y-64.603 Z-0.200 I-0.456 J0.107 K0.000 F150.000
G2 X37.216 Y-64.885 Z-0.200 I-0.730 J0.791 K0.000 F150.000
G2 X36.945 Y-64.712 Z-0.200 I0.721 J1.434 K0.000 F150.000
G0 Z2.000
G0 X37.125 Y-64.928 Z2.000
G0 X37.125 Y-64.928 Z1.000
G1 X37.125 Y-64.928 Z-0.200 F100.000
G3 X37.225 Y-65.133 Z-0.200 I0.320 J0.028 K0.000 F150.000
G2 X37.465 Y-65.134 Z-0.200 I0.088 J-28.457 K0.000 F150.000
G2 X38.102 Y-64.840 Z-0.200 I16.236 J-34.392 K0.000 F150.000
G3 X38.081 Y-64.503 Z-0.200 I-0.202 J0.157 K0.000 F150.000
G2 X37.215 Y-64.966 Z-0.200 I-0.936 J0.710 K0.000 F150.000
G1 X37.125 Y-64.928 Z-0.200 F150.000
G0 Z2.000
G0 X37.262 Y-65.044 Z2.000
G0 X37.262 Y-65.044 Z1.000
G1 X37.262 Y-65.044 Z-0.200 F100.000
G3 X37.447 Y-65.053 Z-0.200 I0.125 J0.602 K0.000 F150.000
G2 X38.041 Y-64.780 Z-0.200 I15.143 J-32.064 K0.000 F150.000
G3 X38.053 Y-64.645 Z-0.200 I-0.070 J0.074 K0.000 F150.000
G2 X37.262 Y-65.044 Z-0.200 I-0.897 J0.796 K0.000 F150.000
G0 Z2.000
G0 Z2.000
G0 X37.262 Y-65.044
G0 X35.682 Y-65.677
G0 X35.682 Y-65.677 Z1.000
G1 X35.682 Y-65.677 Z-0.200 F100.000
G3 X35.828 Y-66.039 Z-0.200 I397.400 J159.285 K0.000 F150.000
G3 X35.852 Y-66.843 Z-0.200 I17229.262 J513.775 K0.000 F150.000
G1 X35.502 Y-67.216 Z-0.200 F150.000
G2 X34.702 Y-67.560 Z-0.200 I-35572.404 J82688.912 K0.000 F150.000
G3 X33.998 Y-67.504 Z-0.200 I-2169.317 J-27273.201 K0.000 F150.000
G1 X33.918 Y-67.535 Z-0.200 F150.000
G3 X34.011 Y-67.904 Z-0.200 I0.282 J-0.125 K0.000 F150.000
G2 X33.741 Y-67.964 Z-0.200 I-0.183 J0.186 K0.000 F150.000
G3 X32.861 Y-65.484 Z-0.200 I-296.840 J-103.944 K0.000 F150.000
G2 X33.066 Y-65.410 Z-0.200 I0.236 J-0.332 K0.000 F150.000
G2 X33.579 Y-66.642 Z-0.200 I-155847.765 J-64900.840 K0.000 F150.000
G3 X34.134 Y-67.236 Z-0.200 I1.784 J1.109 K0.000 F150.000
G1 X34.198 Y-67.261 Z-0.200 F150.000
G1 X34.623 Y-67.267 Z-0.200 F150.000
G3 X35.412 Y-66.928 Z-0.200 I0.001 J1.086 K0.000 F150.000
G3 X35.594 Y-66.559 Z-0.200 I-0.566 J0.509 K0.000 F150.000
G1 X35.594 Y-65.998 Z-0.200 F150.000
G3 X33.934 Y-61.968 Z-0.200 I-592.581 J-241.737 K0.000 F150.000
G1 X34.004 Y-61.902 Z-0.200 F150.000
G2 X34.504 Y-61.697 Z-0.200 I6878.324 J-16734.367 K0.000 F150.000
G3 X34.776 Y-62.502 Z-0.200 I60700.640 J20498.458 K0.000 F150.000
G3 X34.623 Y-62.561 Z-0.200 I374.174 J-975.379 K0.000 F150.000
G3 X34.559 Y-62.845 Z-0.200 I0.174 J-0.188 K0.000 F150.000
G3 X35.682 Y-65.677 Z-0.200 I398.523 J156.454 K0.000 F150.000
G0 Z2.000
G0 X35.609 Y-65.706 Z2.000
G0 X35.609 Y-65.706 Z1.000
G1 X35.609 Y-65.706 Z-0.200 F100.000
G2 X34.492 Y-62.912 Z-0.200 I3197844.082 J1277813.390 K0.000 F150.000
G2 X34.675 Y-62.455 Z-0.200 I0.300 J0.145 K0.000 F150.000
G2 X34.455 Y-61.803 Z-0.200 I47675.999 J16100.785 K0.000 F150.000
G3 X34.048 Y-61.970 Z-0.200 I5765.907 J-14029.061 K0.000 F150.000
G1 X34.029 Y-61.989 Z-0.200 F150.000
G1 X34.821 Y-63.902 Z-0.200 F150.000
G1 X34.821 Y-63.902 Z-0.200 F150.000
G1 X35.660 Y-65.929 Z-0.200 F150.000
G1 X35.674 Y-65.998 Z-0.200 F150.000
G1 X35.674 Y-66.559 Z-0.200 F150.000
G2 X35.458 Y-66.993 Z-0.200 I-0.831 J0.141 K0.000 F150.000
G2 X34.621 Y-67.347 Z-0.200 I-0.840 J0.820 K0.000 F150.000
G1 X34.197 Y-67.341 Z-0.200 F150.000
G1 X34.081 Y-67.297 Z-0.200 F150.000
G2 X33.505 Y-66.672 Z-0.200 I1.272 J1.752 K0.000 F150.000
G3 X33.013 Y-65.490 Z-0.200 I-148883.062 J-61999.071 K0.000 F150.000
G3 X32.958 Y-65.517 Z-0.200 I-0.006 J-0.058 K0.000 F150.000
G2 X33.804 Y-67.883 Z-0.200 I-247844.548 J-88553.007 K0.000 F150.000
G3 X33.900 Y-67.879 Z-0.200 I0.045 J0.080 K0.000 F150.000
G2 X34.005 Y-67.425 Z-0.200 I0.159 J0.203 K0.000 F150.000
G2 X34.688 Y-67.479 Z-0.200 I-2083.666 J-26205.005 K0.000 F150.000
G3 X35.455 Y-67.149 Z-0.200 I-35478.717 J82473.247 K0.000 F150.000
G1 X35.771 Y-66.812 Z-0.200 F150.000
G2 X35.748 Y-66.056 Z-0.200 I15986.590 J477.467 K0.000 F150.000
G2 X35.609 Y-65.706 Z-0.200 I3197843.942 J1277813.739 K0.000 F150.000
G0 Z2.000
G0 X35.689 Y-66.751 Z2.000
G0 X35.689 Y-66.751 Z1.000
G1 X35.689 Y-66.751 Z-0.200 F100.000
G1 X35.657 Y-66.817 Z-0.200 F150.000
G3 X35.689 Y-66.751 Z-0.200 I-0.017 J0.049 K0.000 F150.000
G0 Z2.000
G0 X34.016 Y-67.345 Z2.000
G0 X34.016 Y-67.345 Z1.000
G1 X34.016 Y-67.345 Z-0.200 F100.000
G2 X33.507 Y-66.815 Z-0.200 I1.207 J1.667 K0.000 F150.000
G1 X33.755 Y-67.509 Z-0.200 F150.000
G2 X34.016 Y-67.345 Z-0.200 I0.232 J-0.080 K0.000 F150.000
G0 Z2.000
G0 X33.857 Y-67.311 Z2.000
G0 X33.857 Y-67.311 Z1.000
G1 X33.857 Y-67.311 Z-0.200 F100.000
G1 X33.728 Y-67.196 Z-0.200 F150.000
G1 X33.780 Y-67.341 Z-0.200 F150.000
G2 X33.857 Y-67.311 Z-0.200 I0.061 J-0.041 K0.000 F150.000
G0 Z2.000
G0 X34.399 Y-62.673 Z2.000
G0 X34.399 Y-62.673 Z1.000
G1 X34.399 Y-62.673 Z-0.200 F100.000
G2 X34.575 Y-62.408 Z-0.200 I0.261 J0.018 K0.000 F150.000
G2 X34.407 Y-61.910 Z-0.200 I38938.901 J13150.139 K0.000 F150.000
G3 X34.130 Y-62.023 Z-0.200 I3662.027 J-8910.080 K0.000 F150.000
G1 X34.399 Y-62.673 Z-0.200 F150.000
G0 Z2.000
G0 X34.397 Y-62.461 Z2.000
G0 X34.397 Y-62.461 Z1.000
G1 X34.397 Y-62.461 Z-0.200 F100.000
G1 X34.483 Y-62.385 Z-0.200 F150.000
G2 X34.358 Y-62.016 Z-0.200 I29199.807 J9861.142 K0.000 F150.000
G1 X34.234 Y-62.067 Z-0.200 F150.000
G1 X34.397 Y-62.461 Z-0.200 F150.000
G0 Z2.000
G0 X34.409 Y-62.357 Z2.000
G0 X34.409 Y-62.357 Z1.000
G1 X34.409 Y-62.357 Z-0.200 F100.000
G2 X34.417 Y-62.348 Z-0.200 I0.016 J-0.007 K0.000 F150.000
G2 X34.328 Y-62.082 Z-0.200 I19718.420 J6659.172 K0.000 F150.000
G1 X34.300 Y-62.094 Z-0.200 F150.000
G1 X34.409 Y-62.357 Z-0.200 F150.000
G0 Z2.000
G0 Z2.000
G0 X34.409 Y-62.357
G0 X33.819 Y-62.602
G0 X33.819 Y-62.602 Z1.000
G1 X33.819 Y-62.602 Z-0.200 F100.000
G2 X35.227 Y-65.994 Z-0.200 I-921391.891 J-382372.896 K0.000 F150.000
G1 X35.227 Y-66.446 Z-0.200 F150.000
G2 X34.946 Y-66.765 Z-0.200 I-0.320 J-0.002 K0.000 F150.000
G2 X34.240 Y-66.860 Z-0.200 I-0.485 J0.941 K0.000 F150.000
G2 X33.857 Y-66.386 Z-0.200 I2.083 J2.075 K0.000 F150.000
G3 X33.367 Y-65.247 Z-0.200 I-166256.296 J-71623.193 K0.000 F150.000
G3 X33.697 Y-65.105 Z-0.200 I-37881.194 J88062.581 K0.000 F150.000
G1 X33.798 Y-65.365 Z-0.200 F150.000
G1 X33.798 Y-65.365 Z-0.200 F150.000
G3 X34.360 Y-66.565 Z-0.200 I6.546 J2.339 K0.000 F150.000
G1 X34.450 Y-66.620 Z-0.200 F150.000
G1 X34.867 Y-66.620 Z-0.200 F150.000
G3 X34.967 Y-66.529 Z-0.200 I-0.000 J0.100 K0.000 F150.000
G3 X35.018 Y-66.006 Z-0.200 I-343066.408 J33357.848 K0.000 F150.000
G3 X33.884 Y-63.339 Z-0.200 I-65.747 J-26.369 K0.000 F150.000
G3 X33.772 Y-63.283 Z-0.200 I-0.091 J-0.042 K0.000 F150.000
G2 X33.416 Y-63.362 Z-0.200 I-29237.515 J133138.083 K0.000 F150.000
G2 X32.921 Y-62.359 Z-0.200 I227299.195 J112086.642 K0.000 F150.000
G1 X32.921 Y-62.358 Z-0.200 F150.000
G3 X33.564 Y-62.073 Z-0.200 I-89299.225 J201876.338 K0.000 F150.000
G3 X33.630 Y-62.147 Z-0.200 I258.853 J230.448 K0.000 F150.000
G2 X33.819 Y-62.602 Z-0.200 I-921391.702 J-382373.351 K0.000 F150.000
G0 Z2.000
G0 X33.597 Y-62.694 Z2.000
G0 X33.597 Y-62.694 Z1.000
G1 X33.597 Y-62.694 Z-0.200 F100.000
G1 X33.745 Y-63.050 Z-0.200 F150.000
G3 X33.548 Y-63.087 Z-0.200 I-0.023 J-0.419 K0.000 F150.000
G2 X33.247 Y-62.476 Z-0.200 I159024.258 J78418.601 K0.000 F150.000
G3 X33.467 Y-62.379 Z-0.200 I-32518.398 J73513.469 K0.000 F150.000
G1 X33.597 Y-62.694 Z-0.200 F150.000
G0 Z2.000
G0 X33.523 Y-62.725 Z2.000
G0 X33.523 Y-62.725 Z1.000
G1 X33.523 Y-62.725 Z-0.200 F100.000
G1 X33.632 Y-62.987 Z-0.200 F150.000
G1 X33.592 Y-62.995 Z-0.200 F150.000
G2 X33.355 Y-62.516 Z-0.200 I112836.552 J55642.380 K0.000 F150.000
G1 X33.424 Y-62.485 Z-0.200 F150.000
G1 X33.523 Y-62.725 Z-0.200 F150.000
G0 Z2.000
G0 X33.671 Y-62.663 Z2.000
G0 X33.671 Y-62.663 Z1.000
G1 X33.671 Y-62.663 Z-0.200 F100.000
G1 X33.866 Y-63.133 Z-0.200 F150.000
G3 X33.504 Y-63.179 Z-0.200 I-0.096 J-0.699 K0.000 F150.000
G2 X33.138 Y-62.437 Z-0.200 I167790.889 J82741.677 K0.000 F150.000
G3 X33.509 Y-62.273 Z-0.200 I-64282.600 J145321.797 K0.000 F150.000
G1 X33.671 Y-62.663 Z-0.200 F150.000
G0 Z2.000
G0 X33.745 Y-62.633 Z2.000
G0 X33.745 Y-62.633 Z1.000
G1 X33.745 Y-62.633 Z-0.200 F100.000
G1 X33.561 Y-62.190 Z-0.200 F150.000
G1 X33.543 Y-62.170 Z-0.200 F150.000
G2 X33.029 Y-62.397 Z-0.200 I-61851.464 J139824.586 K0.000 F150.000
G1 X33.252 Y-62.850 Z-0.200 F150.000
G1 X33.460 Y-63.270 Z-0.200 F150.000
G1 X33.538 Y-63.253 Z-0.200 F150.000
G1 X33.538 Y-63.253 Z-0.200 F150.000
G2 X33.866 Y-63.216 Z-0.200 I0.220 J-0.485 K0.000 F150.000
G2 X34.065 Y-63.538 Z-0.200 I-0.326 J-0.424 K0.000 F150.000
G2 X35.097 Y-66.014 Z-0.200 I-51.891 J-23.097 K0.000 F150.000
G2 X35.046 Y-66.537 Z-0.200 I-312861.363 J30420.363 K0.000 F150.000
G2 X34.867 Y-66.700 Z-0.200 I-0.179 J0.017 K0.000 F150.000
G1 X34.450 Y-66.700 Z-0.200 F150.000
G2 X34.289 Y-66.601 Z-0.200 I0.000 J0.180 K0.000 F150.000
G2 X33.652 Y-65.211 Z-0.200 I6.963 J4.032 K0.000 F150.000
G2 X33.472 Y-65.289 Z-0.200 I-31344.501 J72866.101 K0.000 F150.000
G2 X33.927 Y-66.346 Z-0.200 I-153994.050 J-66341.831 K0.000 F150.000
G3 X34.278 Y-66.783 Z-0.200 I2.272 J1.469 K0.000 F150.000
G3 X34.913 Y-66.692 Z-0.200 I0.188 J0.951 K0.000 F150.000
G3 X35.147 Y-66.431 Z-0.200 I-0.030 J0.262 K0.000 F150.000
G1 X35.147 Y-66.010 Z-0.200 F150.000
G1 X34.355 Y-64.103 Z-0.200 F150.000
G1 X34.355 Y-64.103 Z-0.200 F150.000
G1 X33.745 Y-62.633 Z-0.200 F150.000
G0 Z2.000
G0 X33.608 Y-65.318 Z2.000
G0 X33.608 Y-65.318 Z1.000
G1 X33.608 Y-65.318 Z-0.200 F100.000
G1 X33.577 Y-65.331 Z-0.200 F150.000
G2 X33.997 Y-66.306 Z-0.200 I-147706.982 J-63633.257 K0.000 F150.000
G3 X34.171 Y-66.545 Z-0.200 I1.234 J0.719 K0.000 F150.000
G2 X33.608 Y-65.318 Z-0.200 I6.188 J3.585 K0.000 F150.000
G0 Z2.000
G0 Z2.000
G0 X33.608 Y-65.318
G0 X32.248 Y-66.128
G0 X32.248 Y-66.128 Z1.000
G1 X32.248 Y-66.128 Z-0.200 F100.000
G2 X32.661 Y-66.821 Z-0.200 I-3695002.995 J-2202653.988 K0.000 F150.000
G3 X32.982 Y-66.834 Z-0.200 I0.170 J0.230 K0.000 F150.000
G2 X33.295 Y-67.652 Z-0.200 I-141477.647 J-54141.049 K0.000 F150.000
G1 X33.261 Y-67.707 Z-0.200 F150.000
G3 X33.062 Y-67.759 Z-0.200 I427.015 J-1633.288 K0.000 F150.000
G1 X30.713 Y-63.838 Z-0.200 F150.000
G3 X30.530 Y-63.789 Z-0.200 I-0.134 J-0.137 K0.000 F150.000
G3 X29.744 Y-64.091 Z-0.200 I3.774 J-10.980 K0.000 F150.000
G3 X29.715 Y-64.303 Z-0.200 I0.241 J-0.141 K0.000 F150.000
G3 X30.865 Y-69.069 Z-0.200 I7787.775 J1877.386 K0.000 F150.000
G2 X30.420 Y-69.217 Z-0.200 I-3.180 J8.835 K0.000 F150.000
G2 X30.168 Y-68.420 Z-0.200 I580082.643 J182855.303 K0.000 F150.000
G1 X30.236 Y-68.365 Z-0.200 F150.000
G3 X30.391 Y-68.167 Z-0.200 I-0.080 J0.222 K0.000 F150.000
G2 X29.620 Y-64.943 Z-0.200 I830674.365 J198701.544 K0.000 F150.000
G1 X29.573 Y-64.880 Z-0.200 F150.000
G3 X29.271 Y-64.929 Z-0.200 I-0.092 J-0.389 K0.000 F150.000
G3 X28.837 Y-63.972 Z-0.200 I-57604.896 J-26118.419 K0.000 F150.000
G3 X31.054 Y-63.233 Z-0.200 I-685219.056 J2056015.586 K0.000 F150.000
G2 X31.136 Y-63.317 Z-0.200 I-602.888 J-584.744 K0.000 F150.000
G2 X31.449 Y-64.146 Z-0.200 I-143623.464 J-54328.842 K0.000 F150.000
G1 X31.383 Y-64.194 Z-0.200 F150.000
G3 X31.230 Y-64.420 Z-0.200 I0.048 J-0.197 K0.000 F150.000
G2 X32.248 Y-66.128 Z-0.200 I-3695001.977 J-2202655.697 K0.000 F150.000
G0 Z2.000
G0 X32.650 Y-66.916 Z2.000
G0 X32.650 Y-66.916 Z1.000
G1 X32.650 Y-66.916 Z-0.200 F100.000
G3 X32.930 Y-66.923 Z-0.200 I0.148 J0.322 K0.000 F150.000
G2 X33.204 Y-67.639 Z-0.200 I-123402.146 J-47223.848 K0.000 F150.000
G3 X33.100 Y-67.667 Z-0.200 I214.474 J-820.387 K0.000 F150.000
G1 X32.650 Y-66.916 Z-0.200 F150.000
G0 Z2.000
G0 X32.808 Y-67.024 Z2.000
G0 X32.808 Y-67.024 Z1.000
G1 X32.808 Y-67.024 Z-0.200 F100.000
G1 X32.879 Y-67.012 Z-0.200 F150.000
G2 X33.017 Y-67.373 Z-0.200 I-68124.719 J-26070.212 K0.000 F150.000
G1 X32.808 Y-67.024 Z-0.200 F150.000
G0 Z2.000
G0 X30.428 Y-67.599 Z2.000
G0 X30.428 Y-67.599 Z1.000
G1 X30.428 Y-67.599 Z-0.200 F100.000
G2 X29.635 Y-64.303 Z-0.200 I1599.366 J386.472 K0.000 F150.000
G2 X29.751 Y-63.994 Z-0.200 I0.215 J0.096 K0.000 F150.000
G2 X30.466 Y-63.721 Z-0.200 I74742.659 J-195710.065 K0.000 F150.000
G2 X30.782 Y-63.796 Z-0.200 I0.101 J-0.274 K0.000 F150.000
G1 X31.149 Y-64.410 Z-0.200 F150.000
G2 X31.353 Y-64.117 Z-0.200 I0.303 J0.006 K0.000 F150.000
G3 X31.067 Y-63.361 Z-0.200 I-129098.509 J-48833.609 K0.000 F150.000
G1 X31.032 Y-63.325 Z-0.200 F150.000
G2 X28.947 Y-64.020 Z-0.200 I-505043.899 J1515389.571 K0.000 F150.000
G2 X29.316 Y-64.834 Z-0.200 I-47501.329 J-21538.367 K0.000 F150.000
G2 X29.674 Y-64.869 Z-0.200 I0.155 J-0.264 K0.000 F150.000
G1 X29.698 Y-64.924 Z-0.200 F150.000
G3 X30.469 Y-68.148 Z-0.200 I819883.789 J196116.984 K0.000 F150.000
G2 X30.261 Y-68.448 Z-0.200 I-0.341 J0.015 K0.000 F150.000
G1 X30.473 Y-69.121 Z-0.200 F150.000
G2 X30.771 Y-69.018 Z-0.200 I16371.017 J-46959.620 K0.000 F150.000
G2 X30.428 Y-67.599 Z-0.200 I1599.023 J387.891 K0.000 F150.000
G0 Z2.000
G0 X30.517 Y-68.302 Z2.000
G0 X30.517 Y-68.302 Z1.000
G1 X30.517 Y-68.302 Z-0.200 F100.000
G2 X30.677 Y-68.966 Z-0.200 I-39.487 J-9.858 K0.000 F150.000
G3 X30.525 Y-69.019 Z-0.200 I11986.445 J-34383.221 K0.000 F150.000
G2 X30.354 Y-68.476 Z-0.200 I332827.556 J104914.851 K0.000 F150.000
G3 X30.517 Y-68.302 Z-0.200 I-0.197 J0.350 K0.000 F150.000
G0 Z2.000
G0 X30.477 Y-68.478 Z2.000
G0 X30.477 Y-68.478 Z1.000
G1 X30.477 Y-68.478 Z-0.200 F100.000
G1 X30.446 Y-68.504 Z-0.200 F150.000
G1 X30.524 Y-68.749 Z-0.200 F150.000
G1 X30.524 Y-68.749 Z-0.200 F150.000
G1 X30.576 Y-68.916 Z-0.200 F150.000
G1 X30.582 Y-68.914 Z-0.200 F150.000
G3 X30.477 Y-68.478 Z-0.200 I-26.025 J-6.049 K0.000 F150.000
G0 Z2.000
G0 X29.663 Y-64.758 Z2.000
G0 X29.663 Y-64.758 Z1.000
G1 X29.663 Y-64.758 Z-0.200 F100.000
G2 X29.555 Y-64.162 Z-0.200 I1.190 J0.525 K0.000 F150.000
G2 X29.722 Y-63.919 Z-0.200 I0.260 J0.000 K0.000 F150.000
G2 X30.437 Y-63.646 Z-0.200 I69046.576 J-180795.023 K0.000 F150.000
G2 X30.851 Y-63.755 Z-0.200 I0.128 J-0.353 K0.000 F150.000
G1 X31.120 Y-64.206 Z-0.200 F150.000
G2 X31.256 Y-64.089 Z-0.200 I0.338 J-0.257 K0.000 F150.000
G1 X31.152 Y-63.814 Z-0.200 F150.000
G1 X31.003 Y-63.419 Z-0.200 F150.000
G2 X29.056 Y-64.068 Z-0.200 I-524254.645 J1573032.012 K0.000 F150.000
G2 X29.361 Y-64.740 Z-0.200 I-39442.384 J-17884.209 K0.000 F150.000
G2 X29.663 Y-64.758 Z-0.200 I0.139 J-0.215 K0.000 F150.000
G0 Z2.000
G0 X29.554 Y-64.636 Z2.000
G0 X29.554 Y-64.636 Z1.000
G1 X29.554 Y-64.636 Z-0.200 F100.000
G2 X29.514 Y-64.004 Z-0.200 I0.712 J0.362 K0.000 F150.000
G1 X29.522 Y-63.997 Z-0.200 F150.000
G1 X29.166 Y-64.116 Z-0.200 F150.000
G2 X29.406 Y-64.645 Z-0.200 I-32042.114 J-14528.726 K0.000 F150.000
G2 X29.554 Y-64.636 Z-0.200 I0.094 J-0.296 K0.000 F150.000
G0 Z2.000
G0 X29.433 Y-64.512 Z2.000
G0 X29.433 Y-64.512 Z1.000
G1 X29.433 Y-64.512 Z-0.200 F100.000
G2 X29.404 Y-64.121 Z-0.200 I0.819 J0.259 K0.000 F150.000
G1 X29.275 Y-64.163 Z-0.200 F150.000
G2 X29.433 Y-64.512 Z-0.200 I-21337.081 J-9674.781 K0.000 F150.000
G0 Z2.000
G0 X29.345 Y-64.196 Z2.000
G0 X29.345 Y-64.196 Z1.000
G1 X29.345 Y-64.196 Z-0.200 F100.000
G1 X29.345 Y-64.193 Z-0.200 F150.000
G1 X29.344 Y-64.193 Z-0.200 F150.000
G1 X29.345 Y-64.196 Z-0.200 F150.000
G0 Z2.000
G0 X30.765 Y-63.583 Z2.000
G0 X30.765 Y-63.583 Z1.000
G1 X30.765 Y-63.583 Z-0.200 F100.000
G2 X30.919 Y-63.714 Z-0.200 I-0.039 J-0.202 K0.000 F150.000
G1 X31.137 Y-64.078 Z-0.200 F150.000
G1 X31.160 Y-64.061 Z-0.200 F150.000
G1 X31.078 Y-63.842 Z-0.200 F150.000
G1 X30.955 Y-63.519 Z-0.200 F150.000
G1 X30.765 Y-63.583 Z-0.200 F150.000
G0 Z2.000
G0 Z2.000
G0 X30.765 Y-63.583
G0 X30.481 Y-64.169
G0 X30.481 Y-64.169 Z1.000
G1 X30.481 Y-64.169 Z-0.200 F100.000
G1 X30.086 Y-64.339 Z-0.200 F150.000
G3 X30.561 Y-66.277 Z-0.200 I33.650 J7.228 K0.000 F150.000
G2 X31.527 Y-65.886 Z-0.200 I73127.884 J-180638.069 K0.000 F150.000
G2 X30.543 Y-64.240 Z-0.200 I432866.606 J258617.262 K0.000 F150.000
G1 X30.481 Y-64.169 Z-0.200 F150.000
G0 Z2.000
G0 X30.459 Y-64.265 Z2.000
G0 X30.459 Y-64.265 Z1.000
G1 X30.459 Y-64.265 Z-0.200 F100.000
G1 X30.179 Y-64.386 Z-0.200 F150.000
G3 X30.547 Y-65.915 Z-0.200 I26.542 J5.579 K0.000 F150.000
G3 X30.398 Y-64.968 Z-0.200 I-15.058 J-1.895 K0.000 F150.000
G2 X30.810 Y-64.842 Z-0.200 I0.219 J0.022 K0.000 F150.000
G1 X30.478 Y-64.287 Z-0.200 F150.000
G1 X30.459 Y-64.265 Z-0.200 F150.000
G0 Z2.000
G0 X30.431 Y-64.364 Z2.000
G0 X30.431 Y-64.364 Z1.000
G1 X30.431 Y-64.364 Z-0.200 F100.000
G1 X30.273 Y-64.433 Z-0.200 F150.000
G1 X30.360 Y-64.803 Z-0.200 F150.000
G2 X30.594 Y-64.637 Z-0.200 I0.280 J-0.148 K0.000 F150.000
G1 X30.431 Y-64.364 Z-0.200 F150.000
G0 Z2.000
G0 X30.398 Y-64.465 Z2.000
G0 X30.398 Y-64.465 Z1.000
G1 X30.398 Y-64.465 Z-0.200 F100.000
G1 X30.366 Y-64.479 Z-0.200 F150.000
G1 X30.403 Y-64.637 Z-0.200 F150.000
G1 X30.475 Y-64.593 Z-0.200 F150.000
G1 X30.398 Y-64.465 Z-0.200 F150.000
G0 Z2.000
G0 X30.559 Y-64.815 Z2.000
G0 X30.559 Y-64.815 Z1.000
G1 X30.559 Y-64.815 Z-0.200 F100.000
G3 X30.477 Y-64.955 Z-0.200 I0.060 J-0.130 K0.000 F150.000
G2 X30.639 Y-65.996 Z-0.200 I-16.405 J-3.098 K0.000 F150.000
G3 X30.738 Y-66.082 Z-0.200 I0.099 J0.014 K0.000 F150.000
G3 X31.134 Y-65.952 Z-0.200 I0.092 J0.385 K0.000 F150.000
G3 X31.307 Y-65.702 Z-0.200 I-0.039 J0.212 K0.000 F150.000
G2 X30.708 Y-64.833 Z-0.200 I10.874 J8.146 K0.000 F150.000
G3 X30.559 Y-64.815 Z-0.200 I-0.089 J-0.112 K0.000 F150.000
G0 Z2.000
G0 X30.582 Y-66.043 Z2.000
G0 X30.582 Y-66.043 Z1.000
G1 X30.582 Y-66.043 Z-0.200 F100.000
G1 X30.615 Y-66.169 Z-0.200 F150.000
G1 X30.679 Y-66.143 Z-0.200 F150.000
G2 X30.582 Y-66.043 Z-0.200 I0.009 J0.106 K0.000 F150.000
G0 Z2.000
G0 X31.350 Y-65.871 Z2.000
G0 X31.350 Y-65.871 Z1.000
G1 X31.350 Y-65.871 Z-0.200 F100.000
G1 X31.410 Y-65.847 Z-0.200 F150.000
G1 X31.384 Y-65.804 Z-0.200 F150.000
G1 X31.350 Y-65.871 Z-0.200 F150.000
G0 Z2.000
G0 Z2.000
G0 X31.350 Y-65.871
G0 X28.415 Y-65.573
G0 X28.415 Y-65.573 Z1.000
G1 X28.415 Y-65.573 Z-0.200 F100.000
G2 X28.198 Y-65.642 Z-0.200 I-640.981 J2019.365 K0.000 F150.000
G3 X28.136 Y-65.935 Z-0.200 I0.153 J-0.185 K0.000 F150.000
G3 X29.066 Y-68.161 Z-0.200 I1397645.038 J583980.841 K0.000 F150.000
G1 X29.102 Y-68.206 Z-0.200 F150.000
G3 X29.476 Y-68.164 Z-0.200 I0.137 J0.472 K0.000 F150.000
G3 X29.949 Y-69.325 Z-0.200 I1012144.074 J412231.047 K0.000 F150.000
G1 X29.890 Y-69.382 Z-0.200 F150.000
G2 X29.541 Y-69.468 Z-0.200 I-1062.589 J4301.782 K0.000 F150.000
G3 X27.540 Y-64.834 Z-0.200 I-441.535 J-187.867 K0.000 F150.000
G3 X27.446 Y-64.774 Z-0.200 I-0.092 J-0.040 K0.000 F150.000
G3 X26.843 Y-64.872 Z-0.200 I-0.113 J-1.215 K0.000 F150.000
G3 X26.689 Y-65.057 Z-0.200 I0.164 J-0.293 K0.000 F150.000
G3 X26.894 Y-67.831 Z-0.200 I620929.553 J45910.084 K0.000 F150.000
G2 X24.738 Y-66.252 Z-0.200 I249599.616 J340741.140 K0.000 F150.000
G3 X24.528 Y-66.421 Z-0.200 I-0.056 J-0.145 K0.000 F150.000
G2 X26.291 Y-70.715 Z-0.200 I-2933950.166 J-1205126.910 K0.000 F150.000
G2 X26.291 Y-70.800 Z-0.200 I-4728.579 J16.914 K0.000 F150.000
G3 X25.830 Y-70.967 Z-0.200 I64993.995 J-179742.428 K0.000 F150.000
G2 X25.359 Y-69.854 Z-0.200 I83667.640 J35363.006 K0.000 F150.000
G1 X25.458 Y-69.784 Z-0.200 F150.000
G3 X25.659 Y-69.551 Z-0.200 I-0.049 J0.245 K0.000 F150.000
G3 X24.745 Y-67.181 Z-0.200 I-432133.364 J-166669.652 K0.000 F150.000
G3 X24.597 Y-67.037 Z-0.200 I-0.325 J-0.187 K0.000 F150.000
G3 X24.270 Y-67.179 Z-0.200 I0.008 J-0.465 K0.000 F150.000
G3 X23.818 Y-66.109 Z-0.200 I-14.727 J-5.591 K0.000 F150.000
G1 X23.818 Y-65.979 Z-0.200 F150.000
G2 X24.373 Y-65.757 Z-0.200 I49196.490 J-122953.927 K0.000 F150.000
G3 X26.521 Y-67.413 Z-0.200 I20.548 J24.430 K0.000 F150.000
G3 X26.741 Y-67.256 Z-0.200 I0.053 J0.158 K0.000 F150.000
G2 X26.436 Y-64.951 Z-0.200 I105.333 J15.107 K0.000 F150.000
G1 X26.450 Y-64.926 Z-0.200 F150.000
G1 X26.450 Y-64.926 Z-0.200 F150.000
G1 X26.461 Y-64.905 Z-0.200 F150.000
G2 X27.889 Y-64.333 Z-0.200 I133856.099 J-334433.398 K0.000 F150.000
G3 X27.947 Y-64.401 Z-0.200 I473.282 J408.244 K0.000 F150.000
G3 X28.415 Y-65.573 Z-0.200 I2633910.191 J1050726.332 K0.000 F150.000
G0 Z2.000
G0 X28.309 Y-65.523 Z2.000
G0 X28.309 Y-65.523 Z1.000
G1 X28.309 Y-65.523 Z-0.200 F100.000
G2 X27.878 Y-64.443 Z-0.200 I1633548.845 J651660.741 K0.000 F150.000
G1 X27.866 Y-64.429 Z-0.200 F150.000
G3 X27.189 Y-64.700 Z-0.200 I207866.520 J-519350.721 K0.000 F150.000
G2 X27.551 Y-64.726 Z-0.200 I0.141 J-0.571 K0.000 F150.000
G1 X27.614 Y-64.802 Z-0.200 F150.000
G1 X28.048 Y-65.806 Z-0.200 F150.000
G2 X28.309 Y-65.523 Z-0.200 I0.236 J0.044 K0.000 F150.000
G0 Z2.000
G0 X28.203 Y-65.473 Z2.000
G0 X28.203 Y-65.473 Z1.000
G1 X28.203 Y-65.473 Z-0.200 F100.000
G2 X27.827 Y-64.530 Z-0.200 I1844271.317 J735722.488 K0.000 F150.000
G1 X27.552 Y-64.641 Z-0.200 F150.000
G2 X27.687 Y-64.771 Z-0.200 I-0.029 J-0.166 K0.000 F150.000
G1 X28.037 Y-65.580 Z-0.200 F150.000
G2 X28.203 Y-65.473 Z-0.200 I0.221 J-0.160 K0.000 F150.000
G0 Z2.000
G0 X28.098 Y-65.427 Z2.000
G0 X28.098 Y-65.427 Z1.000
G1 X28.098 Y-65.427 Z-0.200 F100.000
G2 X27.782 Y-64.634 Z-0.200 I2030149.760 J809873.574 K0.000 F150.000
G1 X27.695 Y-64.669 Z-0.200 F150.000
G1 X27.761 Y-64.739 Z-0.200 F150.000
G1 X28.065 Y-65.443 Z-0.200 F150.000
G1 X28.098 Y-65.427 Z-0.200 F150.000
G0 Z2.000
G0 X26.644 Y-65.534 Z2.000
G0 X26.644 Y-65.534 Z1.000
G1 X26.644 Y-65.534 Z-0.200 F100.000
G1 X26.609 Y-65.063 Z-0.200 F150.000
G2 X26.681 Y-64.903 Z-0.200 I0.211 J0.001 K0.000 F150.000
G1 X26.519 Y-64.968 Z-0.200 F150.000
G3 X26.713 Y-66.468 Z-0.200 I68.755 J8.122 K0.000 F150.000
G1 X26.644 Y-65.534 Z-0.200 F150.000
G0 Z2.000
G0 X26.779 Y-67.368 Z2.000
G0 X26.779 Y-67.368 Z1.000
G1 X26.779 Y-67.368 Z-0.200 F100.000
G2 X26.738 Y-67.428 Z-0.200 I-0.082 J0.011 K0.000 F150.000
G1 X26.738 Y-67.428 Z-0.200 F150.000
G2 X26.582 Y-67.504 Z-0.200 I-0.115 J0.039 K0.000 F150.000
G1 X26.801 Y-67.664 Z-0.200 F150.000
G1 X26.779 Y-67.368 Z-0.200 F150.000
G0 Z2.000
G0 X24.677 Y-66.997 Z2.000
G0 X24.677 Y-66.997 Z1.000
G1 X24.677 Y-66.997 Z-0.200 F100.000
G1 X24.454 Y-66.452 Z-0.200 F150.000
G2 X24.780 Y-66.186 Z-0.200 I0.227 J0.055 K0.000 F150.000
G1 X24.360 Y-65.849 Z-0.200 F150.000
G1 X24.121 Y-65.944 Z-0.200 F150.000
G1 X24.121 Y-65.944 Z-0.200 F150.000
G1 X23.898 Y-66.033 Z-0.200 F150.000
G1 X23.898 Y-66.093 Z-0.200 F150.000
G2 X24.312 Y-67.065 Z-0.200 I-13.010 J-6.103 K0.000 F150.000
G2 X24.592 Y-66.954 Z-0.200 I0.311 J-0.376 K0.000 F150.000
G1 X24.677 Y-66.997 Z-0.200 F150.000
G0 Z2.000
G0 X24.543 Y-66.880 Z2.000
G0 X24.543 Y-66.880 Z1.000
G1 X24.543 Y-66.880 Z-0.200 F100.000
G2 X24.362 Y-66.349 Z-0.200 I0.902 J0.603 K0.000 F150.000
G2 X24.559 Y-66.111 Z-0.200 I0.307 J-0.055 K0.000 F150.000
G1 X24.346 Y-65.940 Z-0.200 F150.000
G1 X24.151 Y-66.018 Z-0.200 F150.000
G1 X24.151 Y-66.018 Z-0.200 F150.000
G1 X23.982 Y-66.086 Z-0.200 F150.000
G2 X24.353 Y-66.952 Z-0.200 I-11.611 J-5.482 K0.000 F150.000
G2 X24.543 Y-66.880 Z-0.200 I0.229 J-0.318 K0.000 F150.000
G0 Z2.000
G0 X24.434 Y-66.826 Z2.000
G0 X24.434 Y-66.826 Z1.000
G1 X24.434 Y-66.826 Z-0.200 F100.000
G3 X24.395 Y-66.839 Z-0.200 I0.008 J-0.086 K0.000 F150.000
G3 X24.089 Y-66.130 Z-0.200 I-9.842 J-3.828 K0.000 F150.000
G2 X24.332 Y-66.032 Z-0.200 I24003.622 J-59990.960 K0.000 F150.000
G1 X24.423 Y-66.104 Z-0.200 F150.000
G3 X24.282 Y-66.352 Z-0.200 I0.238 J-0.300 K0.000 F150.000
G3 X24.434 Y-66.826 Z-0.200 I1.039 J0.073 K0.000 F150.000
G0 Z2.000
G0 X24.229 Y-66.253 Z2.000
G0 X24.229 Y-66.253 Z1.000
G1 X24.229 Y-66.253 Z-0.200 F100.000
G2 X24.293 Y-66.134 Z-0.200 I0.167 J-0.014 K0.000 F150.000
G1 X24.195 Y-66.173 Z-0.200 F150.000
G1 X24.229 Y-66.253 Z-0.200 F150.000
G0 Z2.000
G0 X25.737 Y-69.576 Z2.000
G0 X25.737 Y-69.576 Z1.000
G1 X25.737 Y-69.576 Z-0.200 F100.000
G1 X26.211 Y-70.731 Z-0.200 F150.000
G1 X26.211 Y-70.744 Z-0.200 F150.000
G3 X25.874 Y-70.866 Z-0.200 I43672.339 J-120776.843 K0.000 F150.000
G2 X25.458 Y-69.882 Z-0.200 I74717.922 J31580.308 K0.000 F150.000
G3 X25.737 Y-69.576 Z-0.200 I-0.107 J0.377 K0.000 F150.000
G0 Z2.000
G0 X25.735 Y-69.781 Z2.000
G0 X25.735 Y-69.781 Z1.000
G1 X25.735 Y-69.781 Z-0.200 F100.000
G1 X26.110 Y-70.696 Z-0.200 F150.000
G3 X25.918 Y-70.765 Z-0.200 I31540.916 J-87227.028 K0.000 F150.000
G2 X25.557 Y-69.910 Z-0.200 I64131.042 J27105.653 K0.000 F150.000
G3 X25.735 Y-69.781 Z-0.200 I-0.368 J0.693 K0.000 F150.000
G0 Z2.000
G0 X25.700 Y-69.908 Z2.000
G0 X25.700 Y-69.908 Z1.000
G1 X25.700 Y-69.908 Z-0.200 F100.000
G1 X26.005 Y-70.649 Z-0.200 F150.000
G1 X25.962 Y-70.664 Z-0.200 F150.000
G2 X25.656 Y-69.939 Z-0.200 I56347.633 J23815.901 K0.000 F150.000
G1 X25.700 Y-69.908 Z-0.200 F150.000
G0 Z2.000
G0 X29.174 Y-68.409 Z2.000
G0 X29.174 Y-68.409 Z1.000
G1 X29.174 Y-68.409 Z-0.200 F100.000
G2 X29.588 Y-69.374 Z-0.200 I-203.720 J-87.864 K0.000 F150.000
G1 X29.668 Y-69.354 Z-0.200 F150.000
G1 X29.668 Y-69.354 Z-0.200 F150.000
G1 X29.849 Y-69.310 Z-0.200 F150.000
G1 X29.854 Y-69.305 Z-0.200 F150.000
G2 X29.427 Y-68.255 Z-0.200 I1101083.046 J448455.763 K0.000 F150.000
G1 X29.382 Y-68.263 Z-0.200 F150.000
G1 X29.382 Y-68.263 Z-0.200 F150.000
G2 X29.123 Y-68.291 Z-0.200 I-0.172 J0.384 K0.000 F150.000
G2 X29.174 Y-68.409 Z-0.200 I-203.669 J-87.983 K0.000 F150.000
G0 Z2.000
G0 X29.249 Y-68.381 Z2.000
G0 X29.249 Y-68.381 Z1.000
G1 X29.249 Y-68.381 Z-0.200 F100.000
G3 X29.649 Y-69.277 Z-0.200 I7.461 J2.795 K0.000 F150.000
G1 X29.649 Y-69.277 Z-0.200 F150.000
G1 X29.747 Y-69.253 Z-0.200 F150.000
G2 X29.377 Y-68.346 Z-0.200 I676744.278 J275628.728 K0.000 F150.000
G1 X29.245 Y-68.371 Z-0.200 F150.000
G3 X29.249 Y-68.381 Z-0.200 I7.465 J2.785 K0.000 F150.000
G0 Z2.000
G0 Z2.000
G0 X29.249 Y-68.381
G0 X28.696 Y-68.620
G0 X28.696 Y-68.620 Z1.000
G1 X28.696 Y-68.620 Z-0.200 F100.000
G2 X27.235 Y-65.238 Z-0.200 I1758080.843 J759492.977 K0.000 F150.000
G3 X27.148 Y-65.271 Z-0.200 I-0.033 J-0.043 K0.000 F150.000
G1 X27.238 Y-66.410 Z-0.200 F150.000
G2 X27.513 Y-66.467 Z-0.200 I0.115 J-0.135 K0.000 F150.000
G2 X28.431 Y-68.345 Z-0.200 I-1182609.993 J-578689.899 K0.000 F150.000
G2 X28.183 Y-68.647 Z-0.200 I-0.261 J-0.039 K0.000 F150.000
G1 X28.120 Y-68.687 Z-0.200 F150.000
G1 X28.586 Y-69.694 Z-0.200 F150.000
G3 X29.086 Y-69.523 Z-0.200 I-42316.279 J124190.985 K0.000 F150.000
G2 X28.696 Y-68.620 Z-0.200 I1758080.453 J759493.879 K0.000 F150.000
G0 Z2.000
G0 X28.622 Y-68.652 Z2.000
G0 X28.622 Y-68.652 Z1.000
G1 X28.622 Y-68.652 Z-0.200 F100.000
G1 X28.978 Y-69.475 Z-0.200 F150.000
G2 X28.628 Y-69.595 Z-0.200 I-26268.153 J77091.406 K0.000 F150.000
G1 X28.223 Y-68.718 Z-0.200 F150.000
G3 X28.527 Y-68.432 Z-0.200 I-0.057 J0.365 K0.000 F150.000
G1 X28.622 Y-68.652 Z-0.200 F150.000
G0 Z2.000
G0 X28.549 Y-68.684 Z2.000
G0 X28.549 Y-68.684 Z1.000
G1 X28.549 Y-68.684 Z-0.200 F100.000
G1 X28.524 Y-68.626 Z-0.200 F150.000
G2 X28.332 Y-68.763 Z-0.200 I-0.281 J0.191 K0.000 F150.000
G1 X28.670 Y-69.496 Z-0.200 F150.000
G1 X28.870 Y-69.428 Z-0.200 F150.000
G1 X28.549 Y-68.684 Z-0.200 F150.000
G0 Z2.000
G0 X28.497 Y-68.766 Z2.000
G0 X28.497 Y-68.766 Z1.000
G1 X28.497 Y-68.766 Z-0.200 F100.000
G1 X28.438 Y-68.803 Z-0.200 F150.000
G1 X28.713 Y-69.397 Z-0.200 F150.000
G1 X28.762 Y-69.380 Z-0.200 F150.000
G1 X28.497 Y-68.766 Z-0.200 F150.000
G0 Z2.000
G0 X28.292 Y-68.529 Z2.000
G0 X28.292 Y-68.529 Z1.000
G1 X28.292 Y-68.529 Z-0.200 F100.000
G2 X28.147 Y-68.575 Z-0.200 I-0.127 J0.147 K0.000 F150.000
G2 X28.018 Y-68.657 Z-0.200 I-622.454 J981.671 K0.000 F150.000
G3 X28.543 Y-69.793 Z-0.200 I1687870.439 J779842.666 K0.000 F150.000
G3 X29.192 Y-69.572 Z-0.200 I-55993.271 J164330.533 K0.000 F150.000
G1 X29.179 Y-69.538 Z-0.200 F150.000
G2 X27.287 Y-65.158 Z-0.200 I1766578.676 J763165.187 K0.000 F150.000
G1 X27.124 Y-65.158 Z-0.200 F150.000
G2 X27.067 Y-65.251 Z-0.200 I-19709.008 J12180.129 K0.000 F150.000
G3 X27.328 Y-68.377 Z-0.200 I87.908 J5.767 K0.000 F150.000
G2 X27.177 Y-68.470 Z-0.200 I-0.100 J-0.007 K0.000 F150.000
G2 X26.149 Y-67.747 Z-0.200 I3.108 J5.513 K0.000 F150.000
G3 X25.190 Y-67.055 Z-0.200 I-6.544 J-8.056 K0.000 F150.000
G3 X26.683 Y-70.683 Z-0.200 I157.209 J62.585 K0.000 F150.000
G3 X27.209 Y-70.476 Z-0.200 I-553.194 J1408.655 K0.000 F150.000
G1 X27.209 Y-70.418 Z-0.200 F150.000
G2 X26.711 Y-69.260 Z-0.200 I650947.551 J279913.887 K0.000 F150.000
G2 X26.189 Y-69.387 Z-0.200 I-0.682 J1.662 K0.000 F150.000
G1 X26.139 Y-69.334 Z-0.200 F150.000
G2 X25.421 Y-67.562 Z-0.200 I471864.336 J191322.373 K0.000 F150.000
G2 X25.571 Y-67.443 Z-0.200 I0.093 J0.038 K0.000 F150.000
G2 X27.443 Y-68.812 Z-0.200 I-30.151 J-43.185 K0.000 F150.000
G2 X27.200 Y-66.787 Z-0.200 I215.420 J26.890 K0.000 F150.000
G2 X27.296 Y-66.463 Z-0.200 I0.440 J0.046 K0.000 F150.000
G2 X27.441 Y-66.502 Z-0.200 I0.055 J-0.083 K0.000 F150.000
G2 X28.360 Y-68.380 Z-0.200 I-1123098.739 J-549569.177 K0.000 F150.000
G2 X28.292 Y-68.529 Z-0.200 I-0.194 J-0.002 K0.000 F150.000
G0 Z2.000
G0 X28.255 Y-67.803 Z2.000
G0 X28.255 Y-67.803 Z1.000
G1 X28.255 Y-67.803 Z-0.200 F100.000
G2 X27.244 Y-65.461 Z-0.200 I884737.230 J382207.754 K0.000 F150.000
G1 X27.309 Y-66.297 Z-0.200 F150.000
G2 X27.585 Y-66.432 Z-0.200 I0.053 J-0.241 K0.000 F150.000
G2 X28.255 Y-67.803 Z-0.200 I-917684.647 J-449053.409 K0.000 F150.000
G0 Z2.000
G0 X27.327 Y-68.524 Z2.000
G0 X27.327 Y-68.524 Z1.000
G1 X27.327 Y-68.524 Z-0.200 F100.000
G2 X27.221 Y-68.545 Z-0.200 I-0.064 J0.044 K0.000 F150.000
G1 X27.341 Y-68.635 Z-0.200 F150.000
G1 X27.327 Y-68.524 Z-0.200 F150.000
G0 Z2.000
G0 X26.665 Y-69.354 Z2.000
G0 X26.665 Y-69.354 Z1.000
G1 X26.665 Y-69.354 Z-0.200 F100.000
G2 X26.264 Y-69.467 Z-0.200 I-1.700 J5.236 K0.000 F150.000
G3 X26.726 Y-70.580 Z-0.200 I48.235 J19.374 K0.000 F150.000
G3 X27.125 Y-70.424 Z-0.200 I-418.351 J1065.273 K0.000 F150.000
G2 X26.665 Y-69.354 Z-0.200 I598201.812 J257232.746 K0.000 F150.000
G0 Z2.000
G0 X26.618 Y-69.448 Z2.000
G0 X26.618 Y-69.448 Z1.000
G1 X26.618 Y-69.448 Z-0.200 F100.000
G3 X26.373 Y-69.523 Z-0.200 I0.715 J-2.782 K0.000 F150.000
G3 X26.770 Y-70.477 Z-0.200 I41.373 J16.613 K0.000 F150.000
G3 X27.019 Y-70.379 Z-0.200 I-262.598 J668.658 K0.000 F150.000
G2 X26.618 Y-69.448 Z-0.200 I487355.696 J209567.849 K0.000 F150.000
G0 Z2.000
G0 X26.572 Y-69.542 Z2.000
G0 X26.572 Y-69.542 Z1.000
G1 X26.572 Y-69.542 Z-0.200 F100.000
G3 X26.479 Y-69.569 Z-0.200 I0.074 J-0.431 K0.000 F150.000
G3 X26.813 Y-70.374 Z-0.200 I34.907 J14.010 K0.000 F150.000
G3 X26.913 Y-70.335 Z-0.200 I-105.912 J269.670 K0.000 F150.000
G2 X26.572 Y-69.542 Z-0.200 I455654.872 J195936.083 K0.000 F150.000
G0 Z2.000
G0 X25.480 Y-67.353 Z2.000
G0 X25.480 Y-67.353 Z1.000
G1 X25.480 Y-67.353 Z-0.200 F100.000
G1 X25.363 Y-67.267 Z-0.200 F150.000
G1 X25.410 Y-67.382 Z-0.200 F150.000
G1 X25.480 Y-67.353 Z-0.200 F150.000
G0 Z2.000
G0 X27.383 Y-66.209 Z2.000
G0 X27.383 Y-66.209 Z1.000
G1 X27.383 Y-66.209 Z-0.200 F100.000
G1 X27.496 Y-66.247 Z-0.200 F150.000
G1 X27.361 Y-65.934 Z-0.200 F150.000
G1 X27.383 Y-66.209 Z-0.200 F150.000
G0 Z2.000
G0 Z2.000
G0 X27.383 Y-66.209
G0 X30.665 Y-66.589
G0 X30.665 Y-66.589 Z1.000
G1 X30.665 Y-66.589 Z-0.200 F100.000
G1 X31.122 Y-66.425 Z-0.200 F150.000
G1 X31.122 Y-66.425 Z-0.200 F150.000
G1 X31.628 Y-66.244 Z-0.200 F150.000
G3 X31.744 Y-66.244 Z-0.200 I0.329 J1459.470 K0.000 F150.000
G1 X32.709 Y-67.874 Z-0.200 F150.000
G3 X32.233 Y-68.036 Z-0.200 I58815.933 J-173943.244 K0.000 F150.000
G2 X31.788 Y-67.282 Z-0.200 I2.022 J1.701 K0.000 F150.000
G1 X31.836 Y-67.269 Z-0.200 F150.000
G3 X32.069 Y-67.083 Z-0.200 I0.041 J0.187 K0.000 F150.000
G2 X31.738 Y-66.432 Z-0.200 I82917.488 J42301.589 K0.000 F150.000
G3 X31.572 Y-66.378 Z-0.200 I-0.127 J-0.108 K0.000 F150.000
G1 X31.199 Y-66.519 Z-0.200 F150.000
G1 X31.199 Y-66.519 Z-0.200 F150.000
G1 X30.863 Y-66.654 Z-0.200 F150.000
G3 X30.803 Y-66.780 Z-0.200 I0.054 J-0.103 K0.000 F150.000
G3 X31.121 Y-67.802 Z-0.200 I137.167 J42.060 K0.000 F150.000
G3 X31.215 Y-67.872 Z-0.200 I0.095 J0.030 K0.000 F150.000
G1 X31.510 Y-67.876 Z-0.200 F150.000
G3 X31.843 Y-68.595 Z-0.200 I96911.706 J44899.632 K0.000 F150.000
G2 X31.192 Y-68.883 Z-0.200 I-13296.012 J30056.872 K0.000 F150.000
G1 X31.176 Y-68.883 Z-0.200 F150.000
G2 X30.663 Y-66.676 Z-0.200 I1191945.381 J276784.755 K0.000 F150.000
G1 X30.665 Y-66.589 Z-0.200 F150.000
G0 Z2.000
G0 X30.745 Y-66.644 Z2.000
G0 X30.745 Y-66.644 Z1.000
G1 X30.745 Y-66.644 Z-0.200 F100.000
G3 X30.743 Y-66.662 Z-0.200 I0.015 J-0.010 K0.000 F150.000
G2 X30.766 Y-66.638 Z-0.200 I0.027 J-0.003 K0.000 F150.000
G3 X30.745 Y-66.644 Z-0.200 I-0.007 J-0.016 K0.000 F150.000
G0 Z2.000
G0 X30.920 Y-67.427 Z2.000
G0 X30.920 Y-67.427 Z1.000
G1 X30.920 Y-67.427 Z-0.200 F100.000
G1 X31.005 Y-67.794 Z-0.200 F150.000
G1 X31.233 Y-68.777 Z-0.200 F150.000
G3 X31.736 Y-68.555 Z-0.200 I-10253.913 J23181.306 K0.000 F150.000
G2 X31.458 Y-67.955 Z-0.200 I81487.973 J37754.471 K0.000 F150.000
G2 X31.109 Y-67.917 Z-0.200 I-0.115 J0.558 K0.000 F150.000
G1 X31.044 Y-67.826 Z-0.200 F150.000
G1 X30.920 Y-67.427 Z-0.200 F150.000
G0 Z2.000
G0 X31.137 Y-68.011 Z2.000
G0 X31.137 Y-68.011 Z1.000
G1 X31.137 Y-68.011 Z-0.200 F100.000
G1 X31.289 Y-68.665 Z-0.200 F150.000
G3 X31.629 Y-68.515 Z-0.200 I-7193.689 J16262.957 K0.000 F150.000
G2 X31.407 Y-68.035 Z-0.200 I66841.041 J30968.334 K0.000 F150.000
G2 X31.137 Y-68.011 Z-0.200 I-0.091 J0.515 K0.000 F150.000
G0 Z2.000
G0 X31.243 Y-68.113 Z2.000
G0 X31.243 Y-68.113 Z1.000
G1 X31.243 Y-68.113 Z-0.200 F100.000
G1 X31.345 Y-68.553 Z-0.200 F150.000
G3 X31.523 Y-68.474 Z-0.200 I-3621.601 J8187.463 K0.000 F150.000
G2 X31.356 Y-68.114 Z-0.200 I44923.135 J20813.492 K0.000 F150.000
G1 X31.243 Y-68.113 Z-0.200 F150.000
G0 Z2.000
G0 X31.384 Y-68.365 Z2.000
G0 X31.384 Y-68.365 Z1.000
G1 X31.384 Y-68.365 Z-0.200 F100.000
G1 X31.401 Y-68.441 Z-0.200 F150.000
G1 X31.416 Y-68.434 Z-0.200 F150.000
G2 X31.384 Y-68.365 Z-0.200 I5896.830 J2732.103 K0.000 F150.000
G0 Z2.000
G0 X32.161 Y-67.811 Z2.000
G0 X32.161 Y-67.811 Z1.000
G1 X32.161 Y-67.811 Z-0.200 F100.000
G3 X32.262 Y-67.941 Z-0.200 I1.731 J1.235 K0.000 F150.000
G2 X32.590 Y-67.830 Z-0.200 I48846.602 J-144458.576 K0.000 F150.000
G2 X32.146 Y-67.080 Z-0.200 I613170.376 J362904.875 K0.000 F150.000
G2 X31.905 Y-67.334 Z-0.200 I-0.204 J-0.047 K0.000 F150.000
G3 X32.161 Y-67.811 Z-0.200 I1.987 J0.758 K0.000 F150.000
G0 Z2.000
G0 X32.226 Y-67.763 Z2.000
G0 X32.226 Y-67.763 Z1.000
G1 X32.226 Y-67.763 Z-0.200 F100.000
G3 X32.291 Y-67.847 Z-0.200 I1.303 J0.948 K0.000 F150.000
G2 X32.471 Y-67.786 Z-0.200 I14721.527 J-43537.124 K0.000 F150.000
G1 X32.175 Y-67.286 Z-0.200 F150.000
G2 X32.022 Y-67.386 Z-0.200 I-0.205 J0.147 K0.000 F150.000
G3 X32.226 Y-67.763 Z-0.200 I1.507 J0.570 K0.000 F150.000
G0 Z2.000
G0 X32.291 Y-67.715 Z2.000
G0 X32.291 Y-67.715 Z1.000
G1 X32.291 Y-67.715 Z-0.200 F100.000
G3 X32.321 Y-67.753 Z-0.200 I0.907 J0.682 K0.000 F150.000
G1 X32.352 Y-67.742 Z-0.200 F150.000
G1 X32.158 Y-67.415 Z-0.200 F150.000
G1 X32.134 Y-67.427 Z-0.200 F150.000
G3 X32.291 Y-67.715 Z-0.200 I1.064 J0.394 K0.000 F150.000
G0 Z2.000
G0 Z2.000
G0 X32.291 Y-67.715
G0 X32.575 Y-73.151
G0 X32.575 Y-73.151 Z1.000
G1 X32.575 Y-73.151 Z-0.200 F100.000
G2 X31.813 Y-73.347 Z-0.200 I-19378.487 J75608.587 K0.000 F150.000
G3 X31.004 Y-74.721 Z-0.200 I4.839 J-3.773 K0.000 F150.000
G1 X30.659 Y-75.155 Z-0.200 F150.000
G2 X30.056 Y-75.524 Z-0.200 I-12126.996 J19847.157 K0.000 F150.000
G2 X29.536 Y-75.539 Z-0.200 I-0.424 J5.580 K0.000 F150.000
G2 X29.416 Y-75.688 Z-0.200 I-0.264 J0.090 K0.000 F150.000
G1 X28.464 Y-76.001 Z-0.200 F150.000
G1 X27.530 Y-76.307 Z-0.200 F150.000
G2 X26.835 Y-76.918 Z-0.200 I-57893.982 J65894.670 K0.000 F150.000
G2 X26.677 Y-76.882 Z-0.200 I-0.066 J0.075 K0.000 F150.000
G2 X26.251 Y-75.586 Z-0.200 I3.805 J1.968 K0.000 F150.000
G1 X26.090 Y-74.906 Z-0.200 F150.000
G3 X26.089 Y-74.596 Z-0.200 I-27216.005 J-101.310 K0.000 F150.000
G3 X25.529 Y-73.427 Z-0.200 I-276403.377 J-132462.021 K0.000 F150.000
G2 X24.691 Y-72.176 Z-0.200 I295069.991 J197644.659 K0.000 F150.000
G3 X23.668 Y-70.954 Z-0.200 I-137430.133 J-114965.157 K0.000 F150.000
G2 X22.968 Y-70.295 Z-0.200 I857090.946 J910766.722 K0.000 F150.000
G1 X22.526 Y-70.023 Z-0.200 F150.000
G1 X22.526 Y-70.023 Z-0.200 F150.000
G1 X22.075 Y-69.745 Z-0.200 F150.000
G2 X21.940 Y-69.549 Z-0.200 I1.509 J1.179 K0.000 F150.000
G3 X21.858 Y-69.627 Z-0.200 I-0.041 J-0.039 K0.000 F150.000
G2 X22.665 Y-71.681 Z-0.200 I-1576.514 J-621.184 K0.000 F150.000
G2 X23.089 Y-73.324 Z-0.200 I-220.464 J-57.665 K0.000 F150.000
G1 X23.089 Y-73.816 Z-0.200 F150.000
G2 X23.236 Y-74.015 Z-0.200 I-36942.780 J-27267.411 K0.000 F150.000
G2 X23.290 Y-73.962 Z-0.200 I244.040 J-248.116 K0.000 F150.000
G1 X23.178 Y-73.275 Z-0.200 F150.000
G1 X23.060 Y-72.545 Z-0.200 F150.000
G3 X22.432 Y-70.678 Z-0.200 I-277161.111 J-93355.083 K0.000 F150.000
G3 X22.238 Y-70.317 Z-0.200 I-1944.498 J-1040.416 K0.000 F150.000
G2 X22.326 Y-70.170 Z-0.200 I0.088 J0.047 K0.000 F150.000
G2 X22.530 Y-70.189 Z-0.200 I0.073 J-0.324 K0.000 F150.000
G2 X23.708 Y-71.234 Z-0.200 I-2.011 J-3.451 K0.000 F150.000
G2 X24.753 Y-72.551 Z-0.200 I-4.406 J-4.571 K0.000 F150.000
G2 X25.884 Y-74.423 Z-0.200 I-12.362 J-8.745 K0.000 F150.000
G3 X26.296 Y-76.213 Z-0.200 I6.114 J0.466 K0.000 F150.000
G1 X26.548 Y-76.999 Z-0.200 F150.000
G1 X26.552 Y-77.041 Z-0.200 F150.000
G2 X26.448 Y-77.956 Z-0.200 I-448918.950 J50789.105 K0.000 F150.000
G3 X26.733 Y-78.046 Z-0.200 I0.214 J0.184 K0.000 F150.000
G1 X26.860 Y-78.046 Z-0.200 F150.000
G1 X26.973 Y-77.910 Z-0.200 F150.000
G2 X26.823 Y-77.240 Z-0.200 I153592.671 J34508.284 K0.000 F150.000
G1 X26.848 Y-77.149 Z-0.200 F150.000
G2 X27.414 Y-76.567 Z-0.200 I23.947 J-22.738 K0.000 F150.000
G2 X28.531 Y-76.124 Z-0.200 I1.725 J-2.721 K0.000 F150.000
G3 X29.523 Y-75.794 Z-0.200 I-1.626 J6.547 K0.000 F150.000
G1 X29.899 Y-75.649 Z-0.200 F150.000
G2 X30.459 Y-75.806 Z-0.200 I-0.157 J-1.643 K0.000 F150.000
G2 X30.851 Y-76.767 Z-0.200 I-2.024 J-1.385 K0.000 F150.000
G2 X30.966 Y-77.662 Z-0.200 I-2.628 J-0.791 K0.000 F150.000
G1 X30.914 Y-77.750 Z-0.200 F150.000
G3 X30.140 Y-78.235 Z-0.200 I1.134 J-2.666 K0.000 F150.000
G2 X30.386 Y-78.754 Z-0.200 I-30562.568 J-14503.215 K0.000 F150.000
G2 X30.265 Y-79.268 Z-0.200 I-1.827 J0.161 K0.000 F150.000
G2 X29.794 Y-79.705 Z-0.200 I-10.301 J10.616 K0.000 F150.000
G3 X28.155 Y-80.476 Z-0.200 I2.116 J-6.629 K0.000 F150.000
G1 X27.331 Y-80.929 Z-0.200 F150.000
G2 X26.554 Y-81.216 Z-0.200 I-77197.495 J209154.553 K0.000 F150.000
G2 X25.917 Y-80.973 Z-0.200 I0.942 J3.430 K0.000 F150.000
G1 X24.078 Y-79.191 Z-0.200 F150.000
G2 X23.967 Y-78.692 Z-0.200 I3.693 J1.085 K0.000 F150.000
G1 X23.832 Y-77.585 Z-0.200 F150.000
G1 X23.832 Y-77.585 Z-0.200 F150.000
G3 X23.642 Y-76.195 Z-0.200 I-11.156 J-0.822 K0.000 F150.000
G1 X23.573 Y-76.195 Z-0.200 F150.000
G3 X23.708 Y-77.599 Z-0.200 I6.355 J-0.096 K0.000 F150.000
G2 X23.925 Y-79.335 Z-0.200 I-24.116 J-3.897 K0.000 F150.000
G1 X23.996 Y-83.175 Z-0.200 F150.000
G2 X24.039 Y-83.298 Z-0.200 I-1176.248 J-411.291 K0.000 F150.000
G3 X24.132 Y-83.246 Z-0.200 I0.044 J0.030 K0.000 F150.000
G1 X24.144 Y-83.108 Z-0.200 F150.000
G1 X24.099 Y-79.790 Z-0.200 F150.000
G2 X24.454 Y-79.730 Z-0.200 I0.198 J-0.095 K0.000 F150.000
G2 X24.799 Y-80.216 Z-0.200 I-124084.627 J-88356.767 K0.000 F150.000
G3 X25.900 Y-81.094 Z-0.200 I406714.254 J509740.031 K0.000 F150.000
G2 X26.450 Y-81.356 Z-0.200 I-33412.698 J-70068.070 K0.000 F150.000
G3 X27.502 Y-81.081 Z-0.200 I-27720.833 J106075.024 K0.000 F150.000
G2 X29.098 Y-80.192 Z-0.200 I4.741 J-6.635 K0.000 F150.000
G1 X29.946 Y-79.778 Z-0.200 F150.000
G3 X30.308 Y-79.440 Z-0.200 I-38860.478 J41621.408 K0.000 F150.000
G2 X30.520 Y-79.033 Z-0.200 I47336.467 J-24629.551 K0.000 F150.000
G1 X30.520 Y-78.147 Z-0.200 F150.000
G2 X30.740 Y-78.047 Z-0.200 I0.160 J-0.060 K0.000 F150.000
G3 X31.282 Y-77.571 Z-0.200 I-18347.400 J20896.914 K0.000 F150.000
G2 X31.394 Y-77.557 Z-0.200 I0.066 J-0.075 K0.000 F150.000
G2 X32.067 Y-77.901 Z-0.200 I-26059.072 J-51080.397 K0.000 F150.000
G1 X33.037 Y-77.823 Z-0.200 F150.000
G2 X34.014 Y-77.366 Z-0.200 I23.196 J-48.361 K0.000 F150.000
G2 X34.996 Y-77.264 Z-0.200 I1299.233 J-12482.545 K0.000 F150.000
G3 X35.630 Y-76.845 Z-0.200 I-308236.448 J465778.224 K0.000 F150.000
G3 X35.936 Y-76.125 Z-0.200 I-0.808 J0.767 K0.000 F150.000
G2 X36.200 Y-75.390 Z-0.200 I2.085 J-0.335 K0.000 F150.000
G3 X36.224 Y-74.198 Z-0.200 I-2.136 J0.639 K0.000 F150.000
G2 X36.272 Y-74.094 Z-0.200 I0.098 J0.018 K0.000 F150.000
G2 X36.961 Y-73.689 Z-0.200 I24144.059 J-41091.778 K0.000 F150.000
G1 X36.961 Y-73.251 Z-0.200 F150.000
G1 X36.564 Y-72.955 Z-0.200 F150.000
G1 X35.765 Y-72.966 Z-0.200 F150.000
G2 X34.449 Y-73.395 Z-0.200 I-338.170 J1033.968 K0.000 F150.000
G2 X33.719 Y-73.559 Z-0.200 I-3016.170 J13414.125 K0.000 F150.000
G2 X33.159 Y-73.261 Z-0.200 I1.700 J3.861 K0.000 F150.000
G1 X32.865 Y-73.206 Z-0.200 F150.000
G1 X32.575 Y-73.151 Z-0.200 F150.000
G0 Z2.000
G0 X32.580 Y-73.233 Z2.000
G0 X32.580 Y-73.233 Z1.000
G1 X32.580 Y-73.233 Z-0.200 F100.000
G3 X32.349 Y-73.292 Z-0.200 I0.037 J-0.629 K0.000 F150.000
G1 X32.881 Y-73.290 Z-0.200 F150.000
G3 X32.580 Y-73.233 Z-0.200 I-0.265 J-0.572 K0.000 F150.000
G0 Z2.000
G0 X32.580 Y-73.371 Z2.000
G0 X32.580 Y-73.371 Z1.000
G1 X32.580 Y-73.371 Z-0.200 F100.000
G1 X33.089 Y-73.370 Z-0.200 F150.000
G1 X33.160 Y-73.399 Z-0.200 F150.000
G2 X33.972 Y-74.212 Z-0.200 I-54139.991 J-54140.810 K0.000 F150.000
G2 X33.972 Y-74.612 Z-0.200 I-0.384 J-0.200 K0.000 F150.000
G2 X33.627 Y-74.719 Z-0.200 I-0.413 J0.725 K0.000 F150.000
G2 X32.813 Y-74.306 Z-0.200 I24199.321 J47756.026 K0.000 F150.000
G1 X32.689 Y-74.354 Z-0.200 F150.000
G1 X32.689 Y-74.907 Z-0.200 F150.000
G1 X32.642 Y-74.992 Z-0.200 F150.000
G1 X32.361 Y-75.168 Z-0.200 F150.000
G1 X32.361 Y-75.257 Z-0.200 F150.000
G1 X32.517 Y-75.257 Z-0.200 F150.000
G3 X32.817 Y-74.938 Z-0.200 I-8463.990 J7951.774 K0.000 F150.000
G2 X32.846 Y-74.611 Z-0.200 I0.409 J0.128 K0.000 F150.000
G2 X33.091 Y-74.631 Z-0.200 I0.105 J-0.212 K0.000 F150.000
G1 X33.091 Y-74.631 Z-0.200 F150.000
G2 X33.872 Y-74.946 Z-0.200 I-1.268 J-4.273 K0.000 F150.000
G1 X33.879 Y-75.007 Z-0.200 F150.000
G2 X33.832 Y-75.251 Z-0.200 I-67213.390 J13065.050 K0.000 F150.000
G2 X34.147 Y-75.694 Z-0.200 I-34737.888 J-24735.830 K0.000 F150.000
G2 X34.168 Y-76.025 Z-0.200 I-0.515 J-0.199 K0.000 F150.000
G2 X34.301 Y-76.311 Z-0.200 I-0.219 J-0.276 K0.000 F150.000
G2 X34.031 Y-77.022 Z-0.200 I-44689.973 J16963.466 K0.000 F150.000
G2 X33.012 Y-77.674 Z-0.200 I-1.954 J1.934 K0.000 F150.000
G1 X32.538 Y-77.715 Z-0.200 F150.000
G1 X32.538 Y-77.715 Z-0.200 F150.000
G1 X32.064 Y-77.755 Z-0.200 F150.000
G1 X32.009 Y-77.744 Z-0.200 F150.000
G1 X31.150 Y-77.292 Z-0.200 F150.000
G2 X30.924 Y-76.521 Z-0.200 I3.206 J1.359 K0.000 F150.000
G3 X30.660 Y-75.954 Z-0.200 I-0.904 J-0.077 K0.000 F150.000
G1 X30.455 Y-75.652 Z-0.200 F150.000
G2 X30.479 Y-75.468 Z-0.200 I0.136 J0.076 K0.000 F150.000
G2 X31.173 Y-74.969 Z-0.200 I38768.368 J-53983.071 K0.000 F150.000
G2 X31.290 Y-74.442 Z-0.200 I12.514 J-2.494 K0.000 F150.000
G3 X31.887 Y-73.507 Z-0.200 I-65652.864 J41962.346 K0.000 F150.000
G2 X32.111 Y-73.420 Z-0.200 I0.224 J-0.244 K0.000 F150.000
G1 X32.301 Y-73.372 Z-0.200 F150.000
G1 X32.580 Y-73.371 Z-0.200 F150.000
G0 Z2.000
G0 X31.896 Y-73.408 Z2.000
G0 X31.896 Y-73.408 Z1.000
G1 X31.896 Y-73.408 Z-0.200 F100.000
G3 X31.840 Y-73.449 Z-0.200 I-0.005 J-0.053 K0.000 F150.000
G1 X31.896 Y-73.408 Z-0.200 F150.000
G0 Z2.000
G0 X31.680 Y-73.682 Z2.000
G0 X31.680 Y-73.682 Z1.000
G1 X31.680 Y-73.682 Z-0.200 F100.000
G3 X31.397 Y-74.126 Z-0.200 I1.522 J-1.286 K0.000 F150.000
G3 X31.680 Y-73.682 Z-0.200 I-29953.310 J19144.803 K0.000 F150.000
G0 Z2.000
G0 X31.178 Y-74.556 Z2.000
G0 X31.178 Y-74.556 Z1.000
G1 X31.178 Y-74.556 Z-0.200 F100.000
G2 X30.759 Y-75.169 Z-0.200 I-1.853 J0.818 K0.000 F150.000
G2 X31.101 Y-74.923 Z-0.200 I18570.109 J-25858.120 K0.000 F150.000
G2 X31.178 Y-74.556 Z-0.200 I137897.114 J-28793.545 K0.000 F150.000
G0 Z2.000
G0 X30.573 Y-75.302 Z2.000
G0 X30.573 Y-75.302 Z1.000
G1 X30.573 Y-75.302 Z-0.200 F100.000
G2 X30.098 Y-75.592 Z-0.200 I-9824.068 J16078.259 K0.000 F150.000
G1 X30.087 Y-75.595 Z-0.200 F150.000
G2 X30.380 Y-75.668 Z-0.200 I-6183.848 J-24636.908 K0.000 F150.000
G2 X30.573 Y-75.302 Z-0.200 I0.256 J0.099 K0.000 F150.000
G0 Z2.000
G0 X29.755 Y-75.619 Z2.000
G0 X29.755 Y-75.619 Z1.000
G1 X29.755 Y-75.619 Z-0.200 F100.000
G1 X29.581 Y-75.619 Z-0.200 F150.000
G2 X29.502 Y-75.717 Z-0.200 I-0.174 J0.060 K0.000 F150.000
G1 X29.755 Y-75.619 Z-0.200 F150.000
G0 Z2.000
G0 X31.044 Y-77.274 Z2.000
G0 X31.044 Y-77.274 Z1.000
G1 X31.044 Y-77.274 Z-0.200 F100.000
G2 X31.046 Y-77.661 Z-0.200 I-42270.140 J-177.302 K0.000 F150.000
G1 X31.041 Y-77.677 Z-0.200 F150.000
G2 X31.321 Y-77.472 Z-0.200 I0.456 J-0.328 K0.000 F150.000
G2 X31.044 Y-77.274 Z-0.200 I0.082 J0.408 K0.000 F150.000
G0 Z2.000
G0 X31.125 Y-77.459 Z2.000
G0 X31.125 Y-77.459 Z1.000
G1 X31.125 Y-77.459 Z-0.200 F100.000
G1 X31.125 Y-77.496 Z-0.200 F150.000
G1 X31.151 Y-77.473 Z-0.200 F150.000
G1 X31.125 Y-77.459 Z-0.200 F150.000
G0 Z2.000
G0 X30.754 Y-77.928 Z2.000
G0 X30.754 Y-77.928 Z1.000
G1 X30.754 Y-77.928 Z-0.200 F100.000
G3 X30.683 Y-77.967 Z-0.200 I2525.063 J-4609.268 K0.000 F150.000
G3 X30.754 Y-77.928 Z-0.200 I0.013 J0.060 K0.000 F150.000
G0 Z2.000
G0 X30.458 Y-78.091 Z2.000
G0 X30.458 Y-78.091 Z1.000
G1 X30.458 Y-78.091 Z-0.200 F100.000
G3 X30.240 Y-78.259 Z-0.200 I26.985 J-35.203 K0.000 F150.000
G2 X30.440 Y-78.680 Z-0.200 I-24355.185 J-11557.547 K0.000 F150.000
G1 X30.440 Y-78.147 Z-0.200 F150.000
G1 X30.458 Y-78.091 Z-0.200 F150.000
G0 Z2.000
G0 X30.360 Y-78.267 Z2.000
G0 X30.360 Y-78.267 Z1.000
G1 X30.360 Y-78.267 Z-0.200 F100.000
G3 X30.360 Y-78.324 Z-0.200 I0.006 J-0.029 K0.000 F150.000
G1 X30.360 Y-78.267 Z-0.200 F150.000
G0 Z2.000
G0 X30.440 Y-78.964 Z2.000
G0 X30.440 Y-78.964 Z1.000
G1 X30.440 Y-78.964 Z-0.200 F100.000
G1 X30.415 Y-79.060 Z-0.200 F150.000
G3 X30.440 Y-78.964 Z-0.200 I-0.080 J0.071 K0.000 F150.000
G0 Z2.000
G0 X29.505 Y-79.904 Z2.000
G0 X29.505 Y-79.904 Z1.000
G1 X29.505 Y-79.904 Z-0.200 F100.000
G3 X28.193 Y-80.546 Z-0.200 I1.788 J-5.317 K0.000 F150.000
G1 X27.359 Y-81.004 Z-0.200 F150.000
G1 X27.062 Y-81.114 Z-0.200 F150.000
G3 X27.815 Y-80.787 Z-0.200 I-0.130 J1.331 K0.000 F150.000
G2 X29.063 Y-80.120 Z-0.200 I3.627 J-5.292 K0.000 F150.000
G1 X29.505 Y-79.904 Z-0.200 F150.000
G0 Z2.000
G0 X26.887 Y-77.889 Z2.000
G0 X26.887 Y-77.889 Z1.000
G1 X26.887 Y-77.889 Z-0.200 F100.000
G2 X26.745 Y-77.257 Z-0.200 I129100.235 J29005.512 K0.000 F150.000
G2 X26.974 Y-76.902 Z-0.200 I0.445 J-0.036 K0.000 F150.000
G2 X26.605 Y-76.914 Z-0.200 I-0.188 J0.087 K0.000 F150.000
G2 X26.631 Y-77.050 Z-0.200 I-0.302 J-0.130 K0.000 F150.000
G2 X26.533 Y-77.916 Z-0.200 I-478850.274 J54175.435 K0.000 F150.000
G3 X26.823 Y-77.966 Z-0.200 I0.185 J0.207 K0.000 F150.000
G1 X26.887 Y-77.889 Z-0.200 F150.000
G0 Z2.000
G0 X26.800 Y-77.869 Z2.000
G0 X26.800 Y-77.869 Z1.000
G1 X26.800 Y-77.869 Z-0.200 F100.000
G2 X26.680 Y-77.333 Z-0.200 I115088.143 J25857.332 K0.000 F150.000
G2 X26.618 Y-77.875 Z-0.200 I-247526.884 J28004.327 K0.000 F150.000
G3 X26.800 Y-77.869 Z-0.200 I0.082 J0.255 K0.000 F150.000
G0 Z2.000
G0 X26.741 Y-77.836 Z2.000
G0 X26.741 Y-77.836 Z1.000
G1 X26.741 Y-77.836 Z-0.200 F100.000
G2 X26.673 Y-77.835 Z-0.200 I37.900 J5518.584 K0.000 F150.000
G1 X26.696 Y-77.634 Z-0.200 F150.000
G1 X26.741 Y-77.836 Z-0.200 F150.000
G0 Z2.000
G0 X27.523 Y-76.420 Z2.000
G0 X27.523 Y-76.420 Z1.000
G1 X27.523 Y-76.420 Z-0.200 F100.000
G2 X27.660 Y-76.349 Z-0.200 I3.350 J-6.289 K0.000 F150.000
G3 X27.523 Y-76.420 Z-0.200 I0.015 J-0.196 K0.000 F150.000
G0 Z2.000
G0 X26.141 Y-75.467 Z2.000
G0 X26.141 Y-75.467 Z1.000
G1 X26.141 Y-75.467 Z-0.200 F100.000
G1 X26.115 Y-75.355 Z-0.200 F150.000
G3 X26.141 Y-75.467 Z-0.200 I0.383 J0.031 K0.000 F150.000
G0 Z2.000
G0 X26.009 Y-74.699 Z2.000
G0 X26.009 Y-74.699 Z1.000
G1 X26.009 Y-74.699 Z-0.200 F100.000
G3 X25.989 Y-74.572 Z-0.200 I-0.144 J0.042 K0.000 F150.000
G1 X26.009 Y-74.699 Z-0.200 F150.000
G0 Z2.000
G0 X25.472 Y-73.494 Z2.000
G0 X25.472 Y-73.494 Z1.000
G1 X25.472 Y-73.494 Z-0.200 F100.000
G3 X25.448 Y-73.451 Z-0.200 I-0.163 J-0.061 K0.000 F150.000
G1 X25.472 Y-73.494 Z-0.200 F150.000
G0 Z2.000
G0 X24.730 Y-72.378 Z2.000
G0 X24.730 Y-72.378 Z1.000
G1 X24.730 Y-72.378 Z-0.200 F100.000
G3 X24.601 Y-72.193 Z-0.200 I-0.930 J-0.511 K0.000 F150.000
G1 X24.730 Y-72.378 Z-0.200 F150.000
G0 Z2.000
G0 X22.990 Y-72.608 Z2.000
G0 X22.990 Y-72.608 Z1.000
G1 X22.990 Y-72.608 Z-0.200 F100.000
G3 X22.960 Y-72.496 Z-0.200 I-0.408 J-0.054 K0.000 F150.000
G1 X22.993 Y-72.627 Z-0.200 F150.000
G3 X22.990 Y-72.608 Z-0.200 I-0.410 J-0.034 K0.000 F150.000
G0 Z2.000
G0 X23.169 Y-73.715 Z2.000
G0 X23.169 Y-73.715 Z1.000
G1 X23.169 Y-73.715 Z-0.200 F100.000
G3 X23.184 Y-73.810 Z-0.200 I0.072 J-0.037 K0.000 F150.000
G1 X23.169 Y-73.715 Z-0.200 F150.000
G0 Z2.000
G0 X23.617 Y-71.018 Z2.000
G0 X23.617 Y-71.018 Z1.000
G1 X23.617 Y-71.018 Z-0.200 F100.000
G3 X23.605 Y-71.004 Z-0.200 I-0.065 J-0.047 K0.000 F150.000
G1 X23.617 Y-71.018 Z-0.200 F150.000
G0 Z2.000
G0 X22.984 Y-70.420 Z2.000
G0 X22.984 Y-70.420 Z1.000
G1 X22.984 Y-70.420 Z-0.200 F100.000
G3 X22.801 Y-70.286 Z-0.200 I-0.416 J-0.377 K0.000 F150.000
G2 X22.984 Y-70.420 Z-0.200 I-7.868 J-10.963 K0.000 F150.000
G0 Z2.000
G0 X22.493 Y-70.097 Z2.000
G0 X22.493 Y-70.097 Z1.000
G1 X22.493 Y-70.097 Z-0.200 F100.000
G3 X22.170 Y-70.201 Z-0.200 I-0.095 J-0.261 K0.000 F150.000
G1 X22.007 Y-69.788 Z-0.200 F150.000
G1 X22.033 Y-69.813 Z-0.200 F150.000
G2 X22.493 Y-70.097 Z-0.200 I-22920.833 J-37238.478 K0.000 F150.000
G0 Z2.000
G0 X22.236 Y-70.032 Z2.000
G0 X22.236 Y-70.032 Z1.000
G1 X22.236 Y-70.032 Z-0.200 F100.000
G1 X22.174 Y-69.994 Z-0.200 F150.000
G1 X22.195 Y-70.048 Z-0.200 F150.000
G2 X22.236 Y-70.032 Z-0.200 I0.035 J-0.029 K0.000 F150.000
G0 Z2.000
G0 X23.989 Y-79.187 Z2.000
G0 X23.989 Y-79.187 Z1.000
G1 X23.989 Y-79.187 Z-0.200 F100.000
G1 X24.005 Y-79.333 Z-0.200 F150.000
G1 X24.036 Y-80.991 Z-0.200 F150.000
G1 X24.019 Y-79.791 Z-0.200 F150.000
G2 X24.404 Y-79.619 Z-0.200 I0.269 J-0.085 K0.000 F150.000
G1 X24.022 Y-79.249 Z-0.200 F150.000
G1 X23.989 Y-79.187 Z-0.200 F150.000
G0 Z2.000
G0 X24.087 Y-79.422 Z2.000
G0 X24.087 Y-79.422 Z1.000
G1 X24.087 Y-79.422 Z-0.200 F100.000
G1 X24.089 Y-79.559 Z-0.200 F150.000
G1 X24.197 Y-79.529 Z-0.200 F150.000
G1 X24.087 Y-79.422 Z-0.200 F150.000
G0 Z2.000
G0 X24.624 Y-79.832 Z2.000
G0 X24.624 Y-79.832 Z1.000
G1 X24.624 Y-79.832 Z-0.200 F100.000
G2 X24.858 Y-80.160 Z-0.200 I-83684.068 J-59588.739 K0.000 F150.000
G1 X25.399 Y-80.591 Z-0.200 F150.000
G1 X25.454 Y-80.635 Z-0.200 F150.000
G1 X24.624 Y-79.832 Z-0.200 F150.000
G0 Z2.000
G0 X33.622 Y-77.457 Z2.000
G0 X33.622 Y-77.457 Z1.000
G1 X33.622 Y-77.457 Z-0.200 F100.000
G2 X34.358 Y-77.250 Z-0.200 I0.687 J-1.028 K0.000 F150.000
G2 X34.145 Y-76.948 Z-0.200 I0.140 J0.325 K0.000 F150.000
G2 X33.846 Y-77.287 Z-0.200 I-0.531 J0.167 K0.000 F150.000
G1 X33.622 Y-77.457 Z-0.200 F150.000
G0 Z2.000
G0 X34.090 Y-77.198 Z2.000
G0 X34.090 Y-77.198 Z1.000
G1 X34.090 Y-77.198 Z-0.200 F100.000
G1 X34.161 Y-77.190 Z-0.200 F150.000
G2 X34.134 Y-77.142 Z-0.200 I0.054 J0.061 K0.000 F150.000
G2 X34.090 Y-77.198 Z-0.200 I-0.120 J0.051 K0.000 F150.000
G0 Z2.000
G0 X34.274 Y-77.084 Z2.000
G0 X34.274 Y-77.084 Z1.000
G1 X34.274 Y-77.084 Z-0.200 F100.000
G2 X34.295 Y-76.607 Z-0.200 I0.359 J0.223 K0.000 F150.000
G2 X34.431 Y-76.332 Z-0.200 I0.400 J-0.027 K0.000 F150.000
G1 X34.472 Y-76.324 Z-0.200 F150.000
G1 X34.951 Y-76.324 Z-0.200 F150.000
G2 X35.595 Y-75.995 Z-0.200 I17365.518 J-34038.416 K0.000 F150.000
G2 X35.805 Y-76.190 Z-0.200 I0.032 J-0.176 K0.000 F150.000
G1 X35.723 Y-76.404 Z-0.200 F150.000
G1 X35.723 Y-76.404 Z-0.200 F150.000
G2 X35.607 Y-76.663 Z-0.200 I-0.492 J0.065 K0.000 F150.000
G2 X34.920 Y-77.161 Z-0.200 I-46002.230 J63503.713 K0.000 F150.000
G2 X34.318 Y-77.151 Z-0.200 I-0.269 J1.878 K0.000 F150.000
G1 X34.295 Y-77.116 Z-0.200 F150.000
G2 X34.274 Y-77.084 Z-0.200 I0.338 J0.255 K0.000 F150.000
G0 Z2.000
G0 X34.370 Y-76.277 Z2.000
G0 X34.370 Y-76.277 Z1.000
G1 X34.370 Y-76.277 Z-0.200 F100.000
G2 X34.445 Y-76.252 Z-0.200 I0.056 J-0.042 K0.000 F150.000
G2 X34.363 Y-76.210 Z-0.200 I0.009 J0.120 K0.000 F150.000
G1 X34.370 Y-76.277 Z-0.200 F150.000
G0 Z2.000
G0 X34.433 Y-76.166 Z2.000
G0 X34.433 Y-76.166 Z1.000
G1 X34.433 Y-76.166 Z-0.200 F100.000
G3 X34.957 Y-76.182 Z-0.200 I0.312 J1.623 K0.000 F150.000
G3 X35.835 Y-75.680 Z-0.200 I-19554.682 J34179.203 K0.000 F150.000
G3 X35.918 Y-75.569 Z-0.200 I-0.177 J0.219 K0.000 F150.000
G3 X35.960 Y-75.381 Z-0.200 I-0.073 J0.115 K0.000 F150.000
G3 X35.772 Y-75.339 Z-0.200 I-0.115 J-0.073 K0.000 F150.000
G1 X34.364 Y-75.773 Z-0.200 F150.000
G3 X34.323 Y-76.057 Z-0.200 I0.120 J-0.162 K0.000 F150.000
G1 X34.433 Y-76.166 Z-0.200 F150.000
G0 Z2.000
G0 X34.246 Y-75.770 Z2.000
G0 X34.246 Y-75.770 Z1.000
G1 X34.246 Y-75.770 Z-0.200 F100.000
G2 X34.356 Y-75.692 Z-0.200 I0.157 J-0.105 K0.000 F150.000
G2 X34.104 Y-75.491 Z-0.200 I0.308 J0.642 K0.000 F150.000
G1 X34.096 Y-75.483 Z-0.200 F150.000
G2 X34.246 Y-75.770 Z-0.200 I-0.185 J-0.279 K0.000 F150.000
G0 Z2.000
G0 X34.355 Y-75.604 Z2.000
G0 X34.355 Y-75.604 Z1.000
G1 X34.355 Y-75.604 Z-0.200 F100.000
G3 X33.959 Y-75.258 Z-0.200 I-33142.606 J-37966.202 K0.000 F150.000
G2 X33.987 Y-75.090 Z-0.200 I0.066 J0.075 K0.000 F150.000
G3 X34.392 Y-74.814 Z-0.200 I-0.122 J0.616 K0.000 F150.000
G2 X34.632 Y-74.589 Z-0.200 I0.608 J-0.406 K0.000 F150.000
G2 X35.470 Y-74.300 Z-0.200 I49182.525 J-142951.425 K0.000 F150.000
G2 X36.035 Y-74.372 Z-0.200 I-0.703 J-7.804 K0.000 F150.000
G2 X36.159 Y-74.608 Z-0.200 I-0.116 J-0.212 K0.000 F150.000
G2 X36.022 Y-75.019 Z-0.200 I-0.249 J-0.145 K0.000 F150.000
G2 X35.827 Y-75.197 Z-0.200 I-0.450 J0.296 K0.000 F150.000
G3 X34.457 Y-75.622 Z-0.200 I2.066 J-9.087 K0.000 F150.000
G1 X34.355 Y-75.604 Z-0.200 F150.000
G0 Z2.000
G0 X34.058 Y-74.976 Z2.000
G0 X34.058 Y-74.976 Z1.000
G1 X34.058 Y-74.976 Z-0.200 F100.000
G3 X34.336 Y-74.758 Z-0.200 I-0.340 J0.718 K0.000 F150.000
G2 X34.558 Y-74.543 Z-0.200 I0.576 J-0.374 K0.000 F150.000
G2 X34.196 Y-74.594 Z-0.200 I-0.222 J0.261 K0.000 F150.000
G2 X34.082 Y-74.365 Z-0.200 I0.458 J0.371 K0.000 F150.000
G2 X34.047 Y-74.647 Z-0.200 I-0.452 J-0.088 K0.000 F150.000
G2 X33.762 Y-74.788 Z-0.200 I-0.678 J1.016 K0.000 F150.000
G2 X33.957 Y-75.016 Z-0.200 I-0.004 J-0.201 K0.000 F150.000
G3 X34.058 Y-74.976 Z-0.200 I-0.238 J0.757 K0.000 F150.000
G0 Z2.000
G0 X34.035 Y-74.900 Z2.000
G0 X34.035 Y-74.900 Z1.000
G1 X34.035 Y-74.900 Z-0.200 F100.000
G3 X34.271 Y-74.709 Z-0.200 I-0.119 J0.391 K0.000 F150.000
G2 X34.138 Y-74.631 Z-0.200 I-0.008 J0.140 K0.000 F150.000
G2 X33.952 Y-74.801 Z-0.200 I-0.267 J0.105 K0.000 F150.000
G2 X34.019 Y-74.904 Z-0.200 I-0.056 J-0.110 K0.000 F150.000
G3 X34.035 Y-74.900 Z-0.200 I-0.104 J0.395 K0.000 F150.000
G0 Z2.000
G0 X34.051 Y-74.822 Z2.000
G0 X34.051 Y-74.822 Z1.000
G1 X34.051 Y-74.822 Z-0.200 F100.000
G3 X34.175 Y-74.734 Z-0.200 I0.021 J0.102 K0.000 F150.000
G1 X34.147 Y-74.711 Z-0.200 F150.000
G1 X34.030 Y-74.815 Z-0.200 F150.000
G3 X34.051 Y-74.822 Z-0.200 I0.042 J0.095 K0.000 F150.000
G0 Z2.000
G0 X34.290 Y-74.558 Z2.000
G0 X34.290 Y-74.558 Z1.000
G1 X34.290 Y-74.558 Z-0.200 F100.000
G1 X34.224 Y-74.500 Z-0.200 F150.000
G2 X34.007 Y-73.980 Z-0.200 I56879.434 J23766.709 K0.000 F150.000
G2 X33.739 Y-73.951 Z-0.200 I-0.099 J0.339 K0.000 F150.000
G2 X33.911 Y-73.616 Z-0.200 I0.237 J0.090 K0.000 F150.000
G1 X34.213 Y-73.616 Z-0.200 F150.000
G2 X35.733 Y-73.142 Z-0.200 I153.431 J-489.520 K0.000 F150.000
G2 X36.372 Y-73.049 Z-0.200 I19310.278 J-133026.279 K0.000 F150.000
G2 X36.739 Y-73.223 Z-0.200 I-0.852 J-2.267 K0.000 F150.000
G1 X36.791 Y-73.311 Z-0.200 F150.000
G1 X36.791 Y-73.622 Z-0.200 F150.000
G2 X36.726 Y-73.716 Z-0.200 I-0.100 J-0.000 K0.000 F150.000
G2 X34.290 Y-74.558 Z-0.200 I-31.208 J86.360 K0.000 F150.000
G0 Z2.000
G0 X33.969 Y-74.095 Z2.000
G0 X33.969 Y-74.095 Z1.000
G1 X33.969 Y-74.095 Z-0.200 F100.000
G3 X33.934 Y-74.060 Z-0.200 I-0.025 J0.010 K0.000 F150.000
G1 X33.969 Y-74.095 Z-0.200 F150.000
G0 Z2.000
G0 X33.658 Y-73.784 Z2.000
G0 X33.658 Y-73.784 Z1.000
G1 X33.658 Y-73.784 Z-0.200 F100.000
G1 X33.750 Y-73.634 Z-0.200 F150.000
G2 X33.354 Y-73.469 Z-0.200 I-0.009 J0.534 K0.000 F150.000
G1 X33.326 Y-73.452 Z-0.200 F150.000
G2 X33.658 Y-73.784 Z-0.200 I-19924.020 J-19924.478 K0.000 F150.000
G0 Z2.000
G0 X34.188 Y-73.536 Z2.000
G0 X34.188 Y-73.536 Z1.000
G1 X34.188 Y-73.536 Z-0.200 F100.000
G3 X34.232 Y-73.526 Z-0.200 I0.006 J0.075 K0.000 F150.000
G1 X34.188 Y-73.536 Z-0.200 F150.000
G0 Z2.000
G0 X33.146 Y-74.565 Z2.000
G0 X33.146 Y-74.565 Z1.000
G1 X33.146 Y-74.565 Z-0.200 F100.000
G1 X32.808 Y-74.394 Z-0.200 F150.000
G1 X32.769 Y-74.409 Z-0.200 F150.000
G1 X32.769 Y-74.584 Z-0.200 F150.000
G2 X33.115 Y-74.555 Z-0.200 I0.186 J-0.139 K0.000 F150.000
G1 X33.115 Y-74.555 Z-0.200 F150.000
G1 X33.146 Y-74.565 Z-0.200 F150.000
G0 Z2.000
G0 X35.561 Y-74.222 Z2.000
G0 X35.561 Y-74.222 Z1.000
G1 X35.561 Y-74.222 Z-0.200 F100.000
G2 X36.046 Y-74.293 Z-0.200 I-18573.097 J-126539.706 K0.000 F150.000
G2 X36.180 Y-74.400 Z-0.200 I-0.014 J-0.154 K0.000 F150.000
G2 X36.160 Y-74.103 Z-0.200 I0.448 J0.179 K0.000 F150.000
G2 X36.413 Y-73.918 Z-0.200 I0.428 J-0.322 K0.000 F150.000
G2 X35.561 Y-74.222 Z-0.200 I-3.611 J8.797 K0.000 F150.000
G0 Z2.000
G0 X35.910 Y-74.192 Z2.000
G0 X35.910 Y-74.192 Z1.000
G1 X35.910 Y-74.192 Z-0.200 F100.000
G2 X36.067 Y-74.218 Z-0.200 I0.031 J-0.307 K0.000 F150.000
G1 X36.074 Y-74.130 Z-0.200 F150.000
G1 X35.910 Y-74.192 Z-0.200 F150.000
G0 Z2.000
G0 X36.212 Y-74.942 Z2.000
G0 X36.212 Y-74.942 Z1.000
G1 X36.212 Y-74.942 Z-0.200 F100.000
G2 X35.874 Y-75.259 Z-0.200 I-0.795 J0.509 K0.000 F150.000
G2 X36.034 Y-75.531 Z-0.200 I0.006 J-0.179 K0.000 F150.000
G3 X36.212 Y-74.942 Z-0.200 I-1.770 J0.857 K0.000 F150.000
G0 Z2.000
G0 X36.081 Y-75.186 Z2.000
G0 X36.081 Y-75.186 Z1.000
G1 X36.081 Y-75.186 Z-0.200 F100.000
G3 X36.032 Y-75.217 Z-0.200 I-0.009 J-0.040 K0.000 F150.000
G3 X36.063 Y-75.267 Z-0.200 I0.040 J-0.009 K0.000 F150.000
G1 X36.081 Y-75.186 Z-0.200 F150.000
G0 Z2.000
G0 X36.024 Y-75.549 Z2.000
G0 X36.024 Y-75.549 Z1.000
G1 X36.024 Y-75.549 Z-0.200 F100.000
G2 X35.875 Y-75.749 Z-0.200 I-0.469 J0.194 K0.000 F150.000
G1 X35.574 Y-75.921 Z-0.200 F150.000
G2 X35.864 Y-76.078 Z-0.200 I0.055 J-0.245 K0.000 F150.000
G2 X36.024 Y-75.549 Z-0.200 I1.085 J-0.038 K0.000 F150.000
G0 Z2.000
G0 X35.829 Y-75.868 Z2.000
G0 X35.829 Y-75.868 Z1.000
G1 X35.829 Y-75.868 Z-0.200 F100.000
G1 X35.795 Y-75.887 Z-0.200 F150.000
G1 X35.822 Y-75.899 Z-0.200 F150.000
G1 X35.829 Y-75.868 Z-0.200 F150.000
G0 Z2.000
G0 X36.860 Y-73.655 Z2.000
G0 X36.860 Y-73.655 Z1.000
G1 X36.860 Y-73.655 Z-0.200 F100.000
G3 X36.864 Y-73.278 Z-0.200 I-0.538 J0.193 K0.000 F150.000
G1 X36.881 Y-73.291 Z-0.200 F150.000
G1 X36.881 Y-73.643 Z-0.200 F150.000
G1 X36.860 Y-73.655 Z-0.200 F150.000
G0 Z2.000
G0 X35.845 Y-73.045 Z2.000
G0 X35.845 Y-73.045 Z1.000
G1 X35.845 Y-73.045 Z-0.200 F100.000
