(Exported by FreeCAD)
(Post Processor: grbl_post)
(Output Time:2023-04-16 17:38:48.907407)
(Begin preamble)
G17 G90
G21
(Begin operation: G54)
(Path: G54)
G54
G0 Z5.000
(Finish operation: G54)
(Begin operation: endmill-2mm001)
(Path: endmill-2mm001)
(endmill-2mm001)
(Begin toolchange)
( M6 T2 )
M3 S10000
(Finish operation: endmill-2mm001)
(Begin operation: CUT HOLES)
(Path: CUT HOLES)
(CUT HOLES)
(Compensated Tool Path. Diameter: 2.0)
G0 Z5.000
G0 X14.620 Y-12.369
G0 Z3.000
G1 X14.620 Y-12.369 Z-1.300 F150.000
G3 X11.866 Y-11.558 Z-1.300 I-2.120 J-2.120 K0.000 F250.000
G3 X9.569 Y-15.123 Z-1.300 I0.634 J-2.931 K0.000 F250.000
G3 X13.134 Y-17.420 Z-1.300 I2.931 J0.634 K0.000 F250.000
G3 X14.620 Y-12.369 Z-1.300 I-0.634 J2.931 K0.000 F250.000
G0 Z5.000
G0 Z5.000
G0 X14.620 Y-12.369
G0 X12.695 Y-41.797
G0 X12.695 Y-41.797 Z3.000
G1 X12.695 Y-41.797 Z-1.300 F150.000
G3 X9.569 Y-45.423 Z-1.300 I-0.196 J-2.992 K0.000 F250.000
G3 X15.430 Y-44.155 Z-1.300 I2.931 J0.634 K0.000 F250.000
G3 X12.695 Y-41.797 Z-1.300 I-2.931 J-0.634 K0.000 F250.000
G0 Z5.000
G0 Z5.000
G0 X12.695 Y-41.797
G0 X28.041 Y-44.305
G0 X28.041 Y-44.305 Z3.000
G1 X28.041 Y-44.305 Z-1.300 F150.000
G3 X31.634 Y-47.720 Z-1.300 I2.959 J-0.484 K0.000 F250.000
G3 X33.931 Y-44.155 Z-1.300 I-0.634 J2.931 K0.000 F250.000
G3 X30.366 Y-41.858 Z-1.300 I-2.931 J-0.634 K0.000 F250.000
G3 X28.041 Y-44.305 Z-1.300 I0.634 J-2.931 K0.000 F250.000
G0 Z5.000
G0 Z5.000
G0 X28.041 Y-44.305
G0 X46.502 Y-44.721
G0 X46.502 Y-44.721 Z3.000
G1 X46.502 Y-44.721 Z-1.300 F150.000
G3 X50.134 Y-47.720 Z-1.300 I2.998 J-0.068 K0.000 F250.000
G3 X52.430 Y-44.155 Z-1.300 I-0.634 J2.931 K0.000 F250.000
G3 X48.866 Y-41.858 Z-1.300 I-2.931 J-0.634 K0.000 F250.000
G3 X46.502 Y-44.721 Z-1.300 I0.634 J-2.931 K0.000 F250.000
G0 Z5.000
G0 Z5.000
G0 X46.502 Y-44.721
G0 X49.204 Y-17.473
G0 X49.204 Y-17.473 Z3.000
G1 X49.204 Y-17.473 Z-1.300 F150.000
G3 X50.134 Y-17.420 Z-1.300 I0.296 J2.984 K0.000 F250.000
G3 X52.430 Y-13.855 Z-1.300 I-0.634 J2.931 K0.000 F250.000
G3 X48.866 Y-11.558 Z-1.300 I-2.931 J-0.634 K0.000 F250.000
G3 X49.204 Y-17.473 Z-1.300 I0.634 J-2.931 K0.000 F250.000
G0 Z5.000
G0 Z5.000
G0 X49.204 Y-17.473
G0 X32.091 Y-101.170
G0 X32.091 Y-101.170 Z3.000
G1 X32.091 Y-101.170 Z-1.300 F150.000
G3 X25.686 Y-107.691 Z-1.300 I-1.091 J-5.334 K0.000 F250.000
G3 X32.187 Y-111.818 Z-1.300 I5.314 J1.187 K0.000 F250.000
G3 X36.314 Y-105.317 Z-1.300 I-1.187 J5.314 K0.000 F250.000
G3 X32.091 Y-101.170 Z-1.300 I-5.314 J-1.187 K0.000 F250.000
G0 Z5.000
G0 Z5.000
G0 X32.091 Y-101.170
G0 X15.861 Y-105.710
G0 X15.861 Y-105.710 Z3.000
G1 X15.861 Y-105.710 Z-1.300 F150.000
G3 X12.398 Y-103.622 Z-1.300 I-2.840 J-0.794 K0.000 F250.000
G3 X13.645 Y-109.387 Z-1.300 I0.623 J-2.882 K0.000 F250.000
G3 X15.861 Y-105.710 Z-1.300 I-0.623 J2.882 K0.000 F250.000
G0 Z5.000
G0 Z5.000
(Finish operation: CUT HOLES)
(Begin operation: CUT CONTOUR)
(Path: CUT CONTOUR)
(CUT CONTOUR)
(Compensated Tool Path. Diameter: 2.0)
G0 Z5.000
G0 X61.534 Y-0.465
G0 Z3.000
G1 X61.534 Y-0.465 Z-1.300 F150.000
G2 X62.998 Y-3.935 Z-1.300 I-3.537 J-3.536 K0.000 F250.000
G1 X63.000 Y-113.000 Z-1.300 F250.000
G2 X58.065 Y-117.998 Z-1.300 I-5.001 J0.003 K0.000 F250.000
G1 X4.000 Y-118.000 Z-1.300 F250.000
G2 X-0.998 Y-113.065 Z-1.300 I0.003 J5.001 K0.000 F250.000
G1 X-1.000 Y-4.000 Z-1.300 F250.000
G2 X3.935 Y0.998 Z-1.300 I5.001 J-0.003 K0.000 F250.000
G1 X58.000 Y1.000 Z-1.300 F250.000
G2 X61.534 Y-0.465 Z-1.300 I-0.003 J-5.001 K0.000 F250.000
G0 Z5.000
G0 Z5.000
(Finish operation: CUT CONTOUR)
(Begin postamble)
M5
G17 G90
M2
