(Exported by FreeCAD)
(Post Processor: grbl_post)
(Output Time:2023-01-29 21:26:32.026862)
(Begin preamble)
G17 G90
G21
(Begin operation: G54)
(Path: G54)
G54
G0 Z5.000
(Finish operation: G54)
(Begin operation: ballend-025mm003)
(Path: ballend-025mm003)
(ballend-025mm003)
(Begin toolchange)
( M6 T2 )
M3 S10000
(Finish operation: ballend-025mm003)
(Begin operation: Pocket_Shape002)
(Path: Pocket_Shape002)
(Pocket_Shape002)
G0 Z1.000
G0 X15.163 Y-67.102
G0 Z0.500
G1 X15.163 Y-67.102 Z-0.200 F100.000
G3 X15.145 Y-67.101 Z-0.200 I-0.010 J-0.019 K0.000 F150.000
G1 X15.022 Y-67.097 Z-0.200 F150.000
G3 X13.675 Y-67.082 Z-0.200 I-0.989 J-29.657 K0.000 F150.000
G2 X13.724 Y-67.532 Z-0.200 I-96.718 J-10.748 K0.000 F150.000
G1 X13.724 Y-67.532 Z-0.200 F150.000
G3 X14.063 Y-67.931 Z-0.200 I0.320 J-0.072 K0.000 F150.000
G1 X14.238 Y-67.933 Z-0.200 F150.000
G3 X14.892 Y-67.486 Z-0.200 I-42.390 J62.798 K0.000 F150.000
G2 X15.162 Y-67.141 Z-0.200 I5.541 J-4.047 K0.000 F150.000
G3 X15.163 Y-67.102 Z-0.200 I-0.009 J0.020 K0.000 F150.000
G0 Z1.000
G0 X15.091 Y-67.149 Z1.000
G0 X15.091 Y-67.149 Z0.500
G1 X15.091 Y-67.149 Z-0.200 F100.000
G3 X13.729 Y-67.122 Z-0.200 I-1.884 J-61.018 K0.000 F150.000
G3 X13.796 Y-67.730 Z-0.200 I568.604 J61.478 K0.000 F150.000
G3 X14.064 Y-67.881 Z-0.200 I0.215 J0.068 K0.000 F150.000
G1 X14.223 Y-67.883 Z-0.200 F150.000
G3 X14.858 Y-67.450 Z-0.200 I-42.627 J63.113 K0.000 F150.000
G2 X15.091 Y-67.149 Z-0.200 I4.839 J-3.520 K0.000 F150.000
G0 Z1.000
G0 X14.989 Y-67.196 Z1.000
G0 X14.989 Y-67.196 Z0.500
G1 X14.989 Y-67.196 Z-0.200 F100.000
G2 X13.784 Y-67.163 Z-0.200 I1.427 J74.270 K0.000 F150.000
G3 X13.843 Y-67.709 Z-0.200 I715.731 J77.328 K0.000 F150.000
G3 X14.065 Y-67.831 Z-0.200 I0.176 J0.057 K0.000 F150.000
G3 X14.280 Y-67.784 Z-0.200 I0.073 J0.178 K0.000 F150.000
G3 X14.823 Y-67.413 Z-0.200 I-70.527 J103.731 K0.000 F150.000
G2 X14.989 Y-67.196 Z-0.200 I3.513 J-2.518 K0.000 F150.000
G0 Z1.000
G0 X14.889 Y-67.242 Z1.000
G0 X14.889 Y-67.242 Z0.500
G1 X14.889 Y-67.242 Z-0.200 F100.000
G2 X13.840 Y-67.214 Z-0.200 I0.846 J50.927 K0.000 F150.000
G3 X13.891 Y-67.687 Z-0.200 I472.956 J50.957 K0.000 F150.000
G3 X14.066 Y-67.781 Z-0.200 I0.137 J0.046 K0.000 F150.000
G3 X14.490 Y-67.580 Z-0.200 I-0.028 J0.607 K0.000 F150.000
G3 X14.889 Y-67.242 Z-0.200 I-0.309 J0.769 K0.000 F150.000
G0 Z1.000
G0 X14.790 Y-67.290 Z1.000
G0 X14.790 Y-67.290 Z0.500
G1 X14.790 Y-67.290 Z-0.200 F100.000
G2 X13.896 Y-67.267 Z-0.200 I0.888 J51.175 K0.000 F150.000
G3 X13.939 Y-67.665 Z-0.200 I451.823 J48.673 K0.000 F150.000
G3 X14.223 Y-67.702 Z-0.200 I0.166 J0.165 K0.000 F150.000
G3 X14.753 Y-67.340 Z-0.200 I-68.744 J101.115 K0.000 F150.000
G1 X14.790 Y-67.290 Z-0.200 F150.000
G0 Z1.000
G0 X14.667 Y-67.338 Z1.000
G0 X14.667 Y-67.338 Z0.500
G1 X14.667 Y-67.338 Z-0.200 F100.000
G2 X13.952 Y-67.320 Z-0.200 I0.616 J38.097 K0.000 F150.000
G3 X14.010 Y-67.668 Z-0.200 I1.501 J0.068 K0.000 F150.000
G3 X14.195 Y-67.660 Z-0.200 I0.083 J0.240 K0.000 F150.000
G3 X14.667 Y-67.338 Z-0.200 I-61.219 J90.074 K0.000 F150.000
G0 Z1.000
G0 X14.511 Y-67.384 Z1.000
G0 X14.511 Y-67.384 Z0.500
G1 X14.511 Y-67.384 Z-0.200 F100.000
G2 X14.008 Y-67.372 Z-0.200 I0.327 J24.696 K0.000 F150.000
G3 X14.035 Y-67.622 Z-0.200 I253.450 J27.258 K0.000 F150.000
G3 X14.167 Y-67.619 Z-0.200 I0.062 J0.169 K0.000 F150.000
G3 X14.511 Y-67.384 Z-0.200 I-44.570 J65.647 K0.000 F150.000
G0 Z1.000
G0 X14.353 Y-67.432 Z1.000
G0 X14.353 Y-67.432 Z0.500
G1 X14.353 Y-67.432 Z-0.200 F100.000
G2 X14.064 Y-67.425 Z-0.200 I-0.020 J5.566 K0.000 F150.000
G3 X14.081 Y-67.581 Z-0.200 I158.400 J17.041 K0.000 F150.000
G3 X14.139 Y-67.578 Z-0.200 I0.026 J0.044 K0.000 F150.000
G1 X14.353 Y-67.432 Z-0.200 F150.000
G0 Z1.000
G0 X14.195 Y-67.479 Z1.000
G0 X14.195 Y-67.479 Z0.500
G1 X14.195 Y-67.479 Z-0.200 F100.000
G2 X14.120 Y-67.477 Z-0.200 I0.064 J3.912 K0.000 F150.000
G3 X14.125 Y-67.526 Z-0.200 I50.891 J5.480 K0.000 F150.000
G1 X14.195 Y-67.479 Z-0.200 F150.000
G0 Z1.000
G0 Z1.000
G0 X14.195 Y-67.479
G0 X16.563 Y-67.275
G0 X16.563 Y-67.275 Z0.500
G1 X16.563 Y-67.275 Z-0.200 F100.000
G3 X16.615 Y-67.380 Z-0.200 I0.158 J0.014 K0.000 F150.000
G3 X16.991 Y-67.708 Z-0.200 I0.506 J0.202 K0.000 F150.000
G3 X17.656 Y-68.027 Z-0.200 I1.061 J1.356 K0.000 F150.000
G3 X17.703 Y-67.929 Z-0.200 I-1.257 J0.664 K0.000 F150.000
G2 X17.707 Y-67.284 Z-0.200 I13.601 J0.231 K0.000 F150.000
G3 X17.693 Y-67.276 Z-0.200 I-0.015 J-0.009 K0.000 F150.000
G2 X16.587 Y-67.176 Z-0.200 I6.086 J73.713 K0.000 F150.000
G3 X16.563 Y-67.275 Z-0.200 I0.134 J-0.086 K0.000 F150.000
G0 Z1.000
G0 X16.627 Y-67.259 Z1.000
G0 X16.627 Y-67.259 Z0.500
G1 X16.627 Y-67.259 Z-0.200 F100.000
G3 X16.738 Y-67.495 Z-0.200 I0.657 J0.165 K0.000 F150.000
G3 X17.626 Y-67.975 Z-0.200 I2.014 J2.663 K0.000 F150.000
G3 X17.653 Y-67.918 Z-0.200 I-0.731 J0.378 K0.000 F150.000
G2 X17.657 Y-67.323 Z-0.200 I12.586 J0.222 K0.000 F150.000
G2 X16.620 Y-67.229 Z-0.200 I5.907 J71.530 K0.000 F150.000
G3 X16.627 Y-67.259 Z-0.200 I0.664 J0.135 K0.000 F150.000
G0 Z1.000
G0 X16.688 Y-67.286 Z1.000
G0 X16.688 Y-67.286 Z0.500
G1 X16.688 Y-67.286 Z-0.200 F100.000
G3 X16.852 Y-67.506 Z-0.200 I0.247 J0.013 K0.000 F150.000
G3 X17.360 Y-67.812 Z-0.200 I26.095 J42.805 K0.000 F150.000
G1 X17.360 Y-67.812 Z-0.200 F150.000
G3 X17.603 Y-67.907 Z-0.200 I0.263 J0.313 K0.000 F150.000
G2 X17.606 Y-67.368 Z-0.200 I11.409 J0.212 K0.000 F150.000
G2 X16.688 Y-67.286 Z-0.200 I5.196 J63.301 K0.000 F150.000
G0 Z1.000
G0 X16.762 Y-67.343 Z1.000
G0 X16.762 Y-67.343 Z0.500
G1 X16.762 Y-67.343 Z-0.200 F100.000
G3 X17.069 Y-67.579 Z-0.200 I0.439 J0.253 K0.000 F150.000
G3 X17.385 Y-67.769 Z-0.200 I23.259 J38.476 K0.000 F150.000
G3 X17.391 Y-67.791 Z-0.200 I0.014 J-0.008 K0.000 F150.000
G3 X17.413 Y-67.785 Z-0.200 I0.008 J0.014 K0.000 F150.000
G3 X17.553 Y-67.856 Z-0.200 I0.288 J0.393 K0.000 F150.000
G2 X17.555 Y-67.414 Z-0.200 I9.375 J0.180 K0.000 F150.000
G3 X16.762 Y-67.343 Z-0.200 I-109.272 J-1219.860 K0.000 F150.000
G0 Z1.000
G0 X16.875 Y-67.403 Z1.000
G0 X16.875 Y-67.403 Z0.500
G1 X16.875 Y-67.403 Z-0.200 F100.000
G2 X17.503 Y-67.782 Z-0.200 I-34.954 J-58.659 K0.000 F150.000
G2 X17.504 Y-67.460 Z-0.200 I6.840 J0.134 K0.000 F150.000
G3 X16.875 Y-67.403 Z-0.200 I-87.733 J-979.144 K0.000 F150.000
G0 Z1.000
G0 X17.085 Y-67.472 Z1.000
G0 X17.085 Y-67.472 Z0.500
G1 X17.085 Y-67.472 Z-0.200 F100.000
G3 X17.436 Y-67.683 Z-0.200 I22.835 J37.684 K0.000 F150.000
G3 X17.440 Y-67.696 Z-0.200 I0.008 J-0.005 K0.000 F150.000
G3 X17.452 Y-67.692 Z-0.200 I0.005 J0.008 K0.000 F150.000
G2 X17.453 Y-67.505 Z-0.200 I3.980 J0.080 K0.000 F150.000
G1 X17.085 Y-67.472 Z-0.200 F150.000
G0 Z1.000
G0 X17.297 Y-67.541 Z1.000
G0 X17.297 Y-67.541 Z0.500
G1 X17.297 Y-67.541 Z-0.200 F100.000
G3 X17.402 Y-67.604 Z-0.200 I18.190 J30.272 K0.000 F150.000
G2 X17.402 Y-67.551 Z-0.200 I1.139 J0.027 K0.000 F150.000
G1 X17.297 Y-67.541 Z-0.200 F150.000
G0 Z1.000
G0 Z1.000
G0 X17.297 Y-67.541
G0 X11.509 Y-75.769
G0 X11.509 Y-75.769 Z0.500
G1 X11.509 Y-75.769 Z-0.200 F100.000
G3 X11.261 Y-76.054 Z-0.200 I0.143 J-0.375 K0.000 F150.000
G1 X11.096 Y-76.285 Z-0.200 F150.000
G1 X10.995 Y-76.337 Z-0.200 F150.000
G1 X10.657 Y-76.341 Z-0.200 F150.000
G2 X10.432 Y-76.100 Z-0.200 I0.103 J0.322 K0.000 F150.000
G3 X10.251 Y-75.709 Z-0.200 I-2.306 J-0.829 K0.000 F150.000
G1 X10.247 Y-76.572 Z-0.200 F150.000
G2 X9.930 Y-76.949 Z-0.200 I-0.402 J0.015 K0.000 F150.000
G3 X9.453 Y-76.964 Z-0.200 I-0.198 J-1.336 K0.000 F150.000
G2 X10.097 Y-77.175 Z-0.200 I-0.270 J-1.912 K0.000 F150.000
G2 X10.275 Y-77.599 Z-0.200 I-0.271 J-0.363 K0.000 F150.000
G1 X9.773 Y-78.498 Z-0.200 F150.000
G2 X10.326 Y-77.827 Z-0.200 I8.507 J-6.453 K0.000 F150.000
G2 X10.883 Y-77.880 Z-0.200 I0.234 J-0.491 K0.000 F150.000
G1 X11.059 Y-78.198 Z-0.200 F150.000
G1 X11.056 Y-77.642 Z-0.200 F150.000
G2 X11.725 Y-77.280 Z-0.200 I0.463 J-0.057 K0.000 F150.000
G1 X11.820 Y-77.301 Z-0.200 F150.000
G3 X11.343 Y-77.001 Z-0.200 I-1.742 J-2.243 K0.000 F150.000
G2 X11.132 Y-76.554 Z-0.200 I0.205 J0.370 K0.000 F150.000
G3 X11.509 Y-75.769 Z-0.200 I-3.419 J2.124 K0.000 F150.000
G0 Z1.000
G0 X11.372 Y-75.967 Z1.000
G0 X11.372 Y-75.967 Z0.500
G1 X11.372 Y-75.967 Z-0.200 F100.000
G2 X11.136 Y-76.314 Z-0.200 I-2.228 J1.256 K0.000 F150.000
G1 X10.996 Y-76.387 Z-0.200 F150.000
G2 X10.554 Y-76.358 Z-0.200 I-0.177 J0.694 K0.000 F150.000
G2 X10.299 Y-75.910 Z-0.200 I0.867 J0.791 K0.000 F150.000
G1 X10.295 Y-76.585 Z-0.200 F150.000
G2 X9.816 Y-77.001 Z-0.200 I-0.441 J0.024 K0.000 F150.000
G2 X10.319 Y-77.623 Z-0.200 I-0.040 J-0.546 K0.000 F150.000
G1 X10.100 Y-78.014 Z-0.200 F150.000
G2 X10.415 Y-77.733 Z-0.200 I0.477 J-0.218 K0.000 F150.000
G2 X10.927 Y-77.856 Z-0.200 I0.157 J-0.473 K0.000 F150.000
G1 X11.009 Y-78.005 Z-0.200 F150.000
G2 X11.074 Y-77.405 Z-0.200 I1.041 J0.192 K0.000 F150.000
G2 X11.606 Y-77.212 Z-0.200 I0.399 J-0.272 K0.000 F150.000
G2 X11.178 Y-76.924 Z-0.200 I0.551 J1.279 K0.000 F150.000
G2 X11.088 Y-76.530 Z-0.200 I0.333 J0.282 K0.000 F150.000
G3 X11.372 Y-75.967 Z-0.200 I-3.871 J2.299 K0.000 F150.000
G0 Z1.000
G0 X11.098 Y-76.405 Z1.000
G0 X11.098 Y-76.405 Z0.500
G1 X11.098 Y-76.405 Z-0.200 F100.000
G2 X10.536 Y-76.406 Z-0.200 I-0.283 J0.712 K0.000 F150.000
G2 X10.346 Y-76.149 Z-0.200 I0.454 J0.534 K0.000 F150.000
G2 X10.293 Y-76.778 Z-0.200 I-1.188 J-0.216 K0.000 F150.000
G2 X10.017 Y-77.021 Z-0.200 I-0.387 J0.161 K0.000 F150.000
G2 X10.316 Y-77.730 Z-0.200 I-0.156 J-0.483 K0.000 F150.000
G2 X10.953 Y-77.818 Z-0.200 I0.250 J-0.537 K0.000 F150.000
G2 X11.347 Y-77.160 Z-0.200 I0.532 J0.129 K0.000 F150.000
G1 X11.405 Y-77.152 Z-0.200 F150.000
G2 X11.098 Y-76.405 Z-0.200 I0.155 J0.500 K0.000 F150.000
G0 Z1.000
G0 X11.000 Y-76.486 Z1.000
G0 X11.000 Y-76.486 Z0.500
G1 X11.000 Y-76.486 Z-0.200 F100.000
G2 X10.521 Y-76.455 Z-0.200 I-0.182 J0.903 K0.000 F150.000
G2 X10.402 Y-76.328 Z-0.200 I0.182 J0.291 K0.000 F150.000
G2 X10.128 Y-77.019 Z-0.200 I-0.618 J-0.155 K0.000 F150.000
G2 X10.421 Y-77.633 Z-0.200 I-0.297 J-0.519 K0.000 F150.000
G2 X10.901 Y-77.708 Z-0.200 I0.123 J-0.785 K0.000 F150.000
G2 X11.280 Y-77.135 Z-0.200 I0.551 J0.047 K0.000 F150.000
G2 X11.000 Y-76.486 Z-0.200 I0.263 J0.499 K0.000 F150.000
G0 Z1.000
G0 X10.927 Y-76.538 Z1.000
G0 X10.927 Y-76.538 Z0.500
G1 X10.927 Y-76.538 Z-0.200 F100.000
G2 X10.508 Y-76.505 Z-0.200 I-0.144 J0.867 K0.000 F150.000
G1 X10.451 Y-76.455 Z-0.200 F150.000
G2 X10.213 Y-77.020 Z-0.200 I-0.622 J-0.070 K0.000 F150.000
G2 X10.484 Y-77.580 Z-0.200 I-0.394 J-0.536 K0.000 F150.000
G2 X10.858 Y-77.629 Z-0.200 I0.081 J-0.839 K0.000 F150.000
G2 X11.108 Y-77.158 Z-0.200 I0.608 J-0.020 K0.000 F150.000
G1 X11.181 Y-77.125 Z-0.200 F150.000
G2 X10.927 Y-76.538 Z-0.200 I0.390 J0.516 K0.000 F150.000
G0 Z1.000
G0 X10.876 Y-76.588 Z1.000
G0 X10.876 Y-76.588 Z0.500
G1 X10.876 Y-76.588 Z-0.200 F100.000
G2 X10.499 Y-76.556 Z-0.200 I-0.117 J0.842 K0.000 F150.000
G2 X10.295 Y-77.022 Z-0.200 I-0.687 J0.022 K0.000 F150.000
G2 X10.532 Y-77.529 Z-0.200 I-0.464 J-0.526 K0.000 F150.000
G2 X10.818 Y-77.566 Z-0.200 I0.047 J-0.766 K0.000 F150.000
G2 X11.089 Y-77.112 Z-0.200 I0.496 J0.012 K0.000 F150.000
G2 X10.876 Y-76.588 Z-0.200 I0.447 J0.487 K0.000 F150.000
G0 Z1.000
G0 X10.828 Y-76.639 Z1.000
G0 X10.828 Y-76.639 Z0.500
G1 X10.828 Y-76.639 Z-0.200 F100.000
G2 X10.540 Y-76.617 Z-0.200 I-0.091 J0.688 K0.000 F150.000
G2 X10.364 Y-77.026 Z-0.200 I-0.727 J0.071 K0.000 F150.000
G2 X10.594 Y-77.476 Z-0.200 I-1.246 J-0.920 K0.000 F150.000
G2 X10.784 Y-77.506 Z-0.200 I-0.013 J-0.705 K0.000 F150.000
G2 X11.011 Y-77.109 Z-0.200 I0.448 J0.007 K0.000 F150.000
G2 X10.828 Y-76.639 Z-0.200 I0.507 J0.468 K0.000 F150.000
G0 Z1.000
G0 X10.781 Y-76.689 Z1.000
G0 X10.781 Y-76.689 Z0.500
G1 X10.781 Y-76.689 Z-0.200 F100.000
G2 X10.581 Y-76.676 Z-0.200 I-0.066 J0.511 K0.000 F150.000
G2 X10.431 Y-77.029 Z-0.200 I-0.456 J-0.015 K0.000 F150.000
G2 X10.624 Y-77.430 Z-0.200 I-0.547 J-0.509 K0.000 F150.000
G2 X10.749 Y-77.446 Z-0.200 I0.002 J-0.464 K0.000 F150.000
G2 X10.948 Y-77.098 Z-0.200 I0.410 J-0.002 K0.000 F150.000
G2 X10.781 Y-76.689 Z-0.200 I0.473 J0.430 K0.000 F150.000
G0 Z1.000
G0 X10.736 Y-76.740 Z1.000
G0 X10.736 Y-76.740 Z0.500
G1 X10.736 Y-76.740 Z-0.200 F100.000
G2 X10.617 Y-76.733 Z-0.200 I-0.041 J0.322 K0.000 F150.000
G2 X10.498 Y-77.029 Z-0.200 I-0.853 J0.170 K0.000 F150.000
G2 X10.668 Y-77.384 Z-0.200 I-0.638 J-0.524 K0.000 F150.000
G3 X10.738 Y-77.306 Z-0.200 I0.028 J0.046 K0.000 F150.000
G1 X10.826 Y-77.134 Z-0.200 F150.000
G3 X10.876 Y-77.086 Z-0.200 I0.001 J0.049 K0.000 F150.000
G3 X10.828 Y-77.037 Z-0.200 I-0.049 J0.001 K0.000 F150.000
G2 X10.736 Y-76.740 Z-0.200 I0.601 J0.350 K0.000 F150.000
G0 Z1.000
G0 X10.696 Y-76.790 Z1.000
G0 X10.696 Y-76.790 Z0.500
G1 X10.696 Y-76.790 Z-0.200 F100.000
G3 X10.630 Y-76.873 Z-0.200 I-0.023 J-0.049 K0.000 F150.000
G1 X10.556 Y-77.021 Z-0.200 F150.000
G2 X10.692 Y-77.289 Z-0.200 I-0.544 J-0.442 K0.000 F150.000
G2 X10.806 Y-77.088 Z-0.200 I0.276 J-0.024 K0.000 F150.000
G2 X10.696 Y-76.790 Z-0.200 I0.797 J0.465 K0.000 F150.000
G0 Z1.000
G0 X10.673 Y-76.896 Z1.000
G0 X10.673 Y-76.896 Z0.500
G1 X10.673 Y-76.896 Z-0.200 F100.000
G1 X10.614 Y-77.020 Z-0.200 F150.000
G1 X10.696 Y-77.170 Z-0.200 F150.000
G3 X10.690 Y-76.958 Z-0.200 I-0.094 J0.104 K0.000 F150.000
G1 X10.673 Y-76.896 Z-0.200 F150.000
G0 Z1.000
G0 Z1.000
(Finish operation: Pocket_Shape002)
(Begin postamble)
M5
G17 G90
M2
