(Exported by FreeCAD)
(Post Processor: grbl_post)
(Output Time:2023-01-15 12:41:13.215269)
(Begin preamble)
G17 G90
G21
(Begin operation: G54)
(Path: G54)
G54
G0 Z5.000
(Finish operation: G54)
(Begin operation: endmill-2mm001)
(Path: endmill-2mm001)
(endmill-2mm001)
(Begin toolchange)
( M6 T2 )
M3 S10000
(Finish operation: endmill-2mm001)
(Begin operation: Profile)
(Path: Profile)
(Profile)
(Compensated Tool Path. Diameter: 2.0)
G0 Z5.000
G0 X14.620 Y-12.369
G0 Z3.000
G1 X14.620 Y-12.369 Z-1.500 F100.000
G3 X11.866 Y-11.558 Z-1.500 I-2.120 J-2.120 K0.000 F150.000
G3 X9.569 Y-15.123 Z-1.500 I0.634 J-2.931 K0.000 F150.000
G3 X13.134 Y-17.420 Z-1.500 I2.931 J0.634 K0.000 F150.000
G3 X14.620 Y-12.369 Z-1.500 I-0.634 J2.931 K0.000 F150.000
G0 Z5.000
G0 Z5.000
G0 X14.620 Y-12.369
G0 X12.695 Y-41.797
G0 X12.695 Y-41.797 Z3.000
G1 X12.695 Y-41.797 Z-1.500 F100.000
G3 X11.866 Y-41.858 Z-1.500 I-0.196 J-2.992 K0.000 F150.000
G3 X9.569 Y-45.423 Z-1.500 I0.634 J-2.931 K0.000 F150.000
G3 X13.134 Y-47.720 Z-1.500 I2.931 J0.634 K0.000 F150.000
G3 X12.695 Y-41.797 Z-1.500 I-0.634 J2.931 K0.000 F150.000
G0 Z5.000
G0 Z5.000
G0 X12.695 Y-41.797
G0 X28.041 Y-44.305
G0 X28.041 Y-44.305 Z3.000
G1 X28.041 Y-44.305 Z-1.500 F100.000
G3 X31.634 Y-47.720 Z-1.500 I2.959 J-0.484 K0.000 F150.000
G3 X33.931 Y-44.155 Z-1.500 I-0.634 J2.931 K0.000 F150.000
G3 X30.366 Y-41.858 Z-1.500 I-2.931 J-0.634 K0.000 F150.000
G3 X28.041 Y-44.305 Z-1.500 I0.634 J-2.931 K0.000 F150.000
G0 Z5.000
G0 Z5.000
G0 X28.041 Y-44.305
G0 X46.502 Y-44.721
G0 X46.502 Y-44.721 Z3.000
G1 X46.502 Y-44.721 Z-1.500 F100.000
G3 X46.569 Y-45.423 Z-1.500 I2.998 J-0.068 K0.000 F150.000
G3 X52.430 Y-44.155 Z-1.500 I2.931 J0.634 K0.000 F150.000
G3 X46.502 Y-44.721 Z-1.500 I-2.931 J-0.634 K0.000 F150.000
G0 Z5.000
G0 Z5.000
G0 X46.502 Y-44.721
G0 X49.204 Y-17.473
G0 X49.204 Y-17.473 Z3.000
G1 X49.204 Y-17.473 Z-1.500 F100.000
G3 X50.134 Y-17.420 Z-1.500 I0.296 J2.984 K0.000 F150.000
G3 X52.430 Y-13.855 Z-1.500 I-0.634 J2.931 K0.000 F150.000
G3 X48.866 Y-11.558 Z-1.500 I-2.931 J-0.634 K0.000 F150.000
G3 X49.204 Y-17.473 Z-1.500 I0.634 J-2.931 K0.000 F150.000
G0 Z5.000
G0 Z5.000
G0 X49.204 Y-17.473
G0 X32.001 Y-101.607
G0 X32.001 Y-101.607 Z3.000
G1 X32.001 Y-101.607 Z-1.500 F100.000
G3 X26.121 Y-107.592 Z-1.500 I-1.001 J-4.897 K0.000 F150.000
G3 X35.879 Y-105.416 Z-1.500 I4.879 J1.088 K0.000 F150.000
G3 X32.001 Y-101.607 Z-1.500 I-4.879 J-1.088 K0.000 F150.000
G0 Z5.000
G0 Z5.000
G0 X32.001 Y-101.607
G0 X15.683 Y-105.818
G0 X15.683 Y-105.818 Z3.000
G1 X15.683 Y-105.818 Z-1.500 F100.000
G3 X10.335 Y-107.083 Z-1.500 I-2.661 J-0.687 K0.000 F150.000
G3 X13.600 Y-109.191 Z-1.500 I2.687 J0.579 K0.000 F150.000
G3 X15.708 Y-105.926 Z-1.500 I-0.579 J2.687 K0.000 F150.000
G3 X15.683 Y-105.818 Z-1.500 I-2.687 J-0.579 K0.000 F150.000
G0 Z5.000
G0 Z5.000
(Finish operation: Profile)
(Begin postamble)
M5
G17 G90
M2
