(Exported by FreeCAD)
(Post Processor: grbl_post)
(Output Time:2022-10-08 16:16:52.139408)
(Begin preamble)
G17 G90
G21
(Begin operation: G54)
(Path: G54)
G54
G0 Z5.000
(Finish operation: G54)
(Begin operation: endmill-3_175mm001)
(Path: endmill-3_175mm001)
(endmill-3_175mm001)
(Begin toolchange)
( M6 T3 )
(Finish operation: endmill-3_175mm001)
(Begin operation: Profile)
(Path: Profile)
(Profile)
(Compensated Tool Path. Diameter: 3.17)
G0 Z5.000
G0 X49.324 Y0.824
G0 Z3.000
G1 X49.324 Y0.824 Z-0.500 F100.000
G2 X50.085 Y-1.000 Z-0.500 I-1.837 J-1.837 K0.000 F250.000
G1 X50.085 Y-141.000 Z-0.500 F250.000
G2 X47.500 Y-143.585 Z-0.500 I-2.598 J0.013 K0.000 F250.000
G1 X-47.500 Y-143.585 Z-0.500 F250.000
G2 X-50.085 Y-141.000 Z-0.500 I0.013 J2.598 K0.000 F250.000
G1 X-50.085 Y-1.000 Z-0.500 F250.000
G2 X-47.500 Y1.585 Z-0.500 I2.598 J-0.013 K0.000 F250.000
G1 X47.500 Y1.585 Z-0.500 F250.000
G2 X49.324 Y0.824 Z-0.500 I-0.013 J-2.598 K0.000 F250.000
G1 X49.324 Y0.824 Z-1.000 F100.000
G2 X50.085 Y-1.000 Z-1.000 I-1.837 J-1.837 K0.000 F250.000
G1 X50.085 Y-141.000 Z-1.000 F250.000
G2 X47.500 Y-143.585 Z-1.000 I-2.598 J0.013 K0.000 F250.000
G1 X-47.500 Y-143.585 Z-1.000 F250.000
G2 X-50.085 Y-141.000 Z-1.000 I0.013 J2.598 K0.000 F250.000
G1 X-50.085 Y-1.000 Z-1.000 F250.000
G2 X-47.500 Y1.585 Z-1.000 I2.598 J-0.013 K0.000 F250.000
G1 X47.500 Y1.585 Z-1.000 F250.000
G2 X49.324 Y0.824 Z-1.000 I-0.013 J-2.598 K0.000 F250.000
G1 X49.324 Y0.824 Z-1.500 F100.000
G2 X50.085 Y-1.000 Z-1.500 I-1.837 J-1.837 K0.000 F250.000
G1 X50.085 Y-141.000 Z-1.500 F250.000
G2 X47.500 Y-143.585 Z-1.500 I-2.598 J0.013 K0.000 F250.000
G1 X-47.500 Y-143.585 Z-1.500 F250.000
G2 X-50.085 Y-141.000 Z-1.500 I0.013 J2.598 K0.000 F250.000
G1 X-50.085 Y-1.000 Z-1.500 F250.000
G2 X-47.500 Y1.585 Z-1.500 I2.598 J-0.013 K0.000 F250.000
G1 X47.500 Y1.585 Z-1.500 F250.000
G2 X49.324 Y0.824 Z-1.500 I-0.013 J-2.598 K0.000 F250.000
G1 X49.324 Y0.824 Z-2.000 F100.000
G2 X50.085 Y-1.000 Z-2.000 I-1.837 J-1.837 K0.000 F250.000
G1 X50.085 Y-141.000 Z-2.000 F250.000
G2 X47.500 Y-143.585 Z-2.000 I-2.598 J0.013 K0.000 F250.000
G1 X-47.500 Y-143.585 Z-2.000 F250.000
G2 X-50.085 Y-141.000 Z-2.000 I0.013 J2.598 K0.000 F250.000
G1 X-50.085 Y-1.000 Z-2.000 F250.000
G2 X-47.500 Y1.585 Z-2.000 I2.598 J-0.013 K0.000 F250.000
G1 X47.500 Y1.585 Z-2.000 F250.000
G2 X49.324 Y0.824 Z-2.000 I-0.013 J-2.598 K0.000 F250.000
G1 X49.324 Y0.824 Z-2.400 F100.000
G2 X50.085 Y-1.000 Z-2.400 I-1.837 J-1.837 K0.000 F250.000
G1 X50.085 Y-141.000 Z-2.400 F250.000
G2 X47.500 Y-143.585 Z-2.400 I-2.598 J0.013 K0.000 F250.000
G1 X-47.500 Y-143.585 Z-2.400 F250.000
G2 X-50.085 Y-141.000 Z-2.400 I0.013 J2.598 K0.000 F250.000
G1 X-50.085 Y-1.000 Z-2.400 F250.000
G2 X-47.500 Y1.585 Z-2.400 I2.598 J-0.013 K0.000 F250.000
G1 X47.500 Y1.585 Z-2.400 F250.000
G2 X49.324 Y0.824 Z-2.400 I-0.013 J-2.598 K0.000 F250.000
G0 Z5.000
G0 Z5.000
(Finish operation: Profile)
(Begin postamble)
M5
G17 G90
M2
