; generated by PrusaSlicer 2.5.0+linux-x64-GTK3 on 2022-10-05 at 20:54:11 UTC

; 

; external perimeters extrusion width = 0.45mm
; perimeters extrusion width = 0.45mm
; infill extrusion width = 0.45mm
; solid infill extrusion width = 0.45mm
; top infill extrusion width = 0.40mm
; first layer extrusion width = 0.80mm

M107
;TYPE:Custom
G90 ; use absolute coordinates
M83 ; extruder relative mode
M140 S55 ; set final bed temp
M104 S150 ; set temporary nozzle temp to prevent oozing during homing
G4 S10 ; allow partial nozzle warmup
G28 ; home all axis
G1 Z50 F240
G1 X2 Y10 F3000
M104 S205 ; set final nozzle temp
M190 S55 ; wait for bed temp to stabilize
M109 S205 ; wait for nozzle temp to stabilize
G1 Z0.28 F240
G92 E0
G1 Y140 E10 F1500 ; prime the nozzle
G1 X2.3 F5000
G92 E0
G1 Y10 E10 F1200 ; prime the nozzle
G92 E0
G21 ; set units to millimeters
G90 ; use absolute coordinates
M83 ; use relative distances for extrusion
; Filament gcode
M107
;LAYER_CHANGE
;Z:0.4
;HEIGHT:0.4
;BEFORE_LAYER_CHANGE
G92 E0
;0.4


G1 E-7 F4200
G1 Z2 F9000
;AFTER_LAYER_CHANGE
;0.4
G1 X18.219 Y19.584
G1 Z.4
G1 E7 F2400
M204 S500
;TYPE:Skirt/Brim
;WIDTH:0.8
G1 F1200
G1 X27.82 Y10.652 E1.55734
G1 X29.308 Y9.806 E.20334
G1 X31.018 Y9.718 E.20334
G1 X33.069 Y10.842 E.27773
G1 X203.352 Y193.882 E29.69129
G1 X204.198 Y195.37 E.20334
G1 X204.286 Y197.08 E.20334
G1 X203.163 Y199.131 E.27772
G1 X192.18 Y209.348 E1.78148
G1 X190.692 Y210.194 E.20334
G1 X188.982 Y210.282 E.20334
G1 X186.931 Y209.158 E.27772
G1 X16.648 Y26.118 E29.69129
G1 X15.802 Y24.63 E.20334
G1 X15.714 Y22.92 E.20334
G1 X16.837 Y20.869 E.27773
G1 X18.175 Y19.625 E.21701
G1 E-4.9 F4200
;WIPE_START
G1 F7200
G1 X20.811 Y17.173 E-1.995
;WIPE_END
G1 E-.105 F4200
G1 Z2.4 F9000
G1 X25.12 Y23.796
G1 Z.4
G1 E7 F2400
;TYPE:Perimeter
;WIDTH:0.8
G1 F1200
G1 X30.142 Y19.125 E.81454
G1 X63.973 Y55.491 E5.89896
G1 X63.59 Y55.426 E.04608
G1 X62.566 Y55.389 E.12178
G1 X61.619 Y55.479 E.11298
G1 X61.092 Y55.565 E.06333
G1 X60.619 Y55.709 E.05871
G1 X59.393 Y56.183 E.15618
G1 X58.822 Y56.521 E.07879
G1 X57.673 Y57.374 E.16993
G1 X57.028 Y58.095 E.11486
G1 X25.161 Y23.84 E5.5565
G1 X24.111 Y23.76 F9000
G1 F1200
G1 X30.178 Y18.116 E.98418
G1 X66.169 Y56.803 E6.27551
G1 X66.667 Y57.307 E.08423
G1 X66.077 Y56.93 E.0832
G1 X65.212 Y56.535 E.11298
G1 X64.41 Y56.288 E.09964
G1 X63.472 Y56.13 E.11298
G1 X62.633 Y56.1 E.09964
G1 X61.256 Y56.261 E.16471
G1 X60.869 Y56.378 E.04803
G1 X59.703 Y56.827 E.14833
G1 X59.236 Y57.103 E.06446
G1 X58.155 Y57.901 E.15957
G1 X57.847 Y58.226 E.05319
G1 X57.241 Y58.959 E.11298
G1 X57.086 Y59.206 E.03454
G1 X24.152 Y23.804 E5.74258
G1 E-4.9 F4200
;WIPE_START
G1 F7200
G1 X26.77 Y21.333 E-1.995
;WIPE_END
G1 E-.105 F4200
G1 Z2.4 F9000
G1 X70.321 Y62.314
G1 Z.4
G1 E7 F2400
G1 F1200
G1 X94.215 Y87.998 E4.16625
G1 X93.833 Y87.934 E.04608
G1 X92.808 Y87.897 E.12178
G1 X91.861 Y87.987 E.11298
G1 X91.335 Y88.073 E.06333
G1 X90.862 Y88.216 E.05871
G1 X89.635 Y88.691 E.15618
G1 X89.064 Y89.029 E.07879
G1 X87.916 Y89.882 E.16993
G1 X87.271 Y90.603 E.11486
G1 X67.223 Y69.053 E3.4956
G1 X67.565 Y68.81 E.04991
G1 X67.988 Y68.462 E.06502
G1 X68.316 Y68.111 E.05702
G1 X69.118 Y67.12 E.15134
G1 X69.467 Y66.509 E.08362
G1 X70.039 Y65.182 E.17162
G1 X70.163 Y64.664 E.06333
G1 X70.321 Y63.725 E.11298
G1 X70.358 Y62.701 E.12179
G1 X70.327 Y62.374 E.03895
G1 E-4.9 F4200
;WIPE_START
G1 F7200
G1 X72.782 Y65.007 E-1.995
;WIPE_END
G1 E-.105 F4200
G1 Z2.4 F9000
G1 X68.619 Y59.389
G1 Z.4
G1 E7 F2400
;WIDTH:0.768445
G1 F1200
G1 X68.895 Y59.709 E.048
;WIDTH:0.8
G1 X69.171 Y60.029 E.05022
G1 X96.411 Y89.31 E4.74973
G1 X96.91 Y89.815 E.08423
G1 X96.319 Y89.438 E.0832
G1 X95.454 Y89.042 E.11298
G1 X94.652 Y88.796 E.09964
G1 X93.714 Y88.638 E.11298
G1 X92.876 Y88.608 E.09964
G1 X91.498 Y88.769 E.16471
G1 X91.111 Y88.886 E.04803
G1 X89.946 Y89.335 E.14833
G1 X89.478 Y89.611 E.06446
G1 X88.398 Y90.409 E.15957
G1 X88.089 Y90.734 E.05319
G1 X87.483 Y91.467 E.11298
G1 X87.329 Y91.713 E.03454
G1 X66.119 Y68.915 E3.69812
G1 X66.376 Y68.779 E.03453
G1 X67.497 Y67.943 E.16609
G1 X67.766 Y67.656 E.04665
G1 X68.531 Y66.712 E.14437
G1 X68.817 Y66.212 E.06842
G1 X69.357 Y64.969 E.16095
G1 X69.459 Y64.545 E.05181
G1 X69.617 Y63.607 E.11298
G1 X69.647 Y62.768 E.09964
G1 X69.557 Y61.821 E.11298
G1 X69.369 Y61.004 E.09964
G1 X69.037 Y60.112 E.11298
G1 X68.828 Y59.751 E.04961
;WIDTH:0.768445
G1 X68.649 Y59.441 E.04061
G1 E-4.9 F4200
;WIPE_START
G1 F7200
G1 X68.895 Y59.709 E-.20177
G1 X69.171 Y60.029 E-.23434
G1 X71.087 Y62.089 E-1.55889
;WIPE_END
G1 E-.105 F4200
G1 Z2.4 F9000
G1 X97.465 Y101.561
G1 Z.4
G1 E7 F2400
;WIDTH:0.8
G1 F1200
G1 X97.808 Y101.317 E.04991
G1 X98.231 Y100.97 E.06502
G1 X98.558 Y100.619 E.05702
G1 X99.36 Y99.628 E.15134
G1 X99.709 Y99.017 E.08362
G1 X100.281 Y97.69 E.17162
G1 X100.405 Y97.171 E.06333
G1 X100.563 Y96.233 E.11298
G1 X100.6 Y95.209 E.12178
G1 X100.564 Y94.822 E.04608
G1 X124.458 Y120.506 E4.16625
G1 X124.075 Y120.442 E.04608
G1 X123.05 Y120.405 E.12178
G1 X122.103 Y120.495 E.11298
G1 X121.577 Y120.581 E.06333
G1 X121.104 Y120.724 E.05871
G1 X119.878 Y121.199 E.15618
G1 X119.307 Y121.537 E.07879
G1 X118.158 Y122.39 E.16993
G1 X117.513 Y123.111 E.11486
G1 X97.506 Y101.605 E3.48847
G1 X96.362 Y101.423 F9000
G1 F1200
G1 X96.619 Y101.287 E.03453
G1 X97.74 Y100.451 E.16609
G1 X98.008 Y100.164 E.04665
G1 X98.774 Y99.22 E.14437
G1 X99.059 Y98.72 E.06842
G1 X99.6 Y97.477 E.16095
G1 X99.701 Y97.053 E.05181
G1 X99.859 Y96.115 E.11298
G1 X99.889 Y95.276 E.09964
G1 X99.799 Y94.329 E.11298
G1 X99.612 Y93.511 E.09964
G1 X99.28 Y92.62 E.11298
G1 X99.07 Y92.259 E.04961
;WIDTH:0.768444
G1 X98.861 Y91.897 E.04742
G1 X99.137 Y92.217 E.048
;WIDTH:0.8
G1 X99.413 Y92.537 E.05022
G1 X126.654 Y121.818 E4.74973
G1 X127.152 Y122.323 E.08423
G1 X126.562 Y121.946 E.0832
G1 X125.696 Y121.55 E.11298
G1 X124.894 Y121.304 E.09964
G1 X123.956 Y121.146 E.11298
G1 X123.118 Y121.116 E.09964
G1 X121.74 Y121.276 E.16471
G1 X121.353 Y121.394 E.04804
G1 X120.188 Y121.842 E.14833
G1 X119.721 Y122.119 E.06446
G1 X118.64 Y122.917 E.15957
G1 X118.331 Y123.242 E.0532
G1 X117.725 Y123.975 E.11298
G1 X117.571 Y124.221 E.03453
G1 X96.403 Y101.467 E3.691
G1 E-4.9 F4200
;WIPE_START
G1 F7200
G1 X96.619 Y101.287 E-.15588
G1 X97.74 Y100.451 E-.77501
G1 X98.008 Y100.164 E-.21769
G1 X98.774 Y99.22 E-.67363
G1 X98.928 Y98.949 E-.1728
;WIPE_END
G1 E-.105 F4200
G1 Z2.4 F9000
G1 X130.806 Y127.33
G1 Z.4
G1 E7 F2400
G1 F1200
G1 X154.7 Y153.014 E4.16625
G1 X154.317 Y152.95 E.04608
G1 X153.293 Y152.913 E.12178
G1 X152.346 Y153.003 E.11298
G1 X151.82 Y153.089 E.06333
G1 X151.346 Y153.232 E.05871
G1 X150.12 Y153.707 E.15618
G1 X149.549 Y154.045 E.07879
G1 X148.4 Y154.898 E.16993
G1 X147.755 Y155.618 E.11486
G1 X127.708 Y134.069 E3.4956
G1 X128.05 Y133.825 E.04991
G1 X128.473 Y133.478 E.06502
G1 X128.801 Y133.127 E.05702
G1 X129.602 Y132.136 E.15134
G1 X129.951 Y131.525 E.08361
G1 X130.524 Y130.198 E.17162
G1 X130.648 Y129.679 E.06333
G1 X130.806 Y128.741 E.11298
G1 X130.843 Y127.716 E.12178
G1 X130.812 Y127.39 E.03895
G1 X129.936 Y126.376 F9000
G1 F1200
G1 X129.854 Y126.019 E.04351
G1 X129.522 Y125.128 E.11298
G1 X129.313 Y124.766 E.04961
;WIDTH:0.768444
G1 X129.103 Y124.405 E.04742
G1 X129.38 Y124.725 E.048
;WIDTH:0.8
G1 X129.656 Y125.045 E.05022
G1 X156.896 Y154.326 E4.74972
G1 X157.394 Y154.831 E.08423
G1 X156.804 Y154.454 E.0832
G1 X155.939 Y154.058 E.11298
G1 X155.137 Y153.812 E.09963
G1 X154.199 Y153.654 E.11298
G1 X153.36 Y153.624 E.09964
G1 X151.983 Y153.784 E.16472
G1 X151.596 Y153.901 E.04804
G1 X150.43 Y154.35 E.14833
G1 X149.963 Y154.626 E.06447
G1 X148.882 Y155.425 E.15957
G1 X148.574 Y155.749 E.05319
G1 X147.968 Y156.483 E.11298
G1 X147.813 Y156.729 E.03454
G1 X126.604 Y133.931 E3.69812
G1 X126.861 Y133.795 E.03453
G1 X127.982 Y132.959 E.16609
G1 X128.25 Y132.672 E.04665
G1 X129.016 Y131.728 E.14437
G1 X129.302 Y131.228 E.06841
G1 X129.842 Y129.985 E.16095
G1 X129.943 Y129.56 E.05182
G1 X130.102 Y128.622 E.11298
G1 X130.132 Y127.784 E.09964
G1 X130.042 Y126.837 E.11298
G1 X129.949 Y126.435 E.049
G1 E-4.9 F4200
;WIPE_START
G1 F7200
G1 X129.854 Y126.019 E-.23627
G1 X129.522 Y125.128 E-.52719
G1 X129.313 Y124.766 E-.23148
G1 X129.103 Y124.405 E-.23148
G1 X129.38 Y124.725 E-.23435
G1 X129.656 Y125.045 E-.23435
G1 X130.024 Y125.441 E-.29988
;WIPE_END
G1 E-.105 F4200
G1 Z2.4 F9000
G1 X157.95 Y166.577
G1 Z.4
G1 E7 F2400
G1 F1200
G1 X158.292 Y166.333 E.04991
G1 X158.715 Y165.985 E.06502
G1 X159.043 Y165.635 E.05702
G1 X159.845 Y164.644 E.15135
G1 X160.194 Y164.032 E.08362
G1 X160.766 Y162.706 E.17162
G1 X160.89 Y162.187 E.06333
G1 X161.048 Y161.249 E.11298
G1 X161.085 Y160.224 E.12178
G1 X161.048 Y159.838 E.04608
G1 X194.88 Y196.204 E5.89896
G1 X189.858 Y200.875 E.81454
G1 X157.991 Y166.621 E5.5565
G1 E-4.9 F4200
;WIPE_START
G1 F7200
G1 X158.292 Y166.333 E-.23092
G1 X158.715 Y165.985 E-.30338
G1 X159.043 Y165.635 E-.26606
G1 X159.845 Y164.644 E-.70619
G1 X160.194 Y164.032 E-.39018
G1 X160.264 Y163.87 E-.09827
;WIPE_END
G1 E-.105 F4200
G1 Z2.4 F9000
G1 X159.346 Y156.913
G1 Z.4
G1 E7 F2400
;WIDTH:0.768446
G1 F1200
G1 X159.622 Y157.233 E.048
;WIDTH:0.8
G1 X159.898 Y157.553 E.05022
G1 X195.889 Y196.24 E6.27551
G1 X189.822 Y201.884 E.98418
G1 X156.846 Y166.439 E5.74971
G1 X157.103 Y166.303 E.03453
G1 X158.224 Y165.467 E.16609
G1 X158.493 Y165.18 E.04665
G1 X159.259 Y164.236 E.14437
G1 X159.544 Y163.736 E.06842
G1 X160.084 Y162.493 E.16095
G1 X160.186 Y162.068 E.05181
G1 X160.344 Y161.13 E.11298
G1 X160.374 Y160.292 E.09964
G1 X160.284 Y159.345 E.11298
G1 X160.096 Y158.527 E.09964
G1 X159.764 Y157.636 E.11298
G1 X159.555 Y157.274 E.04961
;WIDTH:0.768446
G1 X159.376 Y156.965 E.0406
G1 E-4.9 F4200
;WIPE_START
G1 F7200
G1 X159.622 Y157.233 E-.20176
G1 X159.898 Y157.553 E-.23434
G1 X161.814 Y159.613 E-1.5589
;WIPE_END
G1 E-.105 F4200
G1 Z2.4 F9000
G1 X23.102 Y23.723
G1 Z.4
G1 E7 F2400
;WIDTH:0.8
G1 F1200
G1 X30.215 Y17.106 E1.15381
G1 X196.898 Y196.277 E29.06361
G1 X189.785 Y202.894 E1.15381
G1 X155.648 Y166.2 E5.95226
G1 X156.113 Y166.027 E.05887
G1 X156.689 Y165.721 E.0775
G1 X157.464 Y165.169 E.11298
G1 X157.942 Y164.725 E.0775
G1 X158.672 Y163.828 E.13739
G1 X158.895 Y163.439 E.05321
G1 X159.29 Y162.573 E.11298
G1 X159.482 Y161.95 E.07749
G1 X159.64 Y161.012 E.11298
G1 X159.663 Y160.359 E.0775
G1 X159.573 Y159.412 E.11298
G1 X159.427 Y158.776 E.0775
G1 X159.095 Y157.885 E.11298
G1 X158.789 Y157.308 E.07749
G1 X158.238 Y156.533 E.11298
G1 X157.793 Y156.056 E.0775
G1 X156.976 Y155.383 E.12567
G1 X156.507 Y155.103 E.0649
G1 X155.642 Y154.708 E.11298
G1 X155.018 Y154.516 E.07749
G1 X154.08 Y154.358 E.11298
G1 X153.428 Y154.335 E.0775
G1 X152.481 Y154.425 E.11298
G1 X151.845 Y154.571 E.07749
G1 X150.74 Y154.994 E.14047
G1 X150.377 Y155.208 E.05014
G1 X149.602 Y155.76 E.11298
G1 X149.124 Y156.204 E.07749
G1 X148.518 Y156.938 E.11298
G1 X148.172 Y157.491 E.0775
G1 X147.966 Y157.941 E.05887
G1 X125.406 Y133.692 E3.9336
G1 X125.87 Y133.519 E.05888
G1 X126.447 Y133.213 E.07749
G1 X127.222 Y132.662 E.11298
G1 X127.7 Y132.217 E.0775
G1 X128.43 Y131.32 E.13739
G1 X128.652 Y130.931 E.05321
G1 X129.048 Y130.066 E.11298
G1 X129.239 Y129.442 E.0775
G1 X129.397 Y128.504 E.11298
G1 X129.421 Y127.852 E.0775
G1 X129.331 Y126.905 E.11298
G1 X129.185 Y126.269 E.07749
G1 X128.853 Y125.377 E.11298
G1 X128.547 Y124.801 E.0775
G1 X127.996 Y124.026 E.11298
G1 X127.551 Y123.548 E.0775
G1 X126.734 Y122.875 E.12567
G1 X126.265 Y122.595 E.0649
G1 X125.4 Y122.2 E.11298
G1 X124.776 Y122.008 E.0775
G1 X123.838 Y121.85 E.11298
G1 X123.186 Y121.827 E.0775
G1 X122.239 Y121.917 E.11298
G1 X121.603 Y122.063 E.07749
G1 X120.498 Y122.486 E.14047
G1 X120.135 Y122.701 E.05014
G1 X119.36 Y123.252 E.11298
G1 X118.882 Y123.696 E.0775
G1 X118.276 Y124.43 E.11298
G1 X117.929 Y124.983 E.0775
G1 X117.723 Y125.434 E.05887
G1 X95.164 Y101.184 E3.9336
G1 X95.628 Y101.011 E.05887
G1 X96.205 Y100.705 E.0775
G1 X96.98 Y100.154 E.11298
G1 X97.457 Y99.709 E.0775
G1 X98.188 Y98.812 E.13739
G1 X98.41 Y98.423 E.05321
G1 X98.805 Y97.558 E.11298
G1 X98.997 Y96.934 E.07749
G1 X99.155 Y95.996 E.11298
G1 X99.179 Y95.344 E.0775
G1 X99.088 Y94.397 E.11298
G1 X98.942 Y93.761 E.0775
G1 X98.61 Y92.869 E.11298
G1 X98.305 Y92.293 E.07749
G1 X97.753 Y91.518 E.11298
G1 X97.309 Y91.04 E.0775
G1 X96.492 Y90.368 E.12567
G1 X96.022 Y90.087 E.0649
G1 X95.157 Y89.692 E.11298
G1 X94.533 Y89.5 E.07749
G1 X93.595 Y89.342 E.11298
G1 X92.943 Y89.319 E.0775
G1 X91.996 Y89.409 E.11298
G1 X91.36 Y89.555 E.07749
G1 X90.256 Y89.978 E.14047
G1 X89.892 Y90.193 E.05014
G1 X89.117 Y90.744 E.11298
G1 X88.639 Y91.189 E.07749
G1 X88.033 Y91.922 E.11298
G1 X87.687 Y92.475 E.0775
G1 X87.481 Y92.926 E.05887
G1 X64.921 Y68.676 E3.9336
G1 X65.386 Y68.503 E.05887
G1 X65.962 Y68.197 E.0775
G1 X66.737 Y67.646 E.11298
G1 X67.215 Y67.201 E.0775
G1 X67.945 Y66.304 E.13739
G1 X68.167 Y65.915 E.05321
G1 X68.563 Y65.05 E.11298
G1 X68.755 Y64.426 E.07749
G1 X68.913 Y63.488 E.11298
G1 X68.936 Y62.836 E.0775
G1 X68.846 Y61.889 E.11298
G1 X68.7 Y61.253 E.07749
G1 X68.368 Y60.361 E.11298
G1 X68.062 Y59.785 E.07749
G1 X67.511 Y59.01 E.11298
G1 X67.066 Y58.532 E.0775
G1 X66.249 Y57.86 E.12567
G1 X65.78 Y57.58 E.0649
G1 X64.915 Y57.184 E.11298
G1 X64.291 Y56.993 E.0775
G1 X63.353 Y56.834 E.11298
G1 X62.701 Y56.811 E.0775
G1 X61.754 Y56.901 E.11298
G1 X61.118 Y57.047 E.07749
G1 X60.013 Y57.47 E.14047
G1 X59.65 Y57.685 E.05014
G1 X58.875 Y58.236 E.11298
G1 X58.397 Y58.681 E.07749
G1 X57.791 Y59.414 E.11298
G1 X57.445 Y59.967 E.0775
G1 X57.239 Y60.418 E.05887
G1 X23.143 Y23.767 E5.94514
G1 X22.092 Y23.687 F9000
G1 F1200
G1 X30.251 Y16.097 E1.32344
G1 X197.908 Y196.313 E29.23325
G1 X189.749 Y203.903 E1.32344
G1 X154.313 Y165.813 E6.17867
G1 X154.972 Y165.689 E.07959
G1 X155.863 Y165.357 E.11298
G1 X156.275 Y165.139 E.05536
G1 X157.05 Y164.587 E.11298
G1 X157.392 Y164.27 E.05535
G1 X157.998 Y163.537 E.11298
G1 X158.245 Y163.142 E.05536
G1 X158.641 Y162.276 E.11298
G1 X158.777 Y161.831 E.05535
G1 X158.935 Y160.893 E.11298
G1 X158.952 Y160.427 E.05535
G1 X158.862 Y159.48 E.11298
G1 X158.758 Y159.026 E.05536
G1 X158.426 Y158.134 E.11298
G1 X158.207 Y157.723 E.05535
G1 X157.656 Y156.947 E.11298
G1 X157.339 Y156.606 E.05535
G1 X156.605 Y156 E.11299
G1 X156.21 Y155.753 E.05536
G1 X155.345 Y155.357 E.11298
G1 X154.899 Y155.22 E.05535
G1 X153.961 Y155.062 E.11298
G1 X153.496 Y155.045 E.05536
G1 X152.549 Y155.136 E.11298
G1 X152.094 Y155.24 E.05535
G1 X151.203 Y155.572 E.11298
G1 X150.791 Y155.79 E.05536
G1 X150.016 Y156.342 E.11298
G1 X149.675 Y156.659 E.05535
G1 X149.069 Y157.393 E.11298
G1 X148.821 Y157.788 E.05536
G1 X148.426 Y158.653 E.11298
G1 X148.255 Y159.301 E.07959
G1 X124.071 Y133.305 E4.21678
G1 X124.73 Y133.182 E.0796
G1 X125.621 Y132.849 E.11298
G1 X126.033 Y132.631 E.05535
G1 X126.808 Y132.08 E.11298
G1 X127.149 Y131.762 E.05536
G1 X127.755 Y131.029 E.11298
G1 X128.003 Y130.634 E.05535
G1 X128.398 Y129.769 E.11298
G1 X128.535 Y129.323 E.05536
G1 X128.693 Y128.385 E.11298
G1 X128.71 Y127.919 E.05536
G1 X128.62 Y126.972 E.11298
G1 X128.516 Y126.518 E.05535
G1 X128.183 Y125.626 E.11298
G1 X127.965 Y125.215 E.05535
G1 X127.414 Y124.44 E.11298
G1 X127.096 Y124.098 E.05535
G1 X126.363 Y123.492 E.11298
G1 X125.968 Y123.245 E.05535
G1 X125.103 Y122.849 E.11298
G1 X124.657 Y122.713 E.05535
G1 X123.719 Y122.554 E.11298
G1 X123.253 Y122.538 E.05535
G1 X122.306 Y122.628 E.11298
G1 X121.852 Y122.732 E.05535
G1 X120.96 Y123.064 E.11298
G1 X120.549 Y123.282 E.05536
G1 X119.774 Y123.834 E.11298
G1 X119.432 Y124.151 E.05535
G1 X118.826 Y124.885 E.11298
G1 X118.579 Y125.28 E.05535
G1 X118.183 Y126.145 E.11298
G1 X118.012 Y126.793 E.07959
G1 X93.829 Y100.797 E4.21678
G1 X94.487 Y100.674 E.07959
G1 X95.379 Y100.342 E.11298
G1 X95.791 Y100.123 E.05535
G1 X96.566 Y99.572 E.11298
G1 X96.907 Y99.254 E.05536
G1 X97.513 Y98.521 E.11298
G1 X97.76 Y98.126 E.05535
G1 X98.156 Y97.261 E.11298
G1 X98.293 Y96.815 E.05535
G1 X98.451 Y95.877 E.11298
G1 X98.468 Y95.411 E.05535
G1 X98.378 Y94.464 E.11298
G1 X98.273 Y94.01 E.05536
G1 X97.941 Y93.119 E.11298
G1 X97.723 Y92.707 E.05535
