(Exported by FreeCAD)
(Post Processor: grbl_post)
(Output Time:2022-11-13 15:08:26.075443)
(Begin preamble)
G17 G90
G21
(Begin operation: G54)
(Path: G54)
G54
G0 Z5.000
(Finish operation: G54)
(Begin operation: endmill-2_5mm003)
(Path: endmill-2_5mm003)
(endmill-2_5mm003)
(Begin toolchange)
( M6 T3 )
M3 S10000
(Finish operation: endmill-2_5mm003)
(Begin operation: Holes)
(Path: Holes)
(Holes)
(Compensated Tool Path. Diameter: 2.5)
G0 Z10.000
G0 X64.914 Y-25.132
G0 Z8.000
G1 X64.914 Y-25.132 Z-1.000 F100.000
G2 X64.393 Y-25.695 Z-1.000 I-0.555 J-0.009 K0.000 F250.000
G2 X64.183 Y-25.667 Z-1.000 I-0.036 J0.544 K0.000 F250.000
G2 X64.438 Y-24.592 Z-1.000 I0.177 J0.526 K0.000 F250.000
G2 X64.914 Y-25.132 Z-1.000 I-0.079 J-0.549 K0.000 F250.000
G0 Z10.000
G0 X44.315 Y-28.239 Z10.000
G0 X44.315 Y-28.239 Z8.000
G1 X44.315 Y-28.239 Z-1.000 F100.000
G2 X44.031 Y-28.785 Z-1.000 I-0.516 J-0.078 K0.000 F250.000
G2 X43.332 Y-28.549 Z-1.000 I-0.232 J0.468 K0.000 F250.000
G2 X43.567 Y-27.850 Z-1.000 I0.468 J0.232 K0.000 F250.000
G2 X44.315 Y-28.239 Z-1.000 I0.232 J-0.468 K0.000 F250.000
G0 Z10.000
G0 X71.363 Y-58.421 Z10.000
G0 X71.363 Y-58.421 Z8.000
G1 X71.363 Y-58.421 Z-1.000 F100.000
G2 X71.480 Y-58.342 Z-1.000 I0.348 J-0.389 K0.000 F250.000
G2 X72.179 Y-58.578 Z-1.000 I0.232 J-0.468 K0.000 F250.000
G2 X71.944 Y-59.277 Z-1.000 I-0.468 J-0.232 K0.000 F250.000
G2 X71.363 Y-58.421 Z-1.000 I-0.232 J0.468 K0.000 F250.000
G0 Z10.000
G0 X86.007 Y-74.636 Z10.000
G0 X86.007 Y-74.636 Z8.000
G1 X86.007 Y-74.636 Z-1.000 F100.000
G2 X86.227 Y-74.514 Z-1.000 I0.372 J-0.412 K0.000 F250.000
G2 X86.626 Y-75.545 Z-1.000 I0.152 J-0.533 K0.000 F250.000
G1 X86.524 Y-75.584 Z-1.000 F250.000
G2 X86.007 Y-74.636 Z-1.000 I-0.144 J0.536 K0.000 F250.000
G0 Z10.000
G0 X96.331 Y-130.440 Z10.000
G0 X96.331 Y-130.440 Z8.000
G1 X96.331 Y-130.440 Z-1.000 F100.000
G2 X96.691 Y-131.475 Z-1.000 I0.101 J-0.545 K0.000 F250.000
G2 X96.172 Y-130.495 Z-1.000 I-0.259 J0.490 K0.000 F250.000
G2 X96.331 Y-130.440 Z-1.000 I0.259 J-0.490 K0.000 F250.000
G0 Z10.000
G0 X14.626 Y-93.343 Z10.000
G0 X14.626 Y-93.343 Z8.000
G1 X14.626 Y-93.343 Z-1.000 F100.000
G2 X14.155 Y-93.668 Z-1.000 I-0.505 J0.229 K0.000 F250.000
G2 X13.944 Y-93.640 Z-1.000 I-0.036 J0.544 K0.000 F250.000
G2 X14.199 Y-92.565 Z-1.000 I0.177 J0.526 K0.000 F250.000
G2 X14.626 Y-93.343 Z-1.000 I-0.079 J-0.549 K0.000 F250.000
G0 Z10.000
G0 X-1.015 Y-64.010 Z10.000
G0 X-1.015 Y-64.010 Z8.000
G1 X-1.015 Y-64.010 Z-1.000 F100.000
G2 X-1.203 Y-64.063 Z-1.000 I-0.215 J0.404 K0.000 F250.000
G2 X-1.376 Y-64.040 Z-1.000 I-0.029 J0.447 K0.000 F250.000
G2 X-1.165 Y-63.152 Z-1.000 I0.146 J0.434 K0.000 F250.000
G2 X-1.015 Y-64.010 Z-1.000 I-0.065 J-0.453 K0.000 F250.000
G0 Z10.000
G0 X-76.811 Y-49.925 Z10.000
G0 X-76.811 Y-49.925 Z8.000
G1 X-76.811 Y-49.925 Z-1.000 F100.000
G2 X-77.234 Y-50.298 Z-1.000 I-0.450 J0.084 K0.000 F250.000
G2 X-77.407 Y-50.275 Z-1.000 I-0.029 J0.447 K0.000 F250.000
G2 X-77.197 Y-49.388 Z-1.000 I0.146 J0.434 K0.000 F250.000
G2 X-76.811 Y-49.925 Z-1.000 I-0.065 J-0.453 K0.000 F250.000
G0 Z10.000
G0 X-105.075 Y-40.839 Z10.000
G0 X-105.075 Y-40.839 Z8.000
G1 X-105.075 Y-40.839 Z-1.000 F100.000
G2 X-105.344 Y-41.160 Z-1.000 I-0.528 J0.170 K0.000 F250.000
G2 X-105.862 Y-40.179 Z-1.000 I-0.259 J0.490 K0.000 F250.000
G2 X-105.075 Y-40.839 Z-1.000 I0.259 J-0.490 K0.000 F250.000
G0 Z10.000
G0 X-89.134 Y-91.422 Z10.000
G0 X-89.134 Y-91.422 Z8.000
G1 X-89.134 Y-91.422 Z-1.000 F100.000
G2 X-89.119 Y-91.418 Z-1.000 I0.167 J-0.529 K0.000 F250.000
G2 X-88.721 Y-92.448 Z-1.000 I0.152 J-0.533 K0.000 F250.000
G1 X-88.823 Y-92.487 Z-1.000 F250.000
G2 X-89.134 Y-91.422 Z-1.000 I-0.144 J0.536 K0.000 F250.000
G1 X-89.134 Y-91.422 Z-2.000 F100.000
G2 X-89.119 Y-91.418 Z-2.000 I0.167 J-0.529 K0.000 F250.000
G2 X-88.721 Y-92.448 Z-2.000 I0.152 J-0.533 K0.000 F250.000
G1 X-88.823 Y-92.487 Z-2.000 F250.000
G2 X-89.134 Y-91.422 Z-2.000 I-0.144 J0.536 K0.000 F250.000
G0 Z10.000
G0 X-77.387 Y-50.282 Z10.000
G0 X-77.387 Y-50.282 Z8.000
G1 X-77.387 Y-50.282 Z-2.000 F100.000
G2 X-77.407 Y-50.275 Z-2.000 I0.123 J0.431 K0.000 F250.000
G2 X-77.197 Y-49.388 Z-2.000 I0.146 J0.434 K0.000 F250.000
G2 X-77.234 Y-50.298 Z-2.000 I-0.065 J-0.453 K0.000 F250.000
G2 X-77.387 Y-50.282 Z-2.000 I-0.029 J0.447 K0.000 F250.000
G0 Z10.000
G0 X-105.078 Y-40.848 Z10.000
G0 X-105.078 Y-40.848 Z8.000
G1 X-105.078 Y-40.848 Z-2.000 F100.000
G2 X-105.344 Y-41.160 Z-2.000 I-0.525 J0.179 K0.000 F250.000
G2 X-105.862 Y-40.179 Z-2.000 I-0.259 J0.490 K0.000 F250.000
G2 X-105.078 Y-40.848 Z-2.000 I0.259 J-0.490 K0.000 F250.000
G0 Z10.000
G0 X-1.678 Y-63.508 Z10.000
G0 X-1.678 Y-63.508 Z8.000
G1 X-1.678 Y-63.508 Z-2.000 F100.000
G2 X-1.165 Y-63.152 Z-2.000 I0.447 J-0.098 K0.000 F250.000
G2 X-1.203 Y-64.063 Z-2.000 I-0.065 J-0.453 K0.000 F250.000
G2 X-1.376 Y-64.040 Z-2.000 I-0.029 J0.447 K0.000 F250.000
G2 X-1.678 Y-63.508 Z-2.000 I0.146 J0.434 K0.000 F250.000
G0 Z10.000
G0 X13.859 Y-92.625 Z10.000
G0 X13.859 Y-92.625 Z8.000
G1 X13.859 Y-92.625 Z-2.000 F100.000
G2 X14.199 Y-92.565 Z-2.000 I0.261 J-0.489 K0.000 F250.000
G2 X14.155 Y-93.668 Z-2.000 I-0.079 J-0.549 K0.000 F250.000
G2 X13.944 Y-93.640 Z-2.000 I-0.036 J0.544 K0.000 F250.000
G2 X13.859 Y-92.625 Z-2.000 I0.177 J0.526 K0.000 F250.000
G0 Z10.000
G0 X71.261 Y-59.073 Z10.000
G0 X71.261 Y-59.073 Z8.000
G1 X71.261 Y-59.073 Z-2.000 F100.000
G2 X71.480 Y-58.342 Z-2.000 I0.451 J0.263 K0.000 F250.000
G2 X72.179 Y-58.578 Z-2.000 I0.232 J-0.468 K0.000 F250.000
G2 X71.944 Y-59.277 Z-2.000 I-0.468 J-0.232 K0.000 F250.000
G2 X71.261 Y-59.073 Z-2.000 I-0.232 J0.468 K0.000 F250.000
G0 Z10.000
G0 X85.998 Y-74.645 Z10.000
G0 X85.998 Y-74.645 Z8.000
G1 X85.998 Y-74.645 Z-2.000 F100.000
G2 X86.227 Y-74.514 Z-2.000 I0.381 J-0.403 K0.000 F250.000
G2 X86.626 Y-75.545 Z-2.000 I0.152 J-0.533 K0.000 F250.000
G1 X86.524 Y-75.584 Z-2.000 F250.000
G2 X85.998 Y-74.645 Z-2.000 I-0.144 J0.536 K0.000 F250.000
G0 Z10.000
G0 X64.582 Y-25.649 Z10.000
G0 X64.582 Y-25.649 Z8.000
G1 X64.582 Y-25.649 Z-2.000 F100.000
G2 X64.393 Y-25.695 Z-2.000 I-0.222 J0.508 K0.000 F250.000
G2 X64.183 Y-25.667 Z-2.000 I-0.036 J0.544 K0.000 F250.000
G2 X64.438 Y-24.592 Z-2.000 I0.177 J0.526 K0.000 F250.000
G2 X64.582 Y-25.649 Z-2.000 I-0.079 J-0.549 K0.000 F250.000
G0 Z10.000
G0 X44.317 Y-28.251 Z10.000
G0 X44.317 Y-28.251 Z8.000
G1 X44.317 Y-28.251 Z-2.000 F100.000
G2 X44.031 Y-28.785 Z-2.000 I-0.518 J-0.066 K0.000 F250.000
G2 X43.332 Y-28.549 Z-2.000 I-0.232 J0.468 K0.000 F250.000
G2 X43.567 Y-27.850 Z-2.000 I0.468 J0.232 K0.000 F250.000
G2 X44.317 Y-28.251 Z-2.000 I0.232 J-0.468 K0.000 F250.000
G0 Z10.000
G0 X96.172 Y-130.495 Z10.000
G0 X96.172 Y-130.495 Z8.000
G1 X96.172 Y-130.495 Z-2.000 F100.000
G2 X96.691 Y-131.475 Z-2.000 I0.259 J-0.490 K0.000 F250.000
G2 X96.172 Y-130.495 Z-2.000 I-0.259 J0.490 K0.000 F250.000
G1 X96.172 Y-130.495 Z-2.400 F100.000
G2 X96.691 Y-131.475 Z-2.400 I0.259 J-0.490 K0.000 F250.000
G2 X96.172 Y-130.495 Z-2.400 I-0.259 J0.490 K0.000 F250.000
G0 Z10.000
G0 X86.476 Y-75.594 Z10.000
G0 X86.476 Y-75.594 Z8.000
G1 X86.476 Y-75.594 Z-2.400 F100.000
G2 X86.227 Y-74.514 Z-2.400 I-0.096 J0.546 K0.000 F250.000
G2 X86.626 Y-75.545 Z-2.400 I0.152 J-0.533 K0.000 F250.000
G1 X86.524 Y-75.584 Z-2.400 F250.000
G2 X86.476 Y-75.594 Z-2.400 I-0.144 J0.536 K0.000 F250.000
G0 Z10.000
G0 X72.056 Y-59.202 Z10.000
G0 X72.056 Y-59.202 Z8.000
G1 X72.056 Y-59.202 Z-2.400 F100.000
G2 X71.944 Y-59.277 Z-2.400 I-0.345 J0.392 K0.000 F250.000
G2 X71.244 Y-59.042 Z-2.400 I-0.232 J0.468 K0.000 F250.000
G2 X71.480 Y-58.342 Z-2.400 I0.468 J0.232 K0.000 F250.000
G2 X72.056 Y-59.202 Z-2.400 I0.232 J-0.468 K0.000 F250.000
G0 Z10.000
G0 X64.482 Y-25.682 Z10.000
G0 X64.482 Y-25.682 Z8.000
G1 X64.482 Y-25.682 Z-2.400 F100.000
G2 X64.393 Y-25.695 Z-2.400 I-0.122 J0.541 K0.000 F250.000
G2 X64.183 Y-25.667 Z-2.400 I-0.036 J0.544 K0.000 F250.000
G2 X64.438 Y-24.592 Z-2.400 I0.177 J0.526 K0.000 F250.000
G2 X64.482 Y-25.682 Z-2.400 I-0.079 J-0.549 K0.000 F250.000
G0 Z10.000
G0 X44.317 Y-28.251 Z10.000
G0 X44.317 Y-28.251 Z8.000
G1 X44.317 Y-28.251 Z-2.400 F100.000
G2 X44.031 Y-28.785 Z-2.400 I-0.518 J-0.066 K0.000 F250.000
G2 X43.332 Y-28.549 Z-2.400 I-0.232 J0.468 K0.000 F250.000
G2 X43.567 Y-27.850 Z-2.400 I0.468 J0.232 K0.000 F250.000
G2 X44.317 Y-28.251 Z-2.400 I0.232 J-0.468 K0.000 F250.000
G0 Z10.000
G0 X-0.869 Y-63.325 Z10.000
G0 X-0.869 Y-63.325 Z8.000
G1 X-0.869 Y-63.325 Z-2.400 F100.000
G2 X-1.203 Y-64.063 Z-2.400 I-0.362 J-0.281 K0.000 F250.000
G2 X-1.376 Y-64.040 Z-2.400 I-0.029 J0.447 K0.000 F250.000
G2 X-1.165 Y-63.152 Z-2.400 I0.146 J0.434 K0.000 F250.000
G2 X-0.869 Y-63.325 Z-2.400 I-0.065 J-0.453 K0.000 F250.000
G0 Z10.000
G0 X13.871 Y-92.619 Z10.000
G0 X13.871 Y-92.619 Z8.000
G1 X13.871 Y-92.619 Z-2.400 F100.000
G2 X14.199 Y-92.565 Z-2.400 I0.249 J-0.496 K0.000 F250.000
G2 X14.155 Y-93.668 Z-2.400 I-0.079 J-0.549 K0.000 F250.000
G2 X13.944 Y-93.640 Z-2.400 I-0.036 J0.544 K0.000 F250.000
G2 X13.871 Y-92.619 Z-2.400 I0.177 J0.526 K0.000 F250.000
G0 Z10.000
G0 X-76.847 Y-50.036 Z10.000
G0 X-76.847 Y-50.036 Z8.000
G1 X-76.847 Y-50.036 Z-2.400 F100.000
G2 X-77.234 Y-50.298 Z-2.400 I-0.414 J0.195 K0.000 F250.000
G2 X-77.407 Y-50.275 Z-2.400 I-0.029 J0.447 K0.000 F250.000
G2 X-77.197 Y-49.388 Z-2.400 I0.146 J0.434 K0.000 F250.000
G2 X-76.847 Y-50.036 Z-2.400 I-0.065 J-0.453 K0.000 F250.000
G0 Z10.000
G0 X-105.076 Y-40.841 Z10.000
G0 X-105.076 Y-40.841 Z8.000
G1 X-105.076 Y-40.841 Z-2.400 F100.000
G2 X-105.344 Y-41.160 Z-2.400 I-0.527 J0.172 K0.000 F250.000
G2 X-105.862 Y-40.179 Z-2.400 I-0.259 J0.490 K0.000 F250.000
G2 X-105.076 Y-40.841 Z-2.400 I0.259 J-0.490 K0.000 F250.000
G0 Z10.000
G0 X-89.134 Y-91.422 Z10.000
G0 X-89.134 Y-91.422 Z8.000
G1 X-89.134 Y-91.422 Z-2.400 F100.000
G2 X-89.119 Y-91.418 Z-2.400 I0.167 J-0.529 K0.000 F250.000
G2 X-88.721 Y-92.448 Z-2.400 I0.152 J-0.533 K0.000 F250.000
G1 X-88.823 Y-92.487 Z-2.400 F250.000
G2 X-89.134 Y-91.422 Z-2.400 I-0.144 J0.536 K0.000 F250.000
G0 Z10.000
G0 Z10.000
(Finish operation: Holes)
(Begin postamble)
M5
G17 G90
M2
