(Exported by FreeCAD)
(Post Processor: grbl_post)
(Output Time:2022-11-13 15:08:33.450942)
(Begin preamble)
G17 G90
G21
(Begin operation: G54)
(Path: G54)
G54
G0 Z5.000
(Finish operation: G54)
(Begin operation: endmill-2_5mm005)
(Path: endmill-2_5mm005)
(endmill-2_5mm005)
(Begin toolchange)
( M6 T3 )
M3 S10000
(Finish operation: endmill-2_5mm005)
(Begin operation: Mics-Controls)
(Path: Mics-Controls)
(Mics-Controls)
(Compensated Tool Path. Diameter: 2.5)
G0 Z10.000
G0 X56.268 Y-84.767
G0 Z8.000
G1 X56.268 Y-84.767 Z-1.000 F100.000
G2 X54.670 Y-90.915 Z-1.000 I-2.247 J-2.698 K0.000 F250.000
G2 X50.570 Y-88.114 Z-1.000 I-0.650 J3.450 K0.000 F250.000
G2 X53.370 Y-84.014 Z-1.000 I3.450 J0.650 K0.000 F250.000
G2 X56.268 Y-84.767 Z-1.000 I0.650 J-3.450 K0.000 F250.000
G0 Z10.000
G0 X84.564 Y-114.012 Z10.000
G0 X84.564 Y-114.012 Z8.000
G1 X84.564 Y-114.012 Z-1.000 F100.000
G2 X86.355 Y-113.085 Z-1.000 I2.441 J-2.523 K0.000 F250.000
G2 X90.456 Y-115.885 Z-1.000 I0.650 J-3.450 K0.000 F250.000
G2 X87.655 Y-119.986 Z-1.000 I-3.450 J-0.650 K0.000 F250.000
G2 X84.564 Y-114.012 Z-1.000 I-0.650 J3.450 K0.000 F250.000
G0 Z10.000
G0 X18.206 Y-68.511 Z10.000
G0 X18.206 Y-68.511 Z8.000
G1 X18.206 Y-68.511 Z-1.000 F100.000
G2 X15.960 Y-69.976 Z-1.000 I-2.896 J1.986 K0.000 F250.000
G2 X11.860 Y-67.175 Z-1.000 I-0.650 J3.450 K0.000 F250.000
G2 X14.660 Y-63.075 Z-1.000 I3.450 J0.650 K0.000 F250.000
G2 X18.206 Y-68.511 Z-1.000 I0.650 J-3.450 K0.000 F250.000
G0 Z10.000
G0 X-5.540 Y-63.310 Z10.000
G0 X-5.540 Y-63.310 Z8.000
G1 X-5.540 Y-63.310 Z-1.000 F100.000
G2 X-6.358 Y-65.535 Z-1.000 I-8.495 J1.861 K0.000 F250.000
G2 X-12.138 Y-69.892 Z-1.000 I-7.419 J3.829 K0.000 F250.000
G2 X-14.728 Y-69.881 Z-1.000 I-1.263 J7.158 K0.000 F250.000
G1 X-66.840 Y-60.307 Z-1.000 F250.000
G2 X-71.026 Y-57.981 Z-1.000 I1.474 J7.583 K0.000 F250.000
G2 X-69.683 Y-45.199 Z-1.000 I6.530 J5.775 K0.000 F250.000
G2 X-63.811 Y-43.782 Z-1.000 I4.526 J-5.881 K0.000 F250.000
G1 X-11.715 Y-53.353 Z-1.000 F250.000
G2 X-7.528 Y-55.680 Z-1.000 I-1.474 J-7.583 K0.000 F250.000
G2 X-5.540 Y-63.310 Z-1.000 I-6.507 J-5.770 K0.000 F250.000
G1 X-5.540 Y-63.310 Z-2.000 F100.000
G2 X-6.358 Y-65.535 Z-2.000 I-8.495 J1.861 K0.000 F250.000
G2 X-12.138 Y-69.892 Z-2.000 I-7.419 J3.829 K0.000 F250.000
G2 X-14.728 Y-69.881 Z-2.000 I-1.263 J7.158 K0.000 F250.000
G1 X-66.840 Y-60.307 Z-2.000 F250.000
G2 X-71.026 Y-57.981 Z-2.000 I1.474 J7.583 K0.000 F250.000
G2 X-69.683 Y-45.199 Z-2.000 I6.530 J5.775 K0.000 F250.000
G2 X-63.811 Y-43.782 Z-2.000 I4.526 J-5.881 K0.000 F250.000
G1 X-11.715 Y-53.353 Z-2.000 F250.000
G2 X-7.528 Y-55.680 Z-2.000 I-1.474 J-7.583 K0.000 F250.000
G2 X-5.540 Y-63.310 Z-2.000 I-6.507 J-5.770 K0.000 F250.000
G0 Z10.000
G0 X11.840 Y-65.990 Z10.000
G0 X11.840 Y-65.990 Z8.000
G1 X11.840 Y-65.990 Z-2.000 F100.000
G2 X14.660 Y-63.075 Z-2.000 I3.470 J-0.535 K0.000 F250.000
G2 X18.761 Y-65.875 Z-2.000 I0.650 J-3.450 K0.000 F250.000
G2 X15.960 Y-69.976 Z-2.000 I-3.450 J-0.650 K0.000 F250.000
G2 X11.840 Y-65.990 Z-2.000 I-0.650 J3.450 K0.000 F250.000
G0 Z10.000
G0 X50.891 Y-85.872 Z10.000
G0 X50.891 Y-85.872 Z8.000
G1 X50.891 Y-85.872 Z-2.000 F100.000
G2 X53.370 Y-84.014 Z-2.000 I3.129 J-1.593 K0.000 F250.000
G2 X57.471 Y-86.815 Z-2.000 I0.650 J-3.450 K0.000 F250.000
G2 X54.670 Y-90.915 Z-2.000 I-3.450 J-0.650 K0.000 F250.000
G2 X50.891 Y-85.872 Z-2.000 I-0.650 J3.450 K0.000 F250.000
G0 Z10.000
G0 X84.329 Y-114.263 Z10.000
G0 X84.329 Y-114.263 Z8.000
G1 X84.329 Y-114.263 Z-2.000 F100.000
G2 X86.355 Y-113.085 Z-2.000 I2.677 J-2.273 K0.000 F250.000
G2 X90.456 Y-115.885 Z-2.000 I0.650 J-3.450 K0.000 F250.000
G2 X87.655 Y-119.986 Z-2.000 I-3.450 J-0.650 K0.000 F250.000
G2 X84.329 Y-114.263 Z-2.000 I-0.650 J3.450 K0.000 F250.000
G1 X84.329 Y-114.263 Z-2.400 F100.000
G2 X86.355 Y-113.085 Z-2.400 I2.677 J-2.273 K0.000 F250.000
G2 X90.456 Y-115.885 Z-2.400 I0.650 J-3.450 K0.000 F250.000
G2 X87.655 Y-119.986 Z-2.400 I-3.450 J-0.650 K0.000 F250.000
G2 X84.329 Y-114.263 Z-2.400 I-0.650 J3.450 K0.000 F250.000
G0 Z10.000
G0 X56.651 Y-89.790 Z10.000
G0 X56.651 Y-89.790 Z8.000
G1 X56.651 Y-89.790 Z-2.400 F100.000
G2 X54.670 Y-90.915 Z-2.400 I-2.630 J2.326 K0.000 F250.000
G2 X50.570 Y-88.114 Z-2.400 I-0.650 J3.450 K0.000 F250.000
G2 X53.370 Y-84.014 Z-2.400 I3.450 J0.650 K0.000 F250.000
G2 X56.651 Y-89.790 Z-2.400 I0.650 J-3.450 K0.000 F250.000
G0 Z10.000
G0 X18.370 Y-68.247 Z10.000
G0 X18.370 Y-68.247 Z8.000
G1 X18.370 Y-68.247 Z-2.400 F100.000
G2 X15.960 Y-69.976 Z-2.400 I-3.060 J1.722 K0.000 F250.000
G2 X11.860 Y-67.175 Z-2.400 I-0.650 J3.450 K0.000 F250.000
G2 X14.660 Y-63.075 Z-2.400 I3.450 J0.650 K0.000 F250.000
G2 X18.370 Y-68.247 Z-2.400 I0.650 J-3.450 K0.000 F250.000
G0 Z10.000
G0 X-5.524 Y-63.235 Z10.000
G0 X-5.524 Y-63.235 Z8.000
G1 X-5.524 Y-63.235 Z-2.400 F100.000
G2 X-6.358 Y-65.535 Z-2.400 I-8.511 J1.785 K0.000 F250.000
G2 X-12.138 Y-69.892 Z-2.400 I-7.419 J3.829 K0.000 F250.000
G2 X-14.728 Y-69.881 Z-2.400 I-1.263 J7.158 K0.000 F250.000
G1 X-66.840 Y-60.307 Z-2.400 F250.000
G2 X-71.026 Y-57.981 Z-2.400 I1.474 J7.583 K0.000 F250.000
G2 X-69.683 Y-45.199 Z-2.400 I6.530 J5.775 K0.000 F250.000
G2 X-63.811 Y-43.782 Z-2.400 I4.526 J-5.881 K0.000 F250.000
G1 X-11.715 Y-53.353 Z-2.400 F250.000
G2 X-7.528 Y-55.680 Z-2.400 I-1.474 J-7.583 K0.000 F250.000
G2 X-5.524 Y-63.235 Z-2.400 I-6.507 J-5.770 K0.000 F250.000
G0 Z10.000
G0 Z10.000
(Finish operation: Mics-Controls)
(Begin postamble)
M5
G17 G90
M2
