(Exported by FreeCAD)
(Post Processor: grbl_post)
(Output Time:2022-11-13 14:40:10.382990)
(Begin preamble)
G17 G90
G21
(Begin operation: G54)
(Path: G54)
G54
G0 Z5.000
(Finish operation: G54)
(Begin operation: endmill-2_2mm003)
(Path: endmill-2_2mm003)
(endmill-2_2mm003)
(Begin toolchange)
( M6 T4 )
(Post processing added : Ramp up the spindle speed)
M3 S100
G4 P.25
M3 S200
G4 P.25
M3 S400
G4 P.25
M3 S600
G4 P.25
M3 S800
G4 P.25
M3 S1000
G4 P.25
M3 S2000
G4 P.25
M3 S4000
G4 P.25
M3 S6000
G4 P.25
M3 S10000
(End post processing)
(Finish operation: endmill-2_2mm003)
(Begin operation: Countour001)
(Path: Countour001)
(Countour)
(Compensated Tool Path. Diameter: 2.2)
G0 Z8.000
G0 Z10.000
G0 X83.383 Y138.894
G0 Z8.000
G1 Z1.000 F100.000
G1 X83.383 Y138.894 Z-1.000 F100.000
G2 X84.662 Y136.307 Z-1.000 I-15.738 J-9.395 K0.000 F250.000
G1 X84.662 Y136.307 Z-1.000 F250.000
G1 X84.990 Y135.568 Z-1.000 F250.000
G2 X87.686 Y128.422 Z-1.000 I-36.278 J-17.765 K0.000 F250.000
G2 X89.466 Y120.469 Z-1.000 I-34.664 J-11.938 K0.000 F250.000
G2 X90.339 Y108.821 Z-1.000 I-77.870 J-11.692 K0.000 F250.000
G2 X90.130 Y104.513 Z-1.000 I-421.571 J18.273 K0.000 F250.000
G2 X88.244 Y92.020 Z-1.000 I-134.804 J13.970 K0.000 F250.000
G3 X87.376 Y88.335 Z-1.000 I107.071 J-27.145 K0.000 F250.000
G2 X81.238 Y69.318 Z-1.000 I-168.318 J43.833 K0.000 F250.000
G3 X79.709 Y65.509 Z-1.000 I70.755 J-30.611 K0.000 F250.000
G2 X76.499 Y57.903 Z-1.000 I-242.189 J97.742 K0.000 F250.000
G2 X73.610 Y51.321 Z-1.000 I-807.703 J350.463 K0.000 F250.000
G3 X70.225 Y42.567 Z-1.000 I341.586 J-137.123 K0.000 F250.000
G3 X69.386 Y40.258 Z-1.000 I19.371 J-8.346 K0.000 F250.000
G2 X68.434 Y37.086 Z-1.000 I-52.741 J14.099 K0.000 F250.000
G3 X66.334 Y28.698 Z-1.000 I85.672 J-25.905 K0.000 F250.000
G2 X65.481 Y23.820 Z-1.000 I-63511.413 J11113.845 K0.000 F250.000
G3 X64.562 Y11.240 Z-1.000 I84.902 J-12.523 K0.000 F250.000
G1 X64.588 Y10.536 Z-1.000 F250.000
G3 X65.391 Y1.834 Z-1.000 I48.218 J0.066 K0.000 F250.000
G3 X66.433 Y-3.587 Z-1.000 I55.684 J7.892 K0.000 F250.000
G3 X66.974 Y-6.343 Z-1.000 I45.688 J7.526 K0.000 F250.000
G0 Z8.000
G0 Z10.000
G0 X-103.559 Y-6.343
G0 Z8.000
G1 Z-1.000 F100.000
G3 X-102.877 Y-4.579 Z-1.000 I-282.377 J110.147 K0.000 F250.000
G3 X-100.472 Y1.337 Z-1.000 I-176.956 J75.399 K0.000 F250.000
G3 X-96.710 Y10.348 Z-1.000 I-102.999 J48.285 K0.000 F250.000
G2 X-94.196 Y17.679 Z-1.000 I119.540 J-36.901 K0.000 F250.000
G3 X-91.929 Y25.698 Z-1.000 I-116.293 J37.205 K0.000 F250.000
G3 X-91.194 Y28.301 Z-1.000 I-56.586 J17.387 K0.000 F250.000
G3 X-89.152 Y37.897 Z-1.000 I-286.941 J66.066 K0.000 F250.000
G3 X-86.963 Y63.729 Z-1.000 I-164.518 J26.950 K0.000 F250.000
G3 X-87.511 Y74.184 Z-1.000 I-148.868 J-2.557 K0.000 F250.000
G3 X-88.170 Y81.264 Z-1.000 I-109.728 J-6.645 K0.000 F250.000
G3 X-89.343 Y89.045 Z-1.000 I-564.309 J-81.068 K0.000 F250.000
G3 X-90.729 Y95.634 Z-1.000 I-147.303 J-27.553 K0.000 F250.000
G3 X-92.107 Y102.096 Z-1.000 I-144.809 J-27.506 K0.000 F250.000
G2 X-93.423 Y108.474 Z-1.000 I48.736 J13.380 K0.000 F250.000
G2 X-93.113 Y114.189 Z-1.000 I24.396 J1.540 K0.000 F250.000
G2 X-90.927 Y118.240 Z-1.000 I8.407 J-1.921 K0.000 F250.000
G2 X-86.040 Y121.120 Z-1.000 I6.737 J-5.844 K0.000 F250.000
G2 X-79.851 Y120.957 Z-1.000 I2.728 J-13.960 K0.000 F250.000
G2 X-74.595 Y118.987 Z-1.000 I-13.942 J-45.193 K0.000 F250.000
G2 X-69.326 Y116.724 Z-1.000 I-18.528 J-50.408 K0.000 F250.000
G3 X-65.125 Y114.583 Z-1.000 I114.878 J220.264 K0.000 F250.000
G2 X-64.520 Y113.582 Z-1.000 I-0.496 J-0.982 K0.000 F250.000
G1 X-64.910 Y90.821 Z-1.000 F250.000
G3 X-64.704 Y89.716 Z-1.000 I7.794 J0.880 K0.000 F250.000
G3 X-60.878 Y86.116 Z-1.000 I4.583 J1.039 K0.000 F250.000
G3 X-54.324 Y84.961 Z-1.000 I16.511 J74.520 K0.000 F250.000
G3 X-42.424 Y84.104 Z-1.000 I16.242 J142.400 K0.000 F250.000
G3 X-37.125 Y84.075 Z-1.000 I2.995 J63.797 K0.000 F250.000
G3 X-29.224 Y84.491 Z-1.000 I-2.063 J114.445 K0.000 F250.000
G3 X-20.067 Y85.480 Z-1.000 I-7.408 J111.483 K0.000 F250.000
G3 X-14.974 Y86.564 Z-1.000 I-2.530 J24.399 K0.000 F250.000
G3 X-13.951 Y87.440 Z-1.000 I-2.004 J3.377 K0.000 F250.000
G3 X-13.313 Y88.168 Z-1.000 I-1.639 J2.077 K0.000 F250.000
G2 X-11.688 Y91.355 Z-1.000 I49.700 J-23.331 K0.000 F250.000
G2 X-10.648 Y91.927 Z-1.000 I0.967 J-0.525 K0.000 F250.000
G2 X-9.506 Y91.577 Z-1.000 I-0.760 J-4.510 K0.000 F250.000
G2 X-0.401 Y87.789 Z-1.000 I-89.939 J-229.054 K0.000 F250.000
G3 X7.559 Y84.542 Z-1.000 I58.779 J132.701 K0.000 F250.000
G3 X14.916 Y82.684 Z-1.000 I13.709 J38.796 K0.000 F250.000
G3 X23.886 Y81.991 Z-1.000 I7.584 J39.750 K0.000 F250.000
G3 X32.646 Y82.930 Z-1.000 I-4.029 J78.938 K0.000 F250.000
G3 X44.018 Y87.354 Z-1.000 I-8.248 J38.026 K0.000 F250.000
G3 X56.285 Y96.791 Z-1.000 I-24.697 J44.794 K0.000 F250.000
G2 X58.787 Y99.528 Z-1.000 I89.172 J-79.011 K0.000 F250.000
G3 X62.600 Y104.710 Z-1.000 I-48.814 J39.905 K0.000 F250.000
G3 X66.976 Y112.845 Z-1.000 I-37.354 J25.343 K0.000 F250.000
G3 X68.970 Y118.034 Z-1.000 I-29.746 J14.409 K0.000 F250.000
G3 X70.941 Y125.855 Z-1.000 I-42.468 J14.861 K0.000 F250.000
G3 X72.105 Y131.621 Z-1.000 I-151.142 J33.501 K0.000 F250.000
G2 X73.828 Y139.123 Z-1.000 I61.604 J-10.203 K0.000 F250.000
G2 X74.979 Y141.456 Z-1.000 I6.320 J-1.667 K0.000 F250.000
G2 X77.438 Y143.010 Z-1.000 I3.116 J-2.207 K0.000 F250.000
G2 X81.377 Y141.638 Z-1.000 I0.587 J-4.656 K0.000 F250.000
G2 X83.383 Y138.894 Z-1.000 I-13.732 J-12.140 K0.000 F250.000
G1 X83.383 Y138.894 Z-2.000 F100.000
G2 X84.662 Y136.307 Z-2.000 I-15.738 J-9.395 K0.000 F250.000
G1 X84.662 Y136.307 Z-2.000 F250.000
G1 X84.990 Y135.568 Z-2.000 F250.000
G2 X87.686 Y128.422 Z-2.000 I-36.278 J-17.765 K0.000 F250.000
G2 X89.466 Y120.469 Z-2.000 I-34.664 J-11.938 K0.000 F250.000
G2 X90.339 Y108.821 Z-2.000 I-77.870 J-11.692 K0.000 F250.000
G2 X90.130 Y104.513 Z-2.000 I-421.571 J18.273 K0.000 F250.000
G2 X88.244 Y92.020 Z-2.000 I-134.804 J13.970 K0.000 F250.000
G3 X87.376 Y88.335 Z-2.000 I107.071 J-27.145 K0.000 F250.000
G2 X81.238 Y69.318 Z-2.000 I-168.318 J43.833 K0.000 F250.000
G3 X79.709 Y65.509 Z-2.000 I70.755 J-30.611 K0.000 F250.000
G2 X76.499 Y57.903 Z-2.000 I-242.189 J97.742 K0.000 F250.000
G2 X73.610 Y51.321 Z-2.000 I-807.703 J350.463 K0.000 F250.000
G3 X70.225 Y42.567 Z-2.000 I341.586 J-137.123 K0.000 F250.000
G3 X69.386 Y40.258 Z-2.000 I19.371 J-8.346 K0.000 F250.000
G2 X68.434 Y37.086 Z-2.000 I-52.741 J14.099 K0.000 F250.000
G3 X66.334 Y28.698 Z-2.000 I85.672 J-25.905 K0.000 F250.000
G2 X65.481 Y23.820 Z-2.000 I-63511.413 J11113.845 K0.000 F250.000
G3 X64.562 Y11.240 Z-2.000 I84.902 J-12.523 K0.000 F250.000
G1 X64.588 Y10.536 Z-2.000 F250.000
G3 X65.391 Y1.834 Z-2.000 I48.218 J0.066 K0.000 F250.000
G3 X66.433 Y-3.587 Z-2.000 I55.684 J7.892 K0.000 F250.000
G3 X66.974 Y-6.343 Z-2.000 I45.688 J7.526 K0.000 F250.000
G0 Z8.000
G0 Z10.000
G0 X-103.559 Y-6.343
G0 Z8.000
G1 Z-2.000 F100.000
G3 X-102.877 Y-4.579 Z-2.000 I-282.377 J110.147 K0.000 F250.000
G3 X-100.472 Y1.337 Z-2.000 I-176.956 J75.399 K0.000 F250.000
G3 X-96.710 Y10.348 Z-2.000 I-102.999 J48.285 K0.000 F250.000
G2 X-94.196 Y17.679 Z-2.000 I119.540 J-36.901 K0.000 F250.000
G3 X-91.929 Y25.698 Z-2.000 I-116.293 J37.205 K0.000 F250.000
G3 X-91.194 Y28.301 Z-2.000 I-56.586 J17.387 K0.000 F250.000
G3 X-89.152 Y37.897 Z-2.000 I-286.941 J66.066 K0.000 F250.000
G3 X-86.963 Y63.729 Z-2.000 I-164.518 J26.950 K0.000 F250.000
G3 X-87.511 Y74.184 Z-2.000 I-148.868 J-2.557 K0.000 F250.000
G3 X-88.170 Y81.264 Z-2.000 I-109.728 J-6.645 K0.000 F250.000
G3 X-89.343 Y89.045 Z-2.000 I-564.309 J-81.068 K0.000 F250.000
G3 X-90.729 Y95.634 Z-2.000 I-147.303 J-27.553 K0.000 F250.000
G3 X-92.107 Y102.096 Z-2.000 I-144.809 J-27.506 K0.000 F250.000
G2 X-93.423 Y108.474 Z-2.000 I48.736 J13.380 K0.000 F250.000
G2 X-93.113 Y114.189 Z-2.000 I24.396 J1.540 K0.000 F250.000
G2 X-90.927 Y118.240 Z-2.000 I8.407 J-1.921 K0.000 F250.000
G2 X-86.040 Y121.120 Z-2.000 I6.737 J-5.844 K0.000 F250.000
G2 X-79.851 Y120.957 Z-2.000 I2.728 J-13.960 K0.000 F250.000
G2 X-74.595 Y118.987 Z-2.000 I-13.942 J-45.193 K0.000 F250.000
G2 X-69.326 Y116.724 Z-2.000 I-18.528 J-50.408 K0.000 F250.000
G3 X-65.125 Y114.583 Z-2.000 I114.878 J220.264 K0.000 F250.000
G2 X-64.520 Y113.582 Z-2.000 I-0.496 J-0.982 K0.000 F250.000
G1 X-64.910 Y90.821 Z-2.000 F250.000
G3 X-64.704 Y89.716 Z-2.000 I7.794 J0.880 K0.000 F250.000
G3 X-60.878 Y86.116 Z-2.000 I4.583 J1.039 K0.000 F250.000
G3 X-54.324 Y84.961 Z-2.000 I16.511 J74.520 K0.000 F250.000
G3 X-42.424 Y84.104 Z-2.000 I16.242 J142.400 K0.000 F250.000
G3 X-37.125 Y84.075 Z-2.000 I2.995 J63.797 K0.000 F250.000
G3 X-29.224 Y84.491 Z-2.000 I-2.063 J114.445 K0.000 F250.000
G3 X-20.067 Y85.480 Z-2.000 I-7.408 J111.483 K0.000 F250.000
G3 X-14.974 Y86.564 Z-2.000 I-2.530 J24.399 K0.000 F250.000
G3 X-13.951 Y87.440 Z-2.000 I-2.004 J3.377 K0.000 F250.000
G3 X-13.313 Y88.168 Z-2.000 I-1.639 J2.077 K0.000 F250.000
G2 X-11.688 Y91.355 Z-2.000 I49.700 J-23.331 K0.000 F250.000
G2 X-10.648 Y91.927 Z-2.000 I0.967 J-0.525 K0.000 F250.000
G2 X-9.506 Y91.577 Z-2.000 I-0.760 J-4.510 K0.000 F250.000
G2 X-0.401 Y87.789 Z-2.000 I-89.939 J-229.054 K0.000 F250.000
G3 X7.559 Y84.542 Z-2.000 I58.779 J132.701 K0.000 F250.000
G3 X14.916 Y82.684 Z-2.000 I13.709 J38.796 K0.000 F250.000
G3 X23.886 Y81.991 Z-2.000 I7.584 J39.750 K0.000 F250.000
G3 X32.646 Y82.930 Z-2.000 I-4.029 J78.938 K0.000 F250.000
G3 X44.018 Y87.354 Z-2.000 I-8.248 J38.026 K0.000 F250.000
G3 X56.285 Y96.791 Z-2.000 I-24.697 J44.794 K0.000 F250.000
G2 X58.787 Y99.528 Z-2.000 I89.172 J-79.011 K0.000 F250.000
G3 X62.600 Y104.710 Z-2.000 I-48.814 J39.905 K0.000 F250.000
G3 X66.976 Y112.845 Z-2.000 I-37.354 J25.343 K0.000 F250.000
G3 X68.970 Y118.034 Z-2.000 I-29.746 J14.409 K0.000 F250.000
G3 X70.941 Y125.855 Z-2.000 I-42.468 J14.861 K0.000 F250.000
G3 X72.105 Y131.621 Z-2.000 I-151.142 J33.501 K0.000 F250.000
G2 X73.828 Y139.123 Z-2.000 I61.604 J-10.203 K0.000 F250.000
G2 X74.979 Y141.456 Z-2.000 I6.320 J-1.667 K0.000 F250.000
G2 X77.438 Y143.010 Z-2.000 I3.116 J-2.207 K0.000 F250.000
G2 X81.377 Y141.638 Z-2.000 I0.587 J-4.656 K0.000 F250.000
G2 X83.383 Y138.894 Z-2.000 I-13.732 J-12.140 K0.000 F250.000
G1 X83.383 Y138.894 Z-2.400 F100.000
G2 X84.662 Y136.307 Z-2.400 I-15.738 J-9.395 K0.000 F250.000
G1 X84.662 Y136.307 Z-2.400 F250.000
G1 X84.990 Y135.568 Z-2.400 F250.000
G2 X87.686 Y128.422 Z-2.400 I-36.278 J-17.765 K0.000 F250.000
G2 X89.466 Y120.469 Z-2.400 I-34.664 J-11.938 K0.000 F250.000
G2 X90.339 Y108.821 Z-2.400 I-77.870 J-11.692 K0.000 F250.000
G2 X90.130 Y104.513 Z-2.400 I-421.571 J18.273 K0.000 F250.000
G2 X88.244 Y92.020 Z-2.400 I-134.804 J13.970 K0.000 F250.000
G3 X87.376 Y88.335 Z-2.400 I107.071 J-27.145 K0.000 F250.000
G2 X81.238 Y69.318 Z-2.400 I-168.318 J43.833 K0.000 F250.000
G3 X79.709 Y65.509 Z-2.400 I70.755 J-30.611 K0.000 F250.000
G2 X76.499 Y57.903 Z-2.400 I-242.189 J97.742 K0.000 F250.000
G2 X73.610 Y51.321 Z-2.400 I-807.703 J350.463 K0.000 F250.000
G3 X70.225 Y42.567 Z-2.400 I341.586 J-137.123 K0.000 F250.000
G3 X69.386 Y40.258 Z-2.400 I19.371 J-8.346 K0.000 F250.000
G2 X68.434 Y37.086 Z-2.400 I-52.741 J14.099 K0.000 F250.000
G3 X66.334 Y28.698 Z-2.400 I85.672 J-25.905 K0.000 F250.000
G2 X65.481 Y23.820 Z-2.400 I-63511.413 J11113.845 K0.000 F250.000
G3 X64.562 Y11.240 Z-2.400 I84.902 J-12.523 K0.000 F250.000
G1 X64.588 Y10.536 Z-2.400 F250.000
G3 X65.391 Y1.834 Z-2.400 I48.218 J0.066 K0.000 F250.000
G3 X66.433 Y-3.587 Z-2.400 I55.684 J7.892 K0.000 F250.000
G3 X66.974 Y-6.343 Z-2.400 I45.688 J7.526 K0.000 F250.000
G0 Z8.000
G0 Z10.000
G0 X-103.559 Y-6.343
G0 Z8.000
G1 Z-2.400 F100.000
G3 X-102.877 Y-4.579 Z-2.400 I-282.377 J110.147 K0.000 F250.000
G3 X-100.472 Y1.337 Z-2.400 I-176.956 J75.399 K0.000 F250.000
G3 X-96.710 Y10.348 Z-2.400 I-102.999 J48.285 K0.000 F250.000
G2 X-94.196 Y17.679 Z-2.400 I119.540 J-36.901 K0.000 F250.000
G3 X-91.929 Y25.698 Z-2.400 I-116.293 J37.205 K0.000 F250.000
G3 X-91.194 Y28.301 Z-2.400 I-56.586 J17.387 K0.000 F250.000
G3 X-89.152 Y37.897 Z-2.400 I-286.941 J66.066 K0.000 F250.000
G3 X-86.963 Y63.729 Z-2.400 I-164.518 J26.950 K0.000 F250.000
G3 X-87.511 Y74.184 Z-2.400 I-148.868 J-2.557 K0.000 F250.000
G3 X-88.170 Y81.264 Z-2.400 I-109.728 J-6.645 K0.000 F250.000
G3 X-89.343 Y89.045 Z-2.400 I-564.309 J-81.068 K0.000 F250.000
G3 X-90.729 Y95.634 Z-2.400 I-147.303 J-27.553 K0.000 F250.000
G3 X-92.107 Y102.096 Z-2.400 I-144.809 J-27.506 K0.000 F250.000
G2 X-93.423 Y108.474 Z-2.400 I48.736 J13.380 K0.000 F250.000
G2 X-93.113 Y114.189 Z-2.400 I24.396 J1.540 K0.000 F250.000
G2 X-90.927 Y118.240 Z-2.400 I8.407 J-1.921 K0.000 F250.000
G2 X-86.040 Y121.120 Z-2.400 I6.737 J-5.844 K0.000 F250.000
G2 X-79.851 Y120.957 Z-2.400 I2.728 J-13.960 K0.000 F250.000
G2 X-74.595 Y118.987 Z-2.400 I-13.942 J-45.193 K0.000 F250.000
G2 X-69.326 Y116.724 Z-2.400 I-18.528 J-50.408 K0.000 F250.000
G3 X-65.125 Y114.583 Z-2.400 I114.878 J220.264 K0.000 F250.000
G2 X-64.520 Y113.582 Z-2.400 I-0.496 J-0.982 K0.000 F250.000
G1 X-64.910 Y90.821 Z-2.400 F250.000
G3 X-64.704 Y89.716 Z-2.400 I7.794 J0.880 K0.000 F250.000
G3 X-60.878 Y86.116 Z-2.400 I4.583 J1.039 K0.000 F250.000
G3 X-54.324 Y84.961 Z-2.400 I16.511 J74.520 K0.000 F250.000
G3 X-42.424 Y84.104 Z-2.400 I16.242 J142.400 K0.000 F250.000
G3 X-37.125 Y84.075 Z-2.400 I2.995 J63.797 K0.000 F250.000
G3 X-29.224 Y84.491 Z-2.400 I-2.063 J114.445 K0.000 F250.000
G3 X-20.067 Y85.480 Z-2.400 I-7.408 J111.483 K0.000 F250.000
G3 X-14.974 Y86.564 Z-2.400 I-2.530 J24.399 K0.000 F250.000
G3 X-13.951 Y87.440 Z-2.400 I-2.004 J3.377 K0.000 F250.000
G3 X-13.313 Y88.168 Z-2.400 I-1.639 J2.077 K0.000 F250.000
G2 X-11.688 Y91.355 Z-2.400 I49.700 J-23.331 K0.000 F250.000
G2 X-10.648 Y91.927 Z-2.400 I0.967 J-0.525 K0.000 F250.000
G2 X-9.506 Y91.577 Z-2.400 I-0.760 J-4.510 K0.000 F250.000
G2 X-0.401 Y87.789 Z-2.400 I-89.939 J-229.054 K0.000 F250.000
G3 X7.559 Y84.542 Z-2.400 I58.779 J132.701 K0.000 F250.000
G3 X14.916 Y82.684 Z-2.400 I13.709 J38.796 K0.000 F250.000
G3 X23.886 Y81.991 Z-2.400 I7.584 J39.750 K0.000 F250.000
G3 X32.646 Y82.930 Z-2.400 I-4.029 J78.938 K0.000 F250.000
G3 X44.018 Y87.354 Z-2.400 I-8.248 J38.026 K0.000 F250.000
G3 X56.285 Y96.791 Z-2.400 I-24.697 J44.794 K0.000 F250.000
G2 X58.787 Y99.528 Z-2.400 I89.172 J-79.011 K0.000 F250.000
G3 X62.600 Y104.710 Z-2.400 I-48.814 J39.905 K0.000 F250.000
G3 X66.976 Y112.845 Z-2.400 I-37.354 J25.343 K0.000 F250.000
G3 X68.970 Y118.034 Z-2.400 I-29.746 J14.409 K0.000 F250.000
G3 X70.941 Y125.855 Z-2.400 I-42.468 J14.861 K0.000 F250.000
G3 X72.105 Y131.621 Z-2.400 I-151.142 J33.501 K0.000 F250.000
G2 X73.828 Y139.123 Z-2.400 I61.604 J-10.203 K0.000 F250.000
G2 X74.979 Y141.456 Z-2.400 I6.320 J-1.667 K0.000 F250.000
G2 X77.438 Y143.010 Z-2.400 I3.116 J-2.207 K0.000 F250.000
G2 X81.377 Y141.638 Z-2.400 I0.587 J-4.656 K0.000 F250.000
G2 X83.383 Y138.894 Z-2.400 I-13.732 J-12.140 K0.000 F250.000
G1 X83.383 Y138.894 Z1.000 F100.000
G0 Z8.000
G0 Z10.000
(Finish operation: Countour001)
(Begin postamble)
M5
G17 G90
M2
