(Exported by FreeCAD)
(Post Processor: grbl_post)
(Output Time:2022-11-13 16:06:45.366034)
(Begin preamble)
G17 G90
G21
(Begin operation: G54)
(Path: G54)
G54
G0 Z5.000
(Finish operation: G54)
(Begin operation: endmill_2mm003)
(Path: endmill_2mm003)
(endmill_2mm003)
(Begin toolchange)
( M6 T1 )
(Post processing added : Ramp up the spindle speed)
M3 S100
G4 P.25
M3 S200
G4 P.25
M3 S400
G4 P.25
M3 S600
G4 P.25
M3 S800
G4 P.25
M3 S1000
G4 P.25
M3 S2000
G4 P.25
M3 S4000
G4 P.25
M3 S6000
G4 P.25
M3 S10000
(End post processing)
(Finish operation: endmill_2mm003)
(Begin operation: Pocket_Shape)
(Path: Pocket_Shape)
(Pocket_Shape)
G0 Z10.000
G0 X56.909 Y-42.599
G0 Z8.000
G1 X56.909 Y-42.599 Z-1.000 F100.000
G1 X49.421 Y-34.422 Z-1.000 F250.000
G3 X49.171 Y-34.345 Z-1.000 I-0.195 J-0.188 K0.000 F250.000
G1 X49.199 Y-34.393 Z-1.000 F250.000
G1 X65.591 Y-52.646 Z-1.000 F250.000
G3 X65.833 Y-52.616 Z-1.000 I0.087 J0.287 K0.000 F250.000
G3 X65.885 Y-52.401 Z-1.000 I-0.027 J0.120 K0.000 F250.000
G1 X56.909 Y-42.599 Z-1.000 F250.000
G1 X56.909 Y-42.599 Z-2.000 F100.000
G1 X49.421 Y-34.422 Z-2.000 F250.000
G3 X49.171 Y-34.345 Z-2.000 I-0.195 J-0.188 K0.000 F250.000
G1 X49.199 Y-34.393 Z-2.000 F250.000
G1 X65.591 Y-52.646 Z-2.000 F250.000
G3 X65.833 Y-52.616 Z-2.000 I0.087 J0.287 K0.000 F250.000
G3 X65.885 Y-52.401 Z-2.000 I-0.027 J0.120 K0.000 F250.000
G1 X56.909 Y-42.599 Z-2.000 F250.000
G1 X56.909 Y-42.599 Z-2.400 F100.000
G1 X49.421 Y-34.422 Z-2.400 F250.000
G3 X49.171 Y-34.345 Z-2.400 I-0.195 J-0.188 K0.000 F250.000
G1 X49.199 Y-34.393 Z-2.400 F250.000
G1 X65.591 Y-52.646 Z-2.400 F250.000
G3 X65.833 Y-52.616 Z-2.400 I0.087 J0.287 K0.000 F250.000
G3 X65.885 Y-52.401 Z-2.400 I-0.027 J0.120 K0.000 F250.000
G1 X56.909 Y-42.599 Z-2.400 F250.000
G0 Z10.000
G0 Z10.000
(Finish operation: Pocket_Shape)
(Begin postamble)
M5
G17 G90
M2
