(Exported by FreeCAD)
(Post Processor: grbl_post)
(Output Time:2022-11-13 14:16:28.835129)
(Begin preamble)
G17 G90
G21
(Begin operation: G54)
(Path: G54)
G54
G0 Z5.000
(Finish operation: G54)
(Begin operation: endmill-2_5mm003)
(Path: endmill-2_5mm003)
(endmill-2_5mm003)
(Begin toolchange)
( M6 T3 )
M3 S10000
(Finish operation: endmill-2_5mm003)
(Begin operation: Holes)
(Path: Holes)
(Holes)
(Compensated Tool Path. Diameter: 2.5)
G0 Z10.000
G0 X79.571 Y129.511
G0 Z8.000
G1 X79.571 Y129.511 Z-1.000 F100.000
G2 X79.438 Y128.629 Z-1.000 I-0.392 J-0.392 K0.000 F250.000
G2 X78.919 Y129.609 Z-1.000 I-0.259 J0.490 K0.000 F250.000
G2 X79.571 Y129.511 Z-1.000 I0.259 J-0.490 K0.000 F250.000
G0 Z10.000
G0 X71.920 Y69.644 Z10.000
G0 X71.920 Y69.644 Z8.000
G1 X71.920 Y69.644 Z-1.000 F100.000
G2 X72.110 Y68.604 Z-1.000 I-0.070 J-0.550 K0.000 F250.000
G2 X71.591 Y69.584 Z-1.000 I-0.259 J0.490 K0.000 F250.000
G2 X71.920 Y69.644 Z-1.000 I0.259 J-0.490 K0.000 F250.000
G0 Z10.000
G0 X0.510 Y60.229 Z10.000
G0 X0.510 Y60.229 Z8.000
G1 X0.510 Y60.229 Z-1.000 F100.000
G2 X0.087 Y59.713 Z-1.000 I-0.454 J-0.060 K0.000 F250.000
G2 X-0.086 Y59.734 Z-1.000 I-0.033 J0.447 K0.000 F250.000
G2 X0.118 Y60.623 Z-1.000 I0.142 J0.435 K0.000 F250.000
G2 X0.510 Y60.229 Z-1.000 I-0.061 J-0.454 K0.000 F250.000
G0 Z10.000
G0 X-3.200 Y79.520 Z10.000
G0 X-3.200 Y79.520 Z8.000
G1 X-3.200 Y79.520 Z-1.000 F100.000
G2 X-3.564 Y80.555 Z-1.000 I-0.105 J0.544 K0.000 F250.000
G2 X-3.046 Y79.575 Z-1.000 I0.259 J-0.490 K0.000 F250.000
G2 X-3.200 Y79.520 Z-1.000 I-0.259 J0.490 K0.000 F250.000
G0 Z10.000
G0 X-77.012 Y60.120 Z10.000
G0 X-77.012 Y60.120 Z8.000
G1 X-77.012 Y60.120 Z-1.000 F100.000
G2 X-77.248 Y59.594 Z-1.000 I-0.443 J-0.117 K0.000 F250.000
G2 X-77.864 Y59.796 Z-1.000 I-0.207 J0.409 K0.000 F250.000
G2 X-77.662 Y60.412 Z-1.000 I0.409 J0.207 K0.000 F250.000
G2 X-77.012 Y60.120 Z-1.000 I0.207 J-0.409 K0.000 F250.000
G0 Z10.000
G0 X-88.483 Y10.511 Z10.000
G0 X-88.483 Y10.511 Z8.000
G1 X-88.483 Y10.511 Z-1.000 F100.000
G2 X-88.362 Y9.474 Z-1.000 I-0.125 J-0.541 K0.000 F250.000
G1 X-88.464 Y9.435 Z-1.000 F250.000
G2 X-88.761 Y10.504 Z-1.000 I-0.144 J0.536 K0.000 F250.000
G2 X-88.483 Y10.511 Z-1.000 I0.152 J-0.533 K0.000 F250.000
G0 Z10.000
G0 X-77.819 Y0.207 Z10.000
G0 X-77.819 Y0.207 Z8.000
G1 X-77.819 Y0.207 Z-1.000 F100.000
G2 X-77.707 Y0.292 Z-1.000 I0.329 J-0.318 K0.000 F250.000
G2 X-77.272 Y-0.514 Z-1.000 I0.217 J-0.403 K0.000 F250.000
G2 X-77.819 Y0.207 Z-1.000 I-0.217 J0.403 K0.000 F250.000
G0 Z10.000
G0 X-0.447 Y0.002 Z10.000
G0 X-0.447 Y0.002 Z8.000
G1 X-0.447 Y0.002 Z-1.000 F100.000
G2 X-0.118 Y0.440 Z-1.000 I0.458 J-0.001 K0.000 F250.000
G2 X0.218 Y-0.408 Z-1.000 I0.129 J-0.439 K0.000 F250.000
G1 X0.134 Y-0.440 Z-1.000 F250.000
G2 X-0.447 Y0.002 Z-1.000 I-0.123 J0.441 K0.000 F250.000
G0 Z10.000
G0 X-83.290 Y111.248 Z10.000
G0 X-83.290 Y111.248 Z8.000
G1 X-83.290 Y111.248 Z-1.000 F100.000
G2 X-83.588 Y111.139 Z-1.000 I-0.331 J0.445 K0.000 F250.000
G2 X-83.799 Y111.167 Z-1.000 I-0.036 J0.544 K0.000 F250.000
G2 X-83.543 Y112.242 Z-1.000 I0.177 J0.526 K0.000 F250.000
G2 X-83.290 Y111.248 Z-1.000 I-0.079 J-0.549 K0.000 F250.000
G1 X-83.290 Y111.248 Z-2.000 F100.000
G2 X-83.588 Y111.139 Z-2.000 I-0.331 J0.445 K0.000 F250.000
G2 X-83.799 Y111.167 Z-2.000 I-0.036 J0.544 K0.000 F250.000
G2 X-83.543 Y112.242 Z-2.000 I0.177 J0.526 K0.000 F250.000
G2 X-83.290 Y111.248 Z-2.000 I-0.079 J-0.549 K0.000 F250.000
G0 Z10.000
G0 X-77.507 Y60.459 Z10.000
G0 X-77.507 Y60.459 Z8.000
G1 X-77.507 Y60.459 Z-2.000 F100.000
G2 X-77.248 Y59.594 Z-2.000 I0.052 J-0.456 K0.000 F250.000
G2 X-77.864 Y59.796 Z-2.000 I-0.207 J0.409 K0.000 F250.000
G2 X-77.662 Y60.412 Z-2.000 I0.409 J0.207 K0.000 F250.000
G2 X-77.507 Y60.459 Z-2.000 I0.207 J-0.409 K0.000 F250.000
G0 Z10.000
G0 X-88.489 Y10.513 Z10.000
G0 X-88.489 Y10.513 Z8.000
G1 X-88.489 Y10.513 Z-2.000 F100.000
G2 X-88.362 Y9.474 Z-2.000 I-0.119 J-0.542 K0.000 F250.000
G1 X-88.464 Y9.435 Z-2.000 F250.000
G2 X-88.761 Y10.504 Z-2.000 I-0.144 J0.536 K0.000 F250.000
G2 X-88.489 Y10.513 Z-2.000 I0.152 J-0.533 K0.000 F250.000
G0 Z10.000
G0 X-77.819 Y0.207 Z10.000
G0 X-77.819 Y0.207 Z8.000
G1 X-77.819 Y0.207 Z-2.000 F100.000
G2 X-77.707 Y0.292 Z-2.000 I0.329 J-0.318 K0.000 F250.000
G2 X-77.272 Y-0.514 Z-2.000 I0.217 J-0.403 K0.000 F250.000
G2 X-77.819 Y0.207 Z-2.000 I-0.217 J0.403 K0.000 F250.000
G0 Z10.000
G0 X-0.447 Y0.002 Z10.000
G0 X-0.447 Y0.002 Z8.000
G1 X-0.447 Y0.002 Z-2.000 F100.000
G2 X-0.118 Y0.440 Z-2.000 I0.458 J-0.001 K0.000 F250.000
G2 X0.218 Y-0.408 Z-2.000 I0.129 J-0.439 K0.000 F250.000
G1 X0.134 Y-0.440 Z-2.000 F250.000
G2 X-0.447 Y0.002 Z-2.000 I-0.123 J0.441 K0.000 F250.000
G0 Z10.000
G0 X0.051 Y59.711 Z10.000
G0 X0.051 Y59.711 Z8.000
G1 X0.051 Y59.711 Z-2.000 F100.000
G2 X-0.086 Y59.734 Z-2.000 I0.004 J0.448 K0.000 F250.000
G2 X0.118 Y60.623 Z-2.000 I0.142 J0.435 K0.000 F250.000
G2 X0.087 Y59.713 Z-2.000 I-0.061 J-0.454 K0.000 F250.000
G2 X0.051 Y59.711 Z-2.000 I-0.033 J0.447 K0.000 F250.000
G0 Z10.000
G0 X-3.215 Y79.518 Z10.000
G0 X-3.215 Y79.518 Z8.000
G1 X-3.215 Y79.518 Z-2.000 F100.000
G2 X-3.564 Y80.555 Z-2.000 I-0.090 J0.547 K0.000 F250.000
G2 X-3.046 Y79.575 Z-2.000 I0.259 J-0.490 K0.000 F250.000
G2 X-3.215 Y79.518 Z-2.000 I-0.259 J0.490 K0.000 F250.000
G0 Z10.000
G0 X71.301 Y69.171 Z10.000
G0 X71.301 Y69.171 Z8.000
G1 X71.301 Y69.171 Z-2.000 F100.000
G2 X71.591 Y69.584 Z-2.000 I0.549 J-0.076 K0.000 F250.000
G2 X72.110 Y68.604 Z-2.000 I0.259 J-0.490 K0.000 F250.000
G2 X71.301 Y69.171 Z-2.000 I-0.259 J0.490 K0.000 F250.000
G0 Z10.000
G0 X79.106 Y128.570 Z10.000
G0 X79.106 Y128.570 Z8.000
G1 X79.106 Y128.570 Z-2.000 F100.000
G2 X78.919 Y129.609 Z-2.000 I0.072 J0.550 K0.000 F250.000
G2 X79.438 Y128.629 Z-2.000 I0.259 J-0.490 K0.000 F250.000
G2 X79.106 Y128.570 Z-2.000 I-0.259 J0.490 K0.000 F250.000
G1 X79.106 Y128.570 Z-2.400 F100.000
G2 X78.919 Y129.609 Z-2.400 I0.072 J0.550 K0.000 F250.000
G2 X79.438 Y128.629 Z-2.400 I0.259 J-0.490 K0.000 F250.000
G2 X79.106 Y128.570 Z-2.400 I-0.259 J0.490 K0.000 F250.000
G0 Z10.000
G0 X71.917 Y69.645 Z10.000
G0 X71.917 Y69.645 Z8.000
G1 X71.917 Y69.645 Z-2.400 F100.000
G2 X72.110 Y68.604 Z-2.400 I-0.067 J-0.550 K0.000 F250.000
G2 X71.591 Y69.584 Z-2.400 I-0.259 J0.490 K0.000 F250.000
G2 X71.917 Y69.645 Z-2.400 I0.259 J-0.490 K0.000 F250.000
G0 Z10.000
G0 X0.510 Y60.229 Z10.000
G0 X0.510 Y60.229 Z8.000
G1 X0.510 Y60.229 Z-2.400 F100.000
G2 X0.087 Y59.713 Z-2.400 I-0.454 J-0.060 K0.000 F250.000
G2 X-0.086 Y59.734 Z-2.400 I-0.033 J0.447 K0.000 F250.000
G2 X0.118 Y60.623 Z-2.400 I0.142 J0.435 K0.000 F250.000
G2 X0.510 Y60.229 Z-2.400 I-0.061 J-0.454 K0.000 F250.000
G0 Z10.000
G0 X-3.200 Y79.520 Z10.000
G0 X-3.200 Y79.520 Z8.000
G1 X-3.200 Y79.520 Z-2.400 F100.000
G2 X-3.564 Y80.555 Z-2.400 I-0.105 J0.544 K0.000 F250.000
G2 X-3.046 Y79.575 Z-2.400 I0.259 J-0.490 K0.000 F250.000
G2 X-3.200 Y79.520 Z-2.400 I-0.259 J0.490 K0.000 F250.000
G0 Z10.000
G0 X-77.012 Y60.120 Z10.000
G0 X-77.012 Y60.120 Z8.000
G1 X-77.012 Y60.120 Z-2.400 F100.000
G2 X-77.248 Y59.594 Z-2.400 I-0.443 J-0.117 K0.000 F250.000
G2 X-77.864 Y59.796 Z-2.400 I-0.207 J0.409 K0.000 F250.000
G2 X-77.662 Y60.412 Z-2.400 I0.409 J0.207 K0.000 F250.000
G2 X-77.012 Y60.120 Z-2.400 I0.207 J-0.409 K0.000 F250.000
G0 Z10.000
G0 X-88.483 Y10.511 Z10.000
G0 X-88.483 Y10.511 Z8.000
G1 X-88.483 Y10.511 Z-2.400 F100.000
G2 X-88.362 Y9.474 Z-2.400 I-0.125 J-0.541 K0.000 F250.000
G1 X-88.464 Y9.435 Z-2.400 F250.000
G2 X-88.761 Y10.504 Z-2.400 I-0.144 J0.536 K0.000 F250.000
G2 X-88.483 Y10.511 Z-2.400 I0.152 J-0.533 K0.000 F250.000
G0 Z10.000
G0 X-77.819 Y0.207 Z10.000
G0 X-77.819 Y0.207 Z8.000
G1 X-77.819 Y0.207 Z-2.400 F100.000
G2 X-77.707 Y0.292 Z-2.400 I0.329 J-0.318 K0.000 F250.000
G2 X-77.272 Y-0.514 Z-2.400 I0.217 J-0.403 K0.000 F250.000
G2 X-77.819 Y0.207 Z-2.400 I-0.217 J0.403 K0.000 F250.000
G0 Z10.000
G0 X-0.447 Y0.002 Z10.000
G0 X-0.447 Y0.002 Z8.000
G1 X-0.447 Y0.002 Z-2.400 F100.000
G2 X-0.118 Y0.440 Z-2.400 I0.458 J-0.001 K0.000 F250.000
G2 X0.218 Y-0.408 Z-2.400 I0.129 J-0.439 K0.000 F250.000
G1 X0.134 Y-0.440 Z-2.400 F250.000
G2 X-0.447 Y0.002 Z-2.400 I-0.123 J0.441 K0.000 F250.000
G0 Z10.000
G0 X-83.290 Y111.248 Z10.000
G0 X-83.290 Y111.248 Z8.000
G1 X-83.290 Y111.248 Z-2.400 F100.000
G2 X-83.588 Y111.139 Z-2.400 I-0.331 J0.445 K0.000 F250.000
G2 X-83.799 Y111.167 Z-2.400 I-0.036 J0.544 K0.000 F250.000
G2 X-83.543 Y112.242 Z-2.400 I0.177 J0.526 K0.000 F250.000
G2 X-83.290 Y111.248 Z-2.400 I-0.079 J-0.549 K0.000 F250.000
G0 Z10.000
G0 Z10.000
(Finish operation: Holes)
(Begin postamble)
M5
G17 G90
M2
