(Exported by FreeCAD)
(Post Processor: grbl_post)
(Output Time:2022-11-13 14:17:01.921656)
(Begin preamble)
G17 G90
G21
(Begin operation: G54)
(Path: G54)
G54
G0 Z5.000
(Finish operation: G54)
(Begin operation: endmill-2_5mm005)
(Path: endmill-2_5mm005)
(endmill-2_5mm005)
(Begin toolchange)
( M6 T3 )
M3 S10000
(Finish operation: endmill-2_5mm005)
(Begin operation: Mics)
(Path: Mics)
(Mics)
(Compensated Tool Path. Diameter: 2.5)
G0 Z10.000
G0 X-6.587 Y65.990
G0 Z8.000
G1 X-6.587 Y65.990 Z-1.000 F100.000
G2 X-6.499 Y53.991 Z-1.000 I-6.281 J-6.046 K0.000 F250.000
G2 X-12.018 Y51.536 Z-1.000 I-5.515 J4.966 K0.000 F250.000
G1 X-64.986 Y51.530 Z-1.000 F250.000
G2 X-69.524 Y53.061 Z-1.000 I0.079 J7.725 K0.000 F250.000
G2 X-70.515 Y65.875 Z-1.000 I5.379 J6.861 K0.000 F250.000
G2 X-64.995 Y68.329 Z-1.000 I5.515 J-4.966 K0.000 F250.000
G1 X-12.027 Y68.336 Z-1.000 F250.000
G2 X-7.489 Y66.805 Z-1.000 I-0.079 J-7.725 K0.000 F250.000
G2 X-6.587 Y65.990 Z-1.000 I-5.379 J-6.861 K0.000 F250.000
G0 Z10.000
G0 X-11.683 Y8.409 Z10.000
G0 X-11.683 Y8.409 Z8.000
G1 X-11.683 Y8.409 Z-1.000 F100.000
G2 X-7.748 Y6.908 Z-1.000 I-0.681 J-7.695 K0.000 F250.000
G2 X-6.757 Y-5.906 Z-1.000 I-5.379 J-6.861 K0.000 F250.000
G2 X-12.277 Y-8.361 Z-1.000 I-5.514 J4.966 K0.000 F250.000
G1 X-65.245 Y-8.367 Z-1.000 F250.000
G2 X-69.783 Y-6.836 Z-1.000 I0.079 J7.725 K0.000 F250.000
G2 X-70.773 Y5.978 Z-1.000 I5.379 J6.861 K0.000 F250.000
G2 X-65.254 Y8.433 Z-1.000 I5.514 J-4.966 K0.000 F250.000
G1 X-12.285 Y8.439 Z-1.000 F250.000
G2 X-11.683 Y8.409 Z-1.000 I-0.079 J-7.725 K0.000 F250.000
G1 X-11.683 Y8.409 Z-2.000 F100.000
G2 X-7.748 Y6.908 Z-2.000 I-0.681 J-7.695 K0.000 F250.000
G2 X-6.757 Y-5.906 Z-2.000 I-5.379 J-6.861 K0.000 F250.000
G2 X-12.277 Y-8.361 Z-2.000 I-5.514 J4.966 K0.000 F250.000
G1 X-65.245 Y-8.367 Z-2.000 F250.000
G2 X-69.783 Y-6.836 Z-2.000 I0.079 J7.725 K0.000 F250.000
G2 X-70.773 Y5.978 Z-2.000 I5.379 J6.861 K0.000 F250.000
G2 X-65.254 Y8.433 Z-2.000 I5.514 J-4.966 K0.000 F250.000
G1 X-12.285 Y8.439 Z-2.000 F250.000
G2 X-11.683 Y8.409 Z-2.000 I-0.079 J-7.725 K0.000 F250.000
G0 Z10.000
G0 X-11.965 Y51.536 Z10.000
G0 X-11.965 Y51.536 Z8.000
G1 X-11.965 Y51.536 Z-2.000 F100.000
G2 X-12.018 Y51.536 Z-2.000 I-0.048 J7.421 K0.000 F250.000
G1 X-64.986 Y51.530 Z-2.000 F250.000
G2 X-69.524 Y53.061 Z-2.000 I0.079 J7.725 K0.000 F250.000
G2 X-70.515 Y65.875 Z-2.000 I5.379 J6.861 K0.000 F250.000
G2 X-64.995 Y68.329 Z-2.000 I5.515 J-4.966 K0.000 F250.000
G1 X-12.027 Y68.336 Z-2.000 F250.000
G2 X-7.489 Y66.805 Z-2.000 I-0.079 J-7.725 K0.000 F250.000
G2 X-6.499 Y53.991 Z-2.000 I-5.379 J-6.861 K0.000 F250.000
G2 X-11.965 Y51.536 Z-2.000 I-5.515 J4.966 K0.000 F250.000
G1 X-11.965 Y51.536 Z-2.400 F100.000
G2 X-12.018 Y51.536 Z-2.400 I-0.048 J7.421 K0.000 F250.000
G1 X-64.986 Y51.530 Z-2.400 F250.000
G2 X-69.524 Y53.061 Z-2.400 I0.079 J7.725 K0.000 F250.000
G2 X-70.515 Y65.875 Z-2.400 I5.379 J6.861 K0.000 F250.000
G2 X-64.995 Y68.329 Z-2.400 I5.515 J-4.966 K0.000 F250.000
G1 X-12.027 Y68.336 Z-2.400 F250.000
G2 X-7.489 Y66.805 Z-2.400 I-0.079 J-7.725 K0.000 F250.000
G2 X-6.499 Y53.991 Z-2.400 I-5.379 J-6.861 K0.000 F250.000
G2 X-11.965 Y51.536 Z-2.400 I-5.515 J4.966 K0.000 F250.000
G0 Z10.000
G0 X-12.285 Y8.439 Z10.000
G0 X-12.285 Y8.439 Z8.000
G1 X-12.285 Y8.439 Z-2.400 F100.000
G2 X-7.748 Y6.908 Z-2.400 I-0.079 J-7.725 K0.000 F250.000
G2 X-6.757 Y-5.906 Z-2.400 I-5.379 J-6.861 K0.000 F250.000
G2 X-12.277 Y-8.361 Z-2.400 I-5.514 J4.966 K0.000 F250.000
G1 X-65.245 Y-8.367 Z-2.400 F250.000
G2 X-69.783 Y-6.836 Z-2.400 I0.079 J7.725 K0.000 F250.000
G2 X-70.773 Y5.978 Z-2.400 I5.379 J6.861 K0.000 F250.000
G2 X-65.254 Y8.433 Z-2.400 I5.514 J-4.966 K0.000 F250.000
G1 X-12.285 Y8.439 Z-2.400 F250.000
G0 Z10.000
G0 Z10.000
(Finish operation: Mics)
(Begin postamble)
M5
G17 G90
M2
