(Exported by FreeCAD)
(Post Processor: grbl_post)
(Output Time:2023-01-21 12:33:02.446211)
(Begin preamble)
G17 G90
G21
(Begin operation: G54)
(Path: G54)
G54
G0 Z5.500
(Finish operation: G54)
(Begin operation: surfacing-25mm009)
(Path: surfacing-25mm009)
(surfacing-25mm009)
(Begin toolchange)
( M6 T2 )
(Post processing added : Ramp up the spindle speed)
M3 S100
G4 P.25
M3 S200
G4 P.25
M3 S400
G4 P.25
M3 S600
G4 P.25
M3 S800
G4 P.25
M3 S1000
G4 P.25
M3 S2000
G4 P.25
M3 S4000
G4 P.25
M3 S6000
G4 P.25
M3 S10000
(End post processing)
(Finish operation: surfacing-25mm009)
(Begin operation: MillFace001)
(Path: MillFace001)
(MillFace001)
G0 Z5.500
G0 X77.500 Y-157.500
G0 Z3.500
G1 X77.500 Y-157.500 Z-0.100 F100.000
G1 X77.500 Y-2.500 Z-0.100 F250.000
G1 X72.500 Y-2.500 Z-0.100 F250.000
G1 X72.500 Y-157.500 Z-0.100 F250.000
G1 X67.500 Y-157.500 Z-0.100 F250.000
G1 X67.500 Y-2.500 Z-0.100 F250.000
G1 X62.500 Y-2.500 Z-0.100 F250.000
G1 X62.500 Y-157.500 Z-0.100 F250.000
G1 X57.500 Y-157.500 Z-0.100 F250.000
G1 X57.500 Y-2.500 Z-0.100 F250.000
G1 X52.500 Y-2.500 Z-0.100 F250.000
G1 X52.500 Y-157.500 Z-0.100 F250.000
G1 X47.500 Y-157.500 Z-0.100 F250.000
G1 X47.500 Y-2.500 Z-0.100 F250.000
G1 X42.500 Y-2.500 Z-0.100 F250.000
G1 X42.500 Y-157.500 Z-0.100 F250.000
G1 X37.500 Y-157.500 Z-0.100 F250.000
G1 X37.500 Y-2.500 Z-0.100 F250.000
G1 X32.500 Y-2.500 Z-0.100 F250.000
G1 X32.500 Y-157.500 Z-0.100 F250.000
G1 X27.500 Y-157.500 Z-0.100 F250.000
G1 X27.500 Y-2.500 Z-0.100 F250.000
G1 X22.500 Y-2.500 Z-0.100 F250.000
G1 X22.500 Y-157.500 Z-0.100 F250.000
G1 X17.500 Y-157.500 Z-0.100 F250.000
G1 X17.500 Y-2.500 Z-0.100 F250.000
G1 X12.500 Y-2.500 Z-0.100 F250.000
G1 X12.500 Y-157.500 Z-0.100 F250.000
G1 X7.500 Y-157.500 Z-0.100 F250.000
G1 X7.500 Y-2.500 Z-0.100 F250.000
G1 X2.500 Y-2.500 Z-0.100 F250.000
G1 X2.500 Y-157.500 Z-0.100 F250.000
G1 X-2.500 Y-157.500 Z-0.100 F250.000
G1 X-2.500 Y-2.500 Z-0.100 F250.000
G1 X-7.500 Y-2.500 Z-0.100 F250.000
G1 X-7.500 Y-157.500 Z-0.100 F250.000
G1 X-12.500 Y-157.500 Z-0.100 F250.000
G1 X-12.500 Y-2.500 Z-0.100 F250.000
G1 X-17.500 Y-2.500 Z-0.100 F250.000
G1 X-17.500 Y-157.500 Z-0.100 F250.000
G1 X-22.500 Y-157.500 Z-0.100 F250.000
G1 X-22.500 Y-2.500 Z-0.100 F250.000
G1 X-27.500 Y-2.500 Z-0.100 F250.000
G1 X-27.500 Y-157.500 Z-0.100 F250.000
G1 X-32.500 Y-157.500 Z-0.100 F250.000
G1 X-32.500 Y-2.500 Z-0.100 F250.000
G1 X-37.500 Y-2.500 Z-0.100 F250.000
G1 X-37.500 Y-157.500 Z-0.100 F250.000
G1 X-42.500 Y-157.500 Z-0.100 F250.000
G1 X-42.500 Y-2.500 Z-0.100 F250.000
G1 X-47.500 Y-2.500 Z-0.100 F250.000
G1 X-47.500 Y-157.500 Z-0.100 F250.000
G1 X-52.500 Y-157.500 Z-0.100 F250.000
G1 X-52.500 Y-2.500 Z-0.100 F250.000
G1 X-57.500 Y-2.500 Z-0.100 F250.000
G1 X-57.500 Y-157.500 Z-0.100 F250.000
G1 X-62.500 Y-157.500 Z-0.100 F250.000
G1 X-62.500 Y-2.500 Z-0.100 F250.000
G1 X-67.500 Y-2.500 Z-0.100 F250.000
G1 X-67.500 Y-157.500 Z-0.100 F250.000
G1 X-72.500 Y-157.500 Z-0.100 F250.000
G1 X-72.500 Y-2.500 Z-0.100 F250.000
G1 X-77.500 Y-2.500 Z-0.100 F250.000
G1 X-77.500 Y-157.500 Z-0.100 F250.000
G0 Z5.500
G0 Z5.500
(Finish operation: MillFace001)
(Begin postamble)
M5
G17 G90
M2
