(Exported by FreeCAD)
(Post Processor: grbl_post)
(Output Time:2023-01-21 12:32:52.960314)
(Begin preamble)
G17 G90
G21
(Begin operation: G54)
(Path: G54)
G54
G0 Z5.500
(Finish operation: G54)
(Begin operation: surfacing-25mm007)
(Path: surfacing-25mm007)
(surfacing-25mm007)
(Begin toolchange)
( M6 T2 )
(Post processing added : Ramp up the spindle speed)
M3 S100
G4 P.25
M3 S200
G4 P.25
M3 S400
G4 P.25
M3 S600
G4 P.25
M3 S800
G4 P.25
M3 S1000
G4 P.25
M3 S2000
G4 P.25
M3 S4000
G4 P.25
M3 S6000
G4 P.25
M3 S10000
(End post processing)
(Finish operation: surfacing-25mm007)
(Begin operation: MillFace)
(Path: MillFace)
(MillFace)
G0 Z5.500
G0 X77.500 Y-2.500
G0 Z3.500
G1 X77.500 Y-2.500 Z-0.100 F100.000
G1 X-77.500 Y-2.500 Z-0.100 F250.000
G1 X-77.500 Y-7.500 Z-0.100 F250.000
G1 X77.500 Y-7.500 Z-0.100 F250.000
G1 X77.500 Y-12.500 Z-0.100 F250.000
G1 X-77.500 Y-12.500 Z-0.100 F250.000
G1 X-77.500 Y-17.500 Z-0.100 F250.000
G1 X77.500 Y-17.500 Z-0.100 F250.000
G1 X77.500 Y-22.500 Z-0.100 F250.000
G1 X-77.500 Y-22.500 Z-0.100 F250.000
G1 X-77.500 Y-27.500 Z-0.100 F250.000
G1 X77.500 Y-27.500 Z-0.100 F250.000
G1 X77.500 Y-32.500 Z-0.100 F250.000
G1 X-77.500 Y-32.500 Z-0.100 F250.000
G1 X-77.500 Y-37.500 Z-0.100 F250.000
G1 X77.500 Y-37.500 Z-0.100 F250.000
G1 X77.500 Y-42.500 Z-0.100 F250.000
G1 X-77.500 Y-42.500 Z-0.100 F250.000
G1 X-77.500 Y-47.500 Z-0.100 F250.000
G1 X77.500 Y-47.500 Z-0.100 F250.000
G1 X77.500 Y-52.500 Z-0.100 F250.000
G1 X-77.500 Y-52.500 Z-0.100 F250.000
G1 X-77.500 Y-57.500 Z-0.100 F250.000
G1 X77.500 Y-57.500 Z-0.100 F250.000
G1 X77.500 Y-62.500 Z-0.100 F250.000
G1 X-77.500 Y-62.500 Z-0.100 F250.000
G1 X-77.500 Y-67.500 Z-0.100 F250.000
G1 X77.500 Y-67.500 Z-0.100 F250.000
G1 X77.500 Y-72.500 Z-0.100 F250.000
G1 X-77.500 Y-72.500 Z-0.100 F250.000
G1 X-77.500 Y-77.500 Z-0.100 F250.000
G1 X77.500 Y-77.500 Z-0.100 F250.000
G1 X77.500 Y-82.500 Z-0.100 F250.000
G1 X-77.500 Y-82.500 Z-0.100 F250.000
G1 X-77.500 Y-87.500 Z-0.100 F250.000
G1 X77.500 Y-87.500 Z-0.100 F250.000
G1 X77.500 Y-92.500 Z-0.100 F250.000
G1 X-77.500 Y-92.500 Z-0.100 F250.000
G1 X-77.500 Y-97.500 Z-0.100 F250.000
G1 X77.500 Y-97.500 Z-0.100 F250.000
G1 X77.500 Y-102.500 Z-0.100 F250.000
G1 X-77.500 Y-102.500 Z-0.100 F250.000
G1 X-77.500 Y-107.500 Z-0.100 F250.000
G1 X77.500 Y-107.500 Z-0.100 F250.000
G1 X77.500 Y-112.500 Z-0.100 F250.000
G1 X-77.500 Y-112.500 Z-0.100 F250.000
G1 X-77.500 Y-117.500 Z-0.100 F250.000
G1 X77.500 Y-117.500 Z-0.100 F250.000
G1 X77.500 Y-122.500 Z-0.100 F250.000
G1 X-77.500 Y-122.500 Z-0.100 F250.000
G1 X-77.500 Y-127.500 Z-0.100 F250.000
G1 X77.500 Y-127.500 Z-0.100 F250.000
G1 X77.500 Y-132.500 Z-0.100 F250.000
G1 X-77.500 Y-132.500 Z-0.100 F250.000
G1 X-77.500 Y-137.500 Z-0.100 F250.000
G1 X77.500 Y-137.500 Z-0.100 F250.000
G1 X77.500 Y-142.500 Z-0.100 F250.000
G1 X-77.500 Y-142.500 Z-0.100 F250.000
G1 X-77.500 Y-147.500 Z-0.100 F250.000
G1 X77.500 Y-147.500 Z-0.100 F250.000
G1 X77.500 Y-152.500 Z-0.100 F250.000
G1 X-77.500 Y-152.500 Z-0.100 F250.000
G1 X-77.500 Y-157.500 Z-0.100 F250.000
G1 X77.500 Y-157.500 Z-0.100 F250.000
G0 Z5.500
G0 Z5.500
(Finish operation: MillFace)
(Begin postamble)
M5
G17 G90
M2
