(Exported by FreeCAD)
(Post Processor: grbl_post)
(Output Time:2023-03-19 10:38:02.690147)
(Begin preamble)
G17 G90
G21
(Begin operation: G54)
(Path: G54)
G54
G0 Z5.500
(Finish operation: G54)
(Begin operation: surfacing-25mm007)
(Path: surfacing-25mm007)
(surfacing-25mm007)
(Begin toolchange)
( M6 T2 )
(Post processing added : Ramp up the spindle speed)
M3 S100
G4 P.25
M3 S200
G4 P.25
M3 S400
G4 P.25
M3 S600
G4 P.25
M3 S800
G4 P.25
M3 S1000
G4 P.25
M3 S2000
G4 P.25
M3 S4000
G4 P.25
M3 S6000
G4 P.25
M3 S10000
(End post processing)
(Finish operation: surfacing-25mm007)
(Begin operation: SURFACING H)
(Path: SURFACING H)
(SURFACING H)
G0 Z5.500
G0 X77.500 Y-2.500
G0 Z3.500
G1 X77.500 Y-2.500 Z-0.100 F100.000
G1 X-77.500 Y-2.500 Z-0.100 F250.000
G1 X-77.500 Y-7.500 Z-0.100 F250.000
G1 X77.500 Y-7.500 Z-0.100 F250.000
G1 X77.500 Y-12.500 Z-0.100 F250.000
G1 X-77.500 Y-12.500 Z-0.100 F250.000
G1 X-77.500 Y-17.500 Z-0.100 F250.000
G1 X77.500 Y-17.500 Z-0.100 F250.000
G1 X77.500 Y-22.500 Z-0.100 F250.000
G1 X-77.500 Y-22.500 Z-0.100 F250.000
G1 X-77.500 Y-27.500 Z-0.100 F250.000
G1 X77.500 Y-27.500 Z-0.100 F250.000
G1 X77.500 Y-32.500 Z-0.100 F250.000
G1 X-77.500 Y-32.500 Z-0.100 F250.000
G1 X-77.500 Y-37.500 Z-0.100 F250.000
G1 X77.500 Y-37.500 Z-0.100 F250.000
G1 X77.500 Y-42.500 Z-0.100 F250.000
G1 X-77.500 Y-42.500 Z-0.100 F250.000
G1 X-77.500 Y-47.500 Z-0.100 F250.000
G1 X77.500 Y-47.500 Z-0.100 F250.000
G1 X77.500 Y-52.500 Z-0.100 F250.000
G1 X-77.500 Y-52.500 Z-0.100 F250.000
G1 X-77.500 Y-57.500 Z-0.100 F250.000
G1 X77.500 Y-57.500 Z-0.100 F250.000
G1 X77.500 Y-62.500 Z-0.100 F250.000
G1 X-77.500 Y-62.500 Z-0.100 F250.000
G1 X-77.500 Y-67.500 Z-0.100 F250.000
G1 X77.500 Y-67.500 Z-0.100 F250.000
G1 X77.500 Y-72.500 Z-0.100 F250.000
G1 X-77.500 Y-72.500 Z-0.100 F250.000
G1 X-77.500 Y-77.500 Z-0.100 F250.000
G1 X77.500 Y-77.500 Z-0.100 F250.000
G1 X77.500 Y-82.500 Z-0.100 F250.000
G1 X-77.500 Y-82.500 Z-0.100 F250.000
G1 X-77.500 Y-87.500 Z-0.100 F250.000
G1 X77.500 Y-87.500 Z-0.100 F250.000
G1 X77.500 Y-92.500 Z-0.100 F250.000
G1 X-77.500 Y-92.500 Z-0.100 F250.000
G1 X-77.500 Y-97.500 Z-0.100 F250.000
G1 X77.500 Y-97.500 Z-0.100 F250.000
G1 X77.500 Y-102.500 Z-0.100 F250.000
G1 X-77.500 Y-102.500 Z-0.100 F250.000
G1 X-77.500 Y-107.500 Z-0.100 F250.000
G1 X77.500 Y-107.500 Z-0.100 F250.000
G1 X77.500 Y-112.500 Z-0.100 F250.000
G1 X-77.500 Y-112.500 Z-0.100 F250.000
G1 X-77.500 Y-117.500 Z-0.100 F250.000
G1 X77.500 Y-117.500 Z-0.100 F250.000
G1 X77.500 Y-122.500 Z-0.100 F250.000
G1 X-77.500 Y-122.500 Z-0.100 F250.000
G1 X-77.500 Y-127.500 Z-0.100 F250.000
G1 X77.500 Y-127.500 Z-0.100 F250.000
G1 X77.500 Y-132.500 Z-0.100 F250.000
G1 X-77.500 Y-132.500 Z-0.100 F250.000
G1 X-77.500 Y-137.500 Z-0.100 F250.000
G1 X77.500 Y-137.500 Z-0.100 F250.000
G1 X77.500 Y-142.500 Z-0.100 F250.000
G1 X-77.500 Y-142.500 Z-0.100 F250.000
G1 X-77.500 Y-147.500 Z-0.100 F250.000
G1 X77.500 Y-147.500 Z-0.100 F250.000
G1 X77.500 Y-152.500 Z-0.100 F250.000
G1 X-77.500 Y-152.500 Z-0.100 F250.000
G1 X-77.500 Y-157.500 Z-0.100 F250.000
G1 X77.500 Y-157.500 Z-0.100 F250.000
G0 Z5.500
G0 Z5.500
(Finish operation: SURFACING H)
(Begin operation: SURFACING V)
(Path: SURFACING V)
(SURFACING V)
G0 Z5.500
G0 X77.500 Y-157.500
G0 Z3.500
G1 X77.500 Y-157.500 Z-0.200 F100.000
G1 X77.500 Y-2.500 Z-0.200 F250.000
G1 X72.500 Y-2.500 Z-0.200 F250.000
G1 X72.500 Y-157.500 Z-0.200 F250.000
G1 X67.500 Y-157.500 Z-0.200 F250.000
G1 X67.500 Y-2.500 Z-0.200 F250.000
G1 X62.500 Y-2.500 Z-0.200 F250.000
G1 X62.500 Y-157.500 Z-0.200 F250.000
G1 X57.500 Y-157.500 Z-0.200 F250.000
G1 X57.500 Y-2.500 Z-0.200 F250.000
G1 X52.500 Y-2.500 Z-0.200 F250.000
G1 X52.500 Y-157.500 Z-0.200 F250.000
G1 X47.500 Y-157.500 Z-0.200 F250.000
G1 X47.500 Y-2.500 Z-0.200 F250.000
G1 X42.500 Y-2.500 Z-0.200 F250.000
G1 X42.500 Y-157.500 Z-0.200 F250.000
G1 X37.500 Y-157.500 Z-0.200 F250.000
G1 X37.500 Y-2.500 Z-0.200 F250.000
G1 X32.500 Y-2.500 Z-0.200 F250.000
G1 X32.500 Y-157.500 Z-0.200 F250.000
G1 X27.500 Y-157.500 Z-0.200 F250.000
G1 X27.500 Y-2.500 Z-0.200 F250.000
G1 X22.500 Y-2.500 Z-0.200 F250.000
G1 X22.500 Y-157.500 Z-0.200 F250.000
G1 X17.500 Y-157.500 Z-0.200 F250.000
G1 X17.500 Y-2.500 Z-0.200 F250.000
G1 X12.500 Y-2.500 Z-0.200 F250.000
G1 X12.500 Y-157.500 Z-0.200 F250.000
G1 X7.500 Y-157.500 Z-0.200 F250.000
G1 X7.500 Y-2.500 Z-0.200 F250.000
G1 X2.500 Y-2.500 Z-0.200 F250.000
G1 X2.500 Y-157.500 Z-0.200 F250.000
G1 X-2.500 Y-157.500 Z-0.200 F250.000
G1 X-2.500 Y-2.500 Z-0.200 F250.000
G1 X-7.500 Y-2.500 Z-0.200 F250.000
G1 X-7.500 Y-157.500 Z-0.200 F250.000
G1 X-12.500 Y-157.500 Z-0.200 F250.000
G1 X-12.500 Y-2.500 Z-0.200 F250.000
G1 X-17.500 Y-2.500 Z-0.200 F250.000
G1 X-17.500 Y-157.500 Z-0.200 F250.000
G1 X-22.500 Y-157.500 Z-0.200 F250.000
G1 X-22.500 Y-2.500 Z-0.200 F250.000
G1 X-27.500 Y-2.500 Z-0.200 F250.000
G1 X-27.500 Y-157.500 Z-0.200 F250.000
G1 X-32.500 Y-157.500 Z-0.200 F250.000
G1 X-32.500 Y-2.500 Z-0.200 F250.000
G1 X-37.500 Y-2.500 Z-0.200 F250.000
G1 X-37.500 Y-157.500 Z-0.200 F250.000
G1 X-42.500 Y-157.500 Z-0.200 F250.000
G1 X-42.500 Y-2.500 Z-0.200 F250.000
G1 X-47.500 Y-2.500 Z-0.200 F250.000
G1 X-47.500 Y-157.500 Z-0.200 F250.000
G1 X-52.500 Y-157.500 Z-0.200 F250.000
G1 X-52.500 Y-2.500 Z-0.200 F250.000
G1 X-57.500 Y-2.500 Z-0.200 F250.000
G1 X-57.500 Y-157.500 Z-0.200 F250.000
G1 X-62.500 Y-157.500 Z-0.200 F250.000
G1 X-62.500 Y-2.500 Z-0.200 F250.000
G1 X-67.500 Y-2.500 Z-0.200 F250.000
G1 X-67.500 Y-157.500 Z-0.200 F250.000
G1 X-72.500 Y-157.500 Z-0.200 F250.000
G1 X-72.500 Y-2.500 Z-0.200 F250.000
G1 X-77.500 Y-2.500 Z-0.200 F250.000
G1 X-77.500 Y-157.500 Z-0.200 F250.000
G0 Z5.500
G0 Z5.500
(Finish operation: SURFACING V)
(Begin postamble)
M5
G17 G90
M2
