(Exported by FreeCAD)
(Post Processor: grbl_post)
(Output Time:2023-01-07 12:38:39.921285)
(Begin preamble)
G17 G90
G21
(Begin operation: G54)
(Path: G54)
G54
G0 Z6.000
(Finish operation: G54)
(Begin operation: endmill-2mm003)
(Path: endmill-2mm003)
(endmill-2mm003)
(Begin toolchange)
( M6 T2 )
M3 S10000
(Finish operation: endmill-2mm003)
(Begin operation: Profile001)
(Path: Profile001)
(Profile001)
(Compensated Tool Path. Diameter: 2.0)
G0 Z6.000
G0 X51.620 Y-12.380
G0 Z4.000
G1 X51.620 Y-12.380 Z-1.500 F100.000
G2 X50.276 Y-17.396 Z-1.500 I-2.120 J-2.120 K0.000 F150.000
G2 X46.604 Y-15.276 Z-1.500 I-0.776 J2.896 K0.000 F150.000
G2 X48.724 Y-11.604 Z-1.500 I2.896 J0.776 K0.000 F150.000
G2 X51.620 Y-12.380 Z-1.500 I0.776 J-2.896 K0.000 F150.000
G0 Z6.000
G0 X49.705 Y-41.809 Z6.000
G0 X49.705 Y-41.809 Z4.000
G1 X49.705 Y-41.809 Z-1.500 F100.000
G2 X49.500 Y-47.798 Z-1.500 I-0.205 J-2.991 K0.000 F150.000
G1 X49.109 Y-47.772 Z-1.500 F150.000
G2 X49.705 Y-41.809 Z-1.500 I0.391 J2.972 K0.000 F150.000
G0 Z6.000
G0 X33.466 Y-44.406 Z6.000
G0 X33.466 Y-44.406 Z4.000
G1 X33.466 Y-44.406 Z-1.500 F100.000
G2 X31.074 Y-47.296 Z-1.500 I-2.466 J-0.394 K0.000 F150.000
G1 X30.704 Y-47.280 Z-1.500 F150.000
G2 X31.094 Y-42.304 Z-1.500 I0.296 J2.480 K0.000 F150.000
G2 X33.466 Y-44.406 Z-1.500 I-0.094 J-2.496 K0.000 F150.000
G0 Z6.000
G0 X15.497 Y-44.744 Z6.000
G0 X15.497 Y-44.744 Z4.000
G1 X15.497 Y-44.744 Z-1.500 F100.000
G2 X12.500 Y-47.798 Z-1.500 I-2.997 J-0.056 K0.000 F150.000
G1 X12.109 Y-47.772 Z-1.500 F150.000
G2 X12.705 Y-41.809 Z-1.500 I0.391 J2.972 K0.000 F150.000
G2 X15.497 Y-44.744 Z-1.500 I-0.205 J-2.991 K0.000 F150.000
G0 Z6.000
G0 X12.796 Y-17.483 Z6.000
G0 X12.796 Y-17.483 Z4.000
G1 X12.796 Y-17.483 Z-1.500 F100.000
G2 X11.724 Y-11.604 Z-1.500 I-0.296 J2.983 K0.000 F150.000
G2 X13.276 Y-17.396 Z-1.500 I0.776 J-2.896 K0.000 F150.000
G2 X12.796 Y-17.483 Z-1.500 I-0.776 J2.896 K0.000 F150.000
G0 Z6.000
G0 X29.999 Y-101.607 Z6.000
G0 X29.999 Y-101.607 Z4.000
G1 X29.999 Y-101.607 Z-1.500 F100.000
G2 X32.112 Y-111.377 Z-1.500 I1.001 J-4.897 K0.000 F150.000
G2 X29.888 Y-101.631 Z-1.500 I-1.112 J4.873 K0.000 F150.000
G2 X29.999 Y-101.607 Z-1.500 I1.112 J-4.873 K0.000 F150.000
G0 Z6.000
G0 X15.661 Y-105.743 Z6.000
G0 X15.661 Y-105.743 Z4.000
G1 X15.661 Y-105.743 Z-1.500 F100.000
G2 X13.796 Y-109.141 Z-1.500 I-2.640 J-0.761 K0.000 F150.000
G2 X12.247 Y-103.868 Z-1.500 I-0.774 J2.636 K0.000 F150.000
G2 X15.661 Y-105.743 Z-1.500 I0.774 J-2.636 K0.000 F150.000
G0 Z6.000
G0 Z6.000
(Finish operation: Profile001)
(Begin postamble)
M5
G17 G90
M2
