(Exported by FreeCAD)
(Post Processor: grbl_post)
(Output Time:2023-04-30 22:07:37.208858)
(Begin preamble)
G17 G90
G21
(Begin operation: G54)
(Path: G54)
G54
G0 Z5.000
(Finish operation: G54)
(Begin operation: ballend-012mm001)
(Path: ballend-012mm001)
(ballend-012mm001)
(Begin toolchange)
( M6 T5 )
M3 S10000
(Finish operation: ballend-012mm001)
(Begin operation: ENGRAVE 0.12MM)
(Path: ENGRAVE 0.12MM)
(ENGRAVE 0.12MM)
G0 Z0.300
G0 X16.346 Y-1.342
G0 Z0.200
G1 X16.346 Y-1.342 Z-0.200 F150.000
G3 X16.263 Y-1.277 Z-0.200 I-0.358 J-0.370 K0.000 F250.000
G2 X16.414 Y-2.003 Z-0.200 I-0.322 J-0.446 K0.000 F250.000
G3 X16.346 Y-1.342 Z-0.200 I-0.426 J0.290 K0.000 F250.000
G0 Z0.300
G0 X16.243 Y-1.263 Z0.300
G0 X16.243 Y-1.263 Z0.200
G1 X16.243 Y-1.263 Z-0.200 F150.000
G3 X15.532 Y-2.040 Z-0.200 I-0.286 J-0.452 K0.000 F250.000
G3 X15.804 Y-2.225 Z-0.200 I0.359 J0.237 K0.000 F250.000
G2 X16.123 Y-1.210 Z-0.200 I0.171 J0.504 K0.000 F250.000
G1 X16.243 Y-1.263 Z-0.200 F250.000
G0 Z0.300
G0 X16.387 Y-2.045 Z0.300
G0 X16.387 Y-2.045 Z0.200
G1 X16.387 Y-2.045 Z-0.200 F150.000
G2 X16.290 Y-2.142 Z-0.200 I-0.265 J0.168 K0.000 F250.000
G3 X16.387 Y-2.045 Z-0.200 I-0.067 J0.164 K0.000 F250.000
G0 Z0.300
G0 X16.227 Y-2.185 Z0.300
G0 X16.227 Y-2.185 Z0.200
G1 X16.227 Y-2.185 Z-0.200 F150.000
G2 X15.849 Y-2.233 Z-0.200 I-0.253 J0.479 K0.000 F250.000
G3 X16.183 Y-2.216 Z-0.200 I0.143 J0.471 K0.000 F250.000
G1 X16.227 Y-2.185 Z-0.200 F250.000
G0 Z0.300
G0 Z0.300
G0 X16.227 Y-2.185
G0 X16.845 Y-1.992
G0 X16.845 Y-1.992 Z0.200
G1 X16.845 Y-1.992 Z-0.200 F150.000
G3 X17.141 Y-2.234 Z-0.200 I0.331 J0.103 K0.000 F250.000
G2 X16.830 Y-1.804 Z-0.200 I0.093 J0.394 K0.000 F250.000
G1 X16.830 Y-1.195 Z-0.200 F250.000
G1 X16.818 Y-1.195 Z-0.200 F250.000
G3 X16.832 Y-1.931 Z-0.200 I3.396 J-0.301 K0.000 F250.000
G3 X16.845 Y-1.992 Z-0.200 I0.344 J0.042 K0.000 F250.000
G0 Z0.300
G0 X17.162 Y-2.238 Z0.300
G0 X17.162 Y-2.238 Z0.200
G1 X17.162 Y-2.238 Z-0.200 F150.000
G3 X17.483 Y-2.198 Z-0.200 I0.114 J0.393 K0.000 F250.000
G3 X17.691 Y-1.797 Z-0.200 I-0.235 J0.377 K0.000 F250.000
G1 X17.691 Y-1.195 Z-0.200 F250.000
G1 X17.679 Y-1.195 Z-0.200 F250.000
G2 X17.661 Y-1.948 Z-0.200 I-3.044 J-0.306 K0.000 F250.000
G2 X17.162 Y-2.238 Z-0.200 I-0.400 J0.115 K0.000 F250.000
G0 Z0.300
G0 Z0.300
G0 X17.162 Y-2.238
G0 X18.372 Y-2.243
G0 X18.372 Y-2.243 Z0.200
G1 X18.372 Y-2.243 Z-0.200 F150.000
G1 X18.384 Y-2.243 Z-0.200 F250.000
G1 X18.384 Y-1.260 Z-0.200 F250.000
G2 X18.444 Y-1.200 Z-0.200 I0.060 J-0.000 K0.000 F250.000
G1 X18.792 Y-1.200 Z-0.200 F250.000
G1 X18.792 Y-1.195 Z-0.200 F250.000
G1 X17.964 Y-1.195 Z-0.200 F250.000
G1 X17.964 Y-1.200 Z-0.200 F250.000
G1 X18.312 Y-1.200 Z-0.200 F250.000
G2 X18.372 Y-1.260 Z-0.200 I-0.000 J-0.060 K0.000 F250.000
G1 X18.372 Y-2.243 Z-0.200 F250.000
G0 Z0.300
G0 Z0.300
G0 X18.372 Y-2.243
G0 X30.062 Y-3.629
G0 X30.062 Y-3.629 Z0.200
G1 X30.062 Y-3.629 Z-0.200 F150.000
G3 X30.101 Y-3.830 Z-0.200 I0.333 J-0.039 K0.000 F250.000
G3 X30.280 Y-3.955 Z-0.200 I0.200 J0.094 K0.000 F250.000
G2 X30.491 Y-3.366 Z-0.200 I0.112 J0.292 K0.000 F250.000
G2 X30.687 Y-3.820 Z-0.200 I-0.080 J-0.304 K0.000 F250.000
G2 X30.756 Y-3.886 Z-0.200 I0.012 J-0.057 K0.000 F250.000
G2 X30.557 Y-4.368 Z-0.200 I-0.506 J-0.073 K0.000 F250.000
G2 X30.118 Y-4.255 Z-0.200 I-0.165 J0.270 K0.000 F250.000
G3 X30.582 Y-4.370 Z-0.200 I0.278 J0.127 K0.000 F250.000
G3 X30.600 Y-3.404 Z-0.200 I-0.559 J0.494 K0.000 F250.000
G3 X30.062 Y-3.629 Z-0.200 I-0.205 J-0.265 K0.000 F250.000
G0 Z0.300
G0 X30.349 Y-3.972 Z0.300
G0 X30.349 Y-3.972 Z0.200
G1 X30.349 Y-3.972 Z-0.200 F150.000
G3 X30.527 Y-3.950 Z-0.200 I0.064 J0.218 K0.000 F250.000
G2 X30.349 Y-3.972 Z-0.200 I-0.119 J0.242 K0.000 F250.000
G0 Z0.300
G0 X30.728 Y-3.800 Z0.300
G0 X30.728 Y-3.800 Z0.200
G1 X30.728 Y-3.800 Z-0.200 F150.000
G1 X30.727 Y-3.790 Z-0.200 F250.000
G3 X30.723 Y-3.796 Z-0.200 I0.001 J-0.005 K0.000 F250.000
G3 X30.728 Y-3.800 Z-0.200 I0.005 J0.001 K0.000 F250.000
G0 Z0.300
G0 Z0.300
G0 X30.728 Y-3.800
G0 X31.115 Y-3.644
G0 X31.115 Y-3.644 Z0.200
G1 X31.115 Y-3.644 Z-0.200 F150.000
G1 X31.424 Y-4.407 Z-0.200 F250.000
G1 X31.495 Y-4.407 Z-0.200 F250.000
G1 X31.919 Y-3.359 Z-0.200 F250.000
G1 X31.904 Y-3.359 Z-0.200 F250.000
G1 X31.515 Y-4.339 Z-0.200 F250.000
G2 X31.403 Y-4.339 Z-0.200 I-0.056 J0.022 K0.000 F250.000
G1 X31.014 Y-3.359 Z-0.200 F250.000
G1 X31.000 Y-3.359 Z-0.200 F250.000
G1 X31.115 Y-3.644 Z-0.200 F250.000
G0 Z0.300
G0 Z0.300
G0 X31.115 Y-3.644
G0 X44.239 Y-2.243
G0 X44.239 Y-2.243 Z0.200
G1 X44.239 Y-2.243 Z-0.200 F150.000
G1 X44.251 Y-2.243 Z-0.200 F250.000
G1 X44.251 Y-1.195 Z-0.200 F250.000
G1 X44.239 Y-1.195 Z-0.200 F250.000
G1 X44.239 Y-2.243 Z-0.200 F250.000
G0 Z0.300
G0 Z0.300
G0 X44.239 Y-2.243
G0 X44.657
G0 X44.657 Z0.200
G1 X44.657 Y-2.243 Z-0.200 F150.000
G1 X44.669 Y-2.243 Z-0.200 F250.000
G1 X44.669 Y-1.317 Z-0.200 F250.000
G2 X44.777 Y-1.281 Z-0.200 I0.060 J-0.000 K0.000 F250.000
G1 X45.481 Y-2.243 Z-0.200 F250.000
G1 X45.544 Y-2.243 Z-0.200 F250.000
G1 X45.544 Y-1.195 Z-0.200 F250.000
G1 X45.532 Y-1.195 Z-0.200 F250.000
G1 X45.532 Y-2.117 Z-0.200 F250.000
G2 X45.423 Y-2.153 Z-0.200 I-0.060 J-0.000 K0.000 F250.000
G1 X44.719 Y-1.195 Z-0.200 F250.000
G1 X44.657 Y-1.195 Z-0.200 F250.000
G1 X44.657 Y-2.243 Z-0.200 F250.000
G0 Z0.300
G0 X45.496 Y-2.203 Z0.300
G0 X45.496 Y-2.203 Z0.200
G1 X45.496 Y-2.203 Z-0.200 F150.000
G3 X45.508 Y-2.207 Z-0.200 I0.007 J0.002 K0.000 F250.000
G1 X45.508 Y-2.198 Z-0.200 F250.000
G1 X45.496 Y-2.203 Z-0.200 F250.000
G0 Z0.300
G0 X44.702 Y-1.232 Z0.300
G0 X44.702 Y-1.232 Z0.200
G1 X44.702 Y-1.232 Z-0.200 F150.000
G3 X44.693 Y-1.231 Z-0.200 I-0.005 J-0.003 K0.000 F250.000
G1 X44.693 Y-1.236 Z-0.200 F250.000
G1 X44.702 Y-1.232 Z-0.200 F250.000
G0 Z0.300
G0 Z0.300
(Finish operation: ENGRAVE 0.12MM)
(Begin operation: ballend-015mm001)
(Path: ballend-015mm001)
(ballend-015mm001)
(Begin toolchange)
( M6 T3 )
M3 S10000
(Finish operation: ballend-015mm001)
(Begin operation: ENGRAVE 0.15MM)
(Path: ENGRAVE 0.15MM)
(ENGRAVE 0.15MM)
G0 Z0.300
G0 X27.290 Y-1.346
G0 Z0.200
G1 X27.290 Y-1.346 Z-0.200 F150.000
G1 X27.247 Y-1.346 Z-0.200 F250.000
G2 X27.225 Y-1.674 Z-0.200 I-0.407 J-0.138 K0.000 F250.000
G2 X26.895 Y-1.696 Z-0.200 I-0.191 J0.387 K0.000 F250.000
G1 X26.895 Y-1.740 Z-0.200 F250.000
G2 X27.225 Y-1.762 Z-0.200 I0.138 J-0.409 K0.000 F250.000
G2 X27.247 Y-2.092 Z-0.200 I-0.387 J-0.191 K0.000 F250.000
G1 X27.290 Y-2.092 Z-0.200 F250.000
G2 X27.312 Y-1.762 Z-0.200 I0.409 J0.138 K0.000 F250.000
G2 X27.641 Y-1.740 Z-0.200 I0.191 J-0.385 K0.000 F250.000
G1 X27.641 Y-1.696 Z-0.200 F250.000
G2 X27.312 Y-1.674 Z-0.200 I-0.138 J0.407 K0.000 F250.000
G2 X27.290 Y-1.346 Z-0.200 I0.385 J0.191 K0.000 F250.000
G0 Z0.300
G0 X27.272 Y-1.710 Z0.300
G0 X27.272 Y-1.710 Z0.200
G1 X27.272 Y-1.710 Z-0.200 F150.000
G3 X27.266 Y-1.726 Z-0.200 I-0.003 J-0.008 K0.000 F250.000
G3 X27.272 Y-1.710 Z-0.200 I0.003 J0.008 K0.000 F250.000
G0 Z0.300
G0 Z0.300
G0 X27.272 Y-1.710
G0 X27.755 Y-1.091
G0 X27.755 Y-1.091 Z0.200
G1 X27.755 Y-1.091 Z-0.200 F150.000
G3 X26.697 Y-2.276 Z-0.200 I-0.490 J-0.627 K0.000 F250.000
G3 X27.822 Y-2.287 Z-0.200 I0.569 J0.557 K0.000 F250.000
G3 X27.833 Y-1.162 Z-0.200 I-0.557 J0.568 K0.000 F250.000
G3 X27.755 Y-1.091 Z-0.200 I-0.569 J-0.557 K0.000 F250.000
G0 Z0.300
G0 X27.773 Y-1.068 Z0.300
G0 X27.773 Y-1.068 Z0.200
G1 X27.773 Y-1.068 Z-0.200 F150.000
G3 X26.460 Y-1.902 Z-0.200 I-0.508 J-0.651 K0.000 F250.000
G3 X27.553 Y-2.492 Z-0.200 I0.804 J0.183 K0.000 F250.000
G3 X28.088 Y-1.787 Z-0.200 I-0.292 J0.778 K0.000 F250.000
G2 X28.161 Y-1.733 Z-0.200 I0.072 J-0.021 K0.000 F250.000
G1 X30.276 Y-1.733 Z-0.200 F250.000
G2 X30.384 Y-1.961 Z-0.200 I-0.086 J-0.180 K0.000 F250.000
G3 X31.588 Y-2.425 Z-0.200 I0.782 J0.234 K0.000 F250.000
G1 X31.588 Y-2.383 Z-0.200 F250.000
G2 X30.619 Y-1.147 Z-0.200 I-0.425 J0.664 K0.000 F250.000
G2 X31.588 Y-1.056 Z-0.200 I0.539 J-0.536 K0.000 F250.000
G1 X31.588 Y-1.011 Z-0.200 F250.000
G3 X30.351 Y-1.645 Z-0.200 I-0.419 J-0.706 K0.000 F250.000
G2 X30.277 Y-1.705 Z-0.200 I-0.074 J0.015 K0.000 F250.000
G1 X28.162 Y-1.705 Z-0.200 F250.000
G2 X28.060 Y-1.495 Z-0.200 I0.076 J0.167 K0.000 F250.000
G3 X27.773 Y-1.068 Z-0.200 I-0.794 J-0.224 K0.000 F250.000
G0 Z0.300
G0 X28.097 Y-1.715 Z0.300
G0 X28.097 Y-1.715 Z0.200
G1 X28.097 Y-1.715 Z-0.200 F150.000
G1 X28.097 Y-1.720 Z-0.200 F250.000
G1 X28.100 Y-1.717 Z-0.200 F250.000
G1 X28.097 Y-1.715 Z-0.200 F250.000
G0 Z0.300
G0 Z0.300
G0 X28.097 Y-1.715
G0 X34.353
G0 X34.353 Z0.200
G1 X34.353 Y-1.715 Z-0.200 F150.000
G1 X34.353 Y-1.744 Z-0.200 F250.000
G1 X35.208 Y-1.744 Z-0.200 F250.000
G1 X35.208 Y-1.694 Z-0.200 F250.000
G1 X34.353 Y-1.694 Z-0.200 F250.000
G1 X34.353 Y-1.715 Z-0.200 F250.000
G0 Z0.300
G0 Z0.300
G0 X34.353 Y-1.715
G0 X33.913 Y-1.650
G0 X33.913 Y-1.650 Z0.200
G1 X33.913 Y-1.650 Z-0.200 F150.000
G2 X33.841 Y-1.705 Z-0.200 I-0.072 J0.021 K0.000 F250.000
G1 X31.654 Y-1.705 Z-0.200 F250.000
G2 X31.517 Y-1.490 Z-0.200 I0.090 J0.209 K0.000 F250.000
G3 X30.788 Y-1.869 Z-0.200 I-0.344 J-0.229 K0.000 F250.000
G3 X31.583 Y-1.783 Z-0.200 I0.386 J0.152 K0.000 F250.000
G2 X31.654 Y-1.733 Z-0.200 I0.071 J-0.024 K0.000 F250.000
G1 X33.840 Y-1.733 Z-0.200 F250.000
G2 X33.912 Y-1.787 Z-0.200 I0.000 J-0.075 K0.000 F250.000
G3 X35.043 Y-2.485 Z-0.200 I0.824 J0.070 K0.000 F250.000
G3 X34.448 Y-0.946 Z-0.200 I-0.306 J0.766 K0.000 F250.000
G3 X33.913 Y-1.650 Z-0.200 I0.293 J-0.778 K0.000 F250.000
G0 Z0.300
G0 X33.944 Y-1.653 Z0.300
G0 X33.944 Y-1.653 Z0.200
G1 X33.944 Y-1.653 Z-0.200 F150.000
G3 X34.729 Y-2.515 Z-0.200 I0.793 J-0.066 K0.000 F250.000
G3 X34.751 Y-0.924 Z-0.200 I0.008 J0.796 K0.000 F250.000
G3 X33.944 Y-1.653 Z-0.200 I-0.013 J-0.796 K0.000 F250.000
G0 Z0.300
G0 X31.559 Y-1.720 Z0.300
G0 X31.559 Y-1.720 Z0.200
G1 X31.559 Y-1.720 Z-0.200 F150.000
G3 X31.529 Y-1.680 Z-0.200 I-0.043 J-0.001 K0.000 F250.000
G3 X30.820 Y-1.719 Z-0.200 I-0.353 J-0.041 K0.000 F250.000
G3 X31.397 Y-1.992 Z-0.200 I0.353 J0.001 K0.000 F250.000
G3 X31.526 Y-1.764 Z-0.200 I-0.257 J0.297 K0.000 F250.000
G3 X31.559 Y-1.720 Z-0.200 I-0.010 J0.042 K0.000 F250.000
G0 Z0.300
G0 X31.470 Y-1.721 Z0.300
G0 X31.470 Y-1.721 Z0.200
G1 X31.470 Y-1.721 Z-0.200 F150.000
G3 X30.901 Y-1.615 Z-0.200 I-0.295 J-0.002 K0.000 F250.000
G3 X31.356 Y-1.946 Z-0.200 I0.273 J-0.104 K0.000 F250.000
G3 X31.470 Y-1.744 Z-0.200 I-0.228 J0.260 K0.000 F250.000
G3 X31.470 Y-1.721 Z-0.200 I-0.294 J0.021 K0.000 F250.000
G0 Z0.300
G0 X31.287 Y-1.719 Z0.300
G0 X31.287 Y-1.719 Z0.200
G1 X31.287 Y-1.719 Z-0.200 F150.000
G3 X31.197 Y-1.612 Z-0.200 I-0.108 J0.001 K0.000 F250.000
G3 X31.137 Y-1.820 Z-0.200 I-0.023 J-0.106 K0.000 F250.000
G1 X31.170 Y-1.826 Z-0.200 F250.000
G3 X31.287 Y-1.719 Z-0.200 I0.008 J0.108 K0.000 F250.000
G0 Z0.300
G0 X31.222 Y-1.719 Z0.300
G0 X31.222 Y-1.719 Z0.200
G1 X31.222 Y-1.719 Z-0.200 F150.000
G3 X31.208 Y-1.686 Z-0.200 I-0.047 J0.000 K0.000 F250.000
G3 X31.138 Y-1.749 Z-0.200 I-0.034 J-0.032 K0.000 F250.000
G3 X31.170 Y-1.765 Z-0.200 I0.036 J0.029 K0.000 F250.000
G3 X31.222 Y-1.719 Z-0.200 I0.005 J0.046 K0.000 F250.000
G0 Z0.300
G0 X31.178 Y-1.712 Z0.300
G0 X31.178 Y-1.712 Z0.200
G1 X31.178 Y-1.712 Z-0.200 F150.000
G3 X31.166 Y-1.722 Z-0.200 I-0.005 J-0.006 K0.000 F250.000
G1 X31.173 Y-1.727 Z-0.200 F250.000
G3 X31.178 Y-1.712 Z-0.200 I0.001 J0.008 K0.000 F250.000
G0 Z0.300
G0 X31.216 Y-1.554 Z0.300
G0 X31.216 Y-1.554 Z0.200
G1 X31.216 Y-1.554 Z-0.200 F150.000
G3 X31.114 Y-1.877 Z-0.200 I-0.042 J-0.164 K0.000 F250.000
G1 X31.171 Y-1.888 Z-0.200 F250.000
G3 X31.216 Y-1.554 Z-0.200 I0.011 J0.168 K0.000 F250.000
G0 Z0.300
G0 X31.235 Y-1.496 Z0.300
G0 X31.235 Y-1.496 Z0.200
G1 X31.235 Y-1.496 Z-0.200 F150.000
G3 X31.091 Y-1.933 Z-0.200 I-0.062 J-0.222 K0.000 F250.000
G1 X31.171 Y-1.949 Z-0.200 F250.000
G3 X31.235 Y-1.496 Z-0.200 I0.012 J0.229 K0.000 F250.000
G0 Z0.300
G0 Z0.300
G0 X31.235 Y-1.496
G0 Y-29.722
G0 Y-29.722 Z0.200
G1 X31.235 Y-29.722 Z-0.200 F150.000
G1 X29.766 Y-29.722 Z-0.200 F250.000
G1 X29.766 Y-29.823 Z-0.200 F250.000
G1 X30.632 Y-29.823 Z-0.200 F250.000
G2 X30.636 Y-29.989 Z-0.200 I-0.008 J-0.083 K0.000 F250.000
G3 X31.196 Y-31.234 Z-0.200 I0.498 J-0.524 K0.000 F250.000
G3 X31.719 Y-29.954 Z-0.200 I0.072 J0.717 K0.000 F250.000
G2 X31.769 Y-29.823 Z-0.200 I0.050 J0.056 K0.000 F250.000
G1 X31.962 Y-29.823 Z-0.200 F250.000
G1 X31.962 Y-29.722 Z-0.200 F250.000
G1 X31.235 Y-29.722 Z-0.200 F250.000
G0 Z0.300
G0 X31.237 Y-29.809 Z0.300
G0 X31.237 Y-29.809 Z0.200
G1 X31.237 Y-29.809 Z-0.200 F150.000
G3 X31.206 Y-29.810 Z-0.200 I0.013 J-0.659 K0.000 F250.000
G3 X30.841 Y-31.051 Z-0.200 I-0.066 J-0.655 K0.000 F250.000
G3 X31.333 Y-31.122 Z-0.200 I0.356 J0.730 K0.000 F250.000
G3 X31.237 Y-29.809 Z-0.200 I-0.083 J0.654 K0.000 F250.000
G0 Z0.300
G0 X31.430 Y-29.782 Z0.300
G0 X31.430 Y-29.782 Z0.200
G1 X31.430 Y-29.782 Z-0.200 F150.000
G2 X31.644 Y-29.876 Z-0.200 I-0.064 J-0.435 K0.000 F250.000
G2 X31.735 Y-29.782 Z-0.200 I0.086 J0.007 K0.000 F250.000
G1 X31.430 Y-29.782 Z-0.200 F250.000
G0 Z0.300
G0 X30.970 Z0.300
G0 X30.970 Z0.200
G1 X30.970 Y-29.782 Z-0.200 F150.000
G1 X30.684 Y-29.782 Z-0.200 F250.000
G2 X30.761 Y-29.867 Z-0.200 I-0.012 J-0.088 K0.000 F250.000
G2 X30.970 Y-29.782 Z-0.200 I0.304 J-0.447 K0.000 F250.000
G0 Z0.300
G0 Z0.300
G0 X30.970 Y-29.782
G0 X31.105 Y-31.588
G0 X31.105 Y-31.588 Z0.200
G1 X31.105 Y-31.588 Z-0.200 F150.000
G3 X31.070 Y-33.092 Z-0.200 I0.056 J-0.754 K0.000 F250.000
G3 X31.515 Y-33.044 Z-0.200 I0.130 J0.874 K0.000 F250.000
G3 X31.629 Y-31.692 Z-0.200 I-0.285 J0.705 K0.000 F250.000
G3 X31.724 Y-31.871 Z-0.200 I0.113 J-0.054 K0.000 F250.000
G2 X31.259 Y-32.981 Z-0.200 I-0.457 J-0.461 K0.000 F250.000
G1 X31.224 Y-32.918 Z-0.200 F250.000
G1 X31.224 Y-31.588 Z-0.200 F250.000
G3 X31.105 Y-31.588 Z-0.200 I-0.063 J-0.753 K0.000 F250.000
G0 Z0.300
G0 X31.125 Y-31.660 Z0.300
G0 X31.125 Y-31.660 Z0.200
G1 X31.125 Y-31.660 Z-0.200 F150.000
G1 X31.164 Y-31.693 Z-0.200 F250.000
G1 X31.164 Y-31.654 Z-0.200 F250.000
G1 X31.125 Y-31.660 Z-0.200 F250.000
G0 Z0.300
G0 X31.096 Y-31.707 Z0.300
G0 X31.096 Y-31.707 Z0.200
G1 X31.096 Y-31.707 Z-0.200 F150.000
G3 X31.042 Y-32.986 Z-0.200 I0.024 J-0.642 K0.000 F250.000
G3 X31.140 Y-32.914 Z-0.200 I0.023 J0.071 K0.000 F250.000
G1 X31.140 Y-31.775 Z-0.200 F250.000
G1 X31.096 Y-31.707 Z-0.200 F250.000
G0 Z0.300
G0 X31.178 Y-32.973 Z0.300
G0 X31.178 Y-32.973 Z0.200
G1 X31.178 Y-32.973 Z-0.200 F150.000
G2 X31.110 Y-33.035 Z-0.200 I-0.071 J0.010 K0.000 F250.000
G3 X31.234 Y-33.035 Z-0.200 I0.062 J0.302 K0.000 F250.000
G1 X31.178 Y-32.973 Z-0.200 F250.000
G0 Z0.300
G0 Z0.300
G0 X31.178 Y-32.973
G0 X32.631 Y-31.989
G0 X32.631 Y-31.989 Z0.200
G1 X32.631 Y-31.989 Z-0.200 F150.000
G1 X32.810 Y-31.989 Z-0.200 F250.000
G1 X32.810 Y-31.867 Z-0.200 F250.000
G1 X32.631 Y-31.867 Z-0.200 F250.000
G1 X32.631 Y-31.989 Z-0.200 F250.000
G0 Z0.300
G0 X32.691 Y-31.929 Z0.300
G0 X32.691 Y-31.929 Z0.200
G1 X32.691 Y-31.929 Z-0.200 F150.000
G1 X32.750 Y-31.929 Z-0.200 F250.000
G1 X32.750 Y-31.927 Z-0.200 F250.000
G1 X32.691 Y-31.927 Z-0.200 F250.000
G1 X32.691 Y-31.929 Z-0.200 F250.000
G0 Z0.300
G0 Z0.300
G0 X32.691 Y-31.929
G0 X31.962 Y-33.583
G0 X31.962 Y-33.583 Z0.200
G1 X31.962 Y-33.583 Z-0.200 F150.000
G1 X29.766 Y-33.583 Z-0.200 F250.000
G1 X29.766 Y-33.684 Z-0.200 F250.000
G1 X31.962 Y-33.684 Z-0.200 F250.000
G1 X31.962 Y-33.583 Z-0.200 F250.000
G0 Z0.300
G0 X31.924 Y-33.620 Z0.300
G0 X31.924 Y-33.620 Z0.200
G1 X31.924 Y-33.620 Z-0.200 F150.000
G1 X29.803 Y-33.620 Z-0.200 F250.000
G1 X29.803 Y-33.646 Z-0.200 F250.000
G1 X31.924 Y-33.646 Z-0.200 F250.000
G1 X31.924 Y-33.620 Z-0.200 F250.000
G0 Z0.300
G0 Z0.300
G0 X31.924 Y-33.620
G0 X29.224 Y-33.158
G0 X29.224 Y-33.158 Z0.200
G1 X29.224 Y-33.158 Z-0.200 F150.000
G3 X29.230 Y-32.972 Z-0.200 I-0.672 J0.115 K0.000 F250.000
G3 X29.009 Y-32.393 Z-0.200 I-0.673 J0.075 K0.000 F250.000
G3 X28.558 Y-32.256 Z-0.200 I-0.409 J-0.539 K0.000 F250.000
G1 X27.014 Y-32.256 Z-0.200 F250.000
G1 X27.014 Y-32.358 Z-0.200 F250.000
G2 X27.260 Y-32.380 Z-0.200 I0.097 J-0.308 K0.000 F250.000
G2 X27.180 Y-32.551 Z-0.200 I-0.117 J-0.050 K0.000 F250.000
G3 X27.762 Y-33.768 Z-0.200 I0.529 J-0.495 K0.000 F250.000
G3 X28.266 Y-32.489 Z-0.200 I0.059 J0.716 K0.000 F250.000
G2 X28.316 Y-32.358 Z-0.200 I0.050 J0.056 K0.000 F250.000
G2 X29.002 Y-32.525 Z-0.200 I0.187 J-0.725 K0.000 F250.000
G2 X28.929 Y-33.498 Z-0.200 I-0.586 J-0.446 K0.000 F250.000
G1 X28.891 Y-33.519 Z-0.200 F250.000
G1 X28.891 Y-33.635 Z-0.200 F250.000
G3 X29.224 Y-33.158 Z-0.200 I-0.339 J0.591 K0.000 F250.000
G0 Z0.300
G0 X28.282 Y-32.316 Z0.300
G0 X28.282 Y-32.316 Z0.200
G1 X28.282 Y-32.316 Z-0.200 F150.000
G1 X27.991 Y-32.316 Z-0.200 F250.000
G2 X28.193 Y-32.403 Z-0.200 I-0.083 J-0.470 K0.000 F250.000
G2 X28.282 Y-32.316 Z-0.200 I0.082 J0.005 K0.000 F250.000
G0 Z0.300
G0 X28.179 Y-32.466 Z0.300
G0 X28.179 Y-32.466 Z0.200
G1 X28.179 Y-32.466 Z-0.200 F150.000
G3 X27.952 Y-32.366 Z-0.200 I-0.374 J-0.543 K0.000 F250.000
G3 X27.406 Y-33.584 Z-0.200 I-0.220 J-0.633 K0.000 F250.000
G3 X27.755 Y-33.667 Z-0.200 I0.346 J0.680 K0.000 F250.000
G3 X28.179 Y-32.466 Z-0.200 I0.050 J0.658 K0.000 F250.000
G0 Z0.300
G0 X27.542 Y-32.316 Z0.300
G0 X27.542 Y-32.316 Z0.200
G1 X27.542 Y-32.316 Z-0.200 F150.000
G1 X27.259 Y-32.316 Z-0.200 F250.000
G2 X27.336 Y-32.403 Z-0.200 I-0.013 J-0.089 K0.000 F250.000
G2 X27.542 Y-32.316 Z-0.200 I0.294 J-0.412 K0.000 F250.000
G0 Z0.300
G0 Z0.300
G0 X27.542 Y-32.316
G0 X27.628 Y-31.763
G0 X27.628 Y-31.763 Z0.200
G1 X27.628 Y-31.763 Z-0.200 F150.000
G3 X27.648 Y-31.766 Z-0.200 I0.116 J0.747 K0.000 F250.000
G3 X28.093 Y-31.718 Z-0.200 I0.130 J0.874 K0.000 F250.000
G3 X28.207 Y-30.356 Z-0.200 I-0.292 J0.710 K0.000 F250.000
G3 X28.252 Y-30.501 Z-0.200 I0.070 J-0.058 K0.000 F250.000
G2 X27.843 Y-31.658 Z-0.200 I-0.409 J-0.506 K0.000 F250.000
G1 X27.802 Y-31.591 Z-0.200 F250.000
G1 X27.802 Y-30.262 Z-0.200 F250.000
G3 X27.628 Y-31.763 Z-0.200 I-0.059 J-0.754 K0.000 F250.000
G0 Z0.300
G0 X27.688 Y-31.709 Z0.300
G0 X27.688 Y-31.709 Z0.200
G1 X27.688 Y-31.709 Z-0.200 F150.000
G3 X27.817 Y-31.708 Z-0.200 I0.063 J0.316 K0.000 F250.000
G2 X27.756 Y-31.647 Z-0.200 I0.014 J0.075 K0.000 F250.000
G2 X27.688 Y-31.709 Z-0.200 I-0.071 J0.010 K0.000 F250.000
G0 Z0.300
G0 X27.669 Y-31.658 Z0.300
G0 X27.669 Y-31.658 Z0.200
G1 X27.669 Y-31.658 Z-0.200 F150.000
G3 X27.718 Y-31.588 Z-0.200 I-0.026 J0.070 K0.000 F250.000
G1 X27.718 Y-30.449 Z-0.200 F250.000
G1 X27.681 Y-30.384 Z-0.200 F250.000
G3 X27.620 Y-31.660 Z-0.200 I0.014 J-0.640 K0.000 F250.000
G3 X27.669 Y-31.658 Z-0.200 I0.023 J0.071 K0.000 F250.000
G0 Z0.300
G0 X27.742 Y-30.369 Z0.300
G0 X27.742 Y-30.369 Z0.200
G1 X27.742 Y-30.369 Z-0.200 F150.000
G1 X27.742 Y-30.328 Z-0.200 F250.000
G1 X27.707 Y-30.333 Z-0.200 F250.000
G1 X27.742 Y-30.369 Z-0.200 F250.000
G0 Z0.300
G0 Z0.300
G0 X27.742 Y-30.369
G0 X33.241 Y-31.877
G0 X33.241 Y-31.877 Z0.200
G1 X33.241 Y-31.877 Z-0.200 F150.000
G1 X33.241 Y-31.979 Z-0.200 F250.000
G1 X34.767 Y-31.979 Z-0.200 F250.000
G1 X34.767 Y-31.877 Z-0.200 F250.000
G1 X33.241 Y-31.877 Z-0.200 F250.000
G0 Z0.300
G0 X33.279 Y-31.915 Z0.300
G0 X33.279 Y-31.915 Z0.200
G1 X33.279 Y-31.915 Z-0.200 F150.000
G1 X33.279 Y-31.941 Z-0.200 F250.000
G1 X34.729 Y-31.941 Z-0.200 F250.000
G1 X34.729 Y-31.915 Z-0.200 F250.000
G1 X33.279 Y-31.915 Z-0.200 F250.000
G0 Z0.300
G0 Z0.300
G0 X33.279 Y-31.915
G0 X33.541 Y-32.530
G0 X33.541 Y-32.530 Z0.200
G1 X33.541 Y-32.530 Z-0.200 F150.000
G3 X33.215 Y-33.084 Z-0.200 I0.192 J-0.486 K0.000 F250.000
G3 X33.329 Y-33.534 Z-0.200 I0.728 J-0.056 K0.000 F250.000
G3 X33.932 Y-33.423 Z-0.200 I0.273 J0.213 K0.000 F250.000
G2 X34.176 Y-32.654 Z-0.200 I2.447 J-0.353 K0.000 F250.000
G2 X34.680 Y-32.772 Z-0.200 I0.220 J-0.192 K0.000 F250.000
G2 X34.665 Y-33.366 Z-0.200 I-0.768 J-0.277 K0.000 F250.000
G2 X34.391 Y-33.584 Z-0.200 I-0.355 J0.164 K0.000 F250.000
G1 X34.391 Y-33.696 Z-0.200 F250.000
G3 X34.793 Y-33.061 Z-0.200 I-0.188 J0.564 K0.000 F250.000
G3 X34.679 Y-32.608 Z-0.200 I-0.775 J0.046 K0.000 F250.000
G3 X34.043 Y-32.695 Z-0.200 I-0.299 J-0.182 K0.000 F250.000
G2 X33.819 Y-33.440 Z-0.200 I-2.619 J0.383 K0.000 F250.000
G2 X33.318 Y-33.362 Z-0.200 I-0.232 J0.154 K0.000 F250.000
G2 X33.382 Y-32.735 Z-0.200 I0.730 J0.243 K0.000 F250.000
G2 X33.541 Y-32.630 Z-0.200 I0.222 J-0.164 K0.000 F250.000
G1 X33.541 Y-32.530 Z-0.200 F250.000
G0 Z0.300
G0 X33.503 Y-32.587 Z0.300
G0 X33.503 Y-32.587 Z0.200
G1 X33.503 Y-32.587 Z-0.200 F150.000
G3 X33.312 Y-32.778 Z-0.200 I0.132 J-0.324 K0.000 F250.000
G3 X33.503 Y-32.587 Z-0.200 I-335.006 J335.855 K0.000 F250.000
G0 Z0.300
G0 X33.271 Y-32.911 Z0.300
G0 X33.271 Y-32.911 Z0.200
G1 X33.271 Y-32.911 Z-0.200 F150.000
G3 X33.260 Y-32.975 Z-0.200 I0.132 J-0.055 K0.000 F250.000
G1 X33.271 Y-32.911 Z-0.200 F250.000
G0 Z0.300
G0 X33.330 Y-33.448 Z0.300
G0 X33.330 Y-33.448 Z0.200
G1 X33.330 Y-33.448 Z-0.200 F150.000
G3 X33.783 Y-33.581 Z-0.200 I0.284 J0.129 K0.000 F250.000
G3 X34.038 Y-32.872 Z-0.200 I-1.821 J1.056 K0.000 F250.000
G2 X34.315 Y-32.523 Z-0.200 I0.404 J-0.037 K0.000 F250.000
G2 X34.689 Y-32.719 Z-0.200 I0.079 J-0.303 K0.000 F250.000
G3 X34.078 Y-32.710 Z-0.200 I-0.307 J-0.073 K0.000 F250.000
G2 X33.853 Y-33.454 Z-0.200 I-2.623 J0.386 K0.000 F250.000
G2 X33.330 Y-33.448 Z-0.200 I-0.260 J0.154 K0.000 F250.000
G0 Z0.300
G0 X34.428 Y-33.614 Z0.300
G0 X34.428 Y-33.614 Z0.200
G1 X34.428 Y-33.614 Z-0.200 F150.000
G1 X34.428 Y-33.639 Z-0.200 F250.000
G3 X34.692 Y-33.391 Z-0.200 I-0.130 J0.402 K0.000 F250.000
G2 X34.428 Y-33.614 Z-0.200 I-0.383 J0.186 K0.000 F250.000
G0 Z0.300
G0 X34.733 Y-33.255 Z0.300
G0 X34.733 Y-33.255 Z0.200
G1 X34.733 Y-33.255 Z-0.200 F150.000
G3 X34.748 Y-33.171 Z-0.200 I-0.183 J0.076 K0.000 F250.000
G1 X34.733 Y-33.255 Z-0.200 F250.000
G0 Z0.300
G0 Z0.300
G0 X34.733 Y-33.255
G0 X34.119 Y-34.577
G0 X34.119 Y-34.577 Z0.200
G1 X34.119 Y-34.577 Z-0.200 F150.000
G1 X34.068 Y-34.577 Z-0.200 F250.000
G1 X34.068 Y-35.400 Z-0.200 F250.000
G2 X33.993 Y-35.475 Z-0.200 I-0.075 J0.000 K0.000 F250.000
G1 X31.101 Y-35.475 Z-0.200 F250.000
G2 X31.026 Y-35.400 Z-0.200 I0.000 J0.075 K0.000 F250.000
G1 X31.026 Y-34.575 Z-0.200 F250.000
G1 X30.978 Y-34.575 Z-0.200 F250.000
G1 X30.978 Y-35.400 Z-0.200 F250.000
G2 X30.903 Y-35.475 Z-0.200 I-0.075 J0.000 K0.000 F250.000
G1 X28.101 Y-35.475 Z-0.200 F250.000
G2 X28.026 Y-35.400 Z-0.200 I0.000 J0.075 K0.000 F250.000
G1 X28.026 Y-34.577 Z-0.200 F250.000
G1 X27.977 Y-34.577 Z-0.200 F250.000
G1 X27.977 Y-35.526 Z-0.200 F250.000
G1 X30.900 Y-35.526 Z-0.200 F250.000
G2 X30.975 Y-35.601 Z-0.200 I-0.000 J-0.075 K0.000 F250.000
G1 X30.975 Y-41.225 Z-0.200 F250.000
G2 X31.026 Y-41.225 Z-0.200 I0.025 J-0.895 K0.000 F250.000
G1 X31.024 Y-35.601 Z-0.200 F250.000
G2 X31.099 Y-35.526 Z-0.200 I0.075 J0.000 K0.000 F250.000
G1 X34.119 Y-35.526 Z-0.200 F250.000
G1 X34.119 Y-34.577 Z-0.200 F250.000
G0 Z0.300
G0 X31.017 Y-35.505 Z0.300
G0 X31.017 Y-35.505 Z0.200
G1 X31.017 Y-35.505 Z-0.200 F150.000
G2 X31.006 Y-35.486 Z-0.200 I0.004 J0.015 K0.000 F250.000
G2 X30.985 Y-35.497 Z-0.200 I-0.016 J0.005 K0.000 F250.000
G2 X30.996 Y-35.516 Z-0.200 I-0.004 J-0.015 K0.000 F250.000
G2 X31.017 Y-35.505 Z-0.200 I0.016 J-0.005 K0.000 F250.000
G0 Z0.300
G0 Z0.300
(Finish operation: ENGRAVE 0.15MM)
(Begin operation: ballend-020mm001)
(Path: ballend-020mm001)
(ballend-020mm001)
(Begin toolchange)
( M6 T4 )
M3 S10000
(Finish operation: ballend-020mm001)
(Begin operation: ENGRAVE 0.20MM)
(Path: ENGRAVE 0.20MM)
(ENGRAVE 0.20MM)
G0 Z0.300
G0 X7.641 Y-24.992
G0 Z0.200
G1 X7.641 Y-24.992 Z-0.200 F150.000
G1 X7.515 Y-24.992 Z-0.200 F250.000
G1 X6.886 Y-26.675 Z-0.200 F250.000
G2 X6.699 Y-26.675 Z-0.200 I-0.094 J0.035 K0.000 F250.000
G1 X6.066 Y-24.992 Z-0.200 F250.000
G1 X5.940 Y-24.992 Z-0.200 F250.000
G1 X6.678 Y-26.873 Z-0.200 F250.000
G1 X6.907 Y-26.873 Z-0.200 F250.000
G1 X7.641 Y-24.992 Z-0.200 F250.000
G0 Z0.300
G0 X7.568 Y-25.042 Z0.300
G0 X7.568 Y-25.042 Z0.200
G1 X7.568 Y-25.042 Z-0.200 F150.000
G1 X7.550 Y-25.042 Z-0.200 F250.000
G1 X7.131 Y-26.161 Z-0.200 F250.000
G1 X7.568 Y-25.042 Z-0.200 F250.000
G0 Z0.300
G0 X6.222 Y-25.548 Z0.300
G0 X6.222 Y-25.548 Z0.200
G1 X6.222 Y-25.548 Z-0.200 F150.000
G1 X6.031 Y-25.042 Z-0.200 F250.000
G1 X6.013 Y-25.042 Z-0.200 F250.000
G1 X6.450 Y-26.154 Z-0.200 F250.000
G1 X6.222 Y-25.548 Z-0.200 F250.000
G0 Z0.300
G0 X6.665 Y-26.703 Z0.300
G0 X6.665 Y-26.703 Z0.200
G1 X6.665 Y-26.703 Z-0.200 F150.000
G1 X6.712 Y-26.823 Z-0.200 F250.000
G1 X6.873 Y-26.823 Z-0.200 F250.000
G1 X6.917 Y-26.711 Z-0.200 F250.000
G2 X6.665 Y-26.703 Z-0.200 I-0.125 J0.058 K0.000 F250.000
G0 Z0.300
G0 Z0.300
G0 X6.665 Y-26.703
G0 X8.090 Y-26.263
G0 X8.090 Y-26.263 Z0.200
G1 X8.090 Y-26.263 Z-0.200 F150.000
G3 X9.260 Y-26.872 Z-0.200 I0.885 J0.273 K0.000 F250.000
G3 X9.879 Y-25.643 Z-0.200 I-0.316 J0.929 K0.000 F250.000
G1 X9.801 Y-25.439 Z-0.200 F250.000
G3 X8.050 Y-25.931 Z-0.200 I-0.821 J-0.439 K0.000 F250.000
G3 X8.090 Y-26.263 Z-0.200 I0.925 J-0.059 K0.000 F250.000
G0 Z0.300
G0 X8.149 Y-26.244 Z0.300
G0 X8.149 Y-26.244 Z0.200
G1 X8.149 Y-26.244 Z-0.200 F150.000
G3 X8.342 Y-26.593 Z-0.200 I0.974 J0.311 K0.000 F250.000
G2 X8.368 Y-25.244 Z-0.200 I0.831 J0.659 K0.000 F250.000
G3 X8.149 Y-26.244 Z-0.200 I0.755 J-0.689 K0.000 F250.000
G0 Z0.300
G0 X8.189 Y-26.233 Z0.300
G0 X8.189 Y-26.233 Z0.200
G1 X8.189 Y-26.233 Z-0.200 F150.000
G3 X9.702 Y-26.383 Z-0.200 I0.786 J0.224 K0.000 F250.000
G3 X9.791 Y-25.770 Z-0.200 I-0.955 J0.451 K0.000 F250.000
G3 X8.163 Y-25.922 Z-0.200 I-0.813 J-0.087 K0.000 F250.000
G3 X8.189 Y-26.233 Z-0.200 I0.813 J-0.086 K0.000 F250.000
G0 Z0.300
G0 X9.605 Y-26.608 Z0.300
G0 X9.605 Y-26.608 Z0.200
G1 X9.605 Y-26.608 Z-0.200 F150.000
G3 X9.757 Y-25.463 Z-0.200 I-0.762 J0.683 K0.000 F250.000
G1 X9.638 Y-25.297 Z-0.200 F250.000
G2 X9.605 Y-26.608 Z-0.200 I-0.837 J-0.635 K0.000 F250.000
G0 Z0.300
G0 X9.614 Y-25.264 Z0.300
G0 X9.614 Y-25.264 Z0.200
G1 X9.614 Y-25.264 Z-0.200 F150.000
G3 X9.574 Y-25.228 Z-0.200 I-0.083 J-0.052 K0.000 F250.000
G1 X9.614 Y-25.264 Z-0.200 F250.000
G0 Z0.300
G0 Z0.300
G0 X9.614 Y-25.264
G0 X10.527
G0 X10.527 Z0.200
G1 X10.527 Y-25.264 Z-0.200 F150.000
G1 X10.527 Y-26.873 Z-0.200 F250.000
G1 X10.639 Y-26.873 Z-0.200 F250.000
G1 X10.639 Y-24.159 Z-0.200 F250.000
G1 X10.527 Y-24.159 Z-0.200 F250.000
G1 X10.527 Y-25.264 Z-0.200 F250.000
G0 Z0.300
G0 X10.577 Z0.300
G0 X10.577 Z0.200
G1 X10.577 Y-25.264 Z-0.200 F150.000
G1 X10.577 Y-26.823 Z-0.200 F250.000
G1 X10.589 Y-26.823 Z-0.200 F250.000
G1 X10.589 Y-24.209 Z-0.200 F250.000
G1 X10.577 Y-24.209 Z-0.200 F250.000
G1 X10.577 Y-25.264 Z-0.200 F250.000
G0 Z0.300
G0 Z0.300
G0 X10.577 Y-25.264
G0 X11.359
G0 X11.359 Z0.200
G1 X11.359 Y-25.264 Z-0.200 F150.000
G1 X11.359 Y-26.097 Z-0.200 F250.000
G3 X12.710 Y-26.579 Z-0.200 I0.737 J-0.070 K0.000 F250.000
G2 X12.883 Y-26.648 Z-0.200 I0.072 J-0.069 K0.000 F250.000
G1 X12.883 Y-26.873 Z-0.200 F250.000
G1 X12.995 Y-26.873 Z-0.200 F250.000
G1 X12.995 Y-24.992 Z-0.200 F250.000
G1 X12.883 Y-24.992 Z-0.200 F250.000
G1 X12.881 Y-26.107 Z-0.200 F250.000
G2 X11.495 Y-26.303 Z-0.200 I-0.706 J-0.006 K0.000 F250.000
G1 X11.471 Y-26.095 Z-0.200 F250.000
G1 X11.471 Y-24.992 Z-0.200 F250.000
G1 X11.359 Y-24.992 Z-0.200 F250.000
G1 X11.359 Y-25.264 Z-0.200 F250.000
G0 Z0.300
G0 X12.893 Y-26.387 Z0.300
G0 X12.893 Y-26.387 Z0.200
G1 X12.893 Y-26.387 Z-0.200 F150.000
G3 X12.915 Y-26.537 Z-0.200 I0.088 J-0.064 K0.000 F250.000
G1 X12.915 Y-26.364 Z-0.200 F250.000
G3 X12.893 Y-26.387 Z-0.200 I0.065 J-0.087 K0.000 F250.000
G0 Z0.300
G0 Z0.300
G0 X12.893 Y-26.387
G0 X13.736
G0 X13.736 Z0.200
G1 X13.736 Y-26.387 Z-0.200 F150.000
G1 X13.736 Y-26.873 Z-0.200 F250.000
G1 X13.849 Y-26.873 Z-0.200 F250.000
G1 X13.850 Y-25.713 Z-0.200 F250.000
G2 X13.981 Y-25.296 Z-0.200 I0.672 J0.018 K0.000 F250.000
G2 X13.849 Y-25.208 Z-0.200 I-0.039 J0.085 K0.000 F250.000
G1 X13.849 Y-24.992 Z-0.200 F250.000
G1 X13.736 Y-24.992 Z-0.200 F250.000
G1 X13.736 Y-26.387 Z-0.200 F250.000
G0 Z0.300
G0 X13.816 Y-25.439 Z0.300
G0 X13.816 Y-25.439 Z0.200
G1 X13.816 Y-25.439 Z-0.200 F150.000
G3 X13.816 Y-25.323 Z-0.200 I-0.011 J0.058 K0.000 F250.000
G1 X13.816 Y-25.439 Z-0.200 F250.000
G0 Z0.300
G0 X14.081 Y-25.199 Z0.300
G0 X14.081 Y-25.199 Z0.200
G1 X14.081 Y-25.199 Z-0.200 F150.000
G2 X15.126 Y-25.724 Z-0.200 I0.419 J-0.470 K0.000 F250.000
G1 X15.126 Y-26.873 Z-0.200 F250.000
G1 X15.239 Y-26.873 Z-0.200 F250.000
G1 X15.240 Y-25.713 Z-0.200 F250.000
G2 X16.494 Y-25.527 Z-0.200 I0.636 J0.034 K0.000 F250.000
G1 X16.517 Y-25.724 Z-0.200 F250.000
G1 X16.517 Y-26.873 Z-0.200 F250.000
G1 X16.629 Y-26.873 Z-0.200 F250.000
G1 X16.629 Y-25.722 Z-0.200 F250.000
G3 X15.323 Y-25.339 Z-0.200 I-0.688 J0.074 K0.000 F250.000
G2 X15.160 Y-25.335 Z-0.200 I-0.080 J0.060 K0.000 F250.000
G3 X14.081 Y-25.199 Z-0.200 I-0.581 J-0.260 K0.000 F250.000
G0 Z0.300
G0 X15.141 Y-25.416 Z0.300
G0 X15.141 Y-25.416 Z0.200
G1 X15.141 Y-25.416 Z-0.200 F150.000
G2 X15.186 Y-25.539 Z-0.200 I-0.191 J-0.138 K0.000 F250.000
G2 X15.203 Y-25.449 Z-0.200 I0.275 J-0.007 K0.000 F250.000
G2 X15.141 Y-25.416 Z-0.200 I-0.008 J0.058 K0.000 F250.000
G0 Z0.300
G0 Z0.300
G0 X15.141 Y-25.416
G0 X17.231 Y-25.741
G0 X17.231 Y-25.741 Z0.200
G1 X17.231 Y-25.741 Z-0.200 F150.000
G3 X17.221 Y-25.930 Z-0.200 I0.921 J-0.143 K0.000 F250.000
G3 X18.963 Y-26.474 Z-0.200 I0.942 J-0.043 K0.000 F250.000
G3 X18.789 Y-26.541 Z-0.200 I-0.064 J-0.092 K0.000 F250.000
G2 X17.356 Y-26.005 Z-0.200 I-0.621 J0.523 K0.000 F250.000
G1 X17.441 Y-25.957 Z-0.200 F250.000
G1 X19.085 Y-25.957 Z-0.200 F250.000
G3 X19.017 Y-25.539 Z-0.200 I-1.102 J0.034 K0.000 F250.000
G3 X17.231 Y-25.741 Z-0.200 I-0.865 J-0.346 K0.000 F250.000
G0 Z0.300
G0 X17.346 Y-25.754 Z0.300
G0 X17.346 Y-25.754 Z0.200
G1 X17.346 Y-25.754 Z-0.200 F150.000
G3 X17.445 Y-25.866 Z-0.200 I0.099 J-0.012 K0.000 F250.000
G1 X18.860 Y-25.866 Z-0.200 F250.000
G1 X18.946 Y-25.817 Z-0.200 F250.000
G3 X17.350 Y-25.735 Z-0.200 I-0.801 J-0.014 K0.000 F250.000
G3 X17.346 Y-25.754 Z-0.200 I0.095 J-0.031 K0.000 F250.000
G0 Z0.300
G0 X17.306 Y-25.867 Z0.300
G0 X17.306 Y-25.867 Z0.200
G1 X17.306 Y-25.867 Z-0.200 F150.000
G3 X17.304 Y-25.953 Z-0.200 I0.207 J-0.048 K0.000 F250.000
G1 X17.340 Y-25.912 Z-0.200 F250.000
G2 X17.306 Y-25.867 Z-0.200 I0.014 J0.046 K0.000 F250.000
G0 Z0.300
G0 X18.990 Y-25.877 Z0.300
G0 X18.990 Y-25.877 Z0.200
G1 X18.990 Y-25.877 Z-0.200 F150.000
G1 X18.997 Y-25.877 Z-0.200 F250.000
G1 X18.997 Y-25.870 Z-0.200 F250.000
G1 X18.990 Y-25.877 Z-0.200 F250.000
G0 Z0.300
G0 Z0.300
G0 X18.990 Y-25.877
G0 X45.716 Y-25.988
G0 X45.716 Y-25.988 Z0.200
G1 X45.716 Y-25.988 Z-0.200 F150.000
G3 X47.296 Y-26.536 Z-0.200 I0.884 J-0.004 K0.000 F250.000
G2 X47.471 Y-26.603 Z-0.200 I0.075 J-0.067 K0.000 F250.000
G2 X47.416 Y-27.220 Z-0.200 I-1.131 J-0.211 K0.000 F250.000
G2 X47.010 Y-27.603 Z-0.200 I-0.573 J0.201 K0.000 F250.000
G2 X46.228 Y-27.536 Z-0.200 I-0.319 J0.887 K0.000 F250.000
G2 X46.018 Y-27.323 Z-0.200 I0.205 J0.413 K0.000 F250.000
G1 X45.888 Y-27.323 Z-0.200 F250.000
G3 X46.700 Y-27.730 Z-0.200 I0.723 J0.429 K0.000 F250.000
G3 X47.226 Y-27.614 Z-0.200 I0.053 J1.019 K0.000 F250.000
G3 X47.583 Y-26.909 Z-0.200 I-0.397 J0.643 K0.000 F250.000
G1 X47.583 Y-24.992 Z-0.200 F250.000
G1 X47.471 Y-24.992 Z-0.200 F250.000
G2 X47.441 Y-25.295 Z-0.200 I-0.381 J-0.116 K0.000 F250.000
G2 X47.203 Y-25.179 Z-0.200 I-0.066 J0.167 K0.000 F250.000
G3 X45.719 Y-25.915 Z-0.200 I-0.592 J-0.669 K0.000 F250.000
G3 X45.716 Y-25.988 Z-0.200 I0.880 J-0.077 K0.000 F250.000
G0 Z0.300
G0 X45.819 Y-25.982 Z0.300
G0 X45.819 Y-25.982 Z0.200
G1 X45.819 Y-25.982 Z-0.200 F150.000
G3 X46.209 Y-26.664 Z-0.200 I0.885 J0.054 K0.000 F250.000
G3 X47.383 Y-26.363 Z-0.200 I0.449 J0.691 K0.000 F250.000
G3 X46.682 Y-25.042 Z-0.200 I-0.755 J0.446 K0.000 F250.000
G3 X45.819 Y-25.982 Z-0.200 I0.021 J-0.886 K0.000 F250.000
G0 Z0.300
G0 X47.429 Y-26.436 Z0.300
G0 X47.429 Y-26.436 Z0.200
G1 X47.429 Y-26.436 Z-0.200 F150.000
G2 X47.503 Y-26.491 Z-0.200 I-0.000 J-0.079 K0.000 F250.000
G1 X47.503 Y-26.265 Z-0.200 F250.000
G2 X47.429 Y-26.436 Z-0.200 I-0.354 J0.052 K0.000 F250.000
G0 Z0.300
G0 X47.503 Y-25.572 Z0.300
G0 X47.503 Y-25.572 Z0.200
G1 X47.503 Y-25.572 Z-0.200 F150.000
G1 X47.503 Y-25.340 Z-0.200 F250.000
G3 X47.471 Y-25.469 Z-0.200 I-0.011 J-0.066 K0.000 F250.000
G1 X47.503 Y-25.572 Z-0.200 F250.000
G0 Z0.300
G0 Z0.300
G0 X47.503 Y-25.572
G0 X48.206 Y-25.697
G0 X48.206 Y-25.697 Z0.200
G1 X48.206 Y-25.697 Z-0.200 F150.000
G3 X48.196 Y-25.931 Z-0.200 I0.880 J-0.156 K0.000 F250.000
G3 X49.494 Y-26.818 Z-0.200 I0.898 J-0.080 K0.000 F250.000
G3 X49.771 Y-26.576 Z-0.200 I-0.359 J0.687 K0.000 F250.000
G2 X49.948 Y-26.640 Z-0.200 I0.077 J-0.064 K0.000 F250.000
G1 X49.948 Y-26.873 Z-0.200 F250.000
G1 X50.060 Y-26.873 Z-0.200 F250.000
G1 X50.060 Y-24.992 Z-0.200 F250.000
G1 X49.948 Y-24.992 Z-0.200 F250.000
G2 X49.918 Y-25.299 Z-0.200 I-0.386 J-0.118 K0.000 F250.000
G2 X49.693 Y-25.196 Z-0.200 I-0.066 J0.153 K0.000 F250.000
G3 X48.206 Y-25.697 Z-0.200 I-0.606 J-0.657 K0.000 F250.000
G0 Z0.300
G0 X48.324 Y-25.724 Z0.300
G0 X48.324 Y-25.724 Z0.200
G1 X48.324 Y-25.724 Z-0.200 F150.000
G3 X48.685 Y-26.692 Z-0.200 I0.915 J-0.210 K0.000 F250.000
G3 X49.964 Y-25.942 Z-0.200 I0.457 J0.686 K0.000 F250.000
G3 X48.740 Y-25.140 Z-0.200 I-0.821 J0.082 K0.000 F250.000
G3 X48.324 Y-25.724 Z-0.200 I0.499 J-0.795 K0.000 F250.000
G0 Z0.300
G0 X49.899 Y-25.429 Z0.300
G0 X49.899 Y-25.429 Z0.200
G1 X49.899 Y-25.429 Z-0.200 F150.000
G3 X49.953 Y-25.485 Z-0.200 I0.071 J0.013 K0.000 F250.000
G1 X49.980 Y-25.578 Z-0.200 F250.000
G1 X49.980 Y-25.344 Z-0.200 F250.000
G3 X49.899 Y-25.429 Z-0.200 I-0.010 J-0.071 K0.000 F250.000
G0 Z0.300
G0 X49.980 Y-26.290 Z0.300
G0 X49.980 Y-26.290 Z0.200
G1 X49.980 Y-26.290 Z-0.200 F150.000
G2 X49.899 Y-26.472 Z-0.200 I-0.365 J0.053 K0.000 F250.000
G2 X49.980 Y-26.527 Z-0.200 I0.002 J-0.083 K0.000 F250.000
G1 X49.980 Y-26.290 Z-0.200 F250.000
G0 Z0.300
G0 Z0.300
G0 X49.980 Y-26.290
G0 X50.801
G0 X50.801 Z0.200
G1 X50.801 Y-26.290 Z-0.200 F150.000
G1 X50.801 Y-26.873 Z-0.200 F250.000
G1 X50.913 Y-26.873 Z-0.200 F250.000
G1 X50.913 Y-24.992 Z-0.200 F250.000
G1 X50.801 Y-24.992 Z-0.200 F250.000
G1 X50.801 Y-26.290 Z-0.200 F250.000
G0 Z0.300
G0 X50.851 Z0.300
G0 X50.851 Z0.200
G1 X50.851 Y-26.290 Z-0.200 F150.000
G1 X50.851 Y-26.823 Z-0.200 F250.000
G1 X50.863 Y-26.823 Z-0.200 F250.000
G1 X50.863 Y-25.042 Z-0.200 F250.000
G1 X50.851 Y-25.042 Z-0.200 F250.000
G1 X50.851 Y-26.290 Z-0.200 F250.000
G0 Z0.300
G0 Z0.300
G0 X50.851 Y-26.290
G0 Y-24.442
G0 Y-24.442 Z0.200
G1 X50.851 Y-24.442 Z-0.200 F150.000
G1 X50.926 Y-24.442 Z-0.200 F250.000
G1 X50.926 Y-24.234 Z-0.200 F250.000
G1 X50.788 Y-24.234 Z-0.200 F250.000
G1 X50.788 Y-24.442 Z-0.200 F250.000
G1 X50.851 Y-24.442 Z-0.200 F250.000
G0 Z0.300
G0 Y-24.392 Z0.300
G0 Y-24.392 Z0.200
G1 X50.851 Y-24.392 Z-0.200 F150.000
G1 X50.876 Y-24.392 Z-0.200 F250.000
G1 X50.876 Y-24.284 Z-0.200 F250.000
G1 X50.838 Y-24.284 Z-0.200 F250.000
G1 X50.838 Y-24.392 Z-0.200 F250.000
G1 X50.851 Y-24.392 Z-0.200 F250.000
G0 Z0.300
G0 Z0.300
G0 X50.851 Y-24.392
G0 X51.654 Y-24.992
G0 X51.654 Y-24.992 Z0.200
G1 X51.654 Y-24.992 Z-0.200 F150.000
G1 X51.654 Y-26.873 Z-0.200 F250.000
G1 X51.767 Y-26.873 Z-0.200 F250.000
G1 X51.767 Y-25.762 Z-0.200 F250.000
G2 X53.153 Y-25.554 Z-0.200 I0.706 J0.015 K0.000 F250.000
G1 X53.178 Y-25.770 Z-0.200 F250.000
G1 X53.178 Y-26.873 Z-0.200 F250.000
G1 X53.290 Y-26.873 Z-0.200 F250.000
G1 X53.290 Y-25.768 Z-0.200 F250.000
G3 X51.942 Y-25.281 Z-0.200 I-0.737 J0.070 K0.000 F250.000
G2 X51.767 Y-25.216 Z-0.200 I-0.076 J0.065 K0.000 F250.000
G1 X51.767 Y-24.992 Z-0.200 F250.000
G1 X51.654 Y-24.992 Z-0.200 F250.000
G0 Z0.300
G0 X51.734 Y-25.328 Z0.300
G0 X51.734 Y-25.328 Z0.200
G1 X51.734 Y-25.328 Z-0.200 F150.000
G1 X51.734 Y-25.500 Z-0.200 F250.000
G1 X51.790 Y-25.376 Z-0.200 F250.000
G1 X51.734 Y-25.328 Z-0.200 F250.000
G0 Z0.300
G0 Z0.300
G0 X51.734 Y-25.328
G0 X48.753 Y-54.197
G0 X48.753 Y-54.197 Z0.200
G1 X48.753 Y-54.197 Z-0.200 F150.000
G1 X48.641 Y-54.197 Z-0.200 F250.000
G1 X48.641 Y-56.912 Z-0.200 F250.000
G1 X48.753 Y-56.912 Z-0.200 F250.000
G1 X48.753 Y-54.197 Z-0.200 F250.000
G0 Z0.300
G0 X48.703 Y-54.247 Z0.300
G0 X48.703 Y-54.247 Z0.200
G1 X48.703 Y-54.247 Z-0.200 F150.000
G1 X48.691 Y-54.247 Z-0.200 F250.000
G1 X48.691 Y-56.862 Z-0.200 F250.000
G1 X48.703 Y-56.862 Z-0.200 F250.000
G1 X48.703 Y-54.247 Z-0.200 F250.000
G0 Z0.300
G0 Z0.300
G0 X48.703 Y-54.247
G0 X47.730 Y-55.254
G0 X47.730 Y-55.254 Z0.200
G1 X47.730 Y-55.254 Z-0.200 F150.000
G3 X47.389 Y-55.037 Z-0.200 I-0.701 J-0.726 K0.000 F250.000
G3 X46.257 Y-55.518 Z-0.200 I-0.300 J-0.866 K0.000 F250.000
G3 X46.810 Y-56.907 Z-0.200 I0.893 J-0.449 K0.000 F250.000
G3 X47.593 Y-56.817 Z-0.200 I0.287 J0.952 K0.000 F250.000
G3 X47.730 Y-55.254 Z-0.200 I-0.564 J0.837 K0.000 F250.000
G0 Z0.300
G0 X47.721 Y-55.296 Z0.300
G0 X47.721 Y-55.296 Z0.200
G1 X47.721 Y-55.296 Z-0.200 F150.000
G2 X47.719 Y-56.647 Z-0.200 I-0.806 J-0.675 K0.000 F250.000
G3 X47.721 Y-55.296 Z-0.200 I-0.753 J0.676 K0.000 F250.000
G0 Z0.300
G0 X47.686 Y-55.329 Z0.300
G0 X47.686 Y-55.329 Z0.200
G1 X47.686 Y-55.329 Z-0.200 F150.000
G3 X46.926 Y-55.095 Z-0.200 I-0.593 J-0.575 K0.000 F250.000
G3 X46.639 Y-56.728 Z-0.200 I0.271 J-0.889 K0.000 F250.000
G3 X47.916 Y-55.981 Z-0.200 I0.458 J0.683 K0.000 F250.000
G3 X47.686 Y-55.329 Z-0.200 I-0.822 J0.077 K0.000 F250.000
G0 Z0.300
G0 X46.517 Y-55.256 Z0.300
G0 X46.517 Y-55.256 Z0.200
G1 X46.517 Y-55.256 Z-0.200 F150.000
G3 X46.471 Y-55.296 Z-0.200 I0.046 J-0.100 K0.000 F250.000
G1 X46.517 Y-55.256 Z-0.200 F250.000
G0 Z0.300
G0 X46.406 Y-55.386 Z0.300
G0 X46.406 Y-55.386 Z0.200
G1 X46.406 Y-55.386 Z-0.200 F150.000
G3 X46.403 Y-56.556 Z-0.200 I0.806 J-0.587 K0.000 F250.000
G2 X46.406 Y-55.386 Z-0.200 I0.876 J0.583 K0.000 F250.000
G0 Z0.300
G0 X46.444 Y-56.614 Z0.300
G0 X46.444 Y-56.614 Z0.200
G1 X46.444 Y-56.614 Z-0.200 F150.000
G3 X46.538 Y-56.702 Z-0.200 I0.202 J0.122 K0.000 F250.000
G1 X46.444 Y-56.614 Z-0.200 F250.000
G0 Z0.300
G0 Z0.300
G0 X46.444 Y-56.614
G0 X45.649 Y-56.458
G0 X45.649 Y-56.458 Z0.200
G1 X45.649 Y-56.458 Z-0.200 F150.000
G3 X45.453 Y-56.584 Z-0.200 I-0.062 J-0.120 K0.000 F250.000
G2 X44.013 Y-55.957 Z-0.200 I-0.615 J0.555 K0.000 F250.000
G2 X45.465 Y-55.375 Z-0.200 I0.824 J0.046 K0.000 F250.000
G3 X45.649 Y-55.484 Z-0.200 I0.123 J-0.002 K0.000 F250.000
G3 X44.825 Y-54.998 Z-0.200 I-0.772 J-0.367 K0.000 F250.000
G3 X43.935 Y-56.258 Z-0.200 I0.016 J-0.956 K0.000 F250.000
G3 X45.106 Y-56.909 Z-0.200 I0.883 J0.209 K0.000 F250.000
G1 X45.255 Y-56.855 Z-0.200 F250.000
G3 X45.649 Y-56.458 Z-0.200 I-0.279 J0.671 K0.000 F250.000
G0 Z0.300
G0 X45.554 Y-56.508 Z0.300
G0 X45.554 Y-56.508 Z0.200
G1 X45.554 Y-56.508 Z-0.200 F150.000
G1 X45.502 Y-56.597 Z-0.200 F250.000
G3 X45.554 Y-56.508 Z-0.200 I-0.000 J0.060 K0.000 F250.000
G0 Z0.300
G0 X45.556 Y-55.434 Z0.300
G0 X45.556 Y-55.434 Z0.200
G1 X45.556 Y-55.434 Z-0.200 F150.000
G1 X45.571 Y-55.434 Z-0.200 F250.000
G3 X45.405 Y-55.246 Z-0.200 I-0.525 J-0.297 K0.000 F250.000
G2 X45.556 Y-55.434 Z-0.200 I-0.268 J-0.370 K0.000 F250.000
G0 Z0.300
G0 X44.557 Y-55.089 Z0.300
G0 X44.557 Y-55.089 Z0.200
G1 X44.557 Y-55.089 Z-0.200 F150.000
G3 X44.500 Y-55.106 Z-0.200 I-0.001 J-0.104 K0.000 F250.000
G1 X44.557 Y-55.089 Z-0.200 F250.000
G0 Z0.300
G0 X44.408 Y-55.149 Z0.300
G0 X44.408 Y-55.149 Z0.200
G1 X44.408 Y-55.149 Z-0.200 F150.000
G3 X44.017 Y-56.352 Z-0.200 I0.472 J-0.818 K0.000 F250.000
G3 X44.431 Y-56.804 Z-0.200 I0.745 J0.266 K0.000 F250.000
G2 X44.408 Y-55.149 Z-0.200 I0.510 J0.835 K0.000 F250.000
G0 Z0.300
G0 Z0.300
G0 X44.408 Y-55.149
G0 X49.372 Y-55.794
G0 X49.372 Y-55.794 Z0.200
G1 X49.372 Y-55.794 Z-0.200 F150.000
G3 X49.366 Y-55.969 Z-0.200 I0.919 J-0.119 K0.000 F250.000
G3 X50.794 Y-56.817 Z-0.200 I0.931 J-0.059 K0.000 F250.000
G3 X50.591 Y-55.037 Z-0.200 I-0.584 J0.835 K0.000 F250.000
G3 X49.372 Y-55.794 Z-0.200 I-0.300 J-0.876 K0.000 F250.000
G0 Z0.300
G0 X49.430 Y-55.804 Z0.300
G0 X49.430 Y-55.804 Z0.200
G1 X49.430 Y-55.804 Z-0.200 F150.000
G3 X49.658 Y-56.631 Z-0.200 I1.005 J-0.169 K0.000 F250.000
G2 X49.675 Y-55.294 Z-0.200 I0.828 J0.658 K0.000 F250.000
G3 X49.430 Y-55.804 Z-0.200 I0.760 J-0.679 K0.000 F250.000
G0 Z0.300
G0 X49.491 Y-55.814 Z0.300
G0 X49.491 Y-55.814 Z0.200
G1 X49.491 Y-55.814 Z-0.200 F150.000
G3 X49.841 Y-56.730 Z-0.200 I0.952 J-0.160 K0.000 F250.000
G3 X51.117 Y-55.981 Z-0.200 I0.456 J0.684 K0.000 F250.000
G3 X49.902 Y-55.175 Z-0.200 I-0.820 J0.083 K0.000 F250.000
G3 X49.491 Y-55.814 Z-0.200 I0.541 J-0.800 K0.000 F250.000
G0 Z0.300
G0 X50.922 Y-55.296 Z0.300
G0 X50.922 Y-55.296 Z0.200
G1 X50.922 Y-55.296 Z-0.200 F150.000
G2 X50.920 Y-56.647 Z-0.200 I-0.806 J-0.675 K0.000 F250.000
G3 X50.922 Y-55.296 Z-0.200 I-0.755 J0.676 K0.000 F250.000
G0 Z0.300
G0 Z0.300
G0 X50.922 Y-55.296
G0 X51.821
G0 X51.821 Z0.200
G1 X51.821 Y-55.296 Z-0.200 F150.000
G1 X51.821 Y-56.135 Z-0.200 F250.000
G3 X52.917 Y-56.855 Z-0.200 I0.735 J-0.075 K0.000 F250.000
G3 X53.169 Y-56.622 Z-0.200 I-0.513 J0.807 K0.000 F250.000
G2 X53.345 Y-56.686 Z-0.200 I0.076 J-0.065 K0.000 F250.000
G1 X53.345 Y-56.912 Z-0.200 F250.000
G1 X53.457 Y-56.912 Z-0.200 F250.000
G1 X53.457 Y-55.030 Z-0.200 F250.000
G1 X53.345 Y-55.030 Z-0.200 F250.000
G1 X53.343 Y-56.145 Z-0.200 F250.000
G2 X51.957 Y-56.342 Z-0.200 I-0.706 J-0.008 K0.000 F250.000
G1 X51.934 Y-56.133 Z-0.200 F250.000
G1 X51.934 Y-55.030 Z-0.200 F250.000
G1 X51.821 Y-55.030 Z-0.200 F250.000
G1 X51.821 Y-55.296 Z-0.200 F250.000
G0 Z0.300
G0 X53.354 Y-56.425 Z0.300
G0 X53.354 Y-56.425 Z0.200
G1 X53.354 Y-56.425 Z-0.200 F150.000
G3 X53.377 Y-56.574 Z-0.200 I0.086 J-0.063 K0.000 F250.000
G1 X53.377 Y-56.403 Z-0.200 F250.000
G3 X53.354 Y-56.425 Z-0.200 I0.063 J-0.086 K0.000 F250.000
G0 Z0.300
G0 Z0.300
G0 X53.354 Y-56.425
G0 X54.198
G0 X54.198 Z0.200
G1 X54.198 Y-56.425 Z-0.200 F150.000
G1 X54.198 Y-56.912 Z-0.200 F250.000
G1 X54.310 Y-56.912 Z-0.200 F250.000
G2 X54.352 Y-55.780 Z-0.200 I4.251 J0.410 K0.000 F250.000
G2 X54.491 Y-55.493 Z-0.200 I0.709 J-0.167 K0.000 F250.000
G2 X54.310 Y-55.442 Z-0.200 I-0.084 J0.049 K0.000 F250.000
G1 X54.310 Y-55.030 Z-0.200 F250.000
G1 X54.198 Y-55.030 Z-0.200 F250.000
G1 X54.198 Y-56.425 Z-0.200 F250.000
G0 Z0.300
G0 X54.278 Y-55.748 Z0.300
G0 X54.278 Y-55.748 Z0.200
G1 X54.278 Y-55.748 Z-0.200 F150.000
G2 X54.334 Y-55.596 Z-0.200 I0.791 J-0.207 K0.000 F250.000
G2 X54.278 Y-55.549 Z-0.200 I-0.002 J0.055 K0.000 F250.000
G1 X54.278 Y-55.748 Z-0.200 F250.000
G0 Z0.300
G0 X54.510 Y-55.463 Z0.300
G0 X54.510 Y-55.463 Z0.200
G1 X54.510 Y-55.463 Z-0.200 F150.000
G2 X55.097 Y-55.115 Z-0.200 I0.617 J-0.373 K0.000 F250.000
G1 X55.097 Y-55.004 Z-0.200 F250.000
G3 X54.510 Y-55.463 Z-0.200 I0.058 J-0.679 K0.000 F250.000
G0 Z0.300
G0 Z0.300
G0 X54.510 Y-55.463
G0 X39.689 Y-84.128
G0 X39.689 Y-84.128 Z0.200
G1 X39.689 Y-84.128 Z-0.200 F150.000
G3 X39.528 Y-84.072 Z-0.200 I-0.284 J-0.549 K0.000 F250.000
G3 X39.137 Y-84.043 Z-0.200 I-0.271 J-1.038 K0.000 F250.000
G1 X23.012 Y-85.893 Z-0.200 F250.000
G3 X22.098 Y-86.742 Z-0.200 I0.034 J-0.953 K0.000 F250.000
G1 X22.098 Y-95.175 Z-0.200 F250.000
G3 X22.672 Y-95.787 Z-0.200 I0.635 J0.020 K0.000 F250.000
G1 X22.991 Y-95.795 Z-0.200 F250.000
G1 X39.111 Y-93.947 Z-0.200 F250.000
G3 X40.023 Y-93.097 Z-0.200 I-0.034 J0.952 K0.000 F250.000
G1 X40.023 Y-84.665 Z-0.200 F250.000
G3 X39.689 Y-84.128 Z-0.200 I-0.618 J-0.012 K0.000 F250.000
G0 Z0.300
G0 X39.656 Y-84.186 Z0.300
G0 X39.656 Y-84.186 Z0.200
G1 X39.656 Y-84.186 Z-0.200 F150.000
G3 X39.217 Y-84.091 Z-0.200 I-0.363 J-0.614 K0.000 F250.000
G1 X39.200 Y-84.100 Z-0.200 F250.000
G1 X39.199 Y-84.091 Z-0.200 F250.000
G1 X39.120 Y-84.097 Z-0.200 F250.000
G1 X22.984 Y-85.956 Z-0.200 F250.000
G3 X22.159 Y-86.686 Z-0.200 I0.084 J-0.926 K0.000 F250.000
G1 X22.150 Y-95.155 Z-0.200 F250.000
G3 X22.197 Y-95.370 Z-0.200 I0.521 J0.001 K0.000 F250.000
G3 X22.992 Y-95.744 Z-0.200 I0.649 J0.347 K0.000 F250.000
G1 X39.131 Y-93.870 Z-0.200 F250.000
G3 X39.963 Y-93.129 Z-0.200 I-0.162 J1.019 K0.000 F250.000
G1 X39.973 Y-84.685 Z-0.200 F250.000
G3 X39.929 Y-84.478 Z-0.200 I-0.520 J-0.001 K0.000 F250.000
G3 X39.656 Y-84.186 Z-0.200 I-0.636 J-0.322 K0.000 F250.000
G0 Z0.300
G0 X39.768 Y-93.574 Z0.300
G0 X39.768 Y-93.574 Z0.200
G1 X39.768 Y-93.574 Z-0.200 F150.000
G1 X39.754 Y-93.588 Z-0.200 F250.000
G3 X39.768 Y-93.574 Z-0.200 I-0.024 J0.037 K0.000 F250.000
G0 Z0.300
G0 Z0.300
G0 X39.768 Y-93.574
G0 X16.124 Y-56.803
G0 X16.124 Y-56.803 Z0.200
G1 X16.124 Y-56.803 Z-0.200 F150.000
G3 X16.148 Y-56.787 Z-0.200 I-0.522 J0.811 K0.000 F250.000
G3 X16.378 Y-56.512 Z-0.200 I-0.358 J0.535 K0.000 F250.000
G3 X16.212 Y-56.586 Z-0.200 I-0.058 J-0.094 K0.000 F250.000
G2 X14.785 Y-56.041 Z-0.200 I-0.617 J0.524 K0.000 F250.000
G1 X14.869 Y-55.996 Z-0.200 F250.000
G1 X16.513 Y-55.996 Z-0.200 F250.000
G3 X14.671 Y-55.743 Z-0.200 I-0.930 J0.066 K0.000 F250.000
G3 X16.124 Y-56.803 Z-0.200 I0.932 J-0.248 K0.000 F250.000
G0 Z0.300
G0 Y-55.904 Z0.300
G0 Y-55.904 Z0.200
G1 X16.124 Y-55.904 Z-0.200 F150.000
G1 X16.289 Y-55.904 Z-0.200 F250.000
G1 X16.375 Y-55.856 Z-0.200 F250.000
G3 X14.778 Y-55.773 Z-0.200 I-0.801 J-0.014 K0.000 F250.000
G3 X14.874 Y-55.904 Z-0.200 I0.095 J-0.031 K0.000 F250.000
G1 X16.124 Y-55.904 Z-0.200 F250.000
G0 Z0.300
G0 X16.419 Y-55.916 Z0.300
G0 X16.419 Y-55.916 Z0.200
G1 X16.419 Y-55.916 Z-0.200 F150.000
G1 X16.425 Y-55.916 Z-0.200 F250.000
G1 X16.425 Y-55.909 Z-0.200 F250.000
G1 X16.419 Y-55.916 Z-0.200 F250.000
G0 Z0.300
G0 X14.770 Y-55.951 Z0.300
G0 X14.770 Y-55.951 Z0.200
G1 X14.770 Y-55.951 Z-0.200 F150.000
G2 X14.736 Y-55.906 Z-0.200 I0.014 J0.046 K0.000 F250.000
G3 X14.733 Y-55.992 Z-0.200 I0.193 J-0.049 K0.000 F250.000
G1 X14.770 Y-55.951 Z-0.200 F250.000
G0 Z0.300
G0 Z0.300
G0 X14.770 Y-55.951
G0 X14.057
G0 X14.057 Z0.200
G1 X14.057 Y-55.951 Z-0.200 F150.000
G1 X14.057 Y-55.806 Z-0.200 F250.000
G3 X12.708 Y-55.322 Z-0.200 I-0.737 J0.069 K0.000 F250.000
G2 X12.534 Y-55.255 Z-0.200 I-0.074 J0.067 K0.000 F250.000
G1 X12.534 Y-55.030 Z-0.200 F250.000
G1 X12.422 Y-55.030 Z-0.200 F250.000
G1 X12.422 Y-56.912 Z-0.200 F250.000
G1 X12.534 Y-56.912 Z-0.200 F250.000
G1 X12.535 Y-55.801 Z-0.200 F250.000
G2 X13.920 Y-55.593 Z-0.200 I0.706 J0.015 K0.000 F250.000
G1 X13.945 Y-55.808 Z-0.200 F250.000
G1 X13.945 Y-56.912 Z-0.200 F250.000
G1 X14.057 Y-56.912 Z-0.200 F250.000
G1 X14.057 Y-55.951 Z-0.200 F250.000
G0 Z0.300
G0 X12.556 Y-55.415 Z0.300
G0 X12.556 Y-55.415 Z0.200
G1 X12.556 Y-55.415 Z-0.200 F150.000
G1 X12.502 Y-55.366 Z-0.200 F250.000
G1 X12.502 Y-55.538 Z-0.200 F250.000
G1 X12.556 Y-55.415 Z-0.200 F250.000
G0 Z0.300
G0 Z0.300
G0 X12.556 Y-55.415
G0 X11.760 Y-55.671
G0 X11.760 Y-55.671 Z0.200
G1 X11.760 Y-55.671 Z-0.200 F150.000
G3 X11.170 Y-55.037 Z-0.200 I-0.970 J-0.311 K0.000 F250.000
G3 X10.058 Y-55.478 Z-0.200 I-0.300 J-0.867 K0.000 F250.000
G3 X10.878 Y-56.944 Z-0.200 I0.850 J-0.487 K0.000 F250.000
G3 X11.374 Y-56.817 Z-0.200 I0.028 J0.923 K0.000 F250.000
G3 X11.760 Y-55.671 Z-0.200 I-0.584 J0.835 K0.000 F250.000
G0 Z0.300
G0 X11.717 Y-55.683 Z0.300
G0 X11.717 Y-55.683 Z0.200
G1 X11.717 Y-55.683 Z-0.200 F150.000
G3 X11.502 Y-55.296 Z-0.200 I-0.972 J-0.287 K0.000 F250.000
G2 X11.500 Y-56.647 Z-0.200 I-0.807 J-0.675 K0.000 F250.000
G3 X11.717 Y-55.683 Z-0.200 I-0.755 J0.676 K0.000 F250.000
G0 Z0.300
G0 X11.675 Y-55.694 Z0.300
G0 X11.675 Y-55.694 Z0.200
G1 X11.675 Y-55.694 Z-0.200 F150.000
G3 X10.463 Y-55.186 Z-0.200 I-0.798 J-0.204 K0.000 F250.000
G3 X10.421 Y-56.730 Z-0.200 I0.550 J-0.787 K0.000 F250.000
G3 X11.697 Y-55.981 Z-0.200 I0.456 J0.684 K0.000 F250.000
G3 X11.675 Y-55.694 Z-0.200 I-0.820 J0.083 K0.000 F250.000
G0 Z0.300
G0 X10.262 Y-55.284 Z0.300
G0 X10.262 Y-55.284 Z0.200
G1 X10.262 Y-55.284 Z-0.200 F150.000
G3 X10.282 Y-56.672 Z-0.200 I0.745 J-0.683 K0.000 F250.000
G2 X10.262 Y-55.284 Z-0.200 I0.770 J0.705 K0.000 F250.000
G0 Z0.300
G0 Z0.300
G0 X10.262 Y-55.284
G0 X9.532 Y-55.105
G0 X9.532 Y-55.105 Z0.200
G1 X9.532 Y-55.105 Z-0.200 F150.000
G1 X9.532 Y-55.030 Z-0.200 F250.000
G1 X9.154 Y-55.030 Z-0.200 F250.000
G2 X9.054 Y-54.930 Z-0.200 I-0.000 J0.100 K0.000 F250.000
G1 X9.054 Y-54.285 Z-0.200 F250.000
G1 X8.941 Y-54.285 Z-0.200 F250.000
G1 X8.941 Y-54.930 Z-0.200 F250.000
G2 X8.841 Y-55.030 Z-0.200 I-0.100 J-0.000 K0.000 F250.000
G1 X8.517 Y-55.030 Z-0.200 F250.000
G1 X8.517 Y-55.105 Z-0.200 F250.000
G1 X8.841 Y-55.105 Z-0.200 F250.000
G2 X8.941 Y-55.205 Z-0.200 I0.000 J-0.100 K0.000 F250.000
G1 X8.941 Y-56.912 Z-0.200 F250.000
G1 X9.054 Y-56.912 Z-0.200 F250.000
G1 X9.054 Y-55.205 Z-0.200 F250.000
G2 X9.154 Y-55.105 Z-0.200 I0.100 J0.000 K0.000 F250.000
G1 X9.532 Y-55.105 Z-0.200 F250.000
G0 Z0.300
G0 X9.052 Y-55.077 Z0.300
G0 X9.052 Y-55.077 Z0.200
G1 X9.052 Y-55.077 Z-0.200 F150.000
G2 X9.003 Y-54.987 Z-0.200 I0.020 J0.070 K0.000 F250.000
G2 X8.943 Y-55.058 Z-0.200 I-0.065 J-0.006 K0.000 F250.000
G2 X8.992 Y-55.148 Z-0.200 I-0.020 J-0.070 K0.000 F250.000
G2 X9.052 Y-55.077 Z-0.200 I0.065 J0.006 K0.000 F250.000
G0 Z0.300
G0 Z0.300
(Finish operation: ENGRAVE 0.20MM)
(Begin operation: ballend-025mm003)
(Path: ballend-025mm003)
(ballend-025mm003)
(Begin toolchange)
( M6 T6 )
M3 S10000
(Finish operation: ballend-025mm003)
(Begin operation: ENGRAVE 0.25MM)
(Path: ENGRAVE 0.25MM)
(ENGRAVE 0.25MM)
G0 Z0.300
G0 X26.970 Y-86.436
G0 Z0.200
G1 X26.970 Y-86.436 Z-0.200 F150.000
G3 X26.069 Y-86.682 Z-0.200 I-0.286 J-0.723 K0.000 F2509.000
G3 X26.057 Y-90.695 Z-0.200 I124.281 J-2.387 K0.000 F2509.000
G2 X25.857 Y-90.837 Z-0.200 I-0.207 J0.080 K0.000 F2509.000
G2 X24.168 Y-91.101 Z-0.200 I-3.836 J19.020 K0.000 F2509.000
G2 X23.951 Y-90.771 Z-0.200 I0.128 J0.321 K0.000 F2509.000
G2 X24.014 Y-89.360 Z-0.200 I5.356 J0.470 K0.000 F2509.000
G3 X23.978 Y-86.902 Z-0.200 I-31.531 J0.774 K0.000 F2509.000
G3 X23.059 Y-87.051 Z-0.200 I-0.382 J-0.553 K0.000 F2509.000
G3 X23.088 Y-91.397 Z-0.200 I239.730 J-0.580 K0.000 F2509.000
G3 X23.816 Y-91.569 Z-0.200 I0.642 J1.091 K0.000 F2509.000
G3 X25.436 Y-91.330 Z-0.200 I0.038 J5.348 K0.000 F2509.000
G2 X25.916 Y-91.278 Z-0.200 I0.328 J-0.790 K0.000 F2509.000
G2 X26.168 Y-91.871 Z-0.200 I-0.651 J-0.626 K0.000 F2509.000
G2 X25.901 Y-94.098 Z-0.200 I-6.118 J-0.397 K0.000 F2509.000
G2 X25.444 Y-94.225 Z-0.200 I-0.471 J0.806 K0.000 F2509.000
G2 X24.244 Y-94.379 Z-0.200 I-1.114 J3.933 K0.000 F2509.000
G2 X23.935 Y-94.239 Z-0.200 I-0.051 J0.299 K0.000 F2509.000
G2 X23.916 Y-93.373 Z-0.200 I4.644 J0.535 K0.000 F2509.000
G3 X23.603 Y-93.247 Z-0.200 I-0.246 J-0.161 K0.000 F2509.000
G3 X23.147 Y-93.548 Z-0.200 I-0.089 J-0.361 K0.000 F2509.000
G3 X23.124 Y-94.885 Z-0.200 I2.772 J-0.717 K0.000 F2509.000
G3 X23.481 Y-94.941 Z-0.200 I0.222 J0.249 K0.000 F2509.000
G2 X25.222 Y-94.747 Z-0.200 I13.533 J-113.673 K0.000 F2509.000
G3 X26.424 Y-94.441 Z-0.200 I-0.247 J3.478 K0.000 F2509.000
G3 X26.928 Y-93.675 Z-0.200 I-0.361 J0.787 K0.000 F2509.000
G3 X26.992 Y-91.119 Z-0.200 I-9.718 J1.521 K0.000 F2509.000
G2 X26.970 Y-86.436 Z-0.200 I219.966 J3.367 K0.000 F2509.000
G0 Z0.300
G0 X26.870 Y-86.510 Z0.300
G0 X26.870 Y-86.510 Z0.200
G1 X26.870 Y-86.510 Z-0.200 F150.000
G3 X26.167 Y-86.733 Z-0.200 I-0.211 J-0.553 K0.000 F2509.000
G3 X26.157 Y-90.695 Z-0.200 I152.681 J-2.357 K0.000 F2509.000
G2 X25.875 Y-90.935 Z-0.200 I-0.305 J0.073 K0.000 F2509.000
G2 X24.172 Y-91.201 Z-0.200 I-3.832 J18.996 K0.000 F2509.000
G2 X23.852 Y-90.787 Z-0.200 I0.085 J0.397 K0.000 F2509.000
G2 X23.914 Y-89.355 Z-0.200 I5.426 J0.485 K0.000 F2509.000
G3 X23.874 Y-86.937 Z-0.200 I-28.644 J0.744 K0.000 F2509.000
G3 X23.159 Y-87.084 Z-0.200 I-0.258 J-0.560 K0.000 F2509.000
G3 X23.184 Y-91.344 Z-0.200 I316.747 J-0.251 K0.000 F2509.000
G3 X24.326 Y-91.451 Z-0.200 I0.770 J2.075 K0.000 F2509.000
G2 X25.898 Y-91.170 Z-0.200 I2.752 J-10.848 K0.000 F2509.000
G2 X26.088 Y-91.300 Z-0.200 I-0.022 J-0.236 K0.000 F2509.000
G2 X26.287 Y-92.453 Z-0.200 I-1.944 J-0.929 K0.000 F2509.000
G2 X25.986 Y-94.150 Z-0.200 I-6.105 J0.207 K0.000 F2509.000
G2 X25.462 Y-94.323 Z-0.200 I-0.535 J0.739 K0.000 F2509.000
G2 X24.225 Y-94.477 Z-0.200 I-1.116 J3.926 K0.000 F2509.000
G2 X23.801 Y-93.996 Z-0.200 I-0.036 J0.395 K0.000 F2509.000
G3 X23.817 Y-93.400 Z-0.200 I-9.926 J0.570 K0.000 F2509.000
G3 X23.304 Y-93.428 Z-0.200 I-0.231 J-0.477 K0.000 F2509.000
G3 X23.246 Y-93.566 Z-0.200 I0.254 J-0.188 K0.000 F2509.000
G3 X23.217 Y-94.845 Z-0.200 I2.691 J-0.700 K0.000 F2509.000
G3 X23.475 Y-94.841 Z-0.200 I0.103 J1.507 K0.000 F2509.000
G2 X25.207 Y-94.648 Z-0.200 I13.248 J-111.088 K0.000 F2509.000
G3 X26.375 Y-94.353 Z-0.200 I-0.232 J3.376 K0.000 F2509.000
G3 X26.831 Y-93.653 Z-0.200 I-0.315 J0.703 K0.000 F2509.000
G3 X26.892 Y-91.121 Z-0.200 I-9.644 J1.500 K0.000 F2509.000
G2 X26.870 Y-86.510 Z-0.200 I216.845 J3.324 K0.000 F2509.000
G0 Z0.300
G0 X26.770 Y-86.588 Z0.300
G0 X26.770 Y-86.588 Z0.200
G1 X26.770 Y-86.588 Z-0.200 F150.000
G3 X26.267 Y-86.743 Z-0.200 I-0.083 J-0.627 K0.000 F2509.000
G3 X26.257 Y-90.695 Z-0.200 I154.675 J-2.349 K0.000 F2509.000
G2 X25.893 Y-91.034 Z-0.200 I-0.405 J0.071 K0.000 F2509.000
G2 X24.176 Y-91.301 Z-0.200 I-3.830 J18.979 K0.000 F2509.000
G2 X23.754 Y-90.803 Z-0.200 I0.075 J0.492 K0.000 F2509.000
G2 X23.814 Y-89.350 Z-0.200 I5.498 J0.500 K0.000 F2509.000
G3 X23.788 Y-87.007 Z-0.200 I-59.430 J0.522 K0.000 F2509.000
G3 X23.259 Y-87.126 Z-0.200 I-0.164 J-0.502 K0.000 F2509.000
G3 X23.265 Y-88.707 Z-0.200 I656.996 J1.566 K0.000 F2509.000
G3 X23.282 Y-91.291 Z-0.200 I137.947 J-0.375 K0.000 F2509.000
G3 X24.606 Y-91.300 Z-0.200 I0.680 J2.824 K0.000 F2509.000
G2 X25.828 Y-91.063 Z-0.200 I2.519 J-9.750 K0.000 F2509.000
G2 X26.178 Y-91.257 Z-0.200 I0.011 J-0.392 K0.000 F2509.000
G2 X26.375 Y-92.667 Z-0.200 I-2.219 J-1.029 K0.000 F2509.000
G2 X26.071 Y-94.203 Z-0.200 I-5.264 J0.243 K0.000 F2509.000
G2 X25.480 Y-94.422 Z-0.200 I-0.611 J0.742 K0.000 F2509.000
G2 X24.206 Y-94.575 Z-0.200 I-1.120 J3.934 K0.000 F2509.000
G2 X23.701 Y-93.994 Z-0.200 I-0.021 J0.492 K0.000 F2509.000
G3 X23.717 Y-93.455 Z-0.200 I-24.648 J1.011 K0.000 F2509.000
G3 X23.352 Y-93.554 Z-0.200 I-0.114 J-0.304 K0.000 F2509.000
G3 X23.300 Y-94.748 Z-0.200 I2.854 J-0.722 K0.000 F2509.000
G3 X25.888 Y-94.417 Z-0.200 I-2.944 J33.321 K0.000 F2509.000
G3 X26.604 Y-94.042 Z-0.200 I-0.165 J1.188 K0.000 F2509.000
G3 X26.820 Y-91.701 Z-0.200 I-5.803 J1.714 K0.000 F2509.000
G2 X26.770 Y-86.588 Z-0.200 I85.723 J3.383 K0.000 F2509.000
G0 Z0.300
G0 X26.671 Y-86.685 Z0.300
G0 X26.671 Y-86.685 Z0.200
G1 X26.671 Y-86.685 Z-0.200 F150.000
G3 X26.365 Y-86.789 Z-0.200 I-0.020 J-0.441 K0.000 F2509.000
G3 X26.357 Y-90.695 Z-0.200 I170.230 J-2.314 K0.000 F2509.000
G2 X26.128 Y-91.055 Z-0.200 I-0.332 J-0.041 K0.000 F2509.000
G2 X26.467 Y-91.855 Z-0.200 I-0.900 J-0.853 K0.000 F2509.000
G2 X26.172 Y-94.227 Z-0.200 I-6.310 J-0.420 K0.000 F2509.000
G3 X26.636 Y-93.608 Z-0.200 I-0.154 J0.598 K0.000 F2509.000
G3 X26.692 Y-91.124 Z-0.200 I-9.499 J1.458 K0.000 F2509.000
G2 X26.671 Y-86.685 Z-0.200 I209.433 J3.223 K0.000 F2509.000
G0 Z0.300
G0 X26.571 Y-86.804 Z0.300
G0 X26.571 Y-86.804 Z0.200
G1 X26.571 Y-86.804 Z-0.200 F150.000
G1 X26.464 Y-86.842 Z-0.200 F2509.000
G3 X26.457 Y-90.695 Z-0.200 I236.745 J-2.353 K0.000 F2509.000
G2 X26.281 Y-91.079 Z-0.200 I-0.398 J-0.049 K0.000 F2509.000
G2 X26.567 Y-91.849 Z-0.200 I-1.055 J-0.830 K0.000 F2509.000
G2 X26.355 Y-94.009 Z-0.200 I-7.070 J-0.395 K0.000 F2509.000
G3 X26.478 Y-93.820 Z-0.200 I-0.159 J0.238 K0.000 F2509.000
G3 X26.604 Y-91.405 Z-0.200 I-7.216 J1.588 K0.000 F2509.000
G2 X26.571 Y-86.804 Z-0.200 I101.600 J3.036 K0.000 F2509.000
G0 Z0.300
G0 X23.691 Y-87.089 Z0.300
G0 X23.691 Y-87.089 Z0.200
G1 X23.691 Y-87.089 Z-0.200 F150.000
G3 X23.359 Y-87.168 Z-0.200 I-0.102 J-0.305 K0.000 F2509.000
G3 X23.380 Y-91.216 Z-0.200 I606.667 J1.131 K0.000 F2509.000
G3 X23.871 Y-91.270 Z-0.200 I0.421 J1.575 K0.000 F2509.000
G2 X23.633 Y-90.431 Z-0.200 I0.905 J0.711 K0.000 F2509.000
G2 X23.714 Y-89.345 Z-0.200 I10.417 J-0.232 K0.000 F2509.000
G3 X23.691 Y-87.089 Z-0.200 I-71.474 J0.417 K0.000 F2509.000
G0 Z0.300
G0 X23.573 Y-87.185 Z0.300
G0 X23.573 Y-87.185 Z0.200
G1 X23.573 Y-87.185 Z-0.200 F150.000
G1 X23.459 Y-87.218 Z-0.200 F2509.000
G3 X23.479 Y-91.141 Z-0.200 I746.865 J1.734 K0.000 F2509.000
G3 X23.663 Y-91.162 Z-0.200 I0.180 J0.784 K0.000 F2509.000
G2 X23.577 Y-89.684 Z-0.200 I2.712 J0.898 K0.000 F2509.000
G3 X23.602 Y-87.567 Z-0.200 I-30.801 J1.416 K0.000 F2509.000
G3 X23.573 Y-87.185 Z-0.200 I-1.118 J0.107 K0.000 F2509.000
G0 Z0.300
G0 X26.489 Y-90.963 Z0.300
G0 X26.489 Y-90.963 Z0.200
G1 X26.489 Y-90.963 Z-0.200 F150.000
G1 X26.416 Y-91.089 Z-0.200 F2509.000
G2 X26.495 Y-91.223 Z-0.200 I-0.213 J-0.216 K0.000 F2509.000
G2 X26.489 Y-90.963 Z-0.200 I8.483 J0.340 K0.000 F2509.000
G0 Z0.300
G0 X23.613 Y-93.547 Z0.300
G0 X23.613 Y-93.547 Z0.200
G1 X23.613 Y-93.547 Z-0.200 F150.000
G3 X23.454 Y-93.574 Z-0.200 I-0.035 J-0.273 K0.000 F2509.000
G3 X23.443 Y-93.603 Z-0.200 I0.053 J-0.037 K0.000 F2509.000
G3 X23.362 Y-94.426 Z-0.200 I3.210 J-0.732 K0.000 F2509.000
G1 X23.388 Y-94.645 Z-0.200 F2509.000
G3 X23.907 Y-94.594 Z-0.200 I-0.289 J5.557 K0.000 F2509.000
G2 X23.601 Y-93.991 Z-0.200 I0.265 J0.514 K0.000 F2509.000
G3 X23.613 Y-93.547 Z-0.200 I-2.684 J0.292 K0.000 F2509.000
G0 Z0.300
G0 X23.503 Y-93.915 Z0.300
G0 X23.503 Y-93.915 Z0.200
G1 X23.503 Y-93.915 Z-0.200 F150.000
G3 X23.476 Y-94.540 Z-0.200 I1.514 J-0.378 K0.000 F2509.000
G3 X23.665 Y-94.523 Z-0.200 I-0.312 J4.559 K0.000 F2509.000
G2 X23.503 Y-93.915 Z-0.200 I0.603 J0.487 K0.000 F2509.000
G0 Z0.300
G0 Z0.300
G0 X23.503 Y-93.915
G0 X28.392 Y-93.938
G0 X28.392 Y-93.938 Z0.200
G1 X28.392 Y-93.938 Z-0.200 F150.000
G3 X28.442 Y-94.214 Z-0.200 I0.765 J-0.004 K0.000 F2509.000
G3 X28.795 Y-94.245 Z-0.200 I0.219 J0.467 K0.000 F2509.000
G1 X29.236 Y-94.208 Z-0.200 F2509.000
G3 X32.139 Y-93.756 Z-0.200 I-0.939 J15.567 K0.000 F2509.000
G3 X32.552 Y-93.206 Z-0.200 I-0.188 J0.571 K0.000 F2509.000
G3 X32.656 Y-91.807 Z-0.200 I-4.838 J1.066 K0.000 F2509.000
G2 X32.572 Y-89.716 Z-0.200 I40.613 J2.694 K0.000 F2509.000
G3 X31.888 Y-89.497 Z-0.200 I-0.564 J-0.588 K0.000 F2509.000
G3 X30.819 Y-89.642 Z-0.200 I0.046 J-4.343 K0.000 F2509.000
G3 X30.650 Y-90.030 Z-0.200 I0.249 J-0.339 K0.000 F2509.000
G3 X31.135 Y-90.129 Z-0.200 I0.365 J0.551 K0.000 F2509.000
G1 X31.318 Y-90.112 Z-0.200 F2509.000
G1 X31.318 Y-90.112 Z-0.200 F2509.000
G2 X31.713 Y-90.341 Z-0.200 I0.107 J-0.270 K0.000 F2509.000
G2 X31.745 Y-91.887 Z-0.200 I-5.777 J-0.893 K0.000 F2509.000
G2 X31.619 Y-93.475 Z-0.200 I-12.656 J0.198 K0.000 F2509.000
G2 X31.176 Y-93.782 Z-0.200 I-0.526 J0.286 K0.000 F2509.000
G2 X29.581 Y-93.971 Z-0.200 I-9.267 J71.310 K0.000 F2509.000
G2 X29.432 Y-93.636 Z-0.200 I0.067 J0.231 K0.000 F2509.000
G3 X29.574 Y-90.224 Z-0.200 I-26.510 J2.809 K0.000 F2509.000
G2 X29.456 Y-86.768 Z-0.200 I79.346 J4.442 K0.000 F2509.000
G2 X29.531 Y-86.381 Z-0.200 I0.527 J0.099 K0.000 F2509.000
G2 X31.368 Y-86.099 Z-0.200 I1.858 J-5.992 K0.000 F2509.000
G2 X31.478 Y-86.380 Z-0.200 I-0.112 J-0.206 K0.000 F2509.000
G3 X31.418 Y-87.001 Z-0.200 I10.205 J-1.303 K0.000 F2509.000
G3 X32.457 Y-86.890 Z-0.200 I0.305 J2.064 K0.000 F2509.000
G3 X32.529 Y-85.847 Z-0.200 I-7.862 J1.068 K0.000 F2509.000
G3 X32.457 Y-85.779 Z-0.200 I-0.126 J-0.060 K0.000 F2509.000
G3 X29.911 Y-85.998 Z-0.200 I2.423 J-42.954 K0.000 F2509.000
G3 X28.604 Y-86.229 Z-0.200 I-0.013 J-3.750 K0.000 F2509.000
G3 X28.458 Y-86.504 Z-0.200 I0.189 J-0.276 K0.000 F2509.000
G3 X28.505 Y-89.800 Z-0.200 I24.426 J-1.300 K0.000 F2509.000
G2 X28.405 Y-93.805 Z-0.200 I-27.907 J-1.305 K0.000 F2509.000
G3 X28.392 Y-93.938 Z-0.200 I0.753 J-0.137 K0.000 F2509.000
G0 Z0.300
G0 X28.483 Y-93.939 Z0.300
G0 X28.483 Y-93.939 Z0.200
G1 X28.483 Y-93.939 Z-0.200 F150.000
G3 X28.534 Y-94.150 Z-0.200 I0.443 J-0.004 K0.000 F2509.000
G3 X29.226 Y-94.108 Z-0.200 I0.138 J3.507 K0.000 F2509.000
G1 X29.584 Y-94.069 Z-0.200 F2509.000
G2 X29.333 Y-93.628 Z-0.200 I0.032 J0.310 K0.000 F2509.000
G3 X29.474 Y-90.225 Z-0.200 I-26.424 J2.801 K0.000 F2509.000
G2 X29.356 Y-86.765 Z-0.200 I78.854 J4.423 K0.000 F2509.000
G2 X29.472 Y-86.300 Z-0.200 I0.583 J0.102 K0.000 F2509.000
G2 X31.386 Y-86.001 Z-0.200 I1.887 J-5.802 K0.000 F2509.000
G2 X31.566 Y-86.469 Z-0.200 I-0.165 J-0.332 K0.000 F2509.000
G3 X31.525 Y-86.912 Z-0.200 I18.977 J-1.981 K0.000 F2509.000
G3 X32.365 Y-86.828 Z-0.200 I0.198 J2.251 K0.000 F2509.000
G3 X32.430 Y-85.879 Z-0.200 I-6.669 J0.936 K0.000 F2509.000
G3 X29.921 Y-86.098 Z-0.200 I2.551 J-43.780 K0.000 F2509.000
G3 X28.618 Y-86.345 Z-0.200 I-0.075 J-3.169 K0.000 F2509.000
G3 X28.515 Y-87.074 Z-0.200 I1.758 J-0.621 K0.000 F2509.000
G3 X28.634 Y-91.105 Z-0.200 I1822.433 J51.909 K0.000 F2509.000
G2 X28.505 Y-93.807 Z-0.200 I-71.618 J2.069 K0.000 F2509.000
G3 X28.483 Y-93.939 Z-0.200 I0.422 J-0.136 K0.000 F2509.000
G0 Z0.300
G0 X28.604 Y-93.938 Z0.300
G0 X28.604 Y-93.938 Z0.200
G1 X28.604 Y-93.938 Z-0.200 F150.000
G3 X28.607 Y-94.052 Z-0.200 I3.684 J0.036 K0.000 F2509.000
G3 X29.217 Y-94.009 Z-0.200 I-0.180 J6.826 K0.000 F2509.000
G1 X29.300 Y-94.000 Z-0.200 F2509.000
G2 X29.246 Y-93.461 Z-0.200 I0.692 J0.342 K0.000 F2509.000
G3 X29.374 Y-90.227 Z-0.200 I-23.814 J2.564 K0.000 F2509.000
G2 X29.256 Y-86.762 Z-0.200 I78.379 J4.405 K0.000 F2509.000
G2 X29.391 Y-86.249 Z-0.200 I0.650 J0.104 K0.000 F2509.000
G3 X28.694 Y-86.412 Z-0.200 I0.148 J-2.199 K0.000 F2509.000
G3 X28.617 Y-87.562 Z-0.200 I3.499 J-0.812 K0.000 F2509.000
G2 X28.732 Y-91.552 Z-0.200 I-83.785 J-4.405 K0.000 F2509.000
G2 X28.605 Y-93.809 Z-0.200 I-132.870 J6.357 K0.000 F2509.000
G3 X28.604 Y-93.938 Z-0.200 I3.683 J-0.093 K0.000 F2509.000
G0 Z0.300
G0 X28.704 Y-93.936 Z0.300
G0 X28.704 Y-93.936 Z0.200
G1 X28.704 Y-93.936 Z-0.200 F150.000
G3 X28.704 Y-93.949 Z-0.200 I2.091 J0.048 K0.000 F2509.000
G3 X29.143 Y-93.915 Z-0.200 I-0.254 J6.061 K0.000 F2509.000
G2 X29.244 Y-92.269 Z-0.200 I10.760 J0.170 K0.000 F2509.000
G3 X29.164 Y-87.281 Z-0.200 I-47.888 J1.726 K0.000 F2509.000
G2 X29.194 Y-86.375 Z-0.200 I2.928 J0.358 K0.000 F2509.000
G3 X28.779 Y-86.478 Z-0.200 I0.074 J-1.179 K0.000 F2509.000
G3 X28.717 Y-87.561 Z-0.200 I3.592 J-0.747 K0.000 F2509.000
G2 X28.832 Y-91.554 Z-0.200 I-83.771 J-4.404 K0.000 F2509.000
G2 X28.705 Y-93.811 Z-0.200 I-131.179 J6.260 K0.000 F2509.000
G3 X28.704 Y-93.936 Z-0.200 I2.090 J-0.077 K0.000 F2509.000
G0 Z0.300
G0 X28.804 Y-93.843 Z0.300
G0 X28.804 Y-93.843 Z0.200
G1 X28.804 Y-93.843 Z-0.200 F150.000
G1 X29.028 Y-93.824 Z-0.200 F2509.000
G3 X29.094 Y-88.026 Z-0.200 I-35.389 J3.304 K0.000 F2509.000
G2 X29.068 Y-86.499 Z-0.200 I10.626 J0.947 K0.000 F2509.000
G3 X28.861 Y-86.553 Z-0.200 I0.053 J-0.635 K0.000 F2509.000
G3 X28.879 Y-89.287 Z-0.200 I17.288 J-1.251 K0.000 F2509.000
G2 X28.804 Y-93.843 Z-0.200 I-28.829 J-1.806 K0.000 F2509.000
G0 Z0.300
G0 X28.907 Y-93.734 Z0.300
G0 X28.907 Y-93.734 Z0.200
G1 X28.907 Y-93.734 Z-0.200 F150.000
G1 X28.927 Y-93.732 Z-0.200 F2509.000
G3 X29.007 Y-88.266 Z-0.200 I-31.792 J3.195 K0.000 F2509.000
G2 X28.960 Y-86.625 Z-0.200 I18.519 J1.351 K0.000 F2509.000
G1 X28.945 Y-86.628 Z-0.200 F2509.000
G3 X29.029 Y-90.429 Z-0.200 I35.355 J-1.124 K0.000 F2509.000
G2 X28.907 Y-93.734 Z-0.200 I-26.143 J-0.692 K0.000 F2509.000
G0 Z0.300
G0 X31.379 Y-93.824 Z0.300
G0 X31.379 Y-93.824 Z0.200
G1 X31.379 Y-93.824 Z-0.200 F150.000
G3 X32.308 Y-93.549 Z-0.200 I-0.117 J2.102 K0.000 F2509.000
G3 X32.548 Y-92.579 Z-0.200 I-1.829 J0.965 K0.000 F2509.000
G3 X32.484 Y-90.330 Z-0.200 I-68.824 J-0.813 K0.000 F2509.000
G2 X32.473 Y-89.770 Z-0.200 I41.875 J1.153 K0.000 F2509.000
G3 X31.897 Y-89.597 Z-0.200 I-0.461 J-0.491 K0.000 F2509.000
G3 X30.872 Y-89.729 Z-0.200 I0.122 J-4.979 K0.000 F2509.000
G3 X30.756 Y-89.990 Z-0.200 I0.153 J-0.225 K0.000 F2509.000
G3 X31.308 Y-90.012 Z-0.200 I0.328 J1.291 K0.000 F2509.000
G1 X31.308 Y-90.012 Z-0.200 F2509.000
G2 X31.811 Y-90.322 Z-0.200 I0.132 J-0.349 K0.000 F2509.000
G2 X31.844 Y-91.891 Z-0.200 I-5.899 J-0.911 K0.000 F2509.000
G2 X31.709 Y-93.521 Z-0.200 I-11.809 J0.164 K0.000 F2509.000
G2 X31.379 Y-93.824 Z-0.200 I-0.603 J0.324 K0.000 F2509.000
G0 Z0.300
G0 X31.746 Y-93.653 Z0.300
G0 X31.746 Y-93.653 Z0.200
G1 X31.746 Y-93.653 Z-0.200 F150.000
G3 X32.287 Y-93.405 Z-0.200 I0.028 J0.654 K0.000 F2509.000
G3 X32.456 Y-91.814 Z-0.200 I-3.890 J1.219 K0.000 F2509.000
G2 X32.357 Y-89.813 Z-0.200 I276.838 J14.782 K0.000 F2509.000
G3 X31.906 Y-89.696 Z-0.200 I-0.334 J-0.363 K0.000 F2509.000
G3 X30.921 Y-89.825 Z-0.200 I-0.036 J-3.570 K0.000 F2509.000
G3 X30.862 Y-89.915 Z-0.200 I0.360 J-0.301 K0.000 F2509.000
G3 X31.299 Y-89.913 Z-0.200 I0.212 J1.368 K0.000 F2509.000
G1 X31.299 Y-89.913 Z-0.200 F2509.000
G2 X31.863 Y-90.188 Z-0.200 I0.148 J-0.413 K0.000 F2509.000
G2 X31.952 Y-91.587 Z-0.200 I-3.580 J-0.931 K0.000 F2509.000
G2 X31.837 Y-93.450 Z-0.200 I-18.094 J0.184 K0.000 F2509.000
G2 X31.746 Y-93.653 Z-0.200 I-0.530 J0.117 K0.000 F2509.000
G0 Z0.300
G0 X31.922 Y-93.510 Z0.300
G0 X31.922 Y-93.510 Z0.200
G1 X31.922 Y-93.510 Z-0.200 F150.000
G3 X32.195 Y-93.365 Z-0.200 I-0.046 J0.417 K0.000 F2509.000
G3 X32.357 Y-91.817 Z-0.200 I-3.821 J1.180 K0.000 F2509.000
G2 X32.275 Y-89.879 Z-0.200 I40.182 J2.669 K0.000 F2509.000
G3 X31.915 Y-89.796 Z-0.200 I-0.256 J-0.290 K0.000 F2509.000
G1 X31.624 Y-89.827 Z-0.200 F2509.000
G1 X31.667 Y-89.835 Z-0.200 F2509.000
G2 X32.064 Y-90.646 Z-0.200 I-0.559 J-0.775 K0.000 F2509.000
G2 X31.922 Y-93.510 Z-0.200 I-21.511 J-0.374 K0.000 F2509.000
G0 Z0.300
G0 X32.055 Y-93.356 Z0.300
G0 X32.055 Y-93.356 Z0.200
G1 X32.055 Y-93.356 Z-0.200 F150.000
G3 X32.162 Y-93.116 Z-0.200 I-0.160 J0.215 K0.000 F2509.000
G3 X32.257 Y-91.820 Z-0.200 I-4.473 J0.978 K0.000 F2509.000
G2 X32.176 Y-89.934 Z-0.200 I40.276 J2.673 K0.000 F2509.000
G3 X31.905 Y-89.898 Z-0.200 I-0.169 J-0.227 K0.000 F2509.000
G2 X32.164 Y-90.901 Z-0.200 I-1.333 J-0.880 K0.000 F2509.000
G2 X32.055 Y-93.356 Z-0.200 I-25.893 J-0.078 K0.000 F2509.000
G0 Z0.300
G0 X31.817 Y-86.816 Z0.300
G0 X31.817 Y-86.816 Z0.200
G1 X31.817 Y-86.816 Z-0.200 F150.000
G3 X31.994 Y-86.804 Z-0.200 I-0.092 J2.519 K0.000 F2509.000
G3 X32.273 Y-86.757 Z-0.200 I-0.129 J1.612 K0.000 F2509.000
G3 X32.333 Y-85.981 Z-0.200 I-11.197 J1.258 K0.000 F2509.000
G3 X31.584 Y-86.015 Z-0.200 I0.026 J-8.818 K0.000 F2509.000
G2 X31.651 Y-86.625 Z-0.200 I-0.685 J-0.383 K0.000 F2509.000
G1 X31.634 Y-86.816 Z-0.200 F2509.000
G3 X31.817 Y-86.816 Z-0.200 I0.092 J2.519 K0.000 F2509.000
G0 Z0.300
G0 X31.815 Y-86.718 Z0.300
G0 X31.815 Y-86.718 Z0.200
G1 X31.815 Y-86.718 Z-0.200 F150.000
G3 X32.183 Y-86.658 Z-0.200 I-0.027 J1.313 K0.000 F2509.000
G3 X32.228 Y-86.083 Z-0.200 I-12.264 J1.256 K0.000 F2509.000
G3 X31.753 Y-86.103 Z-0.200 I0.020 J-6.143 K0.000 F2509.000
G2 X31.743 Y-86.718 Z-0.200 I-1.718 J-0.281 K0.000 F2509.000
G3 X31.815 Y-86.718 Z-0.200 I0.045 J1.312 K0.000 F2509.000
G0 Z0.300
G0 X31.853 Y-86.613 Z0.300
G0 X31.853 Y-86.613 Z0.200
G1 X31.853 Y-86.613 Z-0.200 F150.000
G3 X32.090 Y-86.585 Z-0.200 I-0.026 J1.262 K0.000 F2509.000
G3 X32.122 Y-86.186 Z-0.200 I-12.018 J1.172 K0.000 F2509.000
G1 X31.870 Y-86.195 Z-0.200 F2509.000
G2 X31.853 Y-86.613 Z-0.200 I-1.348 J-0.155 K0.000 F2509.000
G0 Z0.300
G0 X31.965 Y-86.504 Z0.300
G0 X31.965 Y-86.504 Z0.200
G1 X31.965 Y-86.504 Z-0.200 F150.000
G1 X31.997 Y-86.499 Z-0.200 F2509.000
G3 X32.015 Y-86.290 Z-0.200 I-6.439 J0.652 K0.000 F2509.000
G1 X31.986 Y-86.291 Z-0.200 F2509.000
G2 X31.965 Y-86.504 Z-0.200 I-1.579 J0.045 K0.000 F2509.000
G0 Z0.300
G0 Z0.300
G0 X31.965 Y-86.504
G0 X33.944 Y-86.667
G0 X33.944 Y-86.667 Z0.200
G1 X33.944 Y-86.667 Z-0.200 F150.000
G3 X33.945 Y-90.010 Z-0.200 I20.279 J-1.666 K0.000 F2509.000
G2 X34.131 Y-93.569 Z-0.200 I-73.111 J-5.603 K0.000 F2509.000
G3 X35.129 Y-93.433 Z-0.200 I0.066 J3.241 K0.000 F2509.000
G3 X35.081 Y-89.898 Z-0.200 I-9816.211 J-131.512 K0.000 F2509.000
G2 X35.043 Y-86.686 Z-0.200 I65.671 J2.394 K0.000 F2509.000
G2 X35.297 Y-86.728 Z-0.200 I0.120 J-0.063 K0.000 F2509.000
G3 X37.127 Y-90.954 Z-0.200 I53.527 J20.663 K0.000 F2509.000
G2 X38.020 Y-92.640 Z-0.200 I-25.380 J-14.522 K0.000 F2509.000
G2 X38.152 Y-93.026 Z-0.200 I-4.366 J-1.716 K0.000 F2509.000
G1 X38.175 Y-93.060 Z-0.200 F2509.000
G3 X39.049 Y-92.958 Z-0.200 I0.242 J1.723 K0.000 F2509.000
G3 X39.119 Y-92.864 Z-0.200 I-0.026 J0.093 K0.000 F2509.000
G3 X39.194 Y-91.159 Z-0.200 I-7.587 J1.188 K0.000 F2509.000
G2 X39.102 Y-85.047 Z-0.200 I50.364 J3.818 K0.000 F2509.000
G2 X39.116 Y-84.873 Z-0.200 I10.169 J-0.766 K0.000 F2509.000
G3 X38.126 Y-85.015 Z-0.200 I0.020 J-3.661 K0.000 F2509.000
G3 X38.140 Y-91.627 Z-0.200 I223.425 J-2.813 K0.000 F2509.000
G2 X37.847 Y-91.583 Z-0.200 I-0.141 J0.060 K0.000 F2509.000
G2 X35.444 Y-86.008 Z-0.200 I66.741 J32.078 K0.000 F2509.000
G3 X35.122 Y-85.385 Z-0.200 I-3.045 J-1.176 K0.000 F2509.000
G3 X34.072 Y-85.517 Z-0.200 I-0.252 J-2.236 K0.000 F2509.000
G3 X33.944 Y-86.667 Z-0.200 I20.152 J-2.816 K0.000 F2509.000
G0 Z0.300
G0 X34.043 Y-86.675 Z0.300
G0 X34.043 Y-86.675 Z0.200
G1 X34.043 Y-86.675 Z-0.200 F150.000
G3 X34.045 Y-90.004 Z-0.200 I20.305 J-1.654 K0.000 F2509.000
G2 X34.246 Y-93.471 Z-0.200 I-365.676 J-22.876 K0.000 F2509.000
G3 X35.028 Y-93.364 Z-0.200 I-0.223 J4.572 K0.000 F2509.000
G2 X35.018 Y-92.582 Z-0.200 I566.864 J8.029 K0.000 F2509.000
G2 X34.948 Y-86.655 Z-0.200 I223.409 J5.601 K0.000 F2509.000
G2 X35.403 Y-86.726 Z-0.200 I0.216 J-0.111 K0.000 F2509.000
G3 X37.215 Y-90.908 Z-0.200 I53.577 J20.730 K0.000 F2509.000
G2 X38.114 Y-92.606 Z-0.200 I-24.858 J-14.235 K0.000 F2509.000
G2 X38.237 Y-92.962 Z-0.200 I-4.049 J-1.603 K0.000 F2509.000
G3 X39.015 Y-92.862 Z-0.200 I0.208 J1.461 K0.000 F2509.000
G3 X39.094 Y-91.162 Z-0.200 I-7.064 J1.180 K0.000 F2509.000
G2 X39.002 Y-85.039 Z-0.200 I50.416 J3.820 K0.000 F2509.000
G1 X39.007 Y-84.981 Z-0.200 F2509.000
G3 X38.220 Y-85.082 Z-0.200 I-0.079 J-2.509 K0.000 F2509.000
G3 X38.239 Y-91.642 Z-0.200 I383.636 J-2.141 K0.000 F2509.000
G2 X37.760 Y-91.631 Z-0.200 I-0.238 J0.072 K0.000 F2509.000
G2 X35.352 Y-86.047 Z-0.200 I66.756 J32.096 K0.000 F2509.000
G3 X35.068 Y-85.482 Z-0.200 I-3.239 J-1.274 K0.000 F2509.000
G3 X34.162 Y-85.584 Z-0.200 I-0.147 J-2.762 K0.000 F2509.000
G3 X34.043 Y-86.675 Z-0.200 I20.187 J-2.745 K0.000 F2509.000
G0 Z0.300
G0 X34.142 Y-86.683 Z0.300
G0 X34.142 Y-86.683 Z0.200
G1 X34.142 Y-86.683 Z-0.200 F150.000
G3 X34.145 Y-89.998 Z-0.200 I20.388 J-1.640 K0.000 F2509.000
G2 X34.321 Y-93.366 Z-0.200 I-65.910 J-5.135 K0.000 F2509.000
G3 X34.927 Y-93.286 Z-0.200 I-0.343 J4.909 K0.000 F2509.000
G2 X34.853 Y-86.624 Z-0.200 I191.667 J5.471 K0.000 F2509.000
G2 X35.497 Y-86.690 Z-0.200 I0.311 J-0.140 K0.000 F2509.000
G3 X35.984 Y-87.904 Z-0.200 I31.207 J11.825 K0.000 F2509.000
G3 X35.044 Y-85.637 Z-0.200 I-87.221 J-34.842 K0.000 F2509.000
G3 X34.941 Y-85.575 Z-0.200 I-0.072 J-0.002 K0.000 F2509.000
G3 X34.250 Y-85.662 Z-0.200 I0.031 J-3.032 K0.000 F2509.000
G3 X34.142 Y-86.683 Z-0.200 I20.280 J-2.661 K0.000 F2509.000
G0 Z0.300
G0 X34.245 Y-86.691 Z0.300
G0 X34.245 Y-86.691 Z0.200
G1 X34.245 Y-86.691 Z-0.200 F150.000
G3 X34.245 Y-89.992 Z-0.200 I21.762 J-1.653 K0.000 F2509.000
G2 X34.418 Y-93.258 Z-0.200 I-65.995 J-5.140 K0.000 F2509.000
G3 X34.826 Y-93.203 Z-0.200 I-0.418 J4.640 K0.000 F2509.000
G3 X34.781 Y-89.902 Z-0.200 I-6470.357 J-86.046 K0.000 F2509.000
G1 X34.781 Y-89.902 Z-0.200 F2509.000
G2 X34.735 Y-86.702 Z-0.200 I227.762 J4.884 K0.000 F2509.000
G2 X35.245 Y-86.318 Z-0.200 I0.416 J-0.023 K0.000 F2509.000
G3 X34.942 Y-85.675 Z-0.200 I-2.019 J-0.558 K0.000 F2509.000
G3 X34.338 Y-85.744 Z-0.200 I0.040 J-3.035 K0.000 F2509.000
G3 X34.245 Y-86.691 Z-0.200 I21.670 J-2.600 K0.000 F2509.000
G0 Z0.300
G0 X34.344 Y-86.698 Z0.300
G0 X34.344 Y-86.698 Z0.200
G1 X34.344 Y-86.698 Z-0.200 F150.000
G3 X34.345 Y-89.986 Z-0.200 I21.761 J-1.641 K0.000 F2509.000
G2 X34.515 Y-93.147 Z-0.200 I-66.541 J-5.174 K0.000 F2509.000
G3 X34.725 Y-93.119 Z-0.200 I-0.371 J3.566 K0.000 F2509.000
G2 X34.636 Y-86.694 Z-0.200 I6954.543 J100.010 K0.000 F2509.000
G2 X35.092 Y-86.206 Z-0.200 I0.526 J-0.035 K0.000 F2509.000
G3 X34.893 Y-85.778 Z-0.200 I-5.307 J-2.215 K0.000 F2509.000
G3 X34.428 Y-85.828 Z-0.200 I0.086 J-3.030 K0.000 F2509.000
G3 X34.344 Y-86.698 Z-0.200 I21.678 J-2.512 K0.000 F2509.000
G0 Z0.300
G0 X34.443 Y-86.706 Z0.300
G0 X34.443 Y-86.706 Z0.200
G1 X34.443 Y-86.706 Z-0.200 F150.000
G3 X34.445 Y-89.980 Z-0.200 I21.794 J-1.628 K0.000 F2509.000
G2 X34.612 Y-93.034 Z-0.200 I-67.421 J-5.229 K0.000 F2509.000
G1 X34.624 Y-93.032 Z-0.200 F2509.000
G1 X34.618 Y-92.587 Z-0.200 F2509.000
G1 X34.618 Y-92.587 Z-0.200 F2509.000
G2 X34.536 Y-86.687 Z-0.200 I1157.029 J19.048 K0.000 F2509.000
G2 X34.957 Y-86.145 Z-0.200 I0.602 J-0.033 K0.000 F2509.000
G3 X34.833 Y-85.882 Z-0.200 I-4.679 J-2.061 K0.000 F2509.000
G3 X34.517 Y-85.914 Z-0.200 I0.067 J-2.292 K0.000 F2509.000
G3 X34.443 Y-86.706 Z-0.200 I21.720 J-2.420 K0.000 F2509.000
G0 Z0.300
G0 X34.561 Y-86.331 Z0.300
G0 X34.561 Y-86.331 Z0.200
G1 X34.561 Y-86.331 Z-0.200 F150.000
G2 X34.824 Y-86.093 Z-0.200 I0.423 J-0.203 K0.000 F2509.000
G3 X34.688 Y-85.992 Z-0.200 I-0.089 J0.023 K0.000 F2509.000
G1 X34.606 Y-86.003 Z-0.200 F2509.000
G1 X34.561 Y-86.331 Z-0.200 F2509.000
G0 Z0.300
G0 X34.650 Y-86.137 Z0.300
G0 X34.650 Y-86.137 Z0.200
G1 X34.650 Y-86.137 Z-0.200 F150.000
G2 X34.742 Y-86.066 Z-0.200 I0.155 J-0.105 K0.000 F2509.000
G3 X34.650 Y-86.137 Z-0.200 I-0.037 J-0.047 K0.000 F2509.000
G0 Z0.300
G0 X38.315 Y-86.146 Z0.300
G0 X38.315 Y-86.146 Z0.200
G1 X38.315 Y-86.146 Z-0.200 F150.000
G3 X38.339 Y-91.650 Z-0.200 I397.982 J-0.964 K0.000 F2509.000
G2 X37.864 Y-91.886 Z-0.200 I-0.315 J0.037 K0.000 F2509.000
G2 X38.311 Y-92.864 Z-0.200 I-3.728 J-2.297 K0.000 F2509.000
G3 X38.928 Y-92.791 Z-0.200 I0.066 J2.103 K0.000 F2509.000
G3 X38.994 Y-91.164 Z-0.200 I-7.453 J1.117 K0.000 F2509.000
G2 X38.898 Y-85.089 Z-0.200 I51.408 J3.850 K0.000 F2509.000
G3 X38.318 Y-85.158 Z-0.200 I0.205 J-4.230 K0.000 F2509.000
G3 X38.315 Y-86.146 Z-0.200 I397.979 J-1.952 K0.000 F2509.000
G0 Z0.300
G0 X38.413 Y-86.146 Z0.300
G0 X38.413 Y-86.146 Z0.200
G1 X38.413 Y-86.146 Z-0.200 F150.000
G3 X38.443 Y-91.611 Z-0.200 I328.347 J-0.906 K0.000 F2509.000
G2 X38.053 Y-92.026 Z-0.200 I-0.420 J0.004 K0.000 F2509.000
G2 X38.382 Y-92.765 Z-0.200 I-3.211 J-1.874 K0.000 F2509.000
G3 X38.840 Y-92.710 Z-0.200 I-0.007 J2.000 K0.000 F2509.000
G3 X38.847 Y-90.147 Z-0.200 I-10.912 J1.313 K0.000 F2509.000
G1 X38.823 Y-89.709 Z-0.200 F2509.000
G2 X38.790 Y-85.198 Z-0.200 I42.796 J2.570 K0.000 F2509.000
G3 X38.417 Y-85.238 Z-0.200 I0.296 J-4.566 K0.000 F2509.000
G3 X38.413 Y-86.146 Z-0.200 I328.343 J-1.814 K0.000 F2509.000
G0 Z0.300
G0 X38.512 Y-86.147 Z0.300
G0 X38.512 Y-86.147 Z0.200
G1 X38.512 Y-86.147 Z-0.200 F150.000
G3 X38.543 Y-91.617 Z-0.200 I340.898 J-0.819 K0.000 F2509.000
G2 X38.203 Y-92.093 Z-0.200 I-0.517 J0.010 K0.000 F2509.000
G2 X38.451 Y-92.660 Z-0.200 I-2.792 J-1.562 K0.000 F2509.000
G3 X38.750 Y-92.624 Z-0.200 I-0.007 J1.306 K0.000 F2509.000
G3 X38.724 Y-89.714 Z-0.200 I-18.439 J1.287 K0.000 F2509.000
G2 X38.683 Y-85.308 Z-0.200 I50.437 J2.666 K0.000 F2509.000
G3 X38.515 Y-85.327 Z-0.200 I0.145 J-2.051 K0.000 F2509.000
G3 X38.512 Y-86.147 Z-0.200 I340.895 J-1.639 K0.000 F2509.000
G0 Z0.300
G0 X38.629 Y-89.815 Z0.300
G0 X38.629 Y-89.815 Z0.200
G1 X38.629 Y-89.815 Z-0.200 F150.000
G2 X38.634 Y-91.705 Z-0.200 I-17.369 J-0.995 K0.000 F2509.000
G2 X38.333 Y-92.136 Z-0.200 I-0.524 J0.046 K0.000 F2509.000
G2 X38.520 Y-92.556 Z-0.200 I-2.083 J-1.181 K0.000 F2509.000
G3 X38.659 Y-92.539 Z-0.200 I-0.006 J0.607 K0.000 F2509.000
G3 X38.629 Y-89.815 Z-0.200 I-18.463 J1.157 K0.000 F2509.000
G0 Z0.300
G0 X38.593 Y-92.032 Z0.300
G0 X38.593 Y-92.032 Z0.200
G1 X38.593 Y-92.032 Z-0.200 F150.000
G2 X38.460 Y-92.172 Z-0.200 I-0.270 J0.124 K0.000 F2509.000
G1 X38.573 Y-92.413 Z-0.200 F2509.000
G3 X38.593 Y-92.032 Z-0.200 I-2.653 J0.331 K0.000 F2509.000
G0 Z0.300
G0 Z0.300
G0 X38.593 Y-92.032
G0 X40.668 Y-91.888
G0 X40.668 Y-91.888 Z0.200
G1 X40.668 Y-91.888 Z-0.200 F150.000
G2 X40.667 Y-91.873 Z-0.200 I0.224 J0.016 K0.000 F2509.000
G1 X40.667 Y-91.375 Z-0.200 F2509.000
G2 X40.721 Y-91.237 Z-0.200 I0.134 J0.027 K0.000 F2509.000
G2 X40.667 Y-90.785 Z-0.200 I0.528 J0.292 K0.000 F2509.000
G2 X40.892 Y-90.560 Z-0.200 I0.225 J0.000 K0.000 F2509.000
G1 X61.775 Y-90.560 Z-0.200 F2509.000
G1 X61.775 Y-90.510 Z-0.200 F2509.000
G1 X40.892 Y-90.510 Z-0.200 F2509.000
G2 X40.667 Y-90.285 Z-0.200 I-0.000 J0.225 K0.000 F2509.000
G1 X40.667 Y-89.787 Z-0.200 F2509.000
G2 X40.721 Y-89.650 Z-0.200 I0.134 J0.027 K0.000 F2509.000
G2 X40.667 Y-89.197 Z-0.200 I0.528 J0.292 K0.000 F2509.000
G2 X40.892 Y-88.972 Z-0.200 I0.225 J0.000 K0.000 F2509.000
G1 X61.775 Y-88.972 Z-0.200 F2509.000
G1 X61.775 Y-88.923 Z-0.200 F2509.000
G1 X40.892 Y-88.923 Z-0.200 F2509.000
G2 X40.667 Y-88.698 Z-0.200 I-0.000 J0.225 K0.000 F2509.000
G1 X40.667 Y-88.200 Z-0.200 F2509.000
G2 X40.721 Y-88.062 Z-0.200 I0.134 J0.027 K0.000 F2509.000
G2 X40.667 Y-87.610 Z-0.200 I0.528 J0.292 K0.000 F2509.000
G2 X40.892 Y-87.385 Z-0.200 I0.225 J0.000 K0.000 F2509.000
G1 X61.775 Y-87.385 Z-0.200 F2509.000
G1 X61.775 Y-87.335 Z-0.200 F2509.000
G1 X40.892 Y-87.335 Z-0.200 F2509.000
G2 X40.667 Y-87.110 Z-0.200 I-0.000 J0.225 K0.000 F2509.000
G1 X40.667 Y-84.030 Z-0.200 F2509.000
G3 X40.129 Y-83.372 Z-0.200 I-0.675 J-0.002 K0.000 F2509.000
G3 X39.730 Y-83.342 Z-0.200 I-0.279 J-1.054 K0.000 F2509.000
G1 X22.452 Y-85.319 Z-0.200 F2509.000
G3 X21.489 Y-86.061 Z-0.200 I0.090 J-1.112 K0.000 F2509.000
G3 X21.457 Y-87.110 Z-0.200 I3.654 J-0.638 K0.000 F2509.000
G2 X21.232 Y-87.335 Z-0.200 I-0.225 J-0.000 K0.000 F2509.000
G1 X0.225 Y-87.335 Z-0.200 F2509.000
G1 X0.225 Y-87.385 Z-0.200 F2509.000
G1 X21.232 Y-87.385 Z-0.200 F2509.000
G2 X21.457 Y-87.610 Z-0.200 I0.000 J-0.225 K0.000 F2509.000
G2 X21.421 Y-88.052 Z-0.200 I-0.771 J-0.160 K0.000 F2509.000
G2 X21.457 Y-88.200 Z-0.200 I-1.209 J-0.370 K0.000 F2509.000
G1 X21.457 Y-88.698 Z-0.200 F2509.000
G2 X21.232 Y-88.923 Z-0.200 I-0.225 J-0.000 K0.000 F2509.000
G1 X0.225 Y-88.923 Z-0.200 F2509.000
G1 X0.225 Y-88.972 Z-0.200 F2509.000
G1 X21.232 Y-88.972 Z-0.200 F2509.000
G2 X21.457 Y-89.197 Z-0.200 I0.000 J-0.225 K0.000 F2509.000
G2 X21.421 Y-89.639 Z-0.200 I-0.771 J-0.160 K0.000 F2509.000
G2 X21.457 Y-89.787 Z-0.200 I-1.209 J-0.370 K0.000 F2509.000
G1 X21.457 Y-90.285 Z-0.200 F2509.000
G2 X21.232 Y-90.510 Z-0.200 I-0.225 J-0.000 K0.000 F2509.000
G1 X0.225 Y-90.510 Z-0.200 F2509.000
G1 X0.225 Y-90.560 Z-0.200 F2509.000
G1 X21.232 Y-90.560 Z-0.200 F2509.000
G2 X21.457 Y-90.785 Z-0.200 I0.000 J-0.225 K0.000 F2509.000
G2 X21.421 Y-91.227 Z-0.200 I-0.771 J-0.160 K0.000 F2509.000
G2 X21.457 Y-91.375 Z-0.200 I-1.209 J-0.370 K0.000 F2509.000
G1 X21.457 Y-91.873 Z-0.200 F2509.000
G2 X21.232 Y-92.098 Z-0.200 I-0.225 J-0.000 K0.000 F2509.000
G1 X0.225 Y-92.098 Z-0.200 F2509.000
G1 X0.225 Y-92.147 Z-0.200 F2509.000
G1 X21.232 Y-92.147 Z-0.200 F2509.000
G2 X21.457 Y-92.372 Z-0.200 I0.000 J-0.225 K0.000 F2509.000
G2 X21.421 Y-92.814 Z-0.200 I-0.771 J-0.160 K0.000 F2509.000
G2 X21.457 Y-92.962 Z-0.200 I-1.209 J-0.370 K0.000 F2509.000
G1 X21.457 Y-95.807 Z-0.200 F2509.000
G3 X22.274 Y-96.504 Z-0.200 I0.729 J0.028 K0.000 F2509.000
G3 X22.391 Y-96.496 Z-0.200 I-0.007 J1.053 K0.000 F2509.000
G1 X39.671 Y-94.519 Z-0.200 F2509.000
G3 X40.635 Y-93.775 Z-0.200 I-0.090 J1.114 K0.000 F2509.000
G3 X40.667 Y-92.962 Z-0.200 I-2.838 J0.520 K0.000 F2509.000
G2 X40.721 Y-92.825 Z-0.200 I0.134 J0.027 K0.000 F2509.000
G2 X40.667 Y-92.372 Z-0.200 I0.528 J0.292 K0.000 F2509.000
G2 X40.892 Y-92.147 Z-0.200 I0.225 J0.000 K0.000 F2509.000
G1 X61.775 Y-92.147 Z-0.200 F2509.000
G1 X61.775 Y-92.098 Z-0.200 F2509.000
G1 X40.892 Y-92.098 Z-0.200 F2509.000
G2 X40.668 Y-91.888 Z-0.200 I-0.000 J0.225 K0.000 F2509.000
G0 Z0.300
G0 X40.767 Y-91.873 Z0.300
G0 X40.767 Y-91.873 Z0.200
G1 X40.767 Y-91.873 Z-0.200 F150.000
G1 X40.767 Y-91.375 Z-0.200 F2509.000
G2 X40.892 Y-91.250 Z-0.200 I0.125 J-0.000 K0.000 F2509.000
G1 X61.875 Y-91.250 Z-0.200 F2509.000
G1 X61.875 Y-91.230 Z-0.200 F2509.000
G1 X40.892 Y-91.230 Z-0.200 F2509.000
G2 X40.767 Y-91.105 Z-0.200 I0.000 J0.125 K0.000 F2509.000
G1 X40.767 Y-90.785 Z-0.200 F2509.000
G2 X40.892 Y-90.660 Z-0.200 I0.125 J-0.000 K0.000 F2509.000
G1 X61.875 Y-90.660 Z-0.200 F2509.000
G1 X61.875 Y-90.410 Z-0.200 F2509.000
G1 X40.892 Y-90.410 Z-0.200 F2509.000
G2 X40.767 Y-90.285 Z-0.200 I0.000 J0.125 K0.000 F2509.000
G1 X40.767 Y-89.787 Z-0.200 F2509.000
G2 X40.892 Y-89.662 Z-0.200 I0.125 J-0.000 K0.000 F2509.000
G1 X61.875 Y-89.662 Z-0.200 F2509.000
G1 X61.875 Y-89.643 Z-0.200 F2509.000
G1 X40.892 Y-89.643 Z-0.200 F2509.000
G2 X40.767 Y-89.518 Z-0.200 I0.000 J0.125 K0.000 F2509.000
G1 X40.767 Y-89.197 Z-0.200 F2509.000
G2 X40.892 Y-89.072 Z-0.200 I0.125 J-0.000 K0.000 F2509.000
G1 X61.875 Y-89.072 Z-0.200 F2509.000
G1 X61.875 Y-88.823 Z-0.200 F2509.000
G1 X40.892 Y-88.823 Z-0.200 F2509.000
G2 X40.767 Y-88.698 Z-0.200 I0.000 J0.125 K0.000 F2509.000
G1 X40.767 Y-88.200 Z-0.200 F2509.000
G2 X40.892 Y-88.075 Z-0.200 I0.125 J-0.000 K0.000 F2509.000
G1 X61.875 Y-88.075 Z-0.200 F2509.000
G1 X61.875 Y-88.055 Z-0.200 F2509.000
G1 X40.892 Y-88.055 Z-0.200 F2509.000
G2 X40.767 Y-87.930 Z-0.200 I0.000 J0.125 K0.000 F2509.000
G1 X40.767 Y-87.610 Z-0.200 F2509.000
G2 X40.892 Y-87.485 Z-0.200 I0.125 J-0.000 K0.000 F2509.000
G1 X61.875 Y-87.485 Z-0.200 F2509.000
G1 X61.875 Y-87.235 Z-0.200 F2509.000
G1 X40.892 Y-87.235 Z-0.200 F2509.000
G2 X40.767 Y-87.110 Z-0.200 I0.000 J0.125 K0.000 F2509.000
G1 X40.767 Y-84.027 Z-0.200 F2509.000
G3 X40.154 Y-83.274 Z-0.200 I-0.775 J-0.005 K0.000 F2509.000
G3 X39.720 Y-83.243 Z-0.200 I-0.301 J-1.144 K0.000 F2509.000
G1 X22.435 Y-85.221 Z-0.200 F2509.000
G3 X21.392 Y-86.034 Z-0.200 I0.106 J-1.211 K0.000 F2509.000
G3 X21.357 Y-87.110 Z-0.200 I3.749 J-0.662 K0.000 F2509.000
G2 X21.232 Y-87.235 Z-0.200 I-0.125 J0.000 K0.000 F2509.000
G1 X0.125 Y-87.235 Z-0.200 F2509.000
G1 X0.125 Y-87.485 Z-0.200 F2509.000
G1 X21.232 Y-87.485 Z-0.200 F2509.000
G2 X21.357 Y-87.610 Z-0.200 I-0.000 J-0.125 K0.000 F2509.000
G1 X21.357 Y-87.930 Z-0.200 F2509.000
G2 X21.232 Y-88.055 Z-0.200 I-0.125 J0.000 K0.000 F2509.000
G1 X0.125 Y-88.055 Z-0.200 F2509.000
G1 X0.125 Y-88.075 Z-0.200 F2509.000
G1 X21.232 Y-88.075 Z-0.200 F2509.000
G2 X21.357 Y-88.200 Z-0.200 I-0.000 J-0.125 K0.000 F2509.000
G1 X21.357 Y-88.698 Z-0.200 F2509.000
G2 X21.232 Y-88.823 Z-0.200 I-0.125 J0.000 K0.000 F2509.000
G1 X0.125 Y-88.823 Z-0.200 F2509.000
G1 X0.125 Y-89.072 Z-0.200 F2509.000
G1 X21.232 Y-89.072 Z-0.200 F2509.000
G2 X21.357 Y-89.197 Z-0.200 I-0.000 J-0.125 K0.000 F2509.000
G1 X21.357 Y-89.518 Z-0.200 F2509.000
G2 X21.232 Y-89.643 Z-0.200 I-0.125 J0.000 K0.000 F2509.000
G1 X0.125 Y-89.643 Z-0.200 F2509.000
G1 X0.125 Y-89.662 Z-0.200 F2509.000
G1 X21.232 Y-89.662 Z-0.200 F2509.000
G2 X21.357 Y-89.787 Z-0.200 I-0.000 J-0.125 K0.000 F2509.000
G1 X21.357 Y-90.285 Z-0.200 F2509.000
G2 X21.232 Y-90.410 Z-0.200 I-0.125 J0.000 K0.000 F2509.000
G1 X0.125 Y-90.410 Z-0.200 F2509.000
G1 X0.125 Y-90.660 Z-0.200 F2509.000
G1 X21.232 Y-90.660 Z-0.200 F2509.000
G2 X21.357 Y-90.785 Z-0.200 I-0.000 J-0.125 K0.000 F2509.000
G1 X21.357 Y-91.105 Z-0.200 F2509.000
G2 X21.232 Y-91.230 Z-0.200 I-0.125 J0.000 K0.000 F2509.000
G1 X0.125 Y-91.230 Z-0.200 F2509.000
G1 X0.125 Y-91.250 Z-0.200 F2509.000
G1 X21.232 Y-91.250 Z-0.200 F2509.000
G2 X21.357 Y-91.375 Z-0.200 I-0.000 J-0.125 K0.000 F2509.000
G1 X21.357 Y-91.873 Z-0.200 F2509.000
G2 X21.232 Y-91.998 Z-0.200 I-0.125 J0.000 K0.000 F2509.000
G1 X0.125 Y-91.998 Z-0.200 F2509.000
G1 X0.125 Y-92.247 Z-0.200 F2509.000
G1 X21.232 Y-92.247 Z-0.200 F2509.000
G2 X21.357 Y-92.372 Z-0.200 I-0.000 J-0.125 K0.000 F2509.000
G1 X21.357 Y-92.693 Z-0.200 F2509.000
G2 X21.232 Y-92.818 Z-0.200 I-0.125 J0.000 K0.000 F2509.000
G1 X0.125 Y-92.818 Z-0.200 F2509.000
G1 X0.125 Y-92.837 Z-0.200 F2509.000
G1 X21.232 Y-92.837 Z-0.200 F2509.000
G2 X21.357 Y-92.962 Z-0.200 I-0.000 J-0.125 K0.000 F2509.000
G1 X21.357 Y-95.811 Z-0.200 F2509.000
G3 X22.270 Y-96.604 Z-0.200 I0.828 J0.030 K0.000 F2509.000
G3 X22.401 Y-96.596 Z-0.200 I-0.005 J1.180 K0.000 F2509.000
G1 X39.688 Y-94.618 Z-0.200 F2509.000
G3 X40.732 Y-93.803 Z-0.200 I-0.107 J1.213 K0.000 F2509.000
G3 X40.767 Y-92.962 Z-0.200 I-2.934 J0.544 K0.000 F2509.000
G2 X40.892 Y-92.837 Z-0.200 I0.125 J-0.000 K0.000 F2509.000
G1 X61.875 Y-92.837 Z-0.200 F2509.000
G1 X61.875 Y-92.818 Z-0.200 F2509.000
G1 X40.892 Y-92.818 Z-0.200 F2509.000
G2 X40.767 Y-92.693 Z-0.200 I0.000 J0.125 K0.000 F2509.000
G1 X40.767 Y-92.372 Z-0.200 F2509.000
G2 X40.892 Y-92.247 Z-0.200 I0.125 J-0.000 K0.000 F2509.000
G1 X61.875 Y-92.247 Z-0.200 F2509.000
G1 X61.875 Y-91.998 Z-0.200 F2509.000
G1 X40.892 Y-91.998 Z-0.200 F2509.000
G2 X40.767 Y-91.873 Z-0.200 I0.000 J0.125 K0.000 F2509.000
G0 Z0.300
G0 X40.683 Y-92.055 Z0.300
G0 X40.683 Y-92.055 Z0.200
G1 X40.683 Y-92.055 Z-0.200 F150.000
G1 X40.683 Y-92.189 Z-0.200 F2509.000
G2 X40.752 Y-92.122 Z-0.200 I0.093 J-0.027 K0.000 F2509.000
G2 X40.683 Y-92.055 Z-0.200 I0.023 J0.094 K0.000 F2509.000
G0 Z0.300
G0 X40.620 Y-92.055 Z0.300
G0 X40.620 Y-92.055 Z0.200
G1 X40.620 Y-92.055 Z-0.200 F150.000
G1 X40.625 Y-84.144 Z-0.200 F2509.000
G1 X40.604 Y-84.021 Z-0.200 F2509.000
G3 X39.746 Y-83.406 Z-0.200 I-0.939 J-0.404 K0.000 F2509.000
G1 X39.744 Y-83.415 Z-0.200 F2509.000
G3 X39.621 Y-83.406 Z-0.200 I-0.076 J-0.206 K0.000 F2509.000
G1 X22.388 Y-85.376 Z-0.200 F2509.000
G3 X21.511 Y-86.161 Z-0.200 I0.089 J-0.982 K0.000 F2509.000
G1 X21.506 Y-95.646 Z-0.200 F2509.000
G3 X21.554 Y-95.892 Z-0.200 I0.731 J0.015 K0.000 F2509.000
G3 X22.558 Y-96.435 Z-0.200 I0.866 J0.402 K0.000 F2509.000
G1 X39.679 Y-94.471 Z-0.200 F2509.000
G3 X40.620 Y-93.508 Z-0.200 I-0.240 J1.175 K0.000 F2509.000
G1 X40.620 Y-92.055 Z-0.200 F2509.000
G0 Z0.300
G0 X40.521 Y-92.055 Z0.300
G0 X40.521 Y-92.055 Z0.200
G1 X40.521 Y-92.055 Z-0.200 F150.000
G1 X40.525 Y-84.144 Z-0.200 F2509.000
G1 X40.507 Y-84.041 Z-0.200 F2509.000
G3 X39.727 Y-83.505 Z-0.200 I-0.813 J-0.346 K0.000 F2509.000
G1 X39.725 Y-83.512 Z-0.200 F2509.000
G3 X39.627 Y-83.506 Z-0.200 I-0.057 J-0.116 K0.000 F2509.000
G1 X22.399 Y-85.476 Z-0.200 F2509.000
G3 X21.608 Y-86.186 Z-0.200 I0.074 J-0.879 K0.000 F2509.000
G1 X21.606 Y-95.646 Z-0.200 F2509.000
G1 X21.631 Y-95.810 Z-0.200 F2509.000
G3 X22.561 Y-96.335 Z-0.200 I0.789 J0.310 K0.000 F2509.000
G1 X39.668 Y-94.372 Z-0.200 F2509.000
G3 X40.520 Y-93.497 Z-0.200 I-0.230 J1.077 K0.000 F2509.000
G1 X40.521 Y-92.055 Z-0.200 F2509.000
G0 Z0.300
G0 X40.683 Y-90.601 Z0.300
G0 X40.683 Y-90.601 Z0.200
G1 X40.683 Y-90.601 Z-0.200 F150.000
G2 X40.752 Y-90.535 Z-0.200 I0.091 J-0.026 K0.000 F2509.000
G2 X40.684 Y-90.469 Z-0.200 I0.023 J0.092 K0.000 F2509.000
G1 X40.683 Y-90.601 Z-0.200 F2509.000
G0 Z0.300
G0 X40.684 Y-89.012 Z0.300
G0 X40.684 Y-89.012 Z0.200
G1 X40.684 Y-89.012 Z-0.200 F150.000
G2 X40.752 Y-88.947 Z-0.200 I0.090 J-0.026 K0.000 F2509.000
G2 X40.685 Y-88.882 Z-0.200 I0.023 J0.091 K0.000 F2509.000
G1 X40.684 Y-89.012 Z-0.200 F2509.000
G0 Z0.300
G0 X40.685 Y-87.424 Z0.300
G0 X40.685 Y-87.424 Z0.200
G1 X40.685 Y-87.424 Z-0.200 F150.000
G2 X40.752 Y-87.360 Z-0.200 I0.089 J-0.026 K0.000 F2509.000
G2 X40.686 Y-87.296 Z-0.200 I0.022 J0.090 K0.000 F2509.000
G1 X40.685 Y-87.424 Z-0.200 F2509.000
G0 Z0.300
G0 X40.558 Y-83.800 Z0.300
G0 X40.558 Y-83.800 Z0.200
G1 X40.558 Y-83.800 Z-0.200 F150.000
G3 X40.086 Y-83.430 Z-0.200 I-0.567 J-0.236 K0.000 F2509.000
G2 X40.558 Y-83.800 Z-0.200 I-0.321 J-0.897 K0.000 F2509.000
G0 Z0.300
G0 X21.450 Y-87.285 Z0.300
G0 X21.450 Y-87.285 Z0.200
G1 X21.450 Y-87.285 Z-0.200 F150.000
G2 X21.372 Y-87.360 Z-0.200 I-0.104 J0.030 K0.000 F2509.000
G2 X21.449 Y-87.435 Z-0.200 I-0.026 J-0.104 K0.000 F2509.000
G1 X21.450 Y-87.285 Z-0.200 F2509.000
G0 Z0.300
G0 X21.448 Y-88.873 Z0.300
G0 X21.448 Y-88.873 Z0.200
G1 X21.448 Y-88.873 Z-0.200 F150.000
G2 X21.372 Y-88.947 Z-0.200 I-0.102 J0.029 K0.000 F2509.000
G2 X21.448 Y-89.021 Z-0.200 I-0.026 J-0.103 K0.000 F2509.000
G1 X21.448 Y-88.873 Z-0.200 F2509.000
G0 Z0.300
G0 X21.447 Y-90.462 Z0.300
G0 X21.447 Y-90.462 Z0.200
G1 X21.447 Y-90.462 Z-0.200 F150.000
G2 X21.372 Y-90.535 Z-0.200 I-0.101 J0.029 K0.000 F2509.000
G2 X21.447 Y-90.608 Z-0.200 I-0.025 J-0.102 K0.000 F2509.000
G1 X21.447 Y-90.462 Z-0.200 F2509.000
G0 Z0.300
G0 X21.446 Y-92.051 Z0.300
G0 X21.446 Y-92.051 Z0.200
G1 X21.446 Y-92.051 Z-0.200 F150.000
G2 X21.372 Y-92.122 Z-0.200 I-0.099 J0.028 K0.000 F2509.000
G2 X21.446 Y-92.194 Z-0.200 I-0.025 J-0.100 K0.000 F2509.000
G1 X21.446 Y-92.051 Z-0.200 F2509.000
G0 Z0.300
G0 X21.583 Y-96.074 Z0.300
G0 X21.583 Y-96.074 Z0.200
G1 X21.583 Y-96.074 Z-0.200 F150.000
G3 X21.957 Y-96.383 Z-0.200 I0.520 J0.249 K0.000 F2509.000
G2 X21.583 Y-96.074 Z-0.200 I0.296 J0.740 K0.000 F2509.000
G0 Z0.300
G0 Z0.300
(Finish operation: ENGRAVE 0.25MM)
(Begin postamble)
M5
G17 G90
M2
