(Exported by FreeCAD)
(Post Processor: grbl_post)
(Output Time:2023-02-02 22:19:48.385925)
(Begin preamble)
G17 G90
G21
(Begin operation: G54)
(Path: G54)
G54
G0 Z5.000
(Finish operation: G54)
(Begin operation: endmill-2mm001)
(Path: endmill-2mm001)
(endmill-2mm001)
(Begin toolchange)
( M6 T2 )
M3 S10000
(Finish operation: endmill-2mm001)
(Begin operation: HOLES001)
(Path: HOLES001)
(HOLES001)
(Compensated Tool Path. Diameter: 2.0)
G0 Z5.000
G0 X14.620 Y-12.380
G0 Z3.000
G1 X14.620 Y-12.380 Z-1.500 F150.000
G3 X11.866 Y-11.569 Z-1.500 I-2.120 J-2.120 K0.000 F250.000
G3 X13.134 Y-17.431 Z-1.500 I0.634 J-2.931 K0.000 F250.000
G3 X14.620 Y-12.380 Z-1.500 I-0.634 J2.931 K0.000 F250.000
G0 Z5.000
G0 Z5.000
G0 X14.620 Y-12.380
G0 X12.696 Y-41.808
G0 X12.696 Y-41.808 Z3.000
G1 X12.696 Y-41.808 Z-1.500 F150.000
G3 X11.866 Y-41.869 Z-1.500 I-0.196 J-2.992 K0.000 F250.000
G3 X9.569 Y-45.434 Z-1.500 I0.634 J-2.931 K0.000 F250.000
G3 X13.134 Y-47.731 Z-1.500 I2.931 J0.634 K0.000 F250.000
G3 X12.696 Y-41.808 Z-1.500 I-0.634 J2.931 K0.000 F250.000
G0 Z5.000
G0 Z5.000
G0 X12.696 Y-41.808
G0 X28.534 Y-44.397
G0 X28.534 Y-44.397 Z3.000
G1 X28.534 Y-44.397 Z-1.500 F150.000
G3 X31.523 Y-47.243 Z-1.500 I2.466 J-0.403 K0.000 F250.000
G3 X33.443 Y-44.277 Z-1.500 I-0.523 J2.443 K0.000 F250.000
G3 X30.477 Y-42.357 Z-1.500 I-2.443 J-0.523 K0.000 F250.000
G3 X28.534 Y-44.397 Z-1.500 I0.523 J-2.443 K0.000 F250.000
G0 Z5.000
G0 Z5.000
G0 X28.534 Y-44.397
G0 X46.502 Y-44.742
G0 X46.502 Y-44.742 Z3.000
G1 X46.502 Y-44.742 Z-1.500 F150.000
G3 X46.569 Y-45.434 Z-1.500 I2.998 J-0.058 K0.000 F250.000
G3 X52.431 Y-44.166 Z-1.500 I2.931 J0.634 K0.000 F250.000
G3 X46.502 Y-44.742 Z-1.500 I-2.931 J-0.634 K0.000 F250.000
G0 Z5.000
G0 Z5.000
G0 X46.502 Y-44.742
G0 X49.204 Y-17.484
G0 X49.204 Y-17.484 Z3.000
G1 X49.204 Y-17.484 Z-1.500 F150.000
G3 X50.134 Y-17.431 Z-1.500 I0.296 J2.984 K0.000 F250.000
G3 X52.431 Y-13.866 Z-1.500 I-0.634 J2.931 K0.000 F250.000
G3 X48.866 Y-11.569 Z-1.500 I-2.931 J-0.634 K0.000 F250.000
G3 X49.204 Y-17.484 Z-1.500 I0.634 J-2.931 K0.000 F250.000
G0 Z5.000
G0 Z5.000
G0 X49.204 Y-17.484
G0 X32.001 Y-101.607
G0 X32.001 Y-101.607 Z3.000
G1 X32.001 Y-101.607 Z-1.500 F150.000
G3 X26.121 Y-107.592 Z-1.500 I-1.001 J-4.897 K0.000 F250.000
G3 X35.879 Y-105.416 Z-1.500 I4.879 J1.088 K0.000 F250.000
G3 X32.001 Y-101.607 Z-1.500 I-4.879 J-1.088 K0.000 F250.000
G0 Z5.000
G0 Z5.000
G0 X32.001 Y-101.607
G0 X15.683 Y-105.818
G0 X15.683 Y-105.818 Z3.000
G1 X15.683 Y-105.818 Z-1.500 F150.000
G3 X10.335 Y-107.083 Z-1.500 I-2.661 J-0.687 K0.000 F250.000
G3 X13.600 Y-109.191 Z-1.500 I2.687 J0.579 K0.000 F250.000
G3 X15.708 Y-105.926 Z-1.500 I-0.579 J2.687 K0.000 F250.000
G3 X15.683 Y-105.818 Z-1.500 I-2.687 J-0.579 K0.000 F250.000
G0 Z5.000
G0 Z5.000
(Finish operation: HOLES001)
(Begin operation: CONTOUR)
(Path: CONTOUR)
(Profile001)
(Compensated Tool Path. Diameter: 2.0)
G0 Z5.000
G0 X61.534 Y-0.465
G0 Z3.000
G1 X61.534 Y-0.465 Z-1.500 F150.000
G2 X62.998 Y-3.935 Z-1.500 I-3.537 J-3.536 K0.000 F250.000
G1 X63.000 Y-113.000 Z-1.500 F250.000
G2 X58.065 Y-117.998 Z-1.500 I-5.001 J0.003 K0.000 F250.000
G1 X4.000 Y-118.000 Z-1.500 F250.000
G2 X-0.998 Y-113.065 Z-1.500 I0.003 J5.001 K0.000 F250.000
G1 X-1.000 Y-4.000 Z-1.500 F250.000
G2 X3.935 Y0.998 Z-1.500 I5.001 J-0.003 K0.000 F250.000
G1 X58.000 Y1.000 Z-1.500 F250.000
G2 X61.534 Y-0.465 Z-1.500 I-0.003 J-5.001 K0.000 F250.000
G0 Z5.000
G0 Z5.000
(Finish operation: CONTOUR)
(Begin postamble)
M5
G17 G90
M2
