(Exported by FreeCAD)
(Post Processor: grbl_post)
(Output Time:2022-12-31 15:47:23.508452)
(Begin preamble)
G17 G90
G21
(Begin operation: G54)
(Path: G54)
G54
G0 Z5.000
(Finish operation: G54)
(Begin operation: ballend-015mm001)
(Path: ballend-015mm001)
(ballend-015mm001)
(Begin toolchange)
( M6 T2 )
M3 S10000
(Finish operation: ballend-015mm001)
(Begin operation: Pocket_Shape001)
(Path: Pocket_Shape001)
(Pocket_Shape001)
G0 Z2.000
G0 X28.348 Y-30.477
G0 Z1.000
G1 X28.348 Y-30.477 Z-0.200 F100.000
G3 X28.207 Y-30.365 Z-0.200 I-0.541 J-0.535 K0.000 F150.000
G3 X28.252 Y-30.501 Z-0.200 I0.066 J-0.053 K0.000 F150.000
G2 X27.837 Y-31.655 Z-0.200 I-0.406 J-0.506 K0.000 F150.000
G1 X27.802 Y-31.591 Z-0.200 F150.000
G1 X27.802 Y-30.262 Z-0.200 F150.000
G3 X27.648 Y-31.766 Z-0.200 I-0.059 J-0.754 K0.000 F150.000
G3 X28.093 Y-31.718 Z-0.200 I0.130 J0.874 K0.000 F150.000
G3 X28.348 Y-30.477 Z-0.200 I-0.286 J0.705 K0.000 F150.000
G0 Z2.000
G0 X27.718 Z2.000
G0 X27.718 Z1.000
G1 X27.718 Y-30.477 Z-0.200 F100.000
G1 X27.718 Y-30.449 Z-0.200 F150.000
G1 X27.674 Y-30.381 Z-0.200 F150.000
G3 X27.620 Y-31.660 Z-0.200 I0.023 J-0.642 K0.000 F150.000
G3 X27.718 Y-31.588 Z-0.200 I0.023 J0.071 K0.000 F150.000
G1 X27.718 Y-30.477 Z-0.200 F150.000
G0 Z2.000
G0 X27.762 Y-31.674 Z2.000
G0 X27.762 Y-31.674 Z1.000
G1 X27.762 Y-31.674 Z-0.200 F100.000
G2 X27.737 Y-31.697 Z-0.200 I-0.026 J0.003 K0.000 F150.000
G3 X27.783 Y-31.697 Z-0.200 I0.025 J0.114 K0.000 F150.000
G1 X27.762 Y-31.674 Z-0.200 F150.000
G0 Z2.000
G0 Z2.000
G0 X27.762 Y-31.674
G0 X27.749 Y-32.330
G0 X27.749 Y-32.330 Z1.000
G1 X27.749 Y-32.330 Z-0.200 F100.000
G3 X27.406 Y-33.584 Z-0.200 I-0.013 J-0.670 K0.000 F150.000
G3 X27.755 Y-33.667 Z-0.200 I0.346 J0.680 K0.000 F150.000
G3 X27.952 Y-32.366 Z-0.200 I0.050 J0.658 K0.000 F150.000
G3 X27.749 Y-32.330 Z-0.200 I-0.216 J-0.635 K0.000 F150.000
G0 Z2.000
G0 X27.439 Y-32.331 Z2.000
G0 X27.439 Y-32.331 Z1.000
G1 X27.439 Y-32.331 Z-0.200 F100.000
G1 X27.311 Y-32.331 Z-0.200 F150.000
G3 X27.384 Y-32.354 Z-0.200 I0.036 J-0.011 K0.000 F150.000
G1 X27.427 Y-32.335 Z-0.200 F150.000
G1 X27.439 Y-32.331 Z-0.200 F150.000
G0 Z2.000
G0 Y-32.256 Z2.000
G0 Y-32.256 Z1.000
G1 X27.439 Y-32.256 Z-0.200 F100.000
G1 X27.014 Y-32.256 Z-0.200 F150.000
G1 X27.014 Y-32.358 Z-0.200 F150.000
G2 X27.260 Y-32.380 Z-0.200 I0.097 J-0.308 K0.000 F150.000
G2 X27.180 Y-32.551 Z-0.200 I-0.117 J-0.050 K0.000 F150.000
G3 X27.762 Y-33.768 Z-0.200 I0.529 J-0.495 K0.000 F150.000
G3 X28.266 Y-32.489 Z-0.200 I0.059 J0.716 K0.000 F150.000
G2 X28.316 Y-32.358 Z-0.200 I0.050 J0.056 K0.000 F150.000
G2 X29.002 Y-32.525 Z-0.200 I0.187 J-0.725 K0.000 F150.000
G2 X28.929 Y-33.498 Z-0.200 I-0.586 J-0.446 K0.000 F150.000
G1 X28.891 Y-33.519 Z-0.200 F150.000
G1 X28.891 Y-33.635 Z-0.200 F150.000
G3 X29.230 Y-32.972 Z-0.200 I-0.339 J0.591 K0.000 F150.000
G3 X29.009 Y-32.393 Z-0.200 I-0.673 J0.075 K0.000 F150.000
G3 X28.558 Y-32.256 Z-0.200 I-0.409 J-0.539 K0.000 F150.000
G1 X27.439 Y-32.256 Z-0.200 F150.000
G0 Z2.000
G0 X28.075 Y-32.331 Z2.000
G0 X28.075 Y-32.331 Z1.000
G1 X28.075 Y-32.331 Z-0.200 F100.000
G2 X28.183 Y-32.379 Z-0.200 I-0.046 J-0.251 K0.000 F150.000
G2 X28.229 Y-32.331 Z-0.200 I0.043 J0.004 K0.000 F150.000
G1 X28.075 Y-32.331 Z-0.200 F150.000
G0 Z2.000
G0 Z2.000
G0 X28.075 Y-32.331
G0 X30.405 Y-32.339
G0 X30.405 Y-32.339 Z1.000
G1 X30.405 Y-32.339 Z-0.200 F100.000
G3 X31.070 Y-33.092 Z-0.200 I0.756 J-0.002 K0.000 F150.000
G3 X31.515 Y-33.044 Z-0.200 I0.130 J0.874 K0.000 F150.000
G3 X31.629 Y-31.692 Z-0.200 I-0.285 J0.705 K0.000 F150.000
G3 X31.724 Y-31.871 Z-0.200 I0.113 J-0.054 K0.000 F150.000
G2 X31.259 Y-32.981 Z-0.200 I-0.457 J-0.461 K0.000 F150.000
G1 X31.224 Y-32.918 Z-0.200 F150.000
G1 X31.224 Y-31.588 Z-0.200 F150.000
G3 X30.405 Y-32.339 Z-0.200 I-0.063 J-0.753 K0.000 F150.000
G0 Z2.000
G0 X30.477 Y-32.340 Z2.000
G0 X30.477 Y-32.340 Z1.000
G1 X30.477 Y-32.340 Z-0.200 F100.000
G3 X31.042 Y-32.986 Z-0.200 I0.640 J-0.010 K0.000 F150.000
G3 X31.140 Y-32.914 Z-0.200 I0.023 J0.071 K0.000 F150.000
G1 X31.140 Y-31.775 Z-0.200 F150.000
G1 X31.103 Y-31.710 Z-0.200 F150.000
G3 X30.477 Y-32.340 Z-0.200 I0.014 J-0.640 K0.000 F150.000
G0 Z2.000
G0 X31.159 Y-33.023 Z2.000
G0 X31.159 Y-33.023 Z1.000
G1 X31.159 Y-33.023 Z-0.200 F100.000
G3 X31.205 Y-33.023 Z-0.200 I0.025 J0.112 K0.000 F150.000
G1 X31.184 Y-33.000 Z-0.200 F150.000
G2 X31.159 Y-33.023 Z-0.200 I-0.026 J0.003 K0.000 F150.000
G0 Z2.000
G0 Z2.000
G0 X31.159 Y-33.023
G0 X32.631 Y-31.989
G0 X32.631 Y-31.989 Z1.000
G1 X32.631 Y-31.989 Z-0.200 F100.000
G1 X32.810 Y-31.989 Z-0.200 F150.000
G1 X32.810 Y-31.867 Z-0.200 F150.000
G1 X32.631 Y-31.867 Z-0.200 F150.000
G1 X32.631 Y-31.989 Z-0.200 F150.000
G0 Z2.000
G0 X32.669 Y-31.951 Z2.000
G0 X32.669 Y-31.951 Z1.000
G1 X32.669 Y-31.951 Z-0.200 F100.000
G1 X32.772 Y-31.951 Z-0.200 F150.000
G1 X32.772 Y-31.905 Z-0.200 F150.000
G1 X32.669 Y-31.905 Z-0.200 F150.000
G1 X32.669 Y-31.951 Z-0.200 F150.000
G0 Z2.000
G0 Z2.000
G0 X32.669 Y-31.951
G0 X31.962 Y-33.583
G0 X31.962 Y-33.583 Z1.000
G1 X31.962 Y-33.583 Z-0.200 F100.000
G1 X29.766 Y-33.583 Z-0.200 F150.000
G1 X29.766 Y-33.684 Z-0.200 F150.000
G1 X31.962 Y-33.684 Z-0.200 F150.000
G1 X31.962 Y-33.583 Z-0.200 F150.000
G0 Z2.000
G0 X31.924 Y-33.620 Z2.000
G0 X31.924 Y-33.620 Z1.000
G1 X31.924 Y-33.620 Z-0.200 F100.000
G1 X29.803 Y-33.620 Z-0.200 F150.000
G1 X29.803 Y-33.646 Z-0.200 F150.000
G1 X31.924 Y-33.646 Z-0.200 F150.000
G1 X31.924 Y-33.620 Z-0.200 F150.000
G0 Z2.000
G0 Z2.000
G0 X31.924 Y-33.620
G0 X31.026 Y-34.575
G0 X31.026 Y-34.575 Z1.000
G1 X31.026 Y-34.575 Z-0.200 F100.000
G1 X30.978 Y-34.575 Z-0.200 F150.000
G1 X30.978 Y-35.400 Z-0.200 F150.000
G2 X30.903 Y-35.475 Z-0.200 I-0.075 J0.000 K0.000 F150.000
G1 X28.101 Y-35.475 Z-0.200 F150.000
G2 X28.026 Y-35.400 Z-0.200 I0.000 J0.075 K0.000 F150.000
G1 X28.026 Y-34.577 Z-0.200 F150.000
G1 X27.977 Y-34.577 Z-0.200 F150.000
G1 X27.977 Y-35.526 Z-0.200 F150.000
G1 X30.900 Y-35.526 Z-0.200 F150.000
G2 X30.975 Y-35.601 Z-0.200 I0.000 J-0.075 K0.000 F150.000
G1 X30.975 Y-41.225 Z-0.200 F150.000
G2 X31.026 Y-41.225 Z-0.200 I0.025 J-0.895 K0.000 F150.000
G1 X31.024 Y-35.601 Z-0.200 F150.000
G2 X31.099 Y-35.526 Z-0.200 I0.075 J0.000 K0.000 F150.000
G1 X34.119 Y-35.526 Z-0.200 F150.000
G1 X34.119 Y-34.577 Z-0.200 F150.000
G1 X34.068 Y-34.577 Z-0.200 F150.000
G1 X34.068 Y-35.400 Z-0.200 F150.000
G2 X33.993 Y-35.475 Z-0.200 I-0.075 J0.000 K0.000 F150.000
G1 X31.101 Y-35.475 Z-0.200 F150.000
G2 X31.026 Y-35.400 Z-0.200 I0.000 J0.075 K0.000 F150.000
G1 X31.026 Y-34.575 Z-0.200 F150.000
G0 Z2.000
G0 X31.002 Y-35.432 Z2.000
G0 X31.002 Y-35.432 Z1.000
G1 X31.002 Y-35.432 Z-0.200 F100.000
G2 X30.930 Y-35.501 Z-0.200 I-0.071 J0.001 K0.000 F150.000
G2 X31.000 Y-35.570 Z-0.200 I0.000 J-0.069 K0.000 F150.000
G2 X31.071 Y-35.501 Z-0.200 I0.071 J-0.001 K0.000 F150.000
G2 X31.002 Y-35.432 Z-0.200 I-0.000 J0.069 K0.000 F150.000
G0 Z2.000
G0 X28.043 Y-35.489 Z2.000
G0 X28.043 Y-35.489 Z1.000
G1 X28.043 Y-35.489 Z-0.200 F100.000
G2 X28.014 Y-35.463 Z-0.200 I-0.001 J0.027 K0.000 F150.000
G3 X28.043 Y-35.489 Z-0.200 I0.014 J-0.013 K0.000 F150.000
G0 Z2.000
G0 X34.051 Z2.000
G0 X34.051 Z1.000
G1 X34.051 Y-35.489 Z-0.200 F100.000
G3 X34.082 Y-35.458 Z-0.200 I0.015 J0.015 K0.000 F150.000
G2 X34.051 Y-35.489 Z-0.200 I-0.031 J0.000 K0.000 F150.000
G0 Z2.000
G0 Z2.000
G0 X34.051 Y-35.489
G0 X34.391 Y-33.696
G0 X34.391 Y-33.696 Z1.000
G1 X34.391 Y-33.696 Z-0.200 F100.000
G3 X34.793 Y-33.061 Z-0.200 I-0.188 J0.564 K0.000 F150.000
G3 X34.679 Y-32.608 Z-0.200 I-0.775 J0.046 K0.000 F150.000
G3 X34.043 Y-32.695 Z-0.200 I-0.299 J-0.182 K0.000 F150.000
G2 X33.819 Y-33.440 Z-0.200 I-2.619 J0.383 K0.000 F150.000
G2 X33.288 Y-33.235 Z-0.200 I-0.240 J0.169 K0.000 F150.000
G2 X33.382 Y-32.735 Z-0.200 I0.540 J0.157 K0.000 F150.000
G2 X33.541 Y-32.630 Z-0.200 I0.222 J-0.164 K0.000 F150.000
G1 X33.541 Y-32.530 Z-0.200 F150.000
G3 X33.215 Y-33.084 Z-0.200 I0.192 J-0.486 K0.000 F150.000
G3 X33.329 Y-33.534 Z-0.200 I0.728 J-0.056 K0.000 F150.000
G3 X33.932 Y-33.423 Z-0.200 I0.273 J0.213 K0.000 F150.000
G2 X34.176 Y-32.654 Z-0.200 I2.447 J-0.353 K0.000 F150.000
G2 X34.680 Y-32.772 Z-0.200 I0.220 J-0.192 K0.000 F150.000
G2 X34.665 Y-33.366 Z-0.200 I-0.768 J-0.277 K0.000 F150.000
G2 X34.391 Y-33.584 Z-0.200 I-0.355 J0.164 K0.000 F150.000
G1 X34.391 Y-33.696 Z-0.200 F150.000
G0 Z2.000
G0 X34.428 Y-33.639 Z2.000
G0 X34.428 Y-33.639 Z1.000
G1 X34.428 Y-33.639 Z-0.200 F100.000
G3 X34.692 Y-33.391 Z-0.200 I-0.130 J0.402 K0.000 F150.000
G2 X34.428 Y-33.614 Z-0.200 I-0.383 J0.186 K0.000 F150.000
G1 X34.428 Y-33.639 Z-0.200 F150.000
G0 Z2.000
G0 X34.733 Y-33.255 Z2.000
G0 X34.733 Y-33.255 Z1.000
G1 X34.733 Y-33.255 Z-0.200 F100.000
G3 X34.748 Y-33.171 Z-0.200 I-0.183 J0.076 K0.000 F150.000
G1 X34.733 Y-33.255 Z-0.200 F150.000
G0 Z2.000
G0 X34.689 Y-32.719 Z2.000
G0 X34.689 Y-32.719 Z1.000
G1 X34.689 Y-32.719 Z-0.200 F100.000
G3 X34.078 Y-32.710 Z-0.200 I-0.307 J-0.073 K0.000 F150.000
G2 X33.853 Y-33.454 Z-0.200 I-2.623 J0.386 K0.000 F150.000
G2 X33.336 Y-33.461 Z-0.200 I-0.261 J0.155 K0.000 F150.000
G3 X33.783 Y-33.581 Z-0.200 I0.278 J0.142 K0.000 F150.000
G3 X34.038 Y-32.872 Z-0.200 I-1.821 J1.056 K0.000 F150.000
G2 X34.315 Y-32.523 Z-0.200 I0.404 J-0.037 K0.000 F150.000
G2 X34.689 Y-32.719 Z-0.200 I0.079 J-0.303 K0.000 F150.000
G0 Z2.000
G0 X33.503 Y-32.587 Z2.000
G0 X33.503 Y-32.587 Z1.000
G1 X33.503 Y-32.587 Z-0.200 F100.000
G3 X33.312 Y-32.778 Z-0.200 I0.132 J-0.324 K0.000 F150.000
G3 X33.503 Y-32.587 Z-0.200 I-335.006 J335.855 K0.000 F150.000
G0 Z2.000
G0 X33.271 Y-32.911 Z2.000
G0 X33.271 Y-32.911 Z1.000
G1 X33.271 Y-32.911 Z-0.200 F100.000
G3 X33.260 Y-32.975 Z-0.200 I0.132 J-0.055 K0.000 F150.000
G1 X33.271 Y-32.911 Z-0.200 F150.000
G0 Z2.000
G0 Z2.000
G0 X33.271 Y-32.911
G0 Y-31.979
G0 Y-31.979 Z1.000
G1 X33.271 Y-31.979 Z-0.200 F100.000
G1 X34.767 Y-31.979 Z-0.200 F150.000
G1 X34.767 Y-31.877 Z-0.200 F150.000
G1 X33.241 Y-31.877 Z-0.200 F150.000
G1 X33.241 Y-31.979 Z-0.200 F150.000
G1 X33.271 Y-31.979 Z-0.200 F150.000
G0 Z2.000
G0 X33.279 Y-31.941 Z2.000
G0 X33.279 Y-31.941 Z1.000
G1 X33.279 Y-31.941 Z-0.200 F100.000
G1 X34.729 Y-31.941 Z-0.200 F150.000
G1 X34.729 Y-31.915 Z-0.200 F150.000
G1 X33.279 Y-31.915 Z-0.200 F150.000
G1 X33.279 Y-31.941 Z-0.200 F150.000
G0 Z2.000
G0 Z2.000
G0 X33.279 Y-31.941
G0 X31.856 Y-30.933
G0 X31.856 Y-30.933 Z1.000
G1 X31.856 Y-30.933 Z-0.200 F100.000
G3 X31.719 Y-29.954 Z-0.200 I-0.588 J0.417 K0.000 F150.000
G2 X31.769 Y-29.823 Z-0.200 I0.050 J0.056 K0.000 F150.000
G1 X31.962 Y-29.823 Z-0.200 F150.000
G1 X31.962 Y-29.722 Z-0.200 F150.000
G1 X29.766 Y-29.722 Z-0.200 F150.000
G1 X29.766 Y-29.823 Z-0.200 F150.000
G1 X30.632 Y-29.823 Z-0.200 F150.000
G2 X30.636 Y-29.989 Z-0.200 I-0.008 J-0.083 K0.000 F150.000
G3 X31.196 Y-31.234 Z-0.200 I0.498 J-0.524 K0.000 F150.000
G3 X31.856 Y-30.933 Z-0.200 I0.072 J0.717 K0.000 F150.000
G0 Z2.000
G0 X31.773 Y-30.870 Z2.000
G0 X31.773 Y-30.870 Z1.000
G1 X31.773 Y-30.870 Z-0.200 F100.000
G3 X31.206 Y-29.810 Z-0.200 I-0.523 J0.402 K0.000 F150.000
G3 X30.841 Y-31.051 Z-0.200 I-0.066 J-0.655 K0.000 F150.000
G3 X31.333 Y-31.122 Z-0.200 I0.356 J0.730 K0.000 F150.000
G3 X31.773 Y-30.870 Z-0.200 I-0.083 J0.654 K0.000 F150.000
G0 Z2.000
G0 X31.634 Y-29.851 Z2.000
G0 X31.634 Y-29.851 Z1.000
G1 X31.634 Y-29.851 Z-0.200 F100.000
G2 X31.681 Y-29.797 Z-0.200 I0.047 J0.007 K0.000 F150.000
G1 X31.516 Y-29.797 Z-0.200 F150.000
G2 X31.634 Y-29.851 Z-0.200 I-0.040 J-0.242 K0.000 F150.000
G0 Z2.000
G0 X30.863 Y-29.797 Z2.000
G0 X30.863 Y-29.797 Z1.000
G1 X30.863 Y-29.797 Z-0.200 F100.000
G1 X30.737 Y-29.797 Z-0.200 F150.000
G1 X30.766 Y-29.847 Z-0.200 F150.000
G2 X30.863 Y-29.797 Z-0.200 I0.213 J-0.295 K0.000 F150.000
G0 Z2.000
G0 Z2.000
(Finish operation: Pocket_Shape001)
(Begin postamble)
M5
G17 G90
M2
