(Exported by FreeCAD)
(Post Processor: grbl_post)
(Output Time:2022-12-31 15:47:33.386261)
(Begin preamble)
G17 G90
G21
(Begin operation: G54)
(Path: G54)
G54
G0 Z5.000
(Finish operation: G54)
(Begin operation: ballend-020mm001)
(Path: ballend-020mm001)
(ballend-020mm001)
(Begin toolchange)
( M6 T2 )
M3 S10000
(Finish operation: ballend-020mm001)
(Begin operation: Pocket_Shape)
(Path: Pocket_Shape)
(Pocket_Shape)
G0 Z2.000
G0 X7.641 Y-24.992
G0 Z1.000
G1 X7.641 Y-24.992 Z-0.200 F50.000
G1 X7.515 Y-24.992 Z-0.200 F150.000
G1 X6.886 Y-26.675 Z-0.200 F150.000
G2 X6.699 Y-26.675 Z-0.200 I-0.094 J0.035 K0.000 F150.000
G1 X6.066 Y-24.992 Z-0.200 F150.000
G1 X5.940 Y-24.992 Z-0.200 F150.000
G1 X6.678 Y-26.873 Z-0.200 F150.000
G1 X6.907 Y-26.873 Z-0.200 F150.000
G1 X7.641 Y-24.992 Z-0.200 F150.000
G0 Z2.000
G0 X7.568 Y-25.042 Z2.000
G0 X7.568 Y-25.042 Z1.000
G1 X7.568 Y-25.042 Z-0.200 F50.000
G1 X7.550 Y-25.042 Z-0.200 F150.000
G1 X7.131 Y-26.161 Z-0.200 F150.000
G1 X7.568 Y-25.042 Z-0.200 F150.000
G0 Z2.000
G0 X6.222 Y-25.548 Z2.000
G0 X6.222 Y-25.548 Z1.000
G1 X6.222 Y-25.548 Z-0.200 F50.000
G1 X6.031 Y-25.042 Z-0.200 F150.000
G1 X6.013 Y-25.042 Z-0.200 F150.000
G1 X6.450 Y-26.154 Z-0.200 F150.000
G1 X6.222 Y-25.548 Z-0.200 F150.000
G0 Z2.000
G0 X6.665 Y-26.703 Z2.000
G0 X6.665 Y-26.703 Z1.000
G1 X6.665 Y-26.703 Z-0.200 F50.000
G1 X6.712 Y-26.823 Z-0.200 F150.000
G1 X6.873 Y-26.823 Z-0.200 F150.000
G1 X6.917 Y-26.711 Z-0.200 F150.000
G2 X6.665 Y-26.703 Z-0.200 I-0.125 J0.058 K0.000 F150.000
G0 Z2.000
G0 Z2.000
G0 X6.665 Y-26.703
G0 X8.090 Y-26.263
G0 X8.090 Y-26.263 Z1.000
G1 X8.090 Y-26.263 Z-0.200 F50.000
G3 X9.260 Y-26.872 Z-0.200 I0.885 J0.273 K0.000 F150.000
G3 X9.879 Y-25.643 Z-0.200 I-0.316 J0.929 K0.000 F150.000
G1 X9.801 Y-25.439 Z-0.200 F150.000
G3 X8.050 Y-25.931 Z-0.200 I-0.821 J-0.439 K0.000 F150.000
G3 X8.090 Y-26.263 Z-0.200 I0.925 J-0.059 K0.000 F150.000
G0 Z2.000
G0 X8.149 Y-26.244 Z2.000
G0 X8.149 Y-26.244 Z1.000
G1 X8.149 Y-26.244 Z-0.200 F50.000
G3 X8.342 Y-26.593 Z-0.200 I0.974 J0.311 K0.000 F150.000
G2 X8.368 Y-25.244 Z-0.200 I0.831 J0.659 K0.000 F150.000
G3 X8.149 Y-26.244 Z-0.200 I0.755 J-0.689 K0.000 F150.000
G0 Z2.000
G0 X8.201 Y-26.226 Z2.000
G0 X8.201 Y-26.226 Z1.000
G1 X8.201 Y-26.226 Z-0.200 F50.000
G3 X8.215 Y-26.265 Z-0.200 I0.880 J0.303 K0.000 F150.000
G3 X9.802 Y-25.942 Z-0.200 I0.773 J0.259 K0.000 F150.000
G3 X8.568 Y-25.147 Z-0.200 I-0.820 J0.083 K0.000 F150.000
G3 X8.201 Y-26.226 Z-0.200 I0.513 J-0.776 K0.000 F150.000
G0 Z2.000
G0 X9.605 Y-26.608 Z2.000
G0 X9.605 Y-26.608 Z1.000
G1 X9.605 Y-26.608 Z-0.200 F50.000
G3 X9.757 Y-25.463 Z-0.200 I-0.762 J0.683 K0.000 F150.000
G1 X9.638 Y-25.297 Z-0.200 F150.000
G2 X9.605 Y-26.608 Z-0.200 I-0.837 J-0.635 K0.000 F150.000
G0 Z2.000
G0 X9.614 Y-25.264 Z2.000
G0 X9.614 Y-25.264 Z1.000
G1 X9.614 Y-25.264 Z-0.200 F50.000
G3 X9.574 Y-25.228 Z-0.200 I-0.083 J-0.052 K0.000 F150.000
G1 X9.614 Y-25.264 Z-0.200 F150.000
G0 Z2.000
G0 Z2.000
G0 X9.614 Y-25.264
G0 X10.527
G0 X10.527 Z1.000
G1 X10.527 Y-25.264 Z-0.200 F50.000
G1 X10.527 Y-26.873 Z-0.200 F150.000
G1 X10.639 Y-26.873 Z-0.200 F150.000
G1 X10.639 Y-24.159 Z-0.200 F150.000
G1 X10.527 Y-24.159 Z-0.200 F150.000
G1 X10.527 Y-25.264 Z-0.200 F150.000
G0 Z2.000
G0 X10.577 Z2.000
G0 X10.577 Z1.000
G1 X10.577 Y-25.264 Z-0.200 F50.000
G1 X10.577 Y-26.823 Z-0.200 F150.000
G1 X10.589 Y-26.823 Z-0.200 F150.000
G1 X10.589 Y-24.209 Z-0.200 F150.000
G1 X10.577 Y-24.209 Z-0.200 F150.000
G1 X10.577 Y-25.264 Z-0.200 F150.000
G0 Z2.000
G0 Z2.000
G0 X10.577 Y-25.264
G0 X11.359
G0 X11.359 Z1.000
G1 X11.359 Y-25.264 Z-0.200 F50.000
G1 X11.359 Y-26.097 Z-0.200 F150.000
G3 X12.710 Y-26.579 Z-0.200 I0.737 J-0.070 K0.000 F150.000
G2 X12.883 Y-26.648 Z-0.200 I0.072 J-0.069 K0.000 F150.000
G1 X12.883 Y-26.873 Z-0.200 F150.000
G1 X12.995 Y-26.873 Z-0.200 F150.000
G1 X12.995 Y-24.992 Z-0.200 F150.000
G1 X12.883 Y-24.992 Z-0.200 F150.000
G1 X12.881 Y-26.107 Z-0.200 F150.000
G2 X11.495 Y-26.303 Z-0.200 I-0.706 J-0.006 K0.000 F150.000
G1 X11.471 Y-26.095 Z-0.200 F150.000
G1 X11.471 Y-24.992 Z-0.200 F150.000
G1 X11.359 Y-24.992 Z-0.200 F150.000
G1 X11.359 Y-25.264 Z-0.200 F150.000
G0 Z2.000
G0 X11.409 Z2.000
G0 X11.409 Z1.000
G1 X11.409 Y-25.264 Z-0.200 F50.000
G1 X11.409 Y-26.094 Z-0.200 F150.000
G3 X11.805 Y-26.788 Z-0.200 I0.653 J-0.088 K0.000 F150.000
G2 X11.421 Y-26.095 Z-0.200 I0.360 J0.652 K0.000 F150.000
G1 X11.421 Y-25.042 Z-0.200 F150.000
G1 X11.409 Y-25.042 Z-0.200 F150.000
G1 X11.409 Y-25.264 Z-0.200 F150.000
G0 Z2.000
G0 X12.932 Y-25.267 Z2.000
G0 X12.932 Y-25.267 Z1.000
G1 X12.932 Y-25.267 Z-0.200 F50.000
G1 X12.931 Y-26.115 Z-0.200 F150.000
G2 X12.814 Y-26.511 Z-0.200 I-0.703 J-0.008 K0.000 F150.000
G2 X12.933 Y-26.823 Z-0.200 I-0.122 J-0.225 K0.000 F150.000
G1 X12.945 Y-26.823 Z-0.200 F150.000
G1 X12.945 Y-25.042 Z-0.200 F150.000
G1 X12.932 Y-25.042 Z-0.200 F150.000
G1 X12.932 Y-25.267 Z-0.200 F150.000
G0 Z2.000
G0 X12.895 Y-26.471 Z2.000
G0 X12.895 Y-26.471 Z1.000
G1 X12.895 Y-26.471 Z-0.200 F50.000
G3 X12.895 Y-26.492 Z-0.200 I0.003 J-0.011 K0.000 F150.000
G1 X12.895 Y-26.471 Z-0.200 F150.000
G0 Z2.000
G0 X12.006 Y-26.847 Z2.000
G0 X12.006 Y-26.847 Z1.000
G1 X12.006 Y-26.847 Z-0.200 F50.000
G1 X11.937 Y-26.834 Z-0.200 F150.000
G3 X12.006 Y-26.847 Z-0.200 I0.061 J0.132 K0.000 F150.000
G0 Z2.000
G0 Z2.000
G0 X12.006 Y-26.847
G0 X13.736
G0 X13.736 Z1.000
G1 X13.736 Y-26.847 Z-0.200 F50.000
G1 X13.736 Y-26.873 Z-0.200 F150.000
G1 X13.849 Y-26.873 Z-0.200 F150.000
G1 X13.850 Y-25.713 Z-0.200 F150.000
G2 X13.981 Y-25.296 Z-0.200 I0.672 J0.018 K0.000 F150.000
G2 X13.849 Y-25.208 Z-0.200 I-0.039 J0.085 K0.000 F150.000
G1 X13.849 Y-24.992 Z-0.200 F150.000
G1 X13.736 Y-24.992 Z-0.200 F150.000
G1 X13.736 Y-26.847 Z-0.200 F150.000
G0 Z2.000
G0 X13.786 Y-26.823 Z2.000
G0 X13.786 Y-26.823 Z1.000
G1 X13.786 Y-26.823 Z-0.200 F50.000
G1 X13.799 Y-26.823 Z-0.200 F150.000
G1 X13.800 Y-25.705 Z-0.200 F150.000
G2 X13.898 Y-25.344 Z-0.200 I0.578 J0.038 K0.000 F150.000
G2 X13.799 Y-25.208 Z-0.200 I0.040 J0.134 K0.000 F150.000
G1 X13.799 Y-25.042 Z-0.200 F150.000
G1 X13.786 Y-25.042 Z-0.200 F150.000
G1 X13.786 Y-26.823 Z-0.200 F150.000
G0 Z2.000
G0 X15.126 Z2.000
G0 X15.126 Z1.000
G1 X15.126 Y-26.823 Z-0.200 F50.000
G1 X15.126 Y-26.873 Z-0.200 F150.000
G1 X15.239 Y-26.873 Z-0.200 F150.000
G1 X15.240 Y-25.713 Z-0.200 F150.000
G2 X16.494 Y-25.527 Z-0.200 I0.636 J0.034 K0.000 F150.000
G1 X16.517 Y-25.724 Z-0.200 F150.000
G1 X16.517 Y-26.873 Z-0.200 F150.000
G1 X16.629 Y-26.873 Z-0.200 F150.000
G1 X16.629 Y-25.722 Z-0.200 F150.000
G3 X15.323 Y-25.339 Z-0.200 I-0.688 J0.074 K0.000 F150.000
G2 X15.160 Y-25.335 Z-0.200 I-0.080 J0.060 K0.000 F150.000
G3 X14.080 Y-25.199 Z-0.200 I-0.581 J-0.261 K0.000 F150.000
G2 X15.126 Y-25.724 Z-0.200 I0.419 J-0.469 K0.000 F150.000
G1 X15.126 Y-26.823 Z-0.200 F150.000
G0 Z2.000
G0 X15.176 Z2.000
G0 X15.176 Z1.000
G1 X15.176 Y-26.823 Z-0.200 F50.000
G1 X15.189 Y-26.823 Z-0.200 F150.000
G1 X15.190 Y-25.705 Z-0.200 F150.000
G1 X15.242 Y-25.426 Z-0.200 F150.000
G1 X15.245 Y-25.421 Z-0.200 F150.000
G2 X15.012 Y-25.204 Z-0.200 I0.063 J0.301 K0.000 F150.000
G3 X14.715 Y-25.031 Z-0.200 I-0.341 J-0.242 K0.000 F150.000
G2 X15.176 Y-25.724 Z-0.200 I-0.216 J-0.644 K0.000 F150.000
G1 X15.176 Y-26.823 Z-0.200 F150.000
G0 Z2.000
G0 X16.567 Z2.000
G0 X16.567 Z1.000
G1 X16.567 Y-26.823 Z-0.200 F50.000
G1 X16.579 Y-26.823 Z-0.200 F150.000
G1 X16.579 Y-25.726 Z-0.200 F150.000
G3 X16.210 Y-25.073 Z-0.200 I-0.641 J0.068 K0.000 F150.000
G2 X16.567 Y-25.724 Z-0.200 I-0.352 J-0.617 K0.000 F150.000
G1 X16.567 Y-26.823 Z-0.200 F150.000
G0 Z2.000
G0 X16.117 Y-25.033 Z2.000
G0 X16.117 Y-25.033 Z1.000
G1 X16.117 Y-25.033 Z-0.200 F50.000
G3 X16.077 Y-25.025 Z-0.200 I-0.035 J-0.067 K0.000 F150.000
G1 X16.117 Y-25.033 Z-0.200 F150.000
G0 Z2.000
G0 Z2.000
G0 X16.117 Y-25.033
G0 X17.350 Y-25.535
G0 X17.350 Y-25.535 Z1.000
G1 X17.350 Y-25.535 Z-0.200 F50.000
G2 X17.408 Y-25.423 Z-0.200 I0.674 J-0.274 K0.000 F150.000
G3 X17.419 Y-26.452 Z-0.200 I0.865 J-0.505 K0.000 F150.000
G2 X17.307 Y-25.990 Z-0.200 I0.420 J0.347 K0.000 F150.000
G2 X17.428 Y-25.910 Z-0.200 I0.126 J-0.059 K0.000 F150.000
G2 X17.302 Y-25.719 Z-0.200 I0.011 J0.144 K0.000 F150.000
G2 X17.350 Y-25.535 Z-0.200 I0.722 J-0.090 K0.000 F150.000
G0 Z2.000
G0 X17.394 Y-25.552 Z2.000
G0 X17.394 Y-25.552 Z1.000
G1 X17.394 Y-25.552 Z-0.200 F50.000
G3 X17.350 Y-25.735 Z-0.200 I0.751 J-0.280 K0.000 F150.000
G3 X17.445 Y-25.866 Z-0.200 I0.095 J-0.031 K0.000 F150.000
G1 X18.860 Y-25.866 Z-0.200 F150.000
G1 X18.946 Y-25.817 Z-0.200 F150.000
G3 X17.394 Y-25.552 Z-0.200 I-0.801 J-0.014 K0.000 F150.000
G0 Z2.000
G0 X17.299 Y-25.509 Z2.000
G0 X17.299 Y-25.509 Z1.000
G1 X17.299 Y-25.509 Z-0.200 F50.000
G3 X17.221 Y-25.930 Z-0.200 I0.853 J-0.375 K0.000 F150.000
G3 X18.963 Y-26.474 Z-0.200 I0.942 J-0.043 K0.000 F150.000
G3 X18.789 Y-26.541 Z-0.200 I-0.064 J-0.092 K0.000 F150.000
G2 X17.356 Y-26.005 Z-0.200 I-0.621 J0.523 K0.000 F150.000
G1 X17.441 Y-25.957 Z-0.200 F150.000
G1 X19.085 Y-25.957 Z-0.200 F150.000
G3 X19.017 Y-25.539 Z-0.200 I-1.102 J0.034 K0.000 F150.000
G3 X17.299 Y-25.509 Z-0.200 I-0.865 J-0.346 K0.000 F150.000
G0 Z2.000
G0 X17.519 Y-25.271 Z2.000
G0 X17.519 Y-25.271 Z1.000
G1 X17.519 Y-25.271 Z-0.200 F50.000
G1 X17.549 Y-25.235 Z-0.200 F150.000
G3 X17.519 Y-25.271 Z-0.200 I0.047 J-0.071 K0.000 F150.000
G0 Z2.000
G0 X17.459 Y-26.507 Z2.000
G0 X17.459 Y-26.507 Z1.000
G1 X17.459 Y-26.507 Z-0.200 F50.000
G3 X17.689 Y-26.729 Z-0.200 I0.554 J0.343 K0.000 F150.000
G2 X17.459 Y-26.507 Z-0.200 I0.361 J0.603 K0.000 F150.000
G0 Z2.000
G0 X18.679 Y-26.713 Z2.000
G0 X18.679 Y-26.713 Z1.000
G1 X18.679 Y-26.713 Z-0.200 F50.000
G3 X18.698 Y-26.699 Z-0.200 I-0.011 J0.035 K0.000 F150.000
G1 X18.679 Y-26.713 Z-0.200 F150.000
G0 Z2.000
G0 X18.833 Y-26.565 Z2.000
G0 X18.833 Y-26.565 Z1.000
G1 X18.833 Y-26.565 Z-0.200 F50.000
G3 X18.871 Y-26.524 Z-0.200 I-0.077 J0.108 K0.000 F150.000
G3 X18.833 Y-26.565 Z-0.200 I-0.005 J-0.033 K0.000 F150.000
G0 Z2.000
G0 X18.900 Y-25.907 Z2.000
G0 X18.900 Y-25.907 Z1.000
G1 X18.900 Y-25.907 Z-0.200 F50.000
G1 X19.031 Y-25.907 Z-0.200 F150.000
G3 X18.895 Y-25.419 Z-0.200 I-0.801 J0.041 K0.000 F150.000
G2 X18.995 Y-25.831 Z-0.200 I-0.385 J-0.312 K0.000 F150.000
G2 X18.900 Y-25.907 Z-0.200 I-0.108 J0.038 K0.000 F150.000
G0 Z2.000
G0 X18.824 Y-25.318 Z2.000
G0 X18.824 Y-25.318 Z1.000
G1 X18.824 Y-25.318 Z-0.200 F50.000
G3 X18.768 Y-25.246 Z-0.200 I-0.152 J-0.060 K0.000 F150.000
G1 X18.824 Y-25.318 Z-0.200 F150.000
G0 Z2.000
G0 Z2.000
G0 X18.824 Y-25.318
G0 X45.717 Y-25.831
G0 X45.717 Y-25.831 Z1.000
G1 X45.717 Y-25.831 Z-0.200 F50.000
G3 X45.719 Y-25.915 Z-0.200 I0.894 J-0.017 K0.000 F150.000
G3 X47.296 Y-26.536 Z-0.200 I0.880 J-0.077 K0.000 F150.000
G2 X47.471 Y-26.603 Z-0.200 I0.075 J-0.067 K0.000 F150.000
G2 X47.416 Y-27.220 Z-0.200 I-1.131 J-0.211 K0.000 F150.000
G2 X47.010 Y-27.603 Z-0.200 I-0.573 J0.201 K0.000 F150.000
G2 X46.228 Y-27.536 Z-0.200 I-0.319 J0.887 K0.000 F150.000
G2 X46.018 Y-27.323 Z-0.200 I0.205 J0.413 K0.000 F150.000
G1 X45.888 Y-27.323 Z-0.200 F150.000
G3 X46.700 Y-27.730 Z-0.200 I0.723 J0.429 K0.000 F150.000
G3 X47.226 Y-27.614 Z-0.200 I0.053 J1.019 K0.000 F150.000
G3 X47.583 Y-26.909 Z-0.200 I-0.397 J0.643 K0.000 F150.000
G1 X47.583 Y-24.992 Z-0.200 F150.000
G1 X47.471 Y-24.992 Z-0.200 F150.000
G2 X47.441 Y-25.295 Z-0.200 I-0.381 J-0.116 K0.000 F150.000
G2 X47.203 Y-25.179 Z-0.200 I-0.066 J0.167 K0.000 F150.000
G3 X45.717 Y-25.831 Z-0.200 I-0.592 J-0.669 K0.000 F150.000
G0 Z2.000
G0 X45.767 Y-25.832 Z2.000
G0 X45.767 Y-25.832 Z1.000
G1 X45.767 Y-25.832 Z-0.200 F50.000
G3 X45.769 Y-25.915 Z-0.200 I0.836 J-0.015 K0.000 F150.000
G3 X46.273 Y-26.750 Z-0.200 I0.822 J-0.073 K0.000 F150.000
G2 X46.387 Y-25.040 Z-0.200 I0.452 J0.828 K0.000 F150.000
G3 X45.767 Y-25.832 Z-0.200 I0.215 J-0.808 K0.000 F150.000
G0 Z2.000
G0 X45.822 Y-25.838 Z2.000
G0 X45.822 Y-25.838 Z1.000
G1 X45.822 Y-25.838 Z-0.200 F50.000
G3 X46.209 Y-26.664 Z-0.200 I0.882 J-0.090 K0.000 F150.000
G3 X47.383 Y-26.363 Z-0.200 I0.449 J0.691 K0.000 F150.000
G3 X46.682 Y-25.042 Z-0.200 I-0.755 J0.446 K0.000 F150.000
G3 X45.822 Y-25.838 Z-0.200 I0.021 J-0.886 K0.000 F150.000
G0 Z2.000
G0 X46.401 Y-26.797 Z2.000
G0 X46.401 Y-26.797 Z1.000
G1 X46.401 Y-26.797 Z-0.200 F50.000
G3 X46.423 Y-26.801 Z-0.200 I0.018 J0.040 K0.000 F150.000
G1 X46.401 Y-26.797 Z-0.200 F150.000
G0 Z2.000
G0 X45.980 Y-27.373 Z2.000
G0 X45.980 Y-27.373 Z1.000
G1 X45.980 Y-27.373 Z-0.200 F50.000
G3 X46.146 Y-27.533 Z-0.200 I0.310 J0.156 K0.000 F150.000
G2 X45.980 Y-27.373 Z-0.200 I0.726 J0.923 K0.000 F150.000
G0 Z2.000
G0 X47.156 Y-27.590 Z2.000
G0 X47.156 Y-27.590 Z1.000
G1 X47.156 Y-27.590 Z-0.200 F50.000
G3 X47.533 Y-26.908 Z-0.200 I-0.313 J0.618 K0.000 F150.000
G1 X47.533 Y-25.961 Z-0.200 F150.000
G2 X47.375 Y-26.459 Z-0.200 I-0.715 J-0.048 K0.000 F150.000
G2 X47.521 Y-26.603 Z-0.200 I0.011 J-0.134 K0.000 F150.000
G2 X47.333 Y-27.454 Z-0.200 I-1.014 J-0.223 K0.000 F150.000
G2 X47.156 Y-27.590 Z-0.200 I-0.382 J0.314 K0.000 F150.000
G0 Z2.000
G0 X47.483 Y-26.448 Z2.000
G0 X47.483 Y-26.448 Z1.000
G1 X47.483 Y-26.448 Z-0.200 F50.000
G1 X47.483 Y-26.373 Z-0.200 F150.000
G3 X47.483 Y-26.448 Z-0.200 I0.012 J-0.037 K0.000 F150.000
G0 Z2.000
G0 X47.533 Y-25.879 Z2.000
G0 X47.533 Y-25.879 Z1.000
G1 X47.533 Y-25.879 Z-0.200 F50.000
G1 X47.533 Y-25.042 Z-0.200 F150.000
G1 X47.521 Y-25.042 Z-0.200 F150.000
G2 X47.486 Y-25.321 Z-0.200 I-0.401 J-0.091 K0.000 F150.000
G2 X47.375 Y-25.368 Z-0.200 I-0.084 J0.042 K0.000 F150.000
G2 X47.533 Y-25.879 Z-0.200 I-0.715 J-0.501 K0.000 F150.000
G0 Z2.000
G0 X47.483 Y-25.450 Z2.000
G0 X47.483 Y-25.450 Z1.000
G1 X47.483 Y-25.450 Z-0.200 F50.000
G1 X47.483 Y-25.378 Z-0.200 F150.000
G3 X47.483 Y-25.450 Z-0.200 I0.003 J-0.036 K0.000 F150.000
G0 Z2.000
G0 Z2.000
G0 X47.483 Y-25.450
G0 X48.219 Y-25.635
G0 X48.219 Y-25.635 Z1.000
G1 X48.219 Y-25.635 Z-0.200 F50.000
G3 X48.196 Y-25.931 Z-0.200 I0.867 J-0.218 K0.000 F150.000
G3 X49.494 Y-26.818 Z-0.200 I0.898 J-0.080 K0.000 F150.000
G3 X49.771 Y-26.576 Z-0.200 I-0.359 J0.687 K0.000 F150.000
G2 X49.948 Y-26.640 Z-0.200 I0.077 J-0.064 K0.000 F150.000
G1 X49.948 Y-26.873 Z-0.200 F150.000
G1 X50.060 Y-26.873 Z-0.200 F150.000
G1 X50.060 Y-24.992 Z-0.200 F150.000
G1 X49.948 Y-24.992 Z-0.200 F150.000
G2 X49.918 Y-25.299 Z-0.200 I-0.386 J-0.118 K0.000 F150.000
G2 X49.693 Y-25.196 Z-0.200 I-0.066 J0.153 K0.000 F150.000
G3 X48.219 Y-25.635 Z-0.200 I-0.606 J-0.657 K0.000 F150.000
G0 Z2.000
G0 X48.273 Y-25.649 Z2.000
G0 X48.273 Y-25.649 Z1.000
G1 X48.273 Y-25.649 Z-0.200 F50.000
G3 X48.246 Y-25.930 Z-0.200 I0.835 J-0.221 K0.000 F150.000
G3 X48.763 Y-26.786 Z-0.200 I0.844 J-0.075 K0.000 F150.000
G2 X48.259 Y-25.911 Z-0.200 I0.402 J0.814 K0.000 F150.000
G2 X48.874 Y-25.039 Z-0.200 I0.856 J0.049 K0.000 F150.000
G3 X48.273 Y-25.649 Z-0.200 I0.233 J-0.831 K0.000 F150.000
G0 Z2.000
G0 X48.339 Y-25.669 Z2.000
G0 X48.339 Y-25.669 Z1.000
G1 X48.339 Y-25.669 Z-0.200 F50.000
G3 X48.685 Y-26.692 Z-0.200 I0.900 J-0.266 K0.000 F150.000
G3 X49.964 Y-25.942 Z-0.200 I0.457 J0.686 K0.000 F150.000
G3 X48.740 Y-25.140 Z-0.200 I-0.821 J0.082 K0.000 F150.000
G3 X48.339 Y-25.669 Z-0.200 I0.499 J-0.795 K0.000 F150.000
G0 Z2.000
G0 X48.889 Y-26.831 Z2.000
G0 X48.889 Y-26.831 Z1.000
G1 X48.889 Y-26.831 Z-0.200 F50.000
G3 X48.930 Y-26.838 Z-0.200 I0.035 J0.079 K0.000 F150.000
G1 X48.889 Y-26.831 Z-0.200 F150.000
G0 Z2.000
G0 X49.846 Y-26.496 Z2.000
G0 X49.846 Y-26.496 Z1.000
G1 X49.846 Y-26.496 Z-0.200 F50.000
G2 X49.998 Y-26.640 Z-0.200 I0.010 J-0.142 K0.000 F150.000
G1 X49.998 Y-26.823 Z-0.200 F150.000
G1 X50.010 Y-26.823 Z-0.200 F150.000
G1 X50.010 Y-25.979 Z-0.200 F150.000
G2 X49.846 Y-26.496 Z-0.200 I-0.738 J-0.051 K0.000 F150.000
G0 Z2.000
G0 X49.931 Y-26.461 Z2.000
G0 X49.931 Y-26.461 Z1.000
G1 X49.931 Y-26.461 Z-0.200 F50.000
G3 X49.960 Y-26.486 Z-0.200 I0.039 J0.016 K0.000 F150.000
G1 X49.960 Y-26.404 Z-0.200 F150.000
G3 X49.931 Y-26.461 Z-0.200 I0.010 J-0.041 K0.000 F150.000
G0 Z2.000
G0 X50.010 Y-25.888 Z2.000
G0 X50.010 Y-25.888 Z1.000
G1 X50.010 Y-25.888 Z-0.200 F50.000
G1 X50.010 Y-25.042 Z-0.200 F150.000
G1 X49.998 Y-25.042 Z-0.200 F150.000
G2 X49.963 Y-25.325 Z-0.200 I-0.407 J-0.093 K0.000 F150.000
G2 X49.847 Y-25.371 Z-0.200 I-0.086 J0.046 K0.000 F150.000
G2 X50.010 Y-25.888 Z-0.200 I-0.713 J-0.508 K0.000 F150.000
G0 Z2.000
G0 X49.960 Y-25.459 Z2.000
G0 X49.960 Y-25.459 Z1.000
G1 X49.960 Y-25.459 Z-0.200 F50.000
G1 X49.960 Y-25.382 Z-0.200 F150.000
G3 X49.960 Y-25.459 Z-0.200 I0.003 J-0.039 K0.000 F150.000
G0 Z2.000
G0 Z2.000
G0 X49.960 Y-25.459
G0 X50.801
G0 X50.801 Z1.000
G1 X50.801 Y-25.459 Z-0.200 F50.000
G1 X50.801 Y-26.873 Z-0.200 F150.000
G1 X50.913 Y-26.873 Z-0.200 F150.000
G1 X50.913 Y-24.992 Z-0.200 F150.000
G1 X50.801 Y-24.992 Z-0.200 F150.000
G1 X50.801 Y-25.459 Z-0.200 F150.000
G0 Z2.000
G0 X50.851 Z2.000
G0 X50.851 Z1.000
G1 X50.851 Y-25.459 Z-0.200 F50.000
G1 X50.851 Y-26.823 Z-0.200 F150.000
G1 X50.863 Y-26.823 Z-0.200 F150.000
G1 X50.863 Y-25.042 Z-0.200 F150.000
G1 X50.851 Y-25.042 Z-0.200 F150.000
G1 X50.851 Y-25.459 Z-0.200 F150.000
G0 Z2.000
G0 Z2.000
G0 X50.851 Y-25.459
G0 Y-24.442
G0 Y-24.442 Z1.000
G1 X50.851 Y-24.442 Z-0.200 F50.000
G1 X50.926 Y-24.442 Z-0.200 F150.000
G1 X50.926 Y-24.234 Z-0.200 F150.000
G1 X50.788 Y-24.234 Z-0.200 F150.000
G1 X50.788 Y-24.442 Z-0.200 F150.000
G1 X50.851 Y-24.442 Z-0.200 F150.000
G0 Z2.000
G0 Y-24.392 Z2.000
G0 Y-24.392 Z1.000
G1 X50.851 Y-24.392 Z-0.200 F50.000
G1 X50.876 Y-24.392 Z-0.200 F150.000
G1 X50.876 Y-24.284 Z-0.200 F150.000
G1 X50.838 Y-24.284 Z-0.200 F150.000
G1 X50.838 Y-24.392 Z-0.200 F150.000
G1 X50.851 Y-24.392 Z-0.200 F150.000
G0 Z2.000
G0 Z2.000
G0 X50.851 Y-24.392
G0 X51.654 Y-24.992
G0 X51.654 Y-24.992 Z1.000
G1 X51.654 Y-24.992 Z-0.200 F50.000
G1 X51.654 Y-26.873 Z-0.200 F150.000
G1 X51.767 Y-26.873 Z-0.200 F150.000
G1 X51.767 Y-25.762 Z-0.200 F150.000
G2 X53.153 Y-25.554 Z-0.200 I0.706 J0.015 K0.000 F150.000
G1 X53.178 Y-25.770 Z-0.200 F150.000
G1 X53.178 Y-26.873 Z-0.200 F150.000
G1 X53.290 Y-26.873 Z-0.200 F150.000
G1 X53.290 Y-25.768 Z-0.200 F150.000
G3 X51.942 Y-25.281 Z-0.200 I-0.737 J0.070 K0.000 F150.000
G2 X51.767 Y-25.216 Z-0.200 I-0.076 J0.065 K0.000 F150.000
G1 X51.767 Y-24.992 Z-0.200 F150.000
G1 X51.654 Y-24.992 Z-0.200 F150.000
G0 Z2.000
G0 X51.704 Y-25.042 Z2.000
G0 X51.704 Y-25.042 Z1.000
G1 X51.704 Y-25.042 Z-0.200 F50.000
G1 X51.704 Y-26.823 Z-0.200 F150.000
G1 X51.717 Y-26.823 Z-0.200 F150.000
G1 X51.718 Y-25.757 Z-0.200 F150.000
G2 X51.832 Y-25.353 Z-0.200 I0.781 J-0.002 K0.000 F150.000
G1 X51.790 Y-25.345 Z-0.200 F150.000
G2 X51.717 Y-25.042 Z-0.200 I0.230 J0.216 K0.000 F150.000
G1 X51.704 Y-25.042 Z-0.200 F150.000
G0 Z2.000
G0 X51.754 Y-25.371 Z2.000
G0 X51.754 Y-25.371 Z1.000
G1 X51.754 Y-25.371 Z-0.200 F50.000
G1 X51.754 Y-25.406 Z-0.200 F150.000
G3 X51.754 Y-25.371 Z-0.200 I-0.005 J0.018 K0.000 F150.000
G0 Z2.000
G0 X52.830 Y-25.070 Z2.000
G0 X52.830 Y-25.070 Z1.000
G1 X52.830 Y-25.070 Z-0.200 F50.000
G2 X53.228 Y-25.770 Z-0.200 I-0.348 J-0.661 K0.000 F150.000
G1 X53.228 Y-26.823 Z-0.200 F150.000
G1 X53.240 Y-26.823 Z-0.200 F150.000
G1 X53.240 Y-25.771 Z-0.200 F150.000
G3 X52.830 Y-25.070 Z-0.200 I-0.657 J0.086 K0.000 F150.000
G0 Z2.000
G0 Z2.000
G0 X52.830 Y-25.070
G0 X48.753 Y-54.197
G0 X48.753 Y-54.197 Z1.000
G1 X48.753 Y-54.197 Z-0.200 F50.000
G1 X48.641 Y-54.197 Z-0.200 F150.000
G1 X48.641 Y-56.912 Z-0.200 F150.000
G1 X48.753 Y-56.912 Z-0.200 F150.000
G1 X48.753 Y-54.197 Z-0.200 F150.000
G0 Z2.000
G0 X48.703 Y-54.247 Z2.000
G0 X48.703 Y-54.247 Z1.000
G1 X48.703 Y-54.247 Z-0.200 F50.000
G1 X48.691 Y-54.247 Z-0.200 F150.000
G1 X48.691 Y-56.862 Z-0.200 F150.000
G1 X48.703 Y-56.862 Z-0.200 F150.000
G1 X48.703 Y-54.247 Z-0.200 F150.000
G0 Z2.000
G0 Z2.000
G0 X48.703 Y-54.247
G0 X47.730 Y-55.254
G0 X47.730 Y-55.254 Z1.000
G1 X47.730 Y-55.254 Z-0.200 F50.000
G3 X47.389 Y-55.037 Z-0.200 I-0.701 J-0.726 K0.000 F150.000
G3 X46.257 Y-55.518 Z-0.200 I-0.300 J-0.866 K0.000 F150.000
G3 X46.810 Y-56.907 Z-0.200 I0.893 J-0.449 K0.000 F150.000
G3 X47.593 Y-56.817 Z-0.200 I0.287 J0.952 K0.000 F150.000
G3 X47.730 Y-55.254 Z-0.200 I-0.564 J0.837 K0.000 F150.000
G0 Z2.000
G0 X47.721 Y-55.296 Z2.000
G0 X47.721 Y-55.296 Z1.000
G1 X47.721 Y-55.296 Z-0.200 F50.000
G2 X47.719 Y-56.647 Z-0.200 I-0.806 J-0.675 K0.000 F150.000
G3 X47.721 Y-55.296 Z-0.200 I-0.753 J0.676 K0.000 F150.000
G0 Z2.000
G0 X47.686 Y-55.329 Z2.000
G0 X47.686 Y-55.329 Z1.000
G1 X47.686 Y-55.329 Z-0.200 F50.000
G3 X46.926 Y-55.095 Z-0.200 I-0.593 J-0.575 K0.000 F150.000
G3 X46.639 Y-56.728 Z-0.200 I0.271 J-0.889 K0.000 F150.000
G3 X47.916 Y-55.981 Z-0.200 I0.458 J0.683 K0.000 F150.000
G3 X47.686 Y-55.329 Z-0.200 I-0.822 J0.077 K0.000 F150.000
G0 Z2.000
G0 X46.517 Y-55.256 Z2.000
G0 X46.517 Y-55.256 Z1.000
G1 X46.517 Y-55.256 Z-0.200 F50.000
G3 X46.471 Y-55.296 Z-0.200 I0.046 J-0.100 K0.000 F150.000
G1 X46.517 Y-55.256 Z-0.200 F150.000
G0 Z2.000
G0 X46.406 Y-55.386 Z2.000
G0 X46.406 Y-55.386 Z1.000
G1 X46.406 Y-55.386 Z-0.200 F50.000
G3 X46.403 Y-56.556 Z-0.200 I0.806 J-0.587 K0.000 F150.000
G2 X46.406 Y-55.386 Z-0.200 I0.876 J0.583 K0.000 F150.000
G0 Z2.000
G0 X46.444 Y-56.614 Z2.000
G0 X46.444 Y-56.614 Z1.000
G1 X46.444 Y-56.614 Z-0.200 F50.000
G3 X46.538 Y-56.702 Z-0.200 I0.202 J0.122 K0.000 F150.000
G1 X46.444 Y-56.614 Z-0.200 F150.000
G0 Z2.000
G0 Z2.000
G0 X46.444 Y-56.614
G0 X45.649 Y-56.458
G0 X45.649 Y-56.458 Z1.000
G1 X45.649 Y-56.458 Z-0.200 F50.000
G3 X45.453 Y-56.584 Z-0.200 I-0.062 J-0.120 K0.000 F150.000
G2 X44.013 Y-55.957 Z-0.200 I-0.615 J0.555 K0.000 F150.000
G2 X45.465 Y-55.375 Z-0.200 I0.824 J0.046 K0.000 F150.000
G3 X45.649 Y-55.484 Z-0.200 I0.123 J-0.002 K0.000 F150.000
G3 X44.825 Y-54.998 Z-0.200 I-0.772 J-0.367 K0.000 F150.000
G3 X43.935 Y-56.258 Z-0.200 I0.016 J-0.956 K0.000 F150.000
G3 X45.106 Y-56.909 Z-0.200 I0.883 J0.209 K0.000 F150.000
G1 X45.255 Y-56.855 Z-0.200 F150.000
G3 X45.649 Y-56.458 Z-0.200 I-0.279 J0.671 K0.000 F150.000
G0 Z2.000
G0 X45.554 Y-56.508 Z2.000
G0 X45.554 Y-56.508 Z1.000
G1 X45.554 Y-56.508 Z-0.200 F50.000
G1 X45.502 Y-56.597 Z-0.200 F150.000
G3 X45.554 Y-56.508 Z-0.200 I-0.000 J0.060 K0.000 F150.000
G0 Z2.000
G0 X45.556 Y-55.434 Z2.000
G0 X45.556 Y-55.434 Z1.000
G1 X45.556 Y-55.434 Z-0.200 F50.000
G1 X45.571 Y-55.434 Z-0.200 F150.000
G3 X45.405 Y-55.246 Z-0.200 I-0.525 J-0.297 K0.000 F150.000
G2 X45.556 Y-55.434 Z-0.200 I-0.268 J-0.370 K0.000 F150.000
G0 Z2.000
G0 X44.557 Y-55.089 Z2.000
G0 X44.557 Y-55.089 Z1.000
G1 X44.557 Y-55.089 Z-0.200 F50.000
G3 X44.500 Y-55.106 Z-0.200 I-0.001 J-0.104 K0.000 F150.000
G1 X44.557 Y-55.089 Z-0.200 F150.000
G0 Z2.000
G0 X44.408 Y-55.149 Z2.000
G0 X44.408 Y-55.149 Z1.000
G1 X44.408 Y-55.149 Z-0.200 F50.000
G3 X44.017 Y-56.352 Z-0.200 I0.472 J-0.818 K0.000 F150.000
G3 X44.431 Y-56.804 Z-0.200 I0.745 J0.266 K0.000 F150.000
G2 X44.408 Y-55.149 Z-0.200 I0.510 J0.835 K0.000 F150.000
G0 Z2.000
G0 Z2.000
G0 X44.408 Y-55.149
G0 X49.372 Y-55.794
G0 X49.372 Y-55.794 Z1.000
G1 X49.372 Y-55.794 Z-0.200 F50.000
G3 X49.366 Y-55.969 Z-0.200 I0.919 J-0.119 K0.000 F150.000
G3 X50.794 Y-56.817 Z-0.200 I0.931 J-0.059 K0.000 F150.000
G3 X50.591 Y-55.037 Z-0.200 I-0.584 J0.835 K0.000 F150.000
G3 X49.372 Y-55.794 Z-0.200 I-0.300 J-0.876 K0.000 F150.000
G0 Z2.000
G0 X49.430 Y-55.804 Z2.000
G0 X49.430 Y-55.804 Z1.000
G1 X49.430 Y-55.804 Z-0.200 F50.000
G3 X49.658 Y-56.631 Z-0.200 I1.005 J-0.169 K0.000 F150.000
G2 X49.675 Y-55.294 Z-0.200 I0.828 J0.658 K0.000 F150.000
G3 X49.430 Y-55.804 Z-0.200 I0.760 J-0.679 K0.000 F150.000
G0 Z2.000
G0 X49.491 Y-55.814 Z2.000
G0 X49.491 Y-55.814 Z1.000
G1 X49.491 Y-55.814 Z-0.200 F50.000
G3 X49.841 Y-56.730 Z-0.200 I0.952 J-0.160 K0.000 F150.000
G3 X51.117 Y-55.981 Z-0.200 I0.456 J0.684 K0.000 F150.000
G3 X49.902 Y-55.175 Z-0.200 I-0.820 J0.083 K0.000 F150.000
G3 X49.491 Y-55.814 Z-0.200 I0.541 J-0.800 K0.000 F150.000
G0 Z2.000
G0 X50.922 Y-55.296 Z2.000
G0 X50.922 Y-55.296 Z1.000
G1 X50.922 Y-55.296 Z-0.200 F50.000
G2 X50.920 Y-56.647 Z-0.200 I-0.806 J-0.675 K0.000 F150.000
G3 X50.922 Y-55.296 Z-0.200 I-0.755 J0.676 K0.000 F150.000
G0 Z2.000
G0 Z2.000
G0 X50.922 Y-55.296
G0 X51.821
G0 X51.821 Z1.000
G1 X51.821 Y-55.296 Z-0.200 F50.000
G1 X51.821 Y-56.135 Z-0.200 F150.000
G3 X52.917 Y-56.855 Z-0.200 I0.735 J-0.075 K0.000 F150.000
G3 X53.169 Y-56.622 Z-0.200 I-0.513 J0.807 K0.000 F150.000
G2 X53.345 Y-56.686 Z-0.200 I0.076 J-0.065 K0.000 F150.000
G1 X53.345 Y-56.912 Z-0.200 F150.000
G1 X53.457 Y-56.912 Z-0.200 F150.000
G1 X53.457 Y-55.030 Z-0.200 F150.000
G1 X53.345 Y-55.030 Z-0.200 F150.000
G1 X53.343 Y-56.145 Z-0.200 F150.000
G2 X51.957 Y-56.342 Z-0.200 I-0.706 J-0.008 K0.000 F150.000
G1 X51.934 Y-56.133 Z-0.200 F150.000
G1 X51.934 Y-55.030 Z-0.200 F150.000
G1 X51.821 Y-55.030 Z-0.200 F150.000
G1 X51.821 Y-55.296 Z-0.200 F150.000
G0 Z2.000
G0 X51.871 Z2.000
G0 X51.871 Z1.000
G1 X51.871 Y-55.296 Z-0.200 F50.000
G1 X51.871 Y-56.132 Z-0.200 F150.000
G3 X52.282 Y-56.834 Z-0.200 I0.647 J-0.093 K0.000 F150.000
G2 X51.884 Y-56.133 Z-0.200 I0.343 J0.659 K0.000 F150.000
G1 X51.884 Y-55.080 Z-0.200 F150.000
G1 X51.871 Y-55.080 Z-0.200 F150.000
G1 X51.871 Y-55.296 Z-0.200 F150.000
G0 Z2.000
G0 X53.394 Y-55.298 Z2.000
G0 X53.394 Y-55.298 Z1.000
G1 X53.394 Y-55.298 Z-0.200 F50.000
G1 X53.393 Y-56.153 Z-0.200 F150.000
G2 X53.276 Y-56.549 Z-0.200 I-0.703 J-0.008 K0.000 F150.000
G1 X53.321 Y-56.557 Z-0.200 F150.000
G2 X53.395 Y-56.862 Z-0.200 I-0.228 J-0.217 K0.000 F150.000
G1 X53.407 Y-56.862 Z-0.200 F150.000
G1 X53.407 Y-55.080 Z-0.200 F150.000
G1 X53.395 Y-55.080 Z-0.200 F150.000
G1 X53.394 Y-55.298 Z-0.200 F150.000
G0 Z2.000
G0 X53.357 Y-56.509 Z2.000
G0 X53.357 Y-56.509 Z1.000
G1 X53.357 Y-56.509 Z-0.200 F50.000
G3 X53.357 Y-56.532 Z-0.200 I0.003 J-0.011 K0.000 F150.000
G1 X53.357 Y-56.509 Z-0.200 F150.000
G0 Z2.000
G0 X52.431 Y-56.879 Z2.000
G0 X52.431 Y-56.879 Z1.000
G1 X52.431 Y-56.879 Z-0.200 F50.000
G1 X52.371 Y-56.868 Z-0.200 F150.000
G3 X52.431 Y-56.879 Z-0.200 I0.053 J0.116 K0.000 F150.000
G0 Z2.000
G0 Z2.000
G0 X52.431 Y-56.879
G0 X54.198
G0 X54.198 Z1.000
G1 X54.198 Y-56.879 Z-0.200 F50.000
G1 X54.198 Y-56.912 Z-0.200 F150.000
G1 X54.310 Y-56.912 Z-0.200 F150.000
G2 X54.352 Y-55.780 Z-0.200 I4.251 J0.410 K0.000 F150.000
G2 X54.491 Y-55.493 Z-0.200 I0.709 J-0.167 K0.000 F150.000
G2 X54.310 Y-55.442 Z-0.200 I-0.084 J0.049 K0.000 F150.000
G1 X54.310 Y-55.030 Z-0.200 F150.000
G1 X54.198 Y-55.030 Z-0.200 F150.000
G1 X54.198 Y-56.879 Z-0.200 F150.000
G0 Z2.000
G0 X54.248 Y-56.862 Z2.000
G0 X54.248 Y-56.862 Z1.000
G1 X54.248 Y-56.862 Z-0.200 F50.000
G1 X54.260 Y-56.862 Z-0.200 F150.000
G2 X54.304 Y-55.765 Z-0.200 I4.063 J0.387 K0.000 F150.000
G2 X54.371 Y-55.586 Z-0.200 I0.436 J-0.062 K0.000 F150.000
G2 X54.260 Y-55.442 Z-0.200 I0.036 J0.143 K0.000 F150.000
G1 X54.260 Y-55.080 Z-0.200 F150.000
G1 X54.248 Y-55.080 Z-0.200 F150.000
G1 X54.248 Y-56.862 Z-0.200 F150.000
G0 Z2.000
G0 X54.298 Y-55.630 Z2.000
G0 X54.298 Y-55.630 Z1.000
G1 X54.298 Y-55.630 Z-0.200 F50.000
G3 X54.298 Y-55.601 Z-0.200 I-0.000 J0.015 K0.000 F150.000
G1 X54.298 Y-55.630 Z-0.200 F150.000
G0 Z2.000
G0 X54.510 Y-55.463 Z2.000
G0 X54.510 Y-55.463 Z1.000
G1 X54.510 Y-55.463 Z-0.200 F50.000
G2 X55.097 Y-55.115 Z-0.200 I0.617 J-0.373 K0.000 F150.000
G1 X55.097 Y-55.004 Z-0.200 F150.000
G3 X54.510 Y-55.463 Z-0.200 I0.058 J-0.679 K0.000 F150.000
G0 Z2.000
G0 X54.905 Y-55.102 Z2.000
G0 X54.905 Y-55.102 Z1.000
G1 X54.905 Y-55.102 Z-0.200 F50.000
G2 X55.047 Y-55.070 Z-0.200 I0.144 J-0.307 K0.000 F150.000
G1 X55.047 Y-55.059 Z-0.200 F150.000
G3 X54.905 Y-55.102 Z-0.200 I-0.005 J-0.242 K0.000 F150.000
G0 Z2.000
G0 Z2.000
G0 X54.905 Y-55.102
G0 X52.194 Y-59.205
G0 X52.194 Y-59.205 Z1.000
G1 X52.194 Y-59.205 Z-0.200 F50.000
G3 X50.355 Y-59.154 Z-0.200 I-0.978 J-2.080 K0.000 F150.000
G3 X50.186 Y-59.687 Z-0.200 I0.771 J-0.538 K0.000 F150.000
G1 X50.135 Y-60.174 Z-0.200 F150.000
G1 X50.103 Y-60.239 Z-0.200 F150.000
G2 X48.240 Y-61.826 Z-0.200 I-13.270 J13.685 K0.000 F150.000
G2 X47.500 Y-62.097 Z-0.200 I-0.933 J1.401 K0.000 F150.000
G2 X45.702 Y-62.841 Z-0.200 I-53.297 J126.239 K0.000 F150.000
G3 X44.079 Y-63.401 Z-0.200 I2.100 J-8.722 K0.000 F150.000
G1 X43.118 Y-63.818 Z-0.200 F150.000
G1 X43.046 Y-63.821 Z-0.200 F150.000
G3 X41.243 Y-63.273 Z-0.200 I-4.494 J-11.541 K0.000 F150.000
G3 X40.567 Y-63.406 Z-0.200 I-0.229 J-0.622 K0.000 F150.000
G3 X40.261 Y-64.430 Z-0.200 I1.595 J-1.034 K0.000 F150.000
G3 X40.498 Y-66.525 Z-0.200 I3.762 J-0.636 K0.000 F150.000
G3 X40.933 Y-66.688 Z-0.200 I0.357 J0.290 K0.000 F150.000
G3 X41.821 Y-66.397 Z-0.200 I-0.096 J1.797 K0.000 F150.000
G2 X41.964 Y-66.510 Z-0.200 I0.046 J-0.089 K0.000 F150.000
G3 X41.900 Y-67.056 Z-0.200 I0.889 J-0.382 K0.000 F150.000
G3 X42.781 Y-67.659 Z-0.200 I2.689 J2.984 K0.000 F150.000
G2 X45.048 Y-70.360 Z-0.200 I-3.209 J-4.994 K0.000 F150.000
G2 X45.185 Y-71.831 Z-0.200 I-2.055 J-0.934 K0.000 F150.000
G2 X44.761 Y-72.005 Z-0.200 I-0.278 J0.074 K0.000 F150.000
G2 X42.828 Y-70.755 Z-0.200 I2.653 J6.222 K0.000 F150.000
G2 X38.130 Y-66.337 Z-0.200 I42.636 J50.050 K0.000 F150.000
G3 X36.891 Y-65.269 Z-0.200 I-4.529 J-4.000 K0.000 F150.000
G3 X36.557 Y-65.345 Z-0.200 I-0.092 J-0.366 K0.000 F150.000
G3 X36.583 Y-66.871 Z-0.200 I4.384 J-0.690 K0.000 F150.000
G3 X37.810 Y-68.581 Z-0.200 I6.564 J3.415 K0.000 F150.000
G3 X42.169 Y-72.594 Z-0.200 I18.697 J15.933 K0.000 F150.000
G2 X45.782 Y-76.158 Z-0.200 I-19.716 J-23.603 K0.000 F150.000
G2 X46.566 Y-77.895 Z-0.200 I-5.392 J-3.478 K0.000 F150.000
G2 X46.989 Y-79.395 Z-0.200 I-5.156 J-2.266 K0.000 F150.000
G3 X47.026 Y-81.147 Z-0.200 I13.903 J-0.590 K0.000 F150.000
G3 X47.226 Y-81.761 Z-0.200 I3.185 J0.699 K0.000 F150.000
G2 X47.119 Y-81.895 Z-0.200 I-0.094 J-0.035 K0.000 F150.000
G2 X45.348 Y-81.322 Z-0.200 I0.274 J3.872 K0.000 F150.000
G3 X44.225 Y-80.883 Z-0.200 I-1.609 J-2.455 K0.000 F150.000
G2 X43.241 Y-80.649 Z-0.200 I0.487 J4.237 K0.000 F150.000
G3 X42.257 Y-81.154 Z-0.200 I-0.088 J-1.039 K0.000 F150.000
G3 X41.632 Y-82.202 Z-0.200 I3.571 J-2.841 K0.000 F150.000
G3 X41.904 Y-82.979 Z-0.200 I0.646 J-0.210 K0.000 F150.000
G3 X44.631 Y-83.953 Z-0.200 I2.514 J2.733 K0.000 F150.000
G2 X46.608 Y-84.046 Z-0.200 I0.425 J-11.995 K0.000 F150.000
G2 X48.655 Y-85.017 Z-0.200 I-2.946 J-8.853 K0.000 F150.000
G3 X49.621 Y-85.285 Z-0.200 I0.873 J1.270 K0.000 F150.000
G2 X52.304 Y-84.625 Z-0.200 I10.911 J-38.538 K0.000 F150.000
G2 X53.077 Y-84.251 Z-0.200 I1.481 J-2.079 K0.000 F150.000
G3 X55.426 Y-84.002 Z-0.200 I-0.075 J11.892 K0.000 F150.000
G3 X55.850 Y-83.159 Z-0.200 I-0.462 J0.761 K0.000 F150.000
G3 X55.760 Y-81.414 Z-0.200 I-8.654 J0.427 K0.000 F150.000
G3 X54.116 Y-78.805 Z-0.200 I-12.631 J-6.139 K0.000 F150.000
G3 X53.773 Y-78.355 Z-0.200 I-34.355 J-25.865 K0.000 F150.000
G2 X53.952 Y-77.918 Z-0.200 I0.857 J-0.096 K0.000 F150.000
G3 X54.268 Y-76.044 Z-0.200 I-4.887 J1.790 K0.000 F150.000
G3 X53.993 Y-75.224 Z-0.200 I-3.357 J-0.669 K0.000 F150.000
G1 X54.006 Y-75.126 Z-0.200 F150.000
G3 X57.610 Y-70.084 Z-0.200 I-188.135 J138.269 K0.000 F150.000
G2 X59.342 Y-68.376 Z-0.200 I10.907 J-9.327 K0.000 F150.000
G3 X59.518 Y-68.147 Z-0.200 I-0.303 J0.416 K0.000 F150.000
G3 X59.002 Y-67.400 Z-0.200 I-1.111 J-0.215 K0.000 F150.000
G3 X57.918 Y-66.645 Z-0.200 I-3.559 J-3.955 K0.000 F150.000
G3 X57.656 Y-66.996 Z-0.200 I0.043 J-0.306 K0.000 F150.000
G2 X57.021 Y-68.217 Z-0.200 I-2.136 J0.335 K0.000 F150.000
G3 X56.368 Y-69.295 Z-0.200 I4.154 J-3.250 K0.000 F150.000
G2 X53.426 Y-73.621 Z-0.200 I-48.156 J29.583 K0.000 F150.000
G2 X53.204 Y-73.532 Z-0.200 I-0.075 J0.135 K0.000 F150.000
G2 X52.149 Y-71.913 Z-0.200 I16.294 J11.769 K0.000 F150.000
G2 X52.569 Y-69.318 Z-0.200 I7.956 J0.046 K0.000 F150.000
G2 X53.625 Y-67.762 Z-0.200 I6.101 J-3.006 K0.000 F150.000
G1 X53.790 Y-67.553 Z-0.200 F150.000
G1 X53.790 Y-67.553 Z-0.200 F150.000
G3 X55.409 Y-65.381 Z-0.200 I-16.234 J13.788 K0.000 F150.000
G3 X55.448 Y-63.611 Z-0.200 I-2.141 J0.933 K0.000 F150.000
G3 X54.753 Y-62.443 Z-0.200 I-2.272 J-0.561 K0.000 F150.000
G3 X54.384 Y-62.669 Z-0.200 I-0.127 J-0.208 K0.000 F150.000
G3 X54.229 Y-64.758 Z-0.200 I21.500 J-2.639 K0.000 F150.000
G2 X51.905 Y-67.504 Z-0.200 I-43.788 J34.703 K0.000 F150.000
G3 X50.450 Y-69.865 Z-0.200 I97.156 J-61.517 K0.000 F150.000
G2 X49.983 Y-69.987 Z-0.200 I-0.295 J0.175 K0.000 F150.000
G2 X49.283 Y-69.708 Z-0.200 I1.618 J5.074 K0.000 F150.000
G1 X49.222 Y-69.615 Z-0.200 F150.000
G2 X49.467 Y-67.895 Z-0.200 I3.891 J0.323 K0.000 F150.000
G2 X50.774 Y-66.742 Z-0.200 I5.549 J-4.974 K0.000 F150.000
G3 X51.244 Y-66.324 Z-0.200 I-1.208 J1.830 K0.000 F150.000
G3 X51.406 Y-64.577 Z-0.200 I-2.662 J1.128 K0.000 F150.000
G3 X50.968 Y-64.133 Z-0.200 I-0.549 J-0.103 K0.000 F150.000
G2 X50.948 Y-63.963 Z-0.200 I0.041 J0.091 K0.000 F150.000
G3 X51.256 Y-63.696 Z-0.200 I-0.341 J0.705 K0.000 F150.000
G3 X51.299 Y-62.693 Z-0.200 I-2.903 J0.627 K0.000 F150.000
G2 X51.360 Y-61.581 Z-0.200 I3.199 J0.383 K0.000 F150.000
G3 X52.299 Y-59.785 Z-0.200 I-4.105 J3.290 K0.000 F150.000
G3 X52.194 Y-59.205 Z-0.200 I-0.503 J0.209 K0.000 F150.000
G0 Z2.000
G0 X52.127 Y-59.319 Z2.000
G0 X52.127 Y-59.319 Z1.000
G1 X52.127 Y-59.319 Z-0.200 F50.000
G3 X50.825 Y-59.141 Z-0.200 I-0.864 J-1.473 K0.000 F150.000
G3 X50.413 Y-59.266 Z-0.200 I0.042 J-0.881 K0.000 F150.000
G3 X50.255 Y-60.187 Z-0.200 I2.370 J-0.881 K0.000 F150.000
G1 X50.182 Y-60.328 Z-0.200 F150.000
G2 X48.301 Y-61.929 Z-0.200 I-13.060 J13.442 K0.000 F150.000
G2 X47.537 Y-62.211 Z-0.200 I-0.978 J1.474 K0.000 F150.000
G2 X45.736 Y-62.956 Z-0.200 I-47.951 J113.362 K0.000 F150.000
G3 X44.125 Y-63.512 Z-0.200 I2.077 J-8.636 K0.000 F150.000
G1 X43.166 Y-63.928 Z-0.200 F150.000
G1 X43.008 Y-63.935 Z-0.200 F150.000
G3 X41.226 Y-63.392 Z-0.200 I-4.495 J-11.553 K0.000 F150.000
G3 X40.738 Y-63.415 Z-0.200 I-0.215 J-0.616 K0.000 F150.000
G3 X40.478 Y-63.900 Z-0.200 I0.417 J-0.536 K0.000 F150.000
G3 X40.538 Y-66.335 Z-0.200 I4.198 J-1.114 K0.000 F150.000
G3 X40.927 Y-66.568 Z-0.200 I0.305 J0.068 K0.000 F150.000
G3 X41.766 Y-66.291 Z-0.200 I-0.090 J1.685 K0.000 F150.000
G2 X42.081 Y-66.540 Z-0.200 I0.101 J-0.195 K0.000 F150.000
G3 X42.012 Y-67.005 Z-0.200 I0.837 J-0.361 K0.000 F150.000
G3 X42.850 Y-67.561 Z-0.200 I2.879 J3.430 K0.000 F150.000
G2 X45.161 Y-70.322 Z-0.200 I-3.275 J-5.089 K0.000 F150.000
G2 X45.291 Y-71.888 Z-0.200 I-2.121 J-0.964 K0.000 F150.000
G2 X44.719 Y-72.117 Z-0.200 I-0.380 J0.120 K0.000 F150.000
G2 X42.753 Y-70.848 Z-0.200 I2.696 J6.336 K0.000 F150.000
G2 X38.047 Y-66.424 Z-0.200 I42.700 J50.130 K0.000 F150.000
G3 X36.856 Y-65.385 Z-0.200 I-4.692 J-4.177 K0.000 F150.000
G3 X36.640 Y-65.605 Z-0.200 I-0.064 J-0.153 K0.000 F150.000
G3 X36.735 Y-66.933 Z-0.200 I3.434 J-0.422 K0.000 F150.000
G3 X38.685 Y-69.369 Z-0.200 I11.305 J7.049 K0.000 F150.000
G3 X42.427 Y-72.649 Z-0.200 I20.013 J19.056 K0.000 F150.000
G2 X45.878 Y-76.087 Z-0.200 I-19.615 J-23.145 K0.000 F150.000
G2 X46.679 Y-77.856 Z-0.200 I-5.488 J-3.550 K0.000 F150.000
G2 X47.109 Y-79.400 Z-0.200 I-5.098 J-2.251 K0.000 F150.000
G3 X47.143 Y-81.124 Z-0.200 I13.886 J-0.587 K0.000 F150.000
G3 X47.338 Y-81.720 Z-0.200 I3.091 J0.681 K0.000 F150.000
G2 X47.104 Y-82.014 Z-0.200 I-0.206 J-0.077 K0.000 F150.000
G2 X45.293 Y-81.429 Z-0.200 I0.289 J3.987 K0.000 F150.000
G3 X44.213 Y-81.002 Z-0.200 I-1.554 J-2.351 K0.000 F150.000
G2 X43.220 Y-80.767 Z-0.200 I0.501 J4.330 K0.000 F150.000
G3 X42.354 Y-81.224 Z-0.200 I-0.066 J-0.923 K0.000 F150.000
G3 X41.749 Y-82.227 Z-0.200 I3.553 J-2.826 K0.000 F150.000
G3 X41.986 Y-82.891 Z-0.200 I0.534 J-0.184 K0.000 F150.000
G3 X44.635 Y-83.833 Z-0.200 I2.433 J2.647 K0.000 F150.000
G2 X46.641 Y-83.930 Z-0.200 I0.426 J-11.888 K0.000 F150.000
G2 X48.709 Y-84.909 Z-0.200 I-2.970 J-8.947 K0.000 F150.000
G3 X49.603 Y-85.166 Z-0.200 I0.822 J1.176 K0.000 F150.000
G2 X52.259 Y-84.513 Z-0.200 I10.475 J-36.851 K0.000 F150.000
G2 X53.065 Y-84.132 Z-0.200 I1.520 J-2.171 K0.000 F150.000
G3 X55.370 Y-83.895 Z-0.200 I-0.111 J12.426 K0.000 F150.000
G3 X55.730 Y-83.155 Z-0.200 I-0.409 J0.657 K0.000 F150.000
G3 X55.646 Y-81.451 Z-0.200 I-8.689 J0.422 K0.000 F150.000
G3 X54.020 Y-78.877 Z-0.200 I-12.568 J-6.136 K0.000 F150.000
G3 X53.670 Y-78.417 Z-0.200 I-61.095 J-46.143 K0.000 F150.000
G2 X53.746 Y-78.035 Z-0.200 I0.391 J0.120 K0.000 F150.000
G3 X54.149 Y-76.383 Z-0.200 I-3.364 J1.695 K0.000 F150.000
G3 X54.034 Y-75.648 Z-0.200 I-1.281 J0.176 K0.000 F150.000
G2 X53.870 Y-75.145 Z-0.200 I0.775 J0.531 K0.000 F150.000
G1 X53.910 Y-75.054 Z-0.200 F150.000
G3 X57.517 Y-70.008 Z-0.200 I-190.651 J140.081 K0.000 F150.000
G2 X59.256 Y-68.292 Z-0.200 I10.964 J-9.371 K0.000 F150.000
G3 X59.402 Y-68.113 Z-0.200 I-0.233 J0.340 K0.000 F150.000
G3 X58.778 Y-67.370 Z-0.200 I-1.330 J-0.483 K0.000 F150.000
G3 X57.894 Y-66.764 Z-0.200 I-2.135 J-2.168 K0.000 F150.000
G3 X57.772 Y-67.025 Z-0.200 I0.097 J-0.205 K0.000 F150.000
G2 X57.111 Y-68.296 Z-0.200 I-2.246 J0.361 K0.000 F150.000
G3 X56.472 Y-69.355 Z-0.200 I4.094 J-3.191 K0.000 F150.000
G2 X53.513 Y-73.705 Z-0.200 I-47.367 J29.045 K0.000 F150.000
G2 X53.070 Y-73.553 Z-0.200 I-0.162 J0.248 K0.000 F150.000
G2 X52.065 Y-72.040 Z-0.200 I24.407 J17.311 K0.000 F150.000
G1 X52.030 Y-71.905 Z-0.200 F150.000
G2 X52.455 Y-69.279 Z-0.200 I8.067 J0.040 K0.000 F150.000
G2 X53.531 Y-67.687 Z-0.200 I6.164 J-3.008 K0.000 F150.000
G3 X55.303 Y-65.324 Z-0.200 I-19.433 J16.418 K0.000 F150.000
G3 X55.334 Y-63.647 Z-0.200 I-2.037 J0.876 K0.000 F150.000
G3 X54.702 Y-62.552 Z-0.200 I-2.212 J-0.547 K0.000 F150.000
G3 X54.502 Y-62.693 Z-0.200 I-0.072 J-0.111 K0.000 F150.000
G3 X54.371 Y-64.706 Z-0.200 I11.761 J-1.774 K0.000 F150.000
G1 X54.323 Y-64.833 Z-0.200 F150.000
G2 X52.001 Y-67.577 Z-0.200 I-43.549 J34.505 K0.000 F150.000
G3 X50.541 Y-69.944 Z-0.200 I116.392 J-73.440 K0.000 F150.000
G2 X49.946 Y-70.102 Z-0.200 I-0.388 J0.263 K0.000 F150.000
G2 X49.140 Y-69.739 Z-0.200 I1.077 J3.477 K0.000 F150.000
G1 X49.102 Y-69.614 Z-0.200 F150.000
G2 X49.372 Y-67.821 Z-0.200 I3.884 J0.332 K0.000 F150.000
G2 X50.698 Y-66.649 Z-0.200 I5.640 J-5.044 K0.000 F150.000
G3 X51.137 Y-66.267 Z-0.200 I-1.623 J2.313 K0.000 F150.000
G3 X51.292 Y-64.616 Z-0.200 I-2.558 J1.072 K0.000 F150.000
G3 X50.918 Y-64.242 Z-0.200 I-0.450 J-0.075 K0.000 F150.000
G2 X50.874 Y-63.869 Z-0.200 I0.091 J0.200 K0.000 F150.000
G3 X51.148 Y-63.640 Z-0.200 I-0.284 J0.620 K0.000 F150.000
G3 X51.179 Y-62.694 Z-0.200 I-3.007 J0.572 K0.000 F150.000
G2 X51.254 Y-61.525 Z-0.200 I3.141 J0.387 K0.000 F150.000
G3 X52.159 Y-59.851 Z-0.200 I-4.184 J3.342 K0.000 F150.000
G3 X52.154 Y-59.335 Z-0.200 I-0.641 J0.252 K0.000 F150.000
G3 X52.127 Y-59.319 Z-0.200 I-0.891 J-1.457 K0.000 F150.000
G0 Z2.000
G0 X52.039 Y-59.388 Z2.000
G0 X52.039 Y-59.388 Z1.000
G1 X52.039 Y-59.388 Z-0.200 F50.000
G3 X51.877 Y-59.319 Z-0.200 I-0.143 J-0.111 K0.000 F150.000
G3 X50.509 Y-59.345 Z-0.200 I-0.644 J-2.169 K0.000 F150.000
G3 X50.374 Y-60.199 Z-0.200 I2.462 J-0.825 K0.000 F150.000
G1 X50.339 Y-60.298 Z-0.200 F150.000
G2 X51.127 Y-60.225 Z-0.200 I0.459 J-0.662 K0.000 F150.000
G2 X51.641 Y-60.403 Z-0.200 I-0.104 J-1.133 K0.000 F150.000
G2 X51.733 Y-60.559 Z-0.200 I-0.103 J-0.166 K0.000 F150.000
G3 X52.077 Y-59.495 Z-0.200 I-1.906 J1.204 K0.000 F150.000
G3 X52.039 Y-59.388 Z-0.200 I-0.181 J-0.004 K0.000 F150.000
G0 Z2.000
G0 X51.956 Y-59.482 Z2.000
G0 X51.956 Y-59.482 Z1.000
G1 X51.956 Y-59.482 Z-0.200 F50.000
G3 X50.591 Y-59.452 Z-0.200 I-0.721 J-1.747 K0.000 F150.000
G3 X50.507 Y-60.078 Z-0.200 I3.192 J-0.744 K0.000 F150.000
G2 X51.158 Y-60.109 Z-0.200 I0.282 J-0.912 K0.000 F150.000
G2 X51.691 Y-60.288 Z-0.200 I-0.183 J-1.430 K0.000 F150.000
G1 X51.719 Y-60.320 Z-0.200 F150.000
G3 X51.956 Y-59.482 Z-0.200 I-1.344 J0.832 K0.000 F150.000
G0 Z2.000
G0 X51.838 Y-59.560 Z2.000
G0 X51.838 Y-59.560 Z1.000
G1 X51.838 Y-59.560 Z-0.200 F50.000
G3 X50.693 Y-59.537 Z-0.200 I-0.607 J-1.772 K0.000 F150.000
G3 X50.644 Y-59.927 Z-0.200 I4.106 J-0.724 K0.000 F150.000
G2 X51.669 Y-60.138 Z-0.200 I-0.098 J-3.066 K0.000 F150.000
G1 X51.731 Y-59.983 Z-0.200 F150.000
G3 X51.838 Y-59.560 Z-0.200 I-0.842 J0.436 K0.000 F150.000
G0 Z2.000
G0 X51.710 Y-59.645 Z2.000
G0 X51.710 Y-59.645 Z1.000
G1 X51.710 Y-59.645 Z-0.200 F50.000
G3 X50.796 Y-59.645 Z-0.200 I-0.456 J-1.572 K0.000 F150.000
G3 X50.777 Y-59.798 Z-0.200 I3.680 J-0.513 K0.000 F150.000
G2 X51.603 Y-59.982 Z-0.200 I-0.621 J-4.730 K0.000 F150.000
G3 X51.710 Y-59.645 Z-0.200 I-0.973 J0.497 K0.000 F150.000
G0 Z2.000
G0 X51.568 Y-59.728 Z2.000
G0 X51.568 Y-59.728 Z1.000
G1 X51.568 Y-59.728 Z-0.200 F50.000
G3 X51.041 Y-59.718 Z-0.200 I-0.284 J-1.053 K0.000 F150.000
G2 X51.530 Y-59.836 Z-0.200 I-0.786 J-4.324 K0.000 F150.000
G3 X51.568 Y-59.728 Z-0.200 I-1.380 J0.545 K0.000 F150.000
G0 Z2.000
G0 X51.503 Y-59.763 Z2.000
G0 X51.503 Y-59.763 Z1.000
G1 X51.503 Y-59.763 Z-0.200 F50.000
G3 X51.419 Y-59.755 Z-0.200 I-0.071 J-0.270 K0.000 F150.000
G1 X51.498 Y-59.776 Z-0.200 F150.000
G1 X51.503 Y-59.763 Z-0.200 F150.000
G0 Z2.000
G0 X51.316 Y-60.379 Z2.000
G0 X51.316 Y-60.379 Z1.000
G1 X51.316 Y-60.379 Z-0.200 F50.000
G3 X51.095 Y-60.341 Z-0.200 I-0.261 J-0.858 K0.000 F150.000
G3 X50.564 Y-60.309 Z-0.200 I-0.313 J-0.776 K0.000 F150.000
G3 X49.519 Y-61.162 Z-0.200 I3.689 J-5.587 K0.000 F150.000
G2 X48.050 Y-62.256 Z-0.200 I-4.870 J5.001 K0.000 F150.000
G3 X45.855 Y-63.219 Z-0.200 I1.878 J-7.266 K0.000 F150.000
G2 X44.803 Y-64.471 Z-0.200 I-7.442 J5.183 K0.000 F150.000
G2 X44.758 Y-64.383 Z-0.200 I-0.000 J0.055 K0.000 F150.000
G2 X45.129 Y-63.846 Z-0.200 I1.386 J-0.559 K0.000 F150.000
G3 X44.963 Y-63.373 Z-0.200 I-0.160 J0.209 K0.000 F150.000
G3 X43.481 Y-63.975 Z-0.200 I2.933 J-9.341 K0.000 F150.000
G2 X42.787 Y-64.144 Z-0.200 I-0.691 J1.327 K0.000 F150.000
G3 X41.592 Y-64.696 Z-0.200 I0.414 J-2.465 K0.000 F150.000
G3 X40.581 Y-65.711 Z-0.200 I1.087 J-2.094 K0.000 F150.000
G3 X41.197 Y-66.355 Z-0.200 I0.419 J-0.216 K0.000 F150.000
G3 X42.886 Y-65.470 Z-0.200 I-9.711 J20.592 K0.000 F150.000
G2 X42.965 Y-65.611 Z-0.200 I-0.054 J-0.123 K0.000 F150.000
G2 X42.347 Y-66.556 Z-0.200 I-3.933 J1.895 K0.000 F150.000
G3 X42.323 Y-67.035 Z-0.200 I0.207 J-0.251 K0.000 F150.000
G2 X44.780 Y-69.246 Z-0.200 I-3.113 J-5.930 K0.000 F150.000
G2 X45.460 Y-71.841 Z-0.200 I-2.841 J-2.130 K0.000 F150.000
G2 X45.197 Y-72.286 Z-0.200 I-0.385 J-0.073 K0.000 F150.000
G2 X44.329 Y-72.150 Z-0.200 I-0.257 J1.195 K0.000 F150.000
G2 X42.036 Y-70.474 Z-0.200 I5.860 J10.424 K0.000 F150.000
G2 X37.153 Y-65.760 Z-0.200 I85.701 J93.652 K0.000 F150.000
G3 X36.810 Y-65.805 Z-0.200 I-0.154 J-0.157 K0.000 F150.000
G3 X37.147 Y-67.303 Z-0.200 I1.914 J-0.356 K0.000 F150.000
G3 X40.752 Y-71.136 Z-0.200 I19.321 J14.562 K0.000 F150.000
G2 X43.413 Y-73.308 Z-0.200 I-16.029 J-22.347 K0.000 F150.000
G2 X46.160 Y-76.220 Z-0.200 I-10.831 J-12.968 K0.000 F150.000
G2 X46.788 Y-77.779 Z-0.200 I-5.018 J-2.929 K0.000 F150.000
G3 X47.175 Y-78.632 Z-0.200 I2.102 J0.439 K0.000 F150.000
G3 X47.538 Y-78.597 Z-0.200 I0.160 J0.245 K0.000 F150.000
G2 X48.229 Y-77.936 Z-0.200 I4.001 J-3.490 K0.000 F150.000
G3 X49.493 Y-77.185 Z-0.200 I-4.130 J8.391 K0.000 F150.000
G3 X50.371 Y-75.967 Z-0.200 I-1.221 J1.806 K0.000 F150.000
G2 X50.621 Y-75.259 Z-0.200 I2.596 J-0.518 K0.000 F150.000
G2 X51.448 Y-74.648 Z-0.200 I1.882 J-1.682 K0.000 F150.000
G3 X51.497 Y-74.316 Z-0.200 I-0.116 J0.187 K0.000 F150.000
G2 X50.276 Y-72.810 Z-0.200 I6.063 J6.165 K0.000 F150.000
G2 X49.771 Y-71.109 Z-0.200 I14.138 J5.121 K0.000 F150.000
G3 X48.936 Y-69.694 Z-0.200 I-2.074 J-0.270 K0.000 F150.000
G1 X48.976 Y-69.104 Z-0.200 F150.000
G2 X49.250 Y-67.646 Z-0.200 I4.201 J-0.034 K0.000 F150.000
G2 X50.519 Y-66.583 Z-0.200 I14.382 J-15.865 K0.000 F150.000
G3 X51.127 Y-65.812 Z-0.200 I-1.032 J1.441 K0.000 F150.000
G3 X51.115 Y-64.639 Z-0.200 I-1.712 J0.568 K0.000 F150.000
G3 X50.363 Y-64.449 Z-0.200 I-0.561 J-0.634 K0.000 F150.000
G3 X49.430 Y-64.942 Z-0.200 I0.173 J-1.455 K0.000 F150.000
G2 X47.627 Y-66.516 Z-0.200 I-14.154 J14.397 K0.000 F150.000
G2 X47.567 Y-66.487 Z-0.200 I-0.022 J0.031 K0.000 F150.000
G2 X47.834 Y-65.800 Z-0.200 I0.926 J0.035 K0.000 F150.000
G2 X50.941 Y-63.626 Z-0.200 I8.765 J-9.221 K0.000 F150.000
G3 X51.051 Y-63.434 Z-0.200 I-0.109 J0.191 K0.000 F150.000
G2 X51.091 Y-61.499 Z-0.200 I12.477 J0.714 K0.000 F150.000
G2 X51.585 Y-60.788 Z-0.200 I2.720 J-1.362 K0.000 F150.000
G3 X51.574 Y-60.505 Z-0.200 I-0.174 J0.135 K0.000 F150.000
G3 X51.316 Y-60.379 Z-0.200 I-0.518 J-0.732 K0.000 F150.000
G0 Z2.000
G0 X51.280 Y-60.514 Z2.000
G0 X51.280 Y-60.514 Z1.000
G1 X51.280 Y-60.514 Z-0.200 F50.000
G1 X51.064 Y-60.457 Z-0.200 F150.000
G3 X50.587 Y-60.427 Z-0.200 I-0.279 J-0.631 K0.000 F150.000
G3 X49.408 Y-61.419 Z-0.200 I5.710 J-7.979 K0.000 F150.000
G2 X48.096 Y-62.368 Z-0.200 I-4.016 J4.171 K0.000 F150.000
G3 X45.968 Y-63.284 Z-0.200 I1.901 J-7.347 K0.000 F150.000
G2 X44.967 Y-64.483 Z-0.200 I-10.415 J7.681 K0.000 F150.000
G2 X44.636 Y-64.382 Z-0.200 I-0.163 J0.060 K0.000 F150.000
G2 X45.035 Y-63.771 Z-0.200 I1.371 J-0.461 K0.000 F150.000
G3 X44.972 Y-63.492 Z-0.200 I-0.074 J0.130 K0.000 F150.000
G3 X43.526 Y-64.086 Z-0.200 I3.420 J-10.380 K0.000 F150.000
G2 X42.679 Y-64.272 Z-0.200 I-0.793 J1.587 K0.000 F150.000
G3 X40.934 Y-65.375 Z-0.200 I1.777 J-4.743 K0.000 F150.000
G3 X40.673 Y-66.021 Z-0.200 I0.519 J-0.585 K0.000 F150.000
G3 X41.084 Y-66.261 Z-0.200 I0.325 J0.084 K0.000 F150.000
G3 X42.876 Y-65.344 Z-0.200 I-7.979 J17.803 K0.000 F150.000
G2 X43.087 Y-65.613 Z-0.200 I-0.034 J-0.243 K0.000 F150.000
G2 X42.446 Y-66.624 Z-0.200 I-3.527 J1.527 K0.000 F150.000
G3 X42.406 Y-66.949 Z-0.200 I0.103 J-0.177 K0.000 F150.000
G2 X44.881 Y-69.181 Z-0.200 I-3.110 J-5.935 K0.000 F150.000
G2 X45.579 Y-71.853 Z-0.200 I-2.940 J-2.195 K0.000 F150.000
G2 X45.243 Y-72.398 Z-0.200 I-0.493 J-0.072 K0.000 F150.000
G2 X44.280 Y-72.259 Z-0.200 I-0.305 J1.298 K0.000 F150.000
G2 X41.957 Y-70.564 Z-0.200 I5.884 J10.502 K0.000 F150.000
G2 X37.069 Y-65.845 Z-0.200 I85.710 J93.670 K0.000 F150.000
G3 X36.926 Y-65.849 Z-0.200 I-0.070 J-0.071 K0.000 F150.000
G3 X37.245 Y-67.234 Z-0.200 I1.778 J-0.320 K0.000 F150.000
G3 X40.830 Y-71.045 Z-0.200 I19.230 J14.502 K0.000 F150.000
G2 X43.494 Y-73.220 Z-0.200 I-16.045 J-22.368 K0.000 F150.000
G2 X46.260 Y-76.154 Z-0.200 I-10.902 J-13.048 K0.000 F150.000
G2 X46.836 Y-77.538 Z-0.200 I-4.068 J-2.504 K0.000 F150.000
G3 X47.231 Y-78.526 Z-0.200 I3.568 J0.855 K0.000 F150.000
G3 X47.468 Y-78.500 Z-0.200 I0.104 J0.141 K0.000 F150.000
G2 X48.163 Y-77.836 Z-0.200 I3.770 J-3.248 K0.000 F150.000
G3 X49.427 Y-77.085 Z-0.200 I-4.071 J8.296 K0.000 F150.000
G3 X50.258 Y-75.927 Z-0.200 I-1.147 J1.701 K0.000 F150.000
G2 X50.526 Y-75.186 Z-0.200 I2.594 J-0.517 K0.000 F150.000
G2 X51.385 Y-74.546 Z-0.200 I1.968 J-1.746 K0.000 F150.000
G3 X51.407 Y-74.395 Z-0.200 I-0.053 J0.085 K0.000 F150.000
G1 X50.780 Y-73.681 Z-0.200 F150.000
G2 X50.103 Y-72.719 Z-0.200 I2.175 J2.252 K0.000 F150.000
G2 X49.458 Y-70.506 Z-0.200 I78.992 J24.219 K0.000 F150.000
G3 X48.813 Y-69.742 Z-0.200 I-1.814 J-0.877 K0.000 F150.000
G2 X48.949 Y-68.283 Z-0.200 I12.829 J-0.462 K0.000 F150.000
G2 X49.244 Y-67.461 Z-0.200 I1.750 J-0.164 K0.000 F150.000
G2 X50.442 Y-66.490 Z-0.200 I41.025 J-49.427 K0.000 F150.000
G3 X51.084 Y-65.345 Z-0.200 I-0.696 J1.143 K0.000 F150.000
G3 X50.969 Y-64.651 Z-0.200 I-0.874 J0.211 K0.000 F150.000
G3 X49.989 Y-64.674 Z-0.200 I-0.464 J-1.126 K0.000 F150.000
G3 X48.798 Y-65.673 Z-0.200 I3.542 J-5.434 K0.000 F150.000
G2 X47.641 Y-66.648 Z-0.200 I-5.889 J5.811 K0.000 F150.000
G2 X47.425 Y-66.464 Z-0.200 I0.013 J0.235 K0.000 F150.000
G2 X47.744 Y-65.721 Z-0.200 I1.452 J-0.183 K0.000 F150.000
G2 X50.881 Y-63.522 Z-0.200 I8.840 J-9.278 K0.000 F150.000
G1 X50.931 Y-63.435 Z-0.200 F150.000
G2 X50.973 Y-61.476 Z-0.200 I12.451 J0.716 K0.000 F150.000
G2 X51.490 Y-60.714 Z-0.200 I2.569 J-1.188 K0.000 F150.000
G3 X51.437 Y-60.556 Z-0.200 I-0.079 J0.061 K0.000 F150.000
G1 X51.280 Y-60.514 Z-0.200 F150.000
G0 Z2.000
G0 X50.718 Y-63.893 Z2.000
G0 X50.718 Y-63.893 Z1.000
G1 X50.718 Y-63.893 Z-0.200 F50.000
G3 X47.886 Y-65.927 Z-0.200 I5.217 J-10.247 K0.000 F150.000
G3 X47.695 Y-66.317 Z-0.200 I1.129 J-0.795 K0.000 F150.000
G3 X49.355 Y-64.849 Z-0.200 I-16.069 J19.836 K0.000 F150.000
G2 X50.355 Y-64.329 Z-0.200 I1.179 J-1.045 K0.000 F150.000
G2 X50.869 Y-64.352 Z-0.200 I0.187 J-1.597 K0.000 F150.000
G2 X50.718 Y-63.893 Z-0.200 I0.121 J0.294 K0.000 F150.000
G0 Z2.000
G0 X50.565 Y-64.119 Z2.000
G0 X50.565 Y-64.119 Z1.000
G1 X50.565 Y-64.119 Z-0.200 F50.000
G3 X50.415 Y-64.205 Z-0.200 I20.942 J-36.540 K0.000 F150.000
G2 X50.578 Y-64.201 Z-0.200 I0.115 J-1.468 K0.000 F150.000
G1 X50.565 Y-64.119 Z-0.200 F150.000
G0 Z2.000
G0 X53.200 Y-66.511 Z2.000
G0 X53.200 Y-66.511 Z1.000
G1 X53.200 Y-66.511 Z-0.200 F50.000
G2 X53.019 Y-66.705 Z-0.200 I-7.365 J6.684 K0.000 F150.000
G3 X51.302 Y-69.000 Z-0.200 I7.460 J-7.373 K0.000 F150.000
G2 X50.473 Y-70.368 Z-0.200 I-9.889 J5.055 K0.000 F150.000
G2 X50.158 Y-70.353 Z-0.200 I-0.133 J0.511 K0.000 F150.000
G3 X49.840 Y-70.801 Z-0.200 I-0.077 J-0.282 K0.000 F150.000
G3 X50.450 Y-72.833 Z-0.200 I18.820 J4.544 K0.000 F150.000
G3 X52.132 Y-74.680 Z-0.200 I9.765 J7.206 K0.000 F150.000
G3 X52.541 Y-74.955 Z-0.200 I0.728 J0.641 K0.000 F150.000
G3 X52.956 Y-74.551 Z-0.200 I-0.340 J0.765 K0.000 F150.000
G3 X53.112 Y-73.991 Z-0.200 I-0.458 J0.429 K0.000 F150.000
G3 X51.937 Y-72.117 Z-0.200 I-12.678 J-6.645 K0.000 F150.000
G2 X52.105 Y-70.037 Z-0.200 I7.501 J0.439 K0.000 F150.000
G2 X52.610 Y-68.615 Z-0.200 I5.316 J-1.086 K0.000 F150.000
G2 X54.456 Y-66.231 Z-0.200 I119.624 J-90.744 K0.000 F150.000
G3 X55.283 Y-64.989 Z-0.200 I-3.947 J3.525 K0.000 F150.000
G3 X54.995 Y-63.182 Z-0.200 I-2.769 J0.484 K0.000 F150.000
G3 X54.572 Y-63.265 Z-0.200 I-0.203 J-0.085 K0.000 F150.000
G2 X54.412 Y-64.862 Z-0.200 I-4.298 J-0.377 K0.000 F150.000
G2 X53.200 Y-66.511 Z-0.200 I-8.577 J5.036 K0.000 F150.000
G0 Z2.000
G0 X53.289 Y-66.591 Z2.000
G0 X53.289 Y-66.591 Z1.000
G1 X53.289 Y-66.591 Z-0.200 F50.000
G2 X53.109 Y-66.784 Z-0.200 I-7.420 J6.737 K0.000 F150.000
G3 X51.404 Y-69.062 Z-0.200 I7.371 J-7.294 K0.000 F150.000
G2 X50.553 Y-70.460 Z-0.200 I-9.270 J4.690 K0.000 F150.000
G2 X50.142 Y-70.472 Z-0.200 I-0.220 J0.492 K0.000 F150.000
G3 X49.955 Y-70.766 Z-0.200 I-0.051 J-0.175 K0.000 F150.000
G3 X50.560 Y-72.785 Z-0.200 I18.816 J4.541 K0.000 F150.000
G3 X52.415 Y-74.778 Z-0.200 I12.764 J10.024 K0.000 F150.000
G3 X52.587 Y-74.816 Z-0.200 I0.116 J0.113 K0.000 F150.000
G3 X52.856 Y-74.486 Z-0.200 I-0.721 J0.860 K0.000 F150.000
G3 X52.954 Y-73.923 Z-0.200 I-0.324 J0.346 K0.000 F150.000
G3 X51.816 Y-72.152 Z-0.200 I-21.559 J-12.597 K0.000 F150.000
G2 X51.988 Y-70.009 Z-0.200 I7.703 J0.460 K0.000 F150.000
G2 X52.508 Y-68.550 Z-0.200 I5.425 J-1.112 K0.000 F150.000
G2 X54.361 Y-66.158 Z-0.200 I118.089 J-89.527 K0.000 F150.000
G3 X55.173 Y-64.941 Z-0.200 I-3.836 J3.440 K0.000 F150.000
G3 X54.884 Y-63.229 Z-0.200 I-2.696 J0.425 K0.000 F150.000
G3 X54.692 Y-63.266 Z-0.200 I-0.092 J-0.039 K0.000 F150.000
G2 X54.522 Y-64.911 Z-0.200 I-4.389 J-0.379 K0.000 F150.000
G2 X53.289 Y-66.591 Z-0.200 I-8.653 J5.056 K0.000 F150.000
G0 Z2.000
G0 X54.581 Y-63.009 Z2.000
G0 X54.581 Y-63.009 Z1.000
G1 X54.581 Y-63.009 Z-0.200 F50.000
G2 X54.897 Y-62.948 Z-0.200 I0.206 J-0.221 K0.000 F150.000
G3 X54.648 Y-62.661 Z-0.200 I-0.529 J-0.207 K0.000 F150.000
G3 X54.581 Y-63.009 Z-0.200 I1.041 J-0.381 K0.000 F150.000
G0 Z2.000
G0 X57.925 Y-66.906 Z2.000
G0 X57.925 Y-66.906 Z1.000
G1 X57.925 Y-66.906 Z-0.200 F50.000
G2 X57.879 Y-67.090 Z-0.200 I-21.123 J5.161 K0.000 F150.000
G2 X58.090 Y-67.008 Z-0.200 I0.180 J-0.150 K0.000 F150.000
G3 X57.925 Y-66.906 Z-0.200 I-0.608 J-0.804 K0.000 F150.000
G0 Z2.000
G0 X58.023 Y-67.135 Z2.000
G0 X58.023 Y-67.135 Z1.000
G1 X58.023 Y-67.135 Z-0.200 F50.000
G3 X57.904 Y-67.260 Z-0.200 I0.087 J-0.202 K0.000 F150.000
G2 X57.565 Y-68.002 Z-0.200 I-2.407 J0.649 K0.000 F150.000
G2 X56.874 Y-68.864 Z-0.200 I-78.223 J62.046 K0.000 F150.000
G3 X56.629 Y-69.494 Z-0.200 I21.937 J-8.903 K0.000 F150.000
G2 X52.985 Y-74.800 Z-0.200 I-257.453 J172.859 K0.000 F150.000
G3 X53.037 Y-75.326 Z-0.200 I0.254 J-0.240 K0.000 F150.000
G3 X53.578 Y-75.152 Z-0.200 I0.171 J0.395 K0.000 F150.000
G3 X56.015 Y-71.878 Z-0.200 I-36.655 J29.834 K0.000 F150.000
G2 X57.762 Y-69.458 Z-0.200 I25.273 J-16.404 K0.000 F150.000
G3 X58.947 Y-68.288 Z-0.200 I-134.994 J137.858 K0.000 F150.000
G3 X59.073 Y-67.872 Z-0.200 I-0.201 J0.288 K0.000 F150.000
G3 X58.245 Y-67.164 Z-0.200 I-3.094 J-2.783 K0.000 F150.000
G3 X58.023 Y-67.135 Z-0.200 I-0.135 J-0.174 K0.000 F150.000
G0 Z2.000
G0 X58.070 Y-67.246 Z2.000
G0 X58.070 Y-67.246 Z1.000
G1 X58.070 Y-67.246 Z-0.200 F50.000
G3 X58.016 Y-67.303 Z-0.200 I0.039 J-0.092 K0.000 F150.000
G2 X57.665 Y-68.070 Z-0.200 I-2.499 J0.680 K0.000 F150.000
G2 X56.970 Y-68.936 Z-0.200 I-72.354 J57.304 K0.000 F150.000
G3 X56.735 Y-69.550 Z-0.200 I28.522 J-11.283 K0.000 F150.000
G2 X53.087 Y-74.865 Z-0.200 I-252.054 J169.107 K0.000 F150.000
G3 X53.086 Y-75.216 Z-0.200 I0.154 J-0.176 K0.000 F150.000
G3 X53.434 Y-75.124 Z-0.200 I0.128 J0.221 K0.000 F150.000
G3 X55.917 Y-71.809 Z-0.200 I-27.150 J22.924 K0.000 F150.000
G2 X57.674 Y-69.377 Z-0.200 I25.313 J-16.432 K0.000 F150.000
G3 X58.861 Y-68.204 Z-0.200 I-137.089 J139.974 K0.000 F150.000
G3 X58.978 Y-67.945 Z-0.200 I-0.123 J0.212 K0.000 F150.000
G3 X58.171 Y-67.259 Z-0.200 I-3.030 J-2.747 K0.000 F150.000
G3 X58.070 Y-67.246 Z-0.200 I-0.061 J-0.079 K0.000 F150.000
G0 Z2.000
G0 X59.226 Y-67.989 Z2.000
G0 X59.226 Y-67.989 Z1.000
G1 X59.226 Y-67.989 Z-0.200 F50.000
G2 X59.180 Y-68.196 Z-0.200 I-0.263 J-0.050 K0.000 F150.000
G1 X59.276 Y-68.085 Z-0.200 F150.000
G3 X59.226 Y-67.989 Z-0.200 I-0.468 J-0.182 K0.000 F150.000
G0 Z2.000
G0 X53.509 Y-73.845 Z2.000
G0 X53.509 Y-73.845 Z1.000
G1 X53.509 Y-73.845 Z-0.200 F50.000
G2 X53.174 Y-73.828 Z-0.200 I-0.156 J0.231 K0.000 F150.000
G2 X53.244 Y-74.209 Z-0.200 I-0.483 J-0.286 K0.000 F150.000
G3 X53.509 Y-73.845 Z-0.200 I-25.986 J19.177 K0.000 F150.000
G0 Z2.000
G0 X53.757 Y-75.129 Z2.000
G0 X53.757 Y-75.129 Z1.000
G1 X53.757 Y-75.129 Z-0.200 F50.000
G2 X53.217 Y-75.475 Z-0.200 I-0.619 J0.372 K0.000 F150.000
G2 X53.852 Y-76.002 Z-0.200 I-1.495 J-2.445 K0.000 F150.000
G2 X53.763 Y-77.268 Z-0.200 I-1.442 J-0.535 K0.000 F150.000
G2 X53.174 Y-78.492 Z-0.200 I-4.215 J1.273 K0.000 F150.000
G2 X53.571 Y-78.485 Z-0.200 I0.204 J-0.339 K0.000 F150.000
G2 X53.692 Y-77.888 Z-0.200 I0.574 J0.195 K0.000 F150.000
G3 X54.029 Y-76.373 Z-0.200 I-3.454 J1.565 K0.000 F150.000
G3 X53.922 Y-75.691 Z-0.200 I-1.164 J0.166 K0.000 F150.000
G2 X53.748 Y-75.152 Z-0.200 I1.008 J0.623 K0.000 F150.000
G1 X53.757 Y-75.129 Z-0.200 F150.000
G0 Z2.000
G0 X53.673 Y-75.392 Z2.000
G0 X53.673 Y-75.392 Z1.000
G1 X53.673 Y-75.392 Z-0.200 F50.000
G2 X53.499 Y-75.522 Z-0.200 I-0.657 J0.700 K0.000 F150.000
G3 X53.831 Y-75.793 Z-0.200 I24.736 J30.063 K0.000 F150.000
G3 X53.673 Y-75.392 Z-0.200 I-6.813 J-2.460 K0.000 F150.000
G0 Z2.000
G0 X53.405 Y-75.755 Z2.000
G0 X53.405 Y-75.755 Z1.000
G1 X53.405 Y-75.755 Z-0.200 F50.000
G3 X52.381 Y-75.175 Z-0.200 I-2.884 J-3.898 K0.000 F150.000
G3 X51.809 Y-74.839 Z-0.200 I-1.069 J-1.165 K0.000 F150.000
G3 X50.553 Y-75.840 Z-0.200 I0.029 J-1.324 K0.000 F150.000
G1 X50.553 Y-75.840 Z-0.200 F150.000
G2 X50.038 Y-76.920 Z-0.200 I-2.394 J0.479 K0.000 F150.000
G2 X48.636 Y-77.899 Z-0.200 I-3.095 J2.938 K0.000 F150.000
G3 X47.465 Y-79.189 Z-0.200 I0.886 J-1.981 K0.000 F150.000
G3 X47.747 Y-81.600 Z-0.200 I87.174 J8.947 K0.000 F150.000
G3 X48.274 Y-82.579 Z-0.200 I1.211 J0.022 K0.000 F150.000
G3 X50.274 Y-83.165 Z-0.200 I2.341 J4.282 K0.000 F150.000
G3 X51.308 Y-82.863 Z-0.200 I0.097 J1.589 K0.000 F150.000
G3 X52.468 Y-81.643 Z-0.200 I-1.608 J2.689 K0.000 F150.000
G3 X52.338 Y-79.823 Z-0.200 I-3.084 J0.696 K0.000 F150.000
G2 X52.647 Y-78.976 Z-0.200 I1.491 J-0.064 K0.000 F150.000
G3 X53.716 Y-77.034 Z-0.200 I-3.547 J3.217 K0.000 F150.000
G3 X53.676 Y-75.971 Z-0.200 I-1.039 J0.493 K0.000 F150.000
G3 X53.405 Y-75.755 Z-0.200 I-3.155 J-3.682 K0.000 F150.000
G0 Z2.000
G0 X53.333 Y-75.851 Z2.000
G0 X53.333 Y-75.851 Z1.000
G1 X53.333 Y-75.851 Z-0.200 F50.000
G3 X52.313 Y-75.275 Z-0.200 I-2.857 J-3.865 K0.000 F150.000
G3 X51.769 Y-74.952 Z-0.200 I-1.013 J-1.086 K0.000 F150.000
G3 X50.695 Y-75.768 Z-0.200 I0.096 J-1.240 K0.000 F150.000
G2 X50.131 Y-76.996 Z-0.200 I-2.639 J0.470 K0.000 F150.000
G2 X48.693 Y-78.005 Z-0.200 I-3.178 J2.999 K0.000 F150.000
G3 X47.583 Y-79.214 Z-0.200 I0.831 J-1.878 K0.000 F150.000
G2 X47.841 Y-81.439 Z-0.200 I-824.460 J-96.750 K0.000 F150.000
G3 X48.162 Y-82.352 Z-0.200 I1.769 J0.111 K0.000 F150.000
G3 X50.289 Y-83.046 Z-0.200 I2.404 J3.760 K0.000 F150.000
G3 X51.149 Y-82.821 Z-0.200 I0.130 J1.262 K0.000 F150.000
G3 X52.360 Y-81.591 Z-0.200 I-1.490 J2.677 K0.000 F150.000
G3 X52.220 Y-79.843 Z-0.200 I-3.041 J0.635 K0.000 F150.000
G2 X52.548 Y-78.908 Z-0.200 I1.589 J-0.033 K0.000 F150.000
G3 X53.567 Y-77.102 Z-0.200 I-3.486 J3.156 K0.000 F150.000
G3 X53.604 Y-76.067 Z-0.200 I-1.027 J0.555 K0.000 F150.000
G3 X53.333 Y-75.851 Z-0.200 I-3.128 J-3.650 K0.000 F150.000
G0 Z2.000
G0 X52.820 Y-75.265 Z2.000
G0 X52.820 Y-75.265 Z1.000
G1 X52.820 Y-75.265 Z-0.200 F50.000
G2 X52.779 Y-74.971 Z-0.200 I0.352 J0.198 K0.000 F150.000
G2 X52.408 Y-75.041 Z-0.200 I-0.241 J0.261 K0.000 F150.000
G3 X52.820 Y-75.265 Z-0.200 I2.274 J3.685 K0.000 F150.000
G0 Z2.000
G0 X52.115 Y-74.829 Z2.000
G0 X52.115 Y-74.829 Z1.000
G1 X52.115 Y-74.829 Z-0.200 F50.000
G2 X51.662 Y-74.380 Z-0.200 I10.510 J11.053 K0.000 F150.000
G2 X51.520 Y-74.743 Z-0.200 I-0.326 J-0.081 K0.000 F150.000
G2 X52.115 Y-74.829 Z-0.200 I0.215 J-0.614 K0.000 F150.000
G0 Z2.000
G0 X53.315 Y-78.562 Z2.000
G0 X53.315 Y-78.562 Z1.000
G1 X53.315 Y-78.562 Z-0.200 F50.000
G3 X52.622 Y-79.320 Z-0.200 I0.731 J-1.364 K0.000 F150.000
G3 X52.586 Y-80.212 Z-0.200 I0.626 J-0.473 K0.000 F150.000
G2 X52.688 Y-81.170 Z-0.200 I-1.360 J-0.629 K0.000 F150.000
G3 X52.785 Y-82.234 Z-0.200 I1.994 J-0.354 K0.000 F150.000
G1 X52.785 Y-82.234 Z-0.200 F150.000
G2 X52.984 Y-83.571 Z-0.200 I-3.911 J-1.264 K0.000 F150.000
G3 X53.408 Y-83.971 Z-0.200 I0.345 J-0.059 K0.000 F150.000
G2 X55.027 Y-83.795 Z-0.200 I2.290 J-13.521 K0.000 F150.000
G3 X55.497 Y-83.545 Z-0.200 I-0.023 J0.609 K0.000 F150.000
G3 X55.589 Y-82.527 Z-0.200 I-3.786 J0.856 K0.000 F150.000
G3 X55.096 Y-80.714 Z-0.200 I-2.619 J0.262 K0.000 F150.000
G3 X53.728 Y-78.771 Z-0.200 I-31.664 J-20.841 K0.000 F150.000
G3 X53.315 Y-78.562 Z-0.200 I-0.366 J-0.211 K0.000 F150.000
G0 Z2.000
G0 X53.356 Y-78.675 Z2.000
G0 X53.356 Y-78.675 Z1.000
G1 X53.356 Y-78.675 Z-0.200 F50.000
G3 X52.813 Y-79.230 Z-0.200 I0.586 J-1.116 K0.000 F150.000
G3 X52.632 Y-80.009 Z-0.200 I0.654 J-0.562 K0.000 F150.000
G2 X52.827 Y-80.742 Z-0.200 I-1.614 J-0.820 K0.000 F150.000
G3 X52.829 Y-82.012 Z-0.200 I9.042 J-0.620 K0.000 F150.000
G2 X53.067 Y-83.121 Z-0.200 I-2.671 J-1.154 K0.000 F150.000
G3 X53.184 Y-83.814 Z-0.200 I1.401 J-0.120 K0.000 F150.000
G3 X53.374 Y-83.856 Z-0.200 I0.125 J0.116 K0.000 F150.000
G2 X55.012 Y-83.676 Z-0.200 I2.266 J-13.072 K0.000 F150.000
G3 X55.385 Y-83.502 Z-0.200 I-0.060 J0.615 K0.000 F150.000
G3 X55.469 Y-82.526 Z-0.200 I-3.783 J0.818 K0.000 F150.000
G3 X55.282 Y-81.283 Z-0.200 I-2.684 J0.232 K0.000 F150.000
G3 X53.722 Y-78.950 Z-0.200 I-23.727 J-14.181 K0.000 F150.000
G3 X53.356 Y-78.675 Z-0.200 I-0.499 J-0.281 K0.000 F150.000
G0 Z2.000
G0 X52.552 Y-81.741 Z2.000
G0 X52.552 Y-81.741 Z1.000
G1 X52.552 Y-81.741 Z-0.200 F50.000
G2 X52.225 Y-82.248 Z-0.200 I-1.589 J0.669 K0.000 F150.000
G2 X52.662 Y-82.247 Z-0.200 I0.220 J-0.320 K0.000 F150.000
G2 X52.552 Y-81.741 Z-0.200 I1.040 J0.491 K0.000 F150.000
G0 Z2.000
G0 X52.483 Y-82.312 Z2.000
G0 X52.483 Y-82.312 Z1.000
G1 X52.483 Y-82.312 Z-0.200 F50.000
G3 X52.189 Y-82.412 Z-0.200 I-0.043 J-0.356 K0.000 F150.000
G2 X50.582 Y-83.322 Z-0.200 I-2.623 J2.758 K0.000 F150.000
G2 X48.301 Y-82.786 Z-0.200 I-0.106 J4.670 K0.000 F150.000
G3 X47.335 Y-82.196 Z-0.200 I-3.533 J-4.704 K0.000 F150.000
G2 X46.050 Y-81.983 Z-0.200 I0.039 J4.217 K0.000 F150.000
G2 X44.661 Y-81.313 Z-0.200 I4.675 J11.461 K0.000 F150.000
G3 X43.548 Y-81.041 Z-0.200 I-23.088 J-91.865 K0.000 F150.000
G3 X42.855 Y-80.970 Z-0.200 I-0.436 J-0.846 K0.000 F150.000
G3 X42.047 Y-81.963 Z-0.200 I2.400 J-2.779 K0.000 F150.000
G3 X41.944 Y-82.583 Z-0.200 I0.419 J-0.388 K0.000 F150.000
G3 X43.469 Y-83.546 Z-0.200 I2.267 J1.899 K0.000 F150.000
G3 X46.039 Y-83.725 Z-0.200 I2.710 J20.369 K0.000 F150.000
G2 X47.346 Y-83.973 Z-0.200 I0.111 J-2.986 K0.000 F150.000
G2 X49.057 Y-84.867 Z-0.200 I-28.379 J-56.409 K0.000 F150.000
G3 X49.581 Y-84.928 Z-0.200 I0.388 J1.054 K0.000 F150.000
G3 X51.533 Y-84.496 Z-0.200 I-2.230 J14.710 K0.000 F150.000
G3 X52.443 Y-84.183 Z-0.200 I-0.247 J2.196 K0.000 F150.000
G2 X52.733 Y-83.722 Z-0.200 I5.307 J-3.016 K0.000 F150.000
G3 X52.797 Y-82.696 Z-0.200 I-1.810 J0.628 K0.000 F150.000
G3 X52.483 Y-82.312 Z-0.200 I-0.357 J0.028 K0.000 F150.000
G0 Z2.000
G0 X52.466 Y-82.423 Z2.000
G0 X52.466 Y-82.423 Z1.000
G1 X52.466 Y-82.423 Z-0.200 F50.000
G3 X52.258 Y-82.510 Z-0.200 I-0.033 J-0.211 K0.000 F150.000
G2 X50.600 Y-83.441 Z-0.200 I-2.674 J2.820 K0.000 F150.000
G2 X48.239 Y-82.889 Z-0.200 I-0.128 J4.774 K0.000 F150.000
G3 X47.301 Y-82.312 Z-0.200 I-3.564 J-4.742 K0.000 F150.000
G2 X45.174 Y-81.694 Z-0.200 I-0.025 J3.888 K0.000 F150.000
G3 X43.666 Y-81.197 Z-0.200 I-2.186 J-4.092 K0.000 F150.000
G3 X42.971 Y-81.048 Z-0.200 I-1.024 J-3.079 K0.000 F150.000
G3 X42.246 Y-81.872 Z-0.200 I1.489 J-2.042 K0.000 F150.000
G3 X42.011 Y-82.449 Z-0.200 I0.607 J-0.583 K0.000 F150.000
G3 X43.494 Y-83.429 Z-0.200 I2.131 J1.614 K0.000 F150.000
G3 X46.046 Y-83.606 Z-0.200 I2.695 J20.418 K0.000 F150.000
G2 X47.396 Y-83.864 Z-0.200 I0.106 J-3.096 K0.000 F150.000
G2 X49.105 Y-84.757 Z-0.200 I-27.787 J-55.264 K0.000 F150.000
G3 X49.577 Y-84.808 Z-0.200 I0.341 J0.948 K0.000 F150.000
G3 X51.505 Y-84.379 Z-0.200 I-2.290 J14.858 K0.000 F150.000
G3 X52.363 Y-84.094 Z-0.200 I-0.227 J2.110 K0.000 F150.000
G2 X52.636 Y-83.650 Z-0.200 I2.874 J-1.468 K0.000 F150.000
G3 X52.634 Y-82.565 Z-0.200 I-1.784 J0.539 K0.000 F150.000
G3 X52.466 Y-82.423 Z-0.200 I-0.202 J-0.069 K0.000 F150.000
G0 Z2.000
G0 X52.881 Y-83.688 Z2.000
G0 X52.881 Y-83.688 Z1.000
G1 X52.881 Y-83.688 Z-0.200 F50.000
G3 X52.644 Y-84.077 Z-0.200 I13.914 J-8.759 K0.000 F150.000
G2 X52.605 Y-84.161 Z-0.200 I-0.218 J0.049 K0.000 F150.000
G2 X53.042 Y-84.014 Z-0.200 I0.613 J-1.103 K0.000 F150.000
G2 X52.881 Y-83.688 Z-0.200 I0.399 J0.401 K0.000 F150.000
G0 Z2.000
G0 X49.584 Y-85.048 Z2.000
G0 X49.584 Y-85.048 Z1.000
G1 X49.584 Y-85.048 Z-0.200 F50.000
G1 X49.425 Y-85.051 Z-0.200 F150.000
G3 X49.584 Y-85.048 Z-0.200 I0.072 J0.438 K0.000 F150.000
G1 X49.584 Y-85.048 Z-0.200 F150.000
G0 Z2.000
G0 X47.845 Y-82.330 Z2.000
G0 X47.845 Y-82.330 Z1.000
G1 X47.845 Y-82.330 Z-0.200 F50.000
G2 X47.525 Y-80.919 Z-0.200 I4.522 J1.767 K0.000 F150.000
G2 X47.348 Y-79.164 Z-0.200 I33.689 J4.282 K0.000 F150.000
G2 X47.521 Y-78.749 Z-0.200 I1.113 J-0.220 K0.000 F150.000
G2 X47.086 Y-78.707 Z-0.200 I-0.191 J0.302 K0.000 F150.000
G2 X47.214 Y-80.104 Z-0.200 I-2.992 J-0.979 K0.000 F150.000
G3 X47.323 Y-81.334 Z-0.200 I3.422 J-0.316 K0.000 F150.000
G2 X47.469 Y-81.839 Z-0.200 I-0.952 J-0.550 K0.000 F150.000
G2 X47.315 Y-82.075 Z-0.200 I-0.302 J0.029 K0.000 F150.000
G2 X47.845 Y-82.330 Z-0.200 I-0.187 J-1.068 K0.000 F150.000
G0 Z2.000
G0 X47.601 Y-82.043 Z2.000
G0 X47.601 Y-82.043 Z1.000
G1 X47.601 Y-82.043 Z-0.200 F50.000
G2 X47.568 Y-81.914 Z-0.200 I1.186 J0.370 K0.000 F150.000
G2 X47.534 Y-82.011 Z-0.200 I-0.134 J-0.007 K0.000 F150.000
G2 X47.601 Y-82.043 Z-0.200 I-0.076 J-0.240 K0.000 F150.000
G0 Z2.000
G0 X47.467 Y-81.377 Z2.000
G0 X47.467 Y-81.377 Z1.000
G1 X47.467 Y-81.377 Z-0.200 F50.000
G2 X47.332 Y-80.212 Z-0.200 I16.413 J2.482 K0.000 F150.000
G3 X47.437 Y-81.298 Z-0.200 I3.116 J-0.247 K0.000 F150.000
G1 X47.467 Y-81.377 Z-0.200 F150.000
G0 Z2.000
G0 X47.281 Y-78.956 Z2.000
G0 X47.281 Y-78.956 Z1.000
G1 X47.281 Y-78.956 Z-0.200 F50.000
G2 X47.296 Y-78.921 Z-0.200 I0.143 J-0.044 K0.000 F150.000
G2 X47.270 Y-78.917 Z-0.200 I-0.007 J0.033 K0.000 F150.000
G2 X47.281 Y-78.956 Z-0.200 I-0.926 J-0.262 K0.000 F150.000
G0 Z2.000
G0 X49.705 Y-70.485 Z2.000
G0 X49.705 Y-70.485 Z1.000
G1 X49.705 Y-70.485 Z-0.200 F50.000
G2 X50.002 Y-70.241 Z-0.200 I0.341 J-0.112 K0.000 F150.000
G2 X49.447 Y-70.040 Z-0.200 I0.825 J3.141 K0.000 F150.000
G2 X49.705 Y-70.485 Z-0.200 I-0.996 J-0.873 K0.000 F150.000
G0 Z2.000
G0 X50.312 Y-70.252 Z2.000
G0 X50.312 Y-70.252 Z1.000
G1 X50.312 Y-70.252 Z-0.200 F50.000
G3 X50.430 Y-70.233 Z-0.200 I0.050 J0.069 K0.000 F150.000
G3 X50.471 Y-70.169 Z-0.200 I-1.579 J1.072 K0.000 F150.000
G2 X50.312 Y-70.252 Z-0.200 I-0.248 J0.283 K0.000 F150.000
G0 Z2.000
G0 X45.323 Y-63.719 Z2.000
G0 X45.323 Y-63.719 Z1.000
G1 X45.323 Y-63.719 Z-0.200 F50.000
G2 X45.896 Y-63.044 Z-0.200 I2.945 J-1.916 K0.000 F150.000
G1 X45.955 Y-63.008 Z-0.200 F150.000
G2 X45.084 Y-63.268 Z-0.200 I-27.911 J92.053 K0.000 F150.000
G2 X45.350 Y-63.602 Z-0.200 I-0.054 J-0.315 K0.000 F150.000
G2 X45.323 Y-63.719 Z-0.200 I-0.257 J-0.004 K0.000 F150.000
G0 Z2.000
G0 X45.425 Y-63.401 Z2.000
G0 X45.425 Y-63.401 Z1.000
G1 X45.425 Y-63.401 Z-0.200 F50.000
G3 X45.529 Y-63.260 Z-0.200 I-2.399 J1.884 K0.000 F150.000
G3 X45.359 Y-63.305 Z-0.200 I0.383 J-1.817 K0.000 F150.000
G2 X45.425 Y-63.401 Z-0.200 I-0.068 J-0.117 K0.000 F150.000
G0 Z2.000
G0 X42.916 Y-64.031 Z2.000
G0 X42.916 Y-64.031 Z1.000
G1 X42.916 Y-64.031 Z-0.200 F50.000
G3 X42.129 Y-63.768 Z-0.200 I-12.590 J-36.410 K0.000 F150.000
G2 X42.080 Y-64.260 Z-0.200 I-0.316 J-0.217 K0.000 F150.000
G2 X42.798 Y-64.025 Z-0.200 I0.889 J-1.500 K0.000 F150.000
G3 X42.916 Y-64.031 Z-0.200 I0.070 J0.208 K0.000 F150.000
G0 Z2.000
G0 X42.404 Y-63.985 Z2.000
G0 X42.404 Y-63.985 Z1.000
G1 X42.404 Y-63.985 Z-0.200 F50.000
G1 X42.315 Y-63.956 Z-0.200 F150.000
G1 X42.315 Y-64.017 Z-0.200 F150.000
G1 X42.404 Y-63.985 Z-0.200 F150.000
G0 Z2.000
G0 X42.078 Y-63.989 Z2.000
G0 X42.078 Y-63.989 Z1.000
G1 X42.078 Y-63.989 Z-0.200 F50.000
G3 X41.773 Y-63.697 Z-0.200 I-0.296 J-0.004 K0.000 F150.000
G3 X40.921 Y-63.556 Z-0.200 I-0.814 J-2.283 K0.000 F150.000
G3 X40.530 Y-64.207 Z-0.200 I0.268 J-0.603 K0.000 F150.000
G1 X40.530 Y-64.207 Z-0.200 F150.000
G2 X40.484 Y-64.520 Z-0.200 I-3.062 J0.292 K0.000 F150.000
G3 X40.556 Y-64.958 Z-0.200 I0.470 J-0.147 K0.000 F150.000
G3 X40.915 Y-64.988 Z-0.200 I0.196 J0.180 K0.000 F150.000
G2 X41.906 Y-64.262 Z-0.200 I3.949 J-4.354 K0.000 F150.000
G3 X42.078 Y-63.989 Z-0.200 I-0.124 J0.269 K0.000 F150.000
G0 Z2.000
G0 X41.948 Y-63.988 Z2.000
G0 X41.948 Y-63.988 Z1.000
G1 X41.948 Y-63.988 Z-0.200 F50.000
G3 X41.919 Y-63.880 Z-0.200 I-0.202 J0.003 K0.000 F150.000
G3 X41.677 Y-63.795 Z-0.200 I-0.490 J-1.005 K0.000 F150.000
G3 X40.939 Y-63.675 Z-0.200 I-0.712 J-2.051 K0.000 F150.000
G3 X40.639 Y-64.315 Z-0.200 I0.375 J-0.567 K0.000 F150.000
G3 X40.632 Y-64.865 Z-0.200 I1.059 J-0.289 K0.000 F150.000
G3 X40.907 Y-64.851 Z-0.200 I0.131 J0.145 K0.000 F150.000
G2 X41.832 Y-64.168 Z-0.200 I3.809 J-4.186 K0.000 F150.000
G3 X41.948 Y-63.988 Z-0.200 I-0.087 J0.183 K0.000 F150.000
G0 Z2.000
G0 X40.824 Y-65.143 Z2.000
G0 X40.824 Y-65.143 Z1.000
G1 X40.824 Y-65.143 Z-0.200 F50.000
G2 X40.466 Y-65.032 Z-0.200 I-0.092 J0.337 K0.000 F150.000
G3 X40.497 Y-65.599 Z-0.200 I3.404 J-0.097 K0.000 F150.000
G2 X40.824 Y-65.143 Z-0.200 I1.449 J-0.693 K0.000 F150.000
G0 Z2.000
G0 X41.898 Y-66.153 Z2.000
G0 X41.898 Y-66.153 Z1.000
G1 X41.898 Y-66.153 Z-0.200 F50.000
G2 X42.197 Y-66.565 Z-0.200 I-0.021 J-0.330 K0.000 F150.000
G3 X42.826 Y-65.629 Z-0.200 I-8.028 J6.077 K0.000 F150.000
G3 X41.898 Y-66.153 Z-0.200 I7.637 J-14.604 K0.000 F150.000
G0 Z2.000
G0 X42.167 Y-66.138 Z2.000
G0 X42.167 Y-66.138 Z1.000
G1 X42.167 Y-66.138 Z-0.200 F50.000
G1 X42.263 Y-66.258 Z-0.200 F150.000
G3 X42.489 Y-65.949 Z-0.200 I-37.214 J27.498 K0.000 F150.000
G3 X42.167 Y-66.138 Z-0.200 I12.444 J-21.580 K0.000 F150.000
G0 Z2.000
G0 X36.950 Y-65.581 Z2.000
G0 X36.950 Y-65.581 Z1.000
G1 X36.950 Y-65.581 Z-0.200 F50.000
G3 X36.771 Y-65.507 Z-0.200 I-0.133 J-0.068 K0.000 F150.000
G3 X36.755 Y-65.693 Z-0.200 I2.356 J-0.290 K0.000 F150.000
G2 X36.950 Y-65.581 Z-0.200 I0.176 J-0.081 K0.000 F150.000
G0 Z2.000
G0 Z2.000
G0 X36.950 Y-65.581
G0 X49.839 Y-78.900
G0 X49.839 Y-78.900 Z1.000
G1 X49.839 Y-78.900 Z-0.200 F50.000
G3 X49.425 Y-80.725 Z-0.200 I1.339 J-1.263 K0.000 F150.000
G3 X50.423 Y-81.121 Z-0.200 I0.744 J0.419 K0.000 F150.000
G3 X51.372 Y-80.015 Z-0.200 I-0.653 J1.521 K0.000 F150.000
G3 X50.982 Y-79.061 Z-0.200 I-0.785 J0.236 K0.000 F150.000
G3 X49.839 Y-78.900 Z-0.200 I-0.894 J-2.207 K0.000 F150.000
G0 Z2.000
G0 X49.891 Y-79.010 Z2.000
G0 X49.891 Y-79.010 Z1.000
G1 X49.891 Y-79.010 Z-0.200 F50.000
G3 X49.529 Y-80.664 Z-0.200 I1.326 J-1.157 K0.000 F150.000
G3 X50.382 Y-81.007 Z-0.200 I0.639 J0.357 K0.000 F150.000
G3 X51.255 Y-79.992 Z-0.200 I-0.608 J1.405 K0.000 F150.000
G3 X50.666 Y-79.091 Z-0.200 I-0.642 J0.224 K0.000 F150.000
G3 X49.891 Y-79.010 Z-0.200 I-0.573 J-1.746 K0.000 F150.000
G0 Z2.000
G0 X49.958 Y-79.115 Z2.000
G0 X49.958 Y-79.115 Z1.000
G1 X49.958 Y-79.115 Z-0.200 F50.000
G3 X49.928 Y-79.153 Z-0.200 I0.039 J-0.062 K0.000 F150.000
G2 X50.026 Y-79.110 Z-0.200 I0.134 J-0.174 K0.000 F150.000
G3 X49.958 Y-79.115 Z-0.200 I-0.029 J-0.067 K0.000 F150.000
G0 Z2.000
G0 X50.018 Y-79.244 Z2.000
G0 X50.018 Y-79.244 Z1.000
G1 X50.018 Y-79.244 Z-0.200 F50.000
G3 X49.708 Y-79.580 Z-0.200 I0.256 J-0.548 K0.000 F150.000
G3 X50.021 Y-80.870 Z-0.200 I0.755 J-0.500 K0.000 F150.000
G3 X50.273 Y-80.902 Z-0.200 I0.164 J0.281 K0.000 F150.000
G3 X50.905 Y-80.334 Z-0.200 I-0.707 J1.423 K0.000 F150.000
G3 X51.099 Y-79.635 Z-0.200 I-0.482 J0.510 K0.000 F150.000
G3 X50.562 Y-79.261 Z-0.200 I-0.606 J-0.296 K0.000 F150.000
G3 X50.018 Y-79.244 Z-0.200 I-0.288 J-0.532 K0.000 F150.000
G0 Z2.000
G0 X50.070 Y-79.356 Z2.000
G0 X50.070 Y-79.356 Z1.000
G1 X50.070 Y-79.356 Z-0.200 F50.000
G3 X49.811 Y-79.640 Z-0.200 I0.210 J-0.450 K0.000 F150.000
G3 X49.992 Y-80.707 Z-0.200 I0.656 J-0.437 K0.000 F150.000
G3 X50.226 Y-80.791 Z-0.200 I0.211 J0.217 K0.000 F150.000
G3 X50.814 Y-80.256 Z-0.200 I-0.669 J1.324 K0.000 F150.000
G3 X50.965 Y-79.626 Z-0.200 I-0.371 J0.422 K0.000 F150.000
G3 X50.527 Y-79.375 Z-0.200 I-0.582 J-0.508 K0.000 F150.000
G3 X50.070 Y-79.356 Z-0.200 I-0.248 J-0.430 K0.000 F150.000
G0 Z2.000
G0 Z2.000
G0 X50.070 Y-79.356
G0 X49.031 Y-80.903
G0 X49.031 Y-80.903 Z1.000
G1 X49.031 Y-80.903 Z-0.200 F50.000
G3 X48.441 Y-80.567 Z-0.200 I-2.578 J-3.839 K0.000 F150.000
G3 X48.497 Y-80.997 Z-0.200 I0.167 J-0.197 K0.000 F150.000
G3 X49.719 Y-81.853 Z-0.200 I2.994 J2.971 K0.000 F150.000
G3 X49.851 Y-81.606 Z-0.200 I0.021 J0.148 K0.000 F150.000
G3 X49.031 Y-80.903 Z-0.200 I-3.399 J-3.136 K0.000 F150.000
G0 Z2.000
G0 X48.967 Y-80.998 Z2.000
G0 X48.967 Y-80.998 Z1.000
G1 X48.967 Y-80.998 Z-0.200 F50.000
G3 X48.473 Y-80.709 Z-0.200 I-2.565 J-3.820 K0.000 F150.000
G3 X48.578 Y-80.908 Z-0.200 I0.237 J-0.002 K0.000 F150.000
G3 X49.744 Y-81.732 Z-0.200 I3.065 J3.101 K0.000 F150.000
G1 X49.756 Y-81.728 Z-0.200 F150.000
G3 X49.525 Y-81.439 Z-0.200 I-0.529 J-0.185 K0.000 F150.000
G3 X48.967 Y-80.998 Z-0.200 I-3.123 J-3.380 K0.000 F150.000
G0 Z2.000
G0 X48.937 Y-81.042 Z2.000
G0 X48.937 Y-81.042 Z1.000
G1 X48.937 Y-81.042 Z-0.200 F50.000
G3 X48.546 Y-80.802 Z-0.200 I-2.815 J-4.140 K0.000 F150.000
G3 X49.660 Y-81.641 Z-0.200 I4.114 J4.305 K0.000 F150.000
G3 X48.937 Y-81.042 Z-0.200 I-3.538 J-3.541 K0.000 F150.000
G0 Z2.000
G0 Z2.000
G0 X48.937 Y-81.042
G0 X39.983 Y-84.457
G0 X39.983 Y-84.457 Z1.000
G1 X39.983 Y-84.457 Z-0.200 F50.000
G3 X39.528 Y-84.072 Z-0.200 I-0.577 J-0.220 K0.000 F150.000
G3 X39.137 Y-84.043 Z-0.200 I-0.271 J-1.038 K0.000 F150.000
G1 X23.012 Y-85.893 Z-0.200 F150.000
G3 X22.098 Y-86.742 Z-0.200 I0.034 J-0.953 K0.000 F150.000
G1 X22.098 Y-95.175 Z-0.200 F150.000
G3 X22.672 Y-95.787 Z-0.200 I0.635 J0.020 K0.000 F150.000
G1 X22.991 Y-95.795 Z-0.200 F150.000
G1 X39.111 Y-93.947 Z-0.200 F150.000
G3 X40.023 Y-93.097 Z-0.200 I-0.034 J0.952 K0.000 F150.000
G1 X40.023 Y-84.665 Z-0.200 F150.000
G3 X39.983 Y-84.457 Z-0.200 I-0.618 J-0.012 K0.000 F150.000
G0 Z2.000
G0 X39.929 Y-84.478 Z2.000
G0 X39.929 Y-84.478 Z1.000
G1 X39.929 Y-84.478 Z-0.200 F50.000
G3 X39.217 Y-84.091 Z-0.200 I-0.636 J-0.322 K0.000 F150.000
G1 X39.200 Y-84.100 Z-0.200 F150.000
G1 X39.199 Y-84.091 Z-0.200 F150.000
G1 X39.120 Y-84.097 Z-0.200 F150.000
G1 X22.984 Y-85.956 Z-0.200 F150.000
G3 X22.159 Y-86.686 Z-0.200 I0.084 J-0.926 K0.000 F150.000
G1 X22.150 Y-95.155 Z-0.200 F150.000
G3 X22.197 Y-95.370 Z-0.200 I0.521 J0.001 K0.000 F150.000
G3 X22.992 Y-95.744 Z-0.200 I0.649 J0.347 K0.000 F150.000
G1 X39.131 Y-93.870 Z-0.200 F150.000
G3 X39.963 Y-93.129 Z-0.200 I-0.162 J1.019 K0.000 F150.000
G1 X39.973 Y-84.685 Z-0.200 F150.000
G3 X39.929 Y-84.478 Z-0.200 I-0.520 J-0.001 K0.000 F150.000
G0 Z2.000
G0 X39.768 Y-93.574 Z2.000
G0 X39.768 Y-93.574 Z1.000
G1 X39.768 Y-93.574 Z-0.200 F50.000
G1 X39.754 Y-93.588 Z-0.200 F150.000
G3 X39.768 Y-93.574 Z-0.200 I-0.024 J0.037 K0.000 F150.000
G0 Z2.000
G0 Z2.000
G0 X39.768 Y-93.574
G0 X39.118 Y-92.939
G0 X39.118 Y-92.939 Z1.000
G1 X39.118 Y-92.939 Z-0.200 F50.000
G3 X39.166 Y-92.729 Z-0.200 I-0.147 J0.144 K0.000 F150.000
G3 X39.148 Y-89.694 Z-0.200 I-18.376 J1.410 K0.000 F150.000
G2 X39.127 Y-85.049 Z-0.200 I39.945 J2.505 K0.000 F150.000
G2 X39.145 Y-84.846 Z-0.200 I3.785 J-0.230 K0.000 F150.000
G3 X38.112 Y-84.994 Z-0.200 I0.006 J-3.724 K0.000 F150.000
G3 X38.073 Y-87.240 Z-0.200 I21.213 J-1.484 K0.000 F150.000
G2 X38.119 Y-91.590 Z-0.200 I-168.038 J-3.936 K0.000 F150.000
G2 X37.906 Y-91.633 Z-0.200 I-0.109 J-0.007 K0.000 F150.000
G2 X35.832 Y-86.914 Z-0.200 I51.360 J25.389 K0.000 F150.000
G3 X35.188 Y-85.436 Z-0.200 I-6.983 J-2.166 K0.000 F150.000
G3 X35.135 Y-85.361 Z-0.200 I-0.336 J-0.178 K0.000 F150.000
G3 X34.047 Y-85.512 Z-0.200 I-0.289 J-1.909 K0.000 F150.000
G3 X33.920 Y-90.011 Z-0.200 I20.172 J-2.821 K0.000 F150.000
G2 X34.109 Y-93.592 Z-0.200 I-135.578 J-8.954 K0.000 F150.000
G3 X35.155 Y-93.447 Z-0.200 I0.070 J3.338 K0.000 F150.000
G2 X35.133 Y-91.843 Z-0.200 I10987.211 J148.936 K0.000 F150.000
G1 X35.133 Y-91.843 Z-0.200 F150.000
G3 X35.100 Y-89.433 Z-0.200 I-5862.045 J-79.080 K0.000 F150.000
G1 X35.100 Y-89.433 Z-0.200 F150.000
G2 X35.067 Y-86.694 Z-0.200 I45.923 J1.928 K0.000 F150.000
G2 X35.287 Y-86.771 Z-0.200 I0.096 J-0.080 K0.000 F150.000
G3 X37.105 Y-90.966 Z-0.200 I53.671 J20.766 K0.000 F150.000
G2 X37.996 Y-92.648 Z-0.200 I-25.520 J-14.598 K0.000 F150.000
G3 X38.161 Y-93.085 Z-0.200 I0.935 J0.104 K0.000 F150.000
G3 X39.060 Y-92.981 Z-0.200 I0.252 J1.758 K0.000 F150.000
G3 X39.118 Y-92.939 Z-0.200 I-0.089 J0.186 K0.000 F150.000
G0 Z2.000
G0 X39.020 Y-92.865 Z2.000
G0 X39.020 Y-92.865 Z1.000
G1 X39.020 Y-92.865 Z-0.200 F50.000
G3 X39.099 Y-91.162 Z-0.200 I-7.028 J1.182 K0.000 F150.000
G2 X39.007 Y-85.040 Z-0.200 I50.414 J3.819 K0.000 F150.000
G1 X39.012 Y-84.976 Z-0.200 F150.000
G3 X38.215 Y-85.079 Z-0.200 I-0.086 J-2.478 K0.000 F150.000
G3 X38.234 Y-91.642 Z-0.200 I381.679 J-2.150 K0.000 F150.000
G2 X37.764 Y-91.629 Z-0.200 I-0.233 J0.071 K0.000 F150.000
G2 X35.356 Y-86.045 Z-0.200 I66.755 J32.095 K0.000 F150.000
G3 X35.070 Y-85.477 Z-0.200 I-3.215 J-1.262 K0.000 F150.000
G3 X34.158 Y-85.580 Z-0.200 I-0.151 J-2.763 K0.000 F150.000
G3 X34.040 Y-90.004 Z-0.200 I20.183 J-2.749 K0.000 F150.000
G2 X34.220 Y-93.476 Z-0.200 I-62.748 J-4.992 K0.000 F150.000
G3 X35.034 Y-93.368 Z-0.200 I-0.181 J4.474 K0.000 F150.000
G2 X35.023 Y-92.582 Z-0.200 I569.535 J8.068 K0.000 F150.000
G1 X35.023 Y-92.582 Z-0.200 F150.000
G2 X34.953 Y-86.657 Z-0.200 I227.090 J5.654 K0.000 F150.000
G2 X35.399 Y-86.728 Z-0.200 I0.211 J-0.109 K0.000 F150.000
G3 X37.211 Y-90.910 Z-0.200 I53.580 J20.731 K0.000 F150.000
G2 X38.109 Y-92.608 Z-0.200 I-24.883 J-14.249 K0.000 F150.000
G2 X38.233 Y-92.967 Z-0.200 I-4.084 J-1.615 K0.000 F150.000
G3 X39.020 Y-92.865 Z-0.200 I0.212 J1.454 K0.000 F150.000
G0 Z2.000
G0 X38.915 Y-92.780 Z2.000
G0 X38.915 Y-92.780 Z1.000
G1 X38.915 Y-92.780 Z-0.200 F50.000
G3 X38.979 Y-91.164 Z-0.200 I-7.458 J1.106 K0.000 F150.000
G2 X38.882 Y-85.105 Z-0.200 I51.729 J3.860 K0.000 F150.000
G3 X38.333 Y-85.170 Z-0.200 I0.219 J-4.258 K0.000 F150.000
G3 X38.354 Y-91.652 Z-0.200 I404.146 J-1.924 K0.000 F150.000
G2 X37.895 Y-91.911 Z-0.200 I-0.322 J0.034 K0.000 F150.000
G2 X38.322 Y-92.849 Z-0.200 I-3.671 J-2.241 K0.000 F150.000
G3 X38.915 Y-92.780 Z-0.200 I0.054 J2.105 K0.000 F150.000
G0 Z2.000
G0 X38.809 Y-92.680 Z2.000
G0 X38.809 Y-92.680 Z1.000
G1 X38.809 Y-92.680 Z-0.200 F50.000
G3 X38.788 Y-89.711 Z-0.200 I-18.171 J1.357 K0.000 F150.000
G2 X38.753 Y-85.237 Z-0.200 I43.618 J2.587 K0.000 F150.000
G3 X38.451 Y-85.269 Z-0.200 I0.243 J-3.684 K0.000 F150.000
G3 X38.478 Y-91.613 Z-0.200 I332.533 J-1.755 K0.000 F150.000
G2 X38.109 Y-92.055 Z-0.200 I-0.458 J0.007 K0.000 F150.000
G2 X38.407 Y-92.728 Z-0.200 I-3.062 J-1.757 K0.000 F150.000
G3 X38.809 Y-92.680 Z-0.200 I-0.007 J1.760 K0.000 F150.000
G0 Z2.000
G0 X38.700 Y-92.577 Z2.000
G0 X38.700 Y-92.577 Z1.000
G1 X38.700 Y-92.577 Z-0.200 F50.000
G3 X38.669 Y-89.717 Z-0.200 I-18.723 J1.224 K0.000 F150.000
G2 X38.624 Y-85.368 Z-0.200 I52.106 J2.704 K0.000 F150.000
G1 X38.570 Y-85.375 Z-0.200 F150.000
G3 X38.600 Y-91.569 Z-0.200 I307.919 J-1.586 K0.000 F150.000
G2 X38.274 Y-92.116 Z-0.200 I-0.592 J-0.018 K0.000 F150.000
G2 X38.489 Y-92.603 Z-0.200 I-2.405 J-1.354 K0.000 F150.000
G3 X38.700 Y-92.577 Z-0.200 I-0.006 J0.922 K0.000 F150.000
G0 Z2.000
G0 X38.591 Y-92.475 Z2.000
G0 X38.591 Y-92.475 Z1.000
G1 X38.591 Y-92.475 Z-0.200 F50.000
G3 X38.618 Y-91.958 Z-0.200 I-3.264 J0.430 K0.000 F150.000
G2 X38.428 Y-92.163 Z-0.200 I-0.393 J0.174 K0.000 F150.000
G2 X38.572 Y-92.478 Z-0.200 I-1.567 J-0.905 K0.000 F150.000
G1 X38.591 Y-92.475 Z-0.200 F150.000
G0 Z2.000
G0 X38.555 Y-92.317 Z2.000
G0 X38.555 Y-92.317 Z1.000
G1 X38.555 Y-92.317 Z-0.200 F50.000
G3 X38.568 Y-92.110 Z-0.200 I-1.523 J0.195 K0.000 F150.000
G2 X38.491 Y-92.179 Z-0.200 I-0.145 J0.084 K0.000 F150.000
G1 X38.555 Y-92.317 Z-0.200 F150.000
G0 Z2.000
G0 X34.900 Y-92.366 Z2.000
G0 X34.900 Y-92.366 Z1.000
G1 X34.900 Y-92.366 Z-0.200 F50.000
G3 X34.873 Y-90.401 Z-0.200 I-9681.609 J-130.431 K0.000 F150.000
G1 X34.873 Y-90.401 Z-0.200 F150.000
G2 X34.836 Y-86.626 Z-0.200 I71.078 J2.584 K0.000 F150.000
G2 X35.412 Y-86.508 Z-0.200 I0.319 J-0.093 K0.000 F150.000
G3 X35.002 Y-85.593 Z-0.200 I-5.164 J-1.766 K0.000 F150.000
G3 X34.263 Y-85.674 Z-0.200 I-0.048 J-2.974 K0.000 F150.000
G3 X34.160 Y-89.997 Z-0.200 I20.299 J-2.648 K0.000 F150.000
G1 X34.217 Y-90.899 Z-0.200 F150.000
G2 X34.336 Y-93.350 Z-0.200 I-46.895 J-3.502 K0.000 F150.000
G3 X34.912 Y-93.273 Z-0.200 I-0.346 J4.812 K0.000 F150.000
G3 X34.900 Y-92.366 Z-0.200 I-9681.622 J-129.524 K0.000 F150.000
G0 Z2.000
G0 X34.780 Y-92.368 Z2.000
G0 X34.780 Y-92.368 Z1.000
G1 X34.780 Y-92.368 Z-0.200 F50.000
G3 X34.742 Y-89.586 Z-0.200 I-6487.323 J-87.080 K0.000 F150.000
G1 X34.742 Y-89.586 Z-0.200 F150.000
G2 X34.722 Y-86.589 Z-0.200 I33.396 J1.718 K0.000 F150.000
G2 X35.189 Y-86.275 Z-0.200 I0.421 J-0.122 K0.000 F150.000
G3 X34.930 Y-85.711 Z-0.200 I-5.108 J-2.007 K0.000 F150.000
G3 X34.369 Y-85.773 Z-0.200 I0.067 J-3.177 K0.000 F150.000
G3 X34.280 Y-89.990 Z-0.200 I21.669 J-2.570 K0.000 F150.000
G2 X34.452 Y-93.220 Z-0.200 I-66.122 J-5.148 K0.000 F150.000
G3 X34.791 Y-93.174 Z-0.200 I-0.249 J3.121 K0.000 F150.000
G3 X34.780 Y-92.368 Z-0.200 I-6487.334 J-86.274 K0.000 F150.000
G0 Z2.000
G0 X34.659 Y-92.370 Z2.000
G0 X34.659 Y-92.370 Z1.000
G1 X34.659 Y-92.370 Z-0.200 F50.000
G2 X34.581 Y-86.690 Z-0.200 I5218.221 J74.956 K0.000 F150.000
G2 X35.019 Y-86.172 Z-0.200 I0.563 J-0.031 K0.000 F150.000
G3 X34.860 Y-85.836 Z-0.200 I-5.537 J-2.409 K0.000 F150.000
G3 X34.477 Y-85.875 Z-0.200 I0.080 J-2.672 K0.000 F150.000
G3 X34.400 Y-89.983 Z-0.200 I21.697 J-2.462 K0.000 F150.000
G2 X34.569 Y-93.086 Z-0.200 I-67.127 J-5.211 K0.000 F150.000
G1 X34.669 Y-93.071 Z-0.200 F150.000
G2 X34.659 Y-92.370 Z-0.200 I5218.211 J75.658 K0.000 F150.000
G0 Z2.000
G0 X34.504 Y-89.700 Z2.000
G0 X34.504 Y-89.700 Z1.000
G1 X34.504 Y-89.700 Z-0.200 F50.000
G3 X34.495 Y-89.071 Z-0.200 I-2908.886 J-40.203 K0.000 F150.000
G3 X34.467 Y-87.430 Z-0.200 I-215.100 J-2.901 K0.000 F150.000
G3 X34.504 Y-89.700 Z-0.200 I24.023 J-0.742 K0.000 F150.000
G0 Z2.000
G0 X34.523 Y-86.457 Z2.000
G0 X34.523 Y-86.457 Z1.000
G1 X34.523 Y-86.457 Z-0.200 F50.000
G2 X34.857 Y-86.106 Z-0.200 I0.510 J-0.151 K0.000 F150.000
G3 X34.788 Y-85.961 Z-0.200 I-2.943 J-1.322 K0.000 F150.000
G3 X34.583 Y-85.981 Z-0.200 I0.049 J-1.548 K0.000 F150.000
G3 X34.523 Y-86.457 Z-0.200 I4.124 J-0.766 K0.000 F150.000
G0 Z2.000
G0 X34.599 Y-86.241 Z2.000
G0 X34.599 Y-86.241 Z1.000
G1 X34.599 Y-86.241 Z-0.200 F50.000
G2 X34.791 Y-86.083 Z-0.200 I0.340 J-0.218 K0.000 F150.000
G3 X34.690 Y-86.017 Z-0.200 I-0.064 J0.012 K0.000 F150.000
G1 X34.628 Y-86.025 Z-0.200 F150.000
G1 X34.599 Y-86.241 Z-0.200 F150.000
G0 Z2.000
G0 X34.668 Y-86.103 Z2.000
G0 X34.668 Y-86.103 Z1.000
G1 X34.668 Y-86.103 Z-0.200 F50.000
G2 X34.716 Y-86.065 Z-0.200 I0.082 J-0.055 K0.000 F150.000
G3 X34.668 Y-86.103 Z-0.200 I-0.020 J-0.024 K0.000 F150.000
G0 Z2.000
G0 Z2.000
G0 X34.668 Y-86.103
G0 X32.551 Y-86.048
G0 X32.551 Y-86.048 Z1.000
G1 X32.551 Y-86.048 Z-0.200 F50.000
G3 X32.553 Y-85.838 Z-0.200 I-7.540 J0.195 K0.000 F150.000
G3 X32.464 Y-85.754 Z-0.200 I-0.159 J-0.079 K0.000 F150.000
G3 X29.909 Y-85.973 Z-0.200 I2.393 J-42.770 K0.000 F150.000
G3 X28.590 Y-86.208 Z-0.200 I-0.011 J-3.766 K0.000 F150.000
G3 X28.433 Y-86.498 Z-0.200 I0.201 J-0.295 K0.000 F150.000
G3 X28.480 Y-89.802 Z-0.200 I24.382 J-1.308 K0.000 F150.000
G2 X28.380 Y-93.805 Z-0.200 I-27.895 J-1.304 K0.000 F150.000
G3 X28.426 Y-94.233 Z-0.200 I0.731 J-0.138 K0.000 F150.000
G3 X28.796 Y-94.270 Z-0.200 I0.236 J0.481 K0.000 F150.000
G1 X29.239 Y-94.233 Z-0.200 F150.000
G3 X32.148 Y-93.779 Z-0.200 I-0.937 J15.566 K0.000 F150.000
G3 X32.576 Y-93.212 Z-0.200 I-0.196 J0.593 K0.000 F150.000
G3 X32.681 Y-91.807 Z-0.200 I-4.861 J1.072 K0.000 F150.000
G2 X32.596 Y-89.702 Z-0.200 I40.683 J2.698 K0.000 F150.000
G3 X31.886 Y-89.472 Z-0.200 I-0.590 J-0.613 K0.000 F150.000
G3 X30.806 Y-89.621 Z-0.200 I0.036 J-4.260 K0.000 F150.000
G3 X30.628 Y-90.043 Z-0.200 I0.259 J-0.359 K0.000 F150.000
G3 X31.137 Y-90.154 Z-0.200 I0.387 J0.553 K0.000 F150.000
G1 X31.320 Y-90.137 Z-0.200 F150.000
G1 X31.320 Y-90.137 Z-0.200 F150.000
G2 X31.688 Y-90.345 Z-0.200 I0.105 J-0.244 K0.000 F150.000
G2 X31.720 Y-91.887 Z-0.200 I-5.746 J-0.889 K0.000 F150.000
G2 X31.597 Y-93.464 Z-0.200 I-12.912 J0.208 K0.000 F150.000
G2 X31.173 Y-93.757 Z-0.200 I-0.503 J0.273 K0.000 F150.000
G2 X29.587 Y-93.947 Z-0.200 I-11.304 J87.777 K0.000 F150.000
G2 X29.457 Y-93.638 Z-0.200 I0.061 J0.207 K0.000 F150.000
G3 X29.599 Y-90.223 Z-0.200 I-26.531 J2.811 K0.000 F150.000
G2 X29.481 Y-86.768 Z-0.200 I79.472 J4.447 K0.000 F150.000
G2 X29.545 Y-86.401 Z-0.200 I0.523 J0.098 K0.000 F150.000
G2 X31.364 Y-86.124 Z-0.200 I1.852 J-6.050 K0.000 F150.000
G2 X31.442 Y-86.454 Z-0.200 I-0.221 J-0.227 K0.000 F150.000
G3 X31.391 Y-87.023 Z-0.200 I24.228 J-2.473 K0.000 F150.000
G3 X32.478 Y-86.914 Z-0.200 I0.332 J2.183 K0.000 F150.000
G3 X32.551 Y-86.048 Z-0.200 I-7.467 J1.061 K0.000 F150.000
G0 Z2.000
G0 X32.433 Y-86.046 Z2.000
G0 X32.433 Y-86.046 Z1.000
G1 X32.433 Y-86.046 Z-0.200 F50.000
G3 X32.432 Y-85.874 Z-0.200 I-5.951 J0.084 K0.000 F150.000
G3 X29.920 Y-86.093 Z-0.200 I2.540 J-43.708 K0.000 F150.000
G3 X28.614 Y-86.341 Z-0.200 I-0.065 J-3.216 K0.000 F150.000
G3 X28.510 Y-87.074 Z-0.200 I1.753 J-0.624 K0.000 F150.000
G3 X28.629 Y-91.105 Z-0.200 I1819.346 J51.817 K0.000 F150.000
G2 X28.500 Y-93.807 Z-0.200 I-71.633 J2.070 K0.000 F150.000
G3 X28.533 Y-94.155 Z-0.200 I0.400 J-0.137 K0.000 F150.000
G3 X29.227 Y-94.113 Z-0.200 I0.139 J3.502 K0.000 F150.000
G1 X29.658 Y-94.066 Z-0.200 F150.000
G2 X29.338 Y-93.629 Z-0.200 I-0.038 J0.308 K0.000 F150.000
G3 X29.479 Y-90.225 Z-0.200 I-26.428 J2.802 K0.000 F150.000
G2 X29.361 Y-86.765 Z-0.200 I78.877 J4.424 K0.000 F150.000
G2 X29.475 Y-86.304 Z-0.200 I0.580 J0.102 K0.000 F150.000
G2 X31.385 Y-86.006 Z-0.200 I1.885 J-5.810 K0.000 F150.000
G2 X31.561 Y-86.469 Z-0.200 I-0.164 J-0.327 K0.000 F150.000
G3 X31.520 Y-86.917 Z-0.200 I19.197 J-2.002 K0.000 F150.000
G3 X32.369 Y-86.831 Z-0.200 I0.202 J2.249 K0.000 F150.000
G3 X32.433 Y-86.046 Z-0.200 I-5.888 J0.868 K0.000 F150.000
G0 Z2.000
G0 X32.316 Y-86.041 Z2.000
G0 X32.316 Y-86.041 Z1.000
G1 X32.316 Y-86.041 Z-0.200 F50.000
G3 X32.318 Y-85.996 Z-0.200 I-11.677 J0.579 K0.000 F150.000
G3 X31.613 Y-86.028 Z-0.200 I0.024 J-8.386 K0.000 F150.000
G2 X31.666 Y-86.627 Z-0.200 I-0.741 J-0.367 K0.000 F150.000
G1 X31.650 Y-86.802 Z-0.200 F150.000
G3 X31.992 Y-86.789 Z-0.200 I0.073 J2.543 K0.000 F150.000
G3 X32.259 Y-86.745 Z-0.200 I-0.118 J1.542 K0.000 F150.000
G3 X32.316 Y-86.041 Z-0.200 I-11.621 J1.283 K0.000 F150.000
G0 Z2.000
G0 X32.192 Y-86.118 Z2.000
G0 X32.192 Y-86.118 Z1.000
G1 X32.192 Y-86.118 Z-0.200 F50.000
G3 X31.794 Y-86.135 Z-0.200 I0.024 J-5.401 K0.000 F150.000
G2 X31.781 Y-86.682 Z-0.200 I-1.640 J-0.237 K0.000 F150.000
G3 X32.150 Y-86.641 Z-0.200 I-0.022 J1.891 K0.000 F150.000
G3 X32.192 Y-86.118 Z-0.200 I-12.757 J1.287 K0.000 F150.000
G0 Z2.000
G0 X32.063 Y-86.243 Z2.000
G0 X32.063 Y-86.243 Z1.000
G1 X32.063 Y-86.243 Z-0.200 F50.000
G1 X31.934 Y-86.248 Z-0.200 F150.000
G2 X31.915 Y-86.553 Z-0.200 I-1.356 J-0.065 K0.000 F150.000
G3 X32.039 Y-86.538 Z-0.200 I-0.020 J0.663 K0.000 F150.000
G3 X32.063 Y-86.243 Z-0.200 I-9.072 J0.895 K0.000 F150.000
G0 Z2.000
G0 X32.009 Y-86.295 Z2.000
G0 X32.009 Y-86.295 Z1.000
G1 X32.009 Y-86.295 Z-0.200 F50.000
G1 X31.991 Y-86.296 Z-0.200 F150.000
G3 X31.992 Y-86.495 Z-0.200 I0.240 J-0.098 K0.000 F150.000
G3 X32.009 Y-86.295 Z-0.200 I-6.196 J0.629 K0.000 F150.000
G0 Z2.000
G0 X29.359 Y-86.267 Z2.000
G0 X29.359 Y-86.267 Z1.000
G1 X29.359 Y-86.267 Z-0.200 F50.000
G3 X28.707 Y-86.421 Z-0.200 I-0.003 J-1.448 K0.000 F150.000
G3 X28.632 Y-87.562 Z-0.200 I3.503 J-0.803 K0.000 F150.000
G2 X28.747 Y-91.552 Z-0.200 I-83.782 J-4.405 K0.000 F150.000
G2 X28.620 Y-93.809 Z-0.200 I-132.616 J6.342 K0.000 F150.000
G3 X28.621 Y-94.037 Z-0.200 I3.452 J-0.091 K0.000 F150.000
G3 X29.215 Y-93.994 Z-0.200 I-0.230 J7.237 K0.000 F150.000
G1 X29.276 Y-93.987 Z-0.200 F150.000
G2 X29.231 Y-93.460 Z-0.200 I0.732 J0.329 K0.000 F150.000
G3 X29.359 Y-90.227 Z-0.200 I-23.800 J2.562 K0.000 F150.000
G2 X29.241 Y-86.762 Z-0.200 I78.309 J4.402 K0.000 F150.000
G2 X29.359 Y-86.267 Z-0.200 I0.658 J0.104 K0.000 F150.000
G0 Z2.000
G0 X29.148 Y-86.417 Z2.000
G0 X29.148 Y-86.417 Z1.000
G1 X29.148 Y-86.417 Z-0.200 F50.000
G3 X28.807 Y-86.505 Z-0.200 I0.090 J-1.053 K0.000 F150.000
G3 X28.752 Y-87.560 Z-0.200 I3.681 J-0.721 K0.000 F150.000
G2 X28.867 Y-91.554 Z-0.200 I-83.766 J-4.404 K0.000 F150.000
G2 X28.740 Y-93.812 Z-0.200 I-130.589 J6.227 K0.000 F150.000
G1 X28.739 Y-93.912 Z-0.200 F150.000
G3 X29.102 Y-93.883 Z-0.200 I-0.222 J5.010 K0.000 F150.000
G2 X29.222 Y-91.980 Z-0.200 I22.789 J-0.479 K0.000 F150.000
G3 X29.123 Y-87.056 Z-0.200 I-91.702 J0.628 K0.000 F150.000
G2 X29.148 Y-86.417 Z-0.200 I2.597 J0.217 K0.000 F150.000
G0 Z2.000
G0 X29.007 Y-86.569 Z2.000
G0 X29.007 Y-86.569 Z1.000
G1 X29.007 Y-86.569 Z-0.200 F50.000
G3 X28.906 Y-86.595 Z-0.200 I0.026 J-0.313 K0.000 F150.000
G3 X28.984 Y-90.430 Z-0.200 I33.678 J-1.232 K0.000 F150.000
G2 X28.861 Y-93.783 Z-0.200 I-26.935 J-0.690 K0.000 F150.000
G1 X28.972 Y-93.774 Z-0.200 F150.000
G3 X29.040 Y-88.028 Z-0.200 I-33.533 J3.265 K0.000 F150.000
G2 X29.007 Y-86.569 Z-0.200 I12.618 J1.013 K0.000 F150.000
G0 Z2.000
G0 X28.954 Y-86.631 Z2.000
G0 X28.954 Y-86.631 Z1.000
G1 X28.954 Y-86.631 Z-0.200 F50.000
G1 X28.950 Y-86.632 Z-0.200 F150.000
G3 X29.037 Y-90.603 Z-0.200 I46.465 J-0.967 K0.000 F150.000
G2 X28.912 Y-93.728 Z-0.200 I-25.713 J-0.542 K0.000 F150.000
G1 X28.922 Y-93.728 Z-0.200 F150.000
G3 X29.002 Y-88.266 Z-0.200 I-31.719 J3.191 K0.000 F150.000
G2 X28.954 Y-86.631 Z-0.200 I18.609 J1.354 K0.000 F150.000
G0 Z2.000
G0 X30.869 Y-89.725 Z2.000
G0 X30.869 Y-89.725 Z1.000
G1 X30.869 Y-89.725 Z-0.200 F50.000
G3 X30.753 Y-89.995 Z-0.200 I0.149 J-0.224 K0.000 F150.000
G3 X31.309 Y-90.017 Z-0.200 I0.330 J1.295 K0.000 F150.000
G1 X31.309 Y-90.017 Z-0.200 F150.000
G2 X31.806 Y-90.323 Z-0.200 I0.131 J-0.344 K0.000 F150.000
G2 X31.839 Y-91.890 Z-0.200 I-5.893 J-0.910 K0.000 F150.000
G2 X31.704 Y-93.518 Z-0.200 I-11.846 J0.166 K0.000 F150.000
G2 X31.304 Y-93.842 Z-0.200 I-0.576 J0.303 K0.000 F150.000
G3 X32.312 Y-93.553 Z-0.200 I-0.095 J2.234 K0.000 F150.000
G3 X32.553 Y-92.579 Z-0.200 I-1.825 J0.968 K0.000 F150.000
G3 X32.489 Y-90.329 Z-0.200 I-68.783 J-0.810 K0.000 F150.000
G2 X32.478 Y-89.767 Z-0.200 I42.064 J1.158 K0.000 F150.000
G3 X31.896 Y-89.592 Z-0.200 I-0.467 J-0.496 K0.000 F150.000
G3 X30.869 Y-89.725 Z-0.200 I0.114 J-4.916 K0.000 F150.000
G0 Z2.000
G0 X30.933 Y-89.834 Z2.000
G0 X30.933 Y-89.834 Z1.000
G1 X30.933 Y-89.834 Z-0.200 F50.000
G3 X30.884 Y-89.906 Z-0.200 I0.284 J-0.243 K0.000 F150.000
G3 X31.297 Y-89.898 Z-0.200 I0.179 J1.481 K0.000 F150.000
G1 X31.297 Y-89.898 Z-0.200 F150.000
G2 X31.876 Y-90.180 Z-0.200 I0.150 J-0.427 K0.000 F150.000
G2 X31.967 Y-91.587 Z-0.200 I-3.571 J-0.939 K0.000 F150.000
G2 X31.852 Y-93.454 Z-0.200 I-18.040 J0.183 K0.000 F150.000
G2 X31.776 Y-93.632 Z-0.200 I-0.462 J0.092 K0.000 F150.000
G3 X32.273 Y-93.399 Z-0.200 I0.014 J0.618 K0.000 F150.000
G3 X32.442 Y-91.814 Z-0.200 I-3.880 J1.213 K0.000 F150.000
G2 X32.349 Y-89.825 Z-0.200 I81.310 J4.790 K0.000 F150.000
G3 X31.907 Y-89.711 Z-0.200 I-0.327 J-0.353 K0.000 F150.000
G3 X30.933 Y-89.834 Z-0.200 I0.056 J-4.367 K0.000 F150.000
G0 Z2.000
G0 X31.749 Y-89.849 Z2.000
G0 X31.749 Y-89.849 Z1.000
G1 X31.749 Y-89.849 Z-0.200 F50.000
G2 X32.099 Y-90.679 Z-0.200 I-0.673 J-0.773 K0.000 F150.000
G2 X31.972 Y-93.457 Z-0.200 I-24.092 J-0.290 K0.000 F150.000
G3 X32.225 Y-93.130 Z-0.200 I-0.036 J0.289 K0.000 F150.000
G3 X32.322 Y-91.818 Z-0.200 I-4.532 J0.992 K0.000 F150.000
G2 X32.240 Y-89.898 Z-0.200 I40.196 J2.670 K0.000 F150.000
G3 X31.918 Y-89.831 Z-0.200 I-0.223 J-0.263 K0.000 F150.000
G1 X31.749 Y-89.849 Z-0.200 F150.000
G0 Z2.000
G0 X32.010 Y-89.944 Z2.000
G0 X32.010 Y-89.944 Z1.000
G1 X32.010 Y-89.944 Z-0.200 F50.000
G2 X32.125 Y-90.170 Z-0.200 I-0.519 J-0.407 K0.000 F150.000
G2 X32.121 Y-89.965 Z-0.200 I15.418 J0.406 K0.000 F150.000
G3 X32.010 Y-89.944 Z-0.200 I-0.079 J-0.117 K0.000 F150.000
G0 Z2.000
G0 X32.201 Y-91.820 Z2.000
G0 X32.201 Y-91.820 Z1.000
G1 X32.201 Y-91.820 Z-0.200 F50.000
G2 X32.151 Y-92.888 Z-0.200 I-20.577 J0.431 K0.000 F150.000
G3 X32.201 Y-91.820 Z-0.200 I-5.268 J0.783 K0.000 F150.000
G0 Z2.000
G0 X30.738 Y-93.929 Z2.000
G0 X30.738 Y-93.929 Z1.000
G1 X30.738 Y-93.929 Z-0.200 F50.000
G3 X30.046 Y-94.023 Z-0.200 I2.131 J-18.275 K0.000 F150.000
G3 X30.738 Y-93.929 Z-0.200 I-1.362 J12.615 K0.000 F150.000
G0 Z2.000
G0 Z2.000
G0 X30.738 Y-93.929
G0 X26.988 Y-93.437
G0 X26.988 Y-93.437 Z1.000
G1 X26.988 Y-93.437 Z-0.200 F50.000
G3 X27.017 Y-91.118 Z-0.200 I-9.771 J1.282 K0.000 F150.000
G2 X26.995 Y-86.417 Z-0.200 I220.746 J3.377 K0.000 F150.000
G3 X26.045 Y-86.679 Z-0.200 I-0.308 J-0.737 K0.000 F150.000
G3 X26.032 Y-90.695 Z-0.200 I123.257 J-2.389 K0.000 F150.000
G2 X25.788 Y-90.824 Z-0.200 I-0.235 J0.149 K0.000 F150.000
G2 X24.167 Y-91.076 Z-0.200 I-3.696 J18.467 K0.000 F150.000
G2 X23.962 Y-90.645 Z-0.200 I0.262 J0.390 K0.000 F150.000
G2 X24.039 Y-89.362 Z-0.200 I7.883 J0.170 K0.000 F150.000
G3 X23.999 Y-86.888 Z-0.200 I-26.414 J0.816 K0.000 F150.000
G3 X23.034 Y-87.044 Z-0.200 I-0.404 J-0.564 K0.000 F150.000
G3 X23.064 Y-91.410 Z-0.200 I217.548 J-0.673 K0.000 F150.000
G3 X23.815 Y-91.594 Z-0.200 I0.664 J1.093 K0.000 F150.000
G3 X25.441 Y-91.354 Z-0.200 I0.038 J5.373 K0.000 F150.000
G2 X25.910 Y-91.302 Z-0.200 I0.323 J-0.767 K0.000 F150.000
G2 X26.143 Y-91.872 Z-0.200 I-0.669 J-0.606 K0.000 F150.000
G2 X25.880 Y-94.084 Z-0.200 I-6.130 J-0.393 K0.000 F150.000
G2 X25.440 Y-94.200 Z-0.200 I-0.460 J0.854 K0.000 F150.000
G2 X24.249 Y-94.354 Z-0.200 I-1.114 J3.938 K0.000 F150.000
G2 X23.958 Y-94.230 Z-0.200 I-0.052 J0.280 K0.000 F150.000
G2 X23.941 Y-93.371 Z-0.200 I4.731 J0.526 K0.000 F150.000
G3 X23.602 Y-93.222 Z-0.200 I-0.269 J-0.153 K0.000 F150.000
G3 X23.123 Y-93.544 Z-0.200 I-0.089 J-0.386 K0.000 F150.000
G3 X23.100 Y-94.892 Z-0.200 I2.793 J-0.722 K0.000 F150.000
G3 X23.377 Y-94.972 Z-0.200 I0.186 J0.128 K0.000 F150.000
G1 X23.483 Y-94.966 Z-0.200 F150.000
G2 X25.225 Y-94.772 Z-0.200 I13.606 J-114.333 K0.000 F150.000
G3 X26.436 Y-94.462 Z-0.200 I-0.256 J3.523 K0.000 F150.000
G3 X26.952 Y-93.681 Z-0.200 I-0.372 J0.807 K0.000 F150.000
G3 X26.988 Y-93.437 Z-0.200 I-9.736 J1.526 K0.000 F150.000
G0 Z2.000
G0 X26.869 Y-93.421 Z2.000
G0 X26.869 Y-93.421 Z1.000
G1 X26.869 Y-93.421 Z-0.200 F50.000
G3 X26.897 Y-91.121 Z-0.200 I-9.681 J1.268 K0.000 F150.000
G2 X26.875 Y-86.506 Z-0.200 I217.002 J3.326 K0.000 F150.000
G3 X26.162 Y-86.733 Z-0.200 I-0.216 J-0.554 K0.000 F150.000
G3 X26.152 Y-90.695 Z-0.200 I152.666 J-2.357 K0.000 F150.000
G2 X25.874 Y-90.930 Z-0.200 I-0.300 J0.073 K0.000 F150.000
G2 X24.172 Y-91.196 Z-0.200 I-3.832 J18.997 K0.000 F150.000
G2 X23.857 Y-90.786 Z-0.200 I0.086 J0.392 K0.000 F150.000
G2 X23.919 Y-89.355 Z-0.200 I5.423 J0.484 K0.000 F150.000
G3 X23.878 Y-86.933 Z-0.200 I-26.575 J0.759 K0.000 F150.000
G3 X23.154 Y-87.082 Z-0.200 I-0.261 J-0.565 K0.000 F150.000
G3 X23.179 Y-91.347 Z-0.200 I313.768 J-0.264 K0.000 F150.000
G3 X24.327 Y-91.456 Z-0.200 I0.775 J2.063 K0.000 F150.000
G2 X25.896 Y-91.175 Z-0.200 I2.771 J-10.943 K0.000 F150.000
G2 X26.083 Y-91.303 Z-0.200 I-0.021 J-0.231 K0.000 F150.000
G2 X26.282 Y-92.453 Z-0.200 I-1.939 J-0.927 K0.000 F150.000
G2 X25.982 Y-94.147 Z-0.200 I-6.110 J0.208 K0.000 F150.000
G2 X25.461 Y-94.318 Z-0.200 I-0.531 J0.740 K0.000 F150.000
G2 X24.226 Y-94.472 Z-0.200 I-1.116 J3.926 K0.000 F150.000
G2 X23.806 Y-93.997 Z-0.200 I-0.037 J0.390 K0.000 F150.000
G3 X23.822 Y-93.401 Z-0.200 I-10.088 J0.575 K0.000 F150.000
G3 X23.300 Y-93.425 Z-0.200 I-0.241 J-0.460 K0.000 F150.000
G3 X23.241 Y-93.566 Z-0.200 I0.258 J-0.191 K0.000 F150.000
G3 X23.213 Y-94.850 Z-0.200 I2.694 J-0.700 K0.000 F150.000
G3 X23.475 Y-94.846 Z-0.200 I0.113 J1.368 K0.000 F150.000
G2 X25.208 Y-94.653 Z-0.200 I13.262 J-111.214 K0.000 F150.000
G3 X26.377 Y-94.357 Z-0.200 I-0.244 J3.427 K0.000 F150.000
G3 X26.835 Y-93.654 Z-0.200 I-0.318 J0.708 K0.000 F150.000
G3 X26.869 Y-93.421 Z-0.200 I-9.648 J1.501 K0.000 F150.000
G0 Z2.000
G0 X26.742 Y-93.398 Z2.000
G0 X26.742 Y-93.398 Z1.000
G1 X26.742 Y-93.398 Z-0.200 F50.000
G3 X26.805 Y-91.702 Z-0.200 I-5.948 J1.070 K0.000 F150.000
G2 X26.754 Y-86.600 Z-0.200 I86.628 J3.413 K0.000 F150.000
G3 X26.282 Y-86.750 Z-0.200 I-0.083 J-0.557 K0.000 F150.000
G3 X26.272 Y-90.695 Z-0.200 I156.615 J-2.343 K0.000 F150.000
G2 X25.872 Y-91.053 Z-0.200 I-0.434 J0.083 K0.000 F150.000
G2 X26.191 Y-91.250 Z-0.200 I-0.015 J-0.380 K0.000 F150.000
G2 X26.389 Y-92.669 Z-0.200 I-2.235 J-1.035 K0.000 F150.000
G2 X26.084 Y-94.211 Z-0.200 I-5.254 J0.240 K0.000 F150.000
G2 X25.483 Y-94.436 Z-0.200 I-0.623 J0.745 K0.000 F150.000
G2 X24.203 Y-94.590 Z-0.200 I-1.121 J3.936 K0.000 F150.000
G2 X23.686 Y-93.993 Z-0.200 I-0.018 J0.506 K0.000 F150.000
G3 X23.698 Y-93.462 Z-0.200 I-1.664 J0.304 K0.000 F150.000
G3 X23.366 Y-93.559 Z-0.200 I-0.093 J-0.302 K0.000 F150.000
G3 X23.313 Y-94.733 Z-0.200 I2.825 J-0.715 K0.000 F150.000
G3 X25.884 Y-94.403 Z-0.200 I-3.098 J34.309 K0.000 F150.000
G3 X26.591 Y-94.035 Z-0.200 I-0.164 J1.178 K0.000 F150.000
G3 X26.742 Y-93.398 Z-0.200 I-5.798 J1.707 K0.000 F150.000
G0 Z2.000
G0 X26.626 Y-93.380 Z2.000
G0 X26.626 Y-93.380 Z1.000
G1 X26.626 Y-93.380 Z-0.200 F50.000
G3 X26.669 Y-91.402 Z-0.200 I-7.360 J1.148 K0.000 F150.000
G2 X26.636 Y-86.724 Z-0.200 I103.253 J3.077 K0.000 F150.000
G3 X26.400 Y-86.805 Z-0.200 I0.007 J-0.402 K0.000 F150.000
G3 X26.392 Y-90.695 Z-0.200 I177.527 J-2.304 K0.000 F150.000
G2 X26.190 Y-91.066 Z-0.200 I-0.378 J-0.034 K0.000 F150.000
G2 X26.502 Y-91.853 Z-0.200 I-0.994 J-0.850 K0.000 F150.000
G2 X26.243 Y-94.156 Z-0.200 I-6.959 J-0.384 K0.000 F150.000
G3 X26.540 Y-93.839 Z-0.200 I-0.107 J0.398 K0.000 F150.000
G3 X26.626 Y-93.380 Z-0.200 I-7.274 J1.607 K0.000 F150.000
G0 Z2.000
G0 X26.553 Y-91.486 Z2.000
G0 X26.553 Y-91.486 Z1.000
G1 X26.553 Y-91.486 Z-0.200 F50.000
G2 X26.516 Y-87.049 Z-0.200 I89.208 J2.958 K0.000 F150.000
G3 X26.512 Y-90.695 Z-0.200 I384.144 J-2.268 K0.000 F150.000
G2 X26.361 Y-91.086 Z-0.200 I-0.580 J0.000 K0.000 F150.000
G1 X26.359 Y-91.088 Z-0.200 F150.000
G2 X26.553 Y-91.486 Z-0.200 I-0.962 J-0.717 K0.000 F150.000
G0 Z2.000
G0 X26.489 Y-91.199 Z2.000
G0 X26.489 Y-91.199 Z1.000
G1 X26.489 Y-91.199 Z-0.200 F50.000
G2 X26.484 Y-90.980 Z-0.200 I9.267 J0.322 K0.000 F150.000
G1 X26.422 Y-91.088 Z-0.200 F150.000
G2 X26.489 Y-91.199 Z-0.200 I-0.175 J-0.182 K0.000 F150.000
G0 Z2.000
G0 X24.857 Y-91.232 Z2.000
G0 X24.857 Y-91.232 Z1.000
G1 X24.857 Y-91.232 Z-0.200 F50.000
G2 X24.017 Y-91.283 Z-0.200 I-0.544 J2.002 K0.000 F150.000
G2 X23.718 Y-90.553 Z-0.200 I0.534 J0.646 K0.000 F150.000
G2 X23.799 Y-89.349 Z-0.200 I9.116 J-0.007 K0.000 F150.000
G3 X23.761 Y-87.010 Z-0.200 I-24.629 J0.769 K0.000 F150.000
G3 X23.274 Y-87.133 Z-0.200 I-0.152 J-0.424 K0.000 F150.000
G3 X23.279 Y-88.501 Z-0.200 I590.800 J1.380 K0.000 F150.000
G3 X23.297 Y-91.280 Z-0.200 I150.679 J-0.424 K0.000 F150.000
G3 X24.310 Y-91.337 Z-0.200 I0.669 J2.852 K0.000 F150.000
G3 X24.857 Y-91.232 Z-0.200 I-1.358 J8.525 K0.000 F150.000
G0 Z2.000
G0 X23.779 Y-91.232 Z2.000
G0 X23.779 Y-91.232 Z1.000
G1 X23.779 Y-91.232 Z-0.200 F50.000
G2 X23.613 Y-90.039 Z-0.200 I1.731 J0.850 K0.000 F150.000
G3 X23.672 Y-87.971 Z-0.200 I-10.319 J1.330 K0.000 F150.000
G3 X23.657 Y-87.120 Z-0.200 I-39.418 J-0.248 K0.000 F150.000
G3 X23.394 Y-87.183 Z-0.200 I-0.079 J-0.252 K0.000 F150.000
G3 X23.400 Y-88.707 Z-0.200 I884.903 J2.460 K0.000 F150.000
G3 X23.415 Y-91.190 Z-0.200 I176.373 J-0.185 K0.000 F150.000
G3 X23.779 Y-91.232 Z-0.200 I0.338 J1.337 K0.000 F150.000
G0 Z2.000
G0 X23.571 Y-91.101 Z2.000
G0 X23.571 Y-91.101 Z1.000
G1 X23.571 Y-91.101 Z-0.200 F50.000
G2 X23.532 Y-90.969 Z-0.200 I0.834 J0.318 K0.000 F150.000
G3 X23.533 Y-91.097 Z-0.200 I17.842 J0.146 K0.000 F150.000
G3 X23.571 Y-91.101 Z-0.200 I0.068 J0.513 K0.000 F150.000
G0 Z2.000
G0 X23.524 Y-89.665 Z2.000
G0 X23.524 Y-89.665 Z1.000
G1 X23.524 Y-89.665 Z-0.200 F50.000
G3 X23.547 Y-87.568 Z-0.200 I-31.371 J1.391 K0.000 F150.000
G3 X23.541 Y-87.252 Z-0.200 I-22.632 J-0.290 K0.000 F150.000
G1 X23.514 Y-87.260 Z-0.200 F150.000
G3 X23.524 Y-89.665 Z-0.200 I1338.909 J4.144 K0.000 F150.000
G0 Z2.000
G0 X23.534 Y-93.561 Z2.000
G0 X23.534 Y-93.561 Z1.000
G1 X23.534 Y-93.561 Z-0.200 F50.000
G3 X23.477 Y-93.609 Z-0.200 I0.000 J-0.058 K0.000 F150.000
G3 X23.397 Y-94.424 Z-0.200 I3.177 J-0.725 K0.000 F150.000
G1 X23.419 Y-94.609 Z-0.200 F150.000
G3 X23.789 Y-94.574 Z-0.200 I-0.274 J4.869 K0.000 F150.000
G2 X23.571 Y-93.808 Z-0.200 I0.592 J0.582 K0.000 F150.000
G1 X23.579 Y-93.584 Z-0.200 F150.000
G3 X23.534 Y-93.561 Z-0.200 I-0.045 J-0.035 K0.000 F150.000
G0 Z2.000
G0 X23.517 Y-94.409 Z2.000
G0 X23.517 Y-94.409 Z1.000
G1 X23.517 Y-94.409 Z-0.200 F50.000
G3 X23.567 Y-94.478 Z-0.200 I0.026 J-0.034 K0.000 F150.000
G1 X23.517 Y-94.409 Z-0.200 F150.000
G0 Z2.000
G0 Z2.000
G0 X23.517 Y-94.409
G0 X24.754 Y-79.793
G0 X24.754 Y-79.793 Z1.000
G1 X24.754 Y-79.793 Z-0.200 F50.000
G3 X25.519 Y-79.833 Z-0.200 I306.822 J5875.196 K0.000 F150.000
G2 X25.603 Y-79.379 Z-0.200 I0.599 J0.123 K0.000 F150.000
G2 X26.003 Y-79.425 Z-0.200 I0.162 J-0.350 K0.000 F150.000
G3 X27.806 Y-80.072 Z-0.200 I4.354 J9.292 K0.000 F150.000
G3 X28.062 Y-79.518 Z-0.200 I-0.463 J0.550 K0.000 F150.000
G3 X27.881 Y-79.227 Z-0.200 I-0.732 J-0.253 K0.000 F150.000
G2 X26.766 Y-78.834 Z-0.200 I0.540 J3.315 K0.000 F150.000
G3 X25.913 Y-78.588 Z-0.200 I-1.021 J-1.937 K0.000 F150.000
G2 X25.778 Y-78.284 Z-0.200 I0.087 J0.221 K0.000 F150.000
G2 X25.968 Y-76.821 Z-0.200 I32.774 J-3.508 K0.000 F150.000
G2 X26.325 Y-76.706 Z-0.200 I0.223 J-0.081 K0.000 F150.000
G2 X27.324 Y-77.182 Z-0.200 I-0.305 J-1.929 K0.000 F150.000
G3 X28.452 Y-77.747 Z-0.200 I5.307 J9.188 K0.000 F150.000
G3 X28.672 Y-77.492 Z-0.200 I-0.265 J0.451 K0.000 F150.000
G3 X28.108 Y-76.994 Z-0.200 I-0.884 J-0.434 K0.000 F150.000
G3 X26.863 Y-76.295 Z-0.200 I-3.140 J-4.136 K0.000 F150.000
G2 X26.556 Y-76.010 Z-0.200 I-0.025 J0.281 K0.000 F150.000
G3 X26.741 Y-75.454 Z-0.200 I-21.955 J7.617 K0.000 F150.000
