(Exported by FreeCAD)
(Post Processor: grbl_post)
(Output Time:2023-01-30 20:26:49.652183)
(Begin preamble)
G17 G90
G21
(Begin operation: G54)
(Path: G54)
G54
G0 Z5.000
(Finish operation: G54)
(Begin operation: ballend-020mm001)
(Path: ballend-020mm001)
(ballend-020mm001)
(Begin toolchange)
( M6 T2 )
M3 S10000
(Finish operation: ballend-020mm001)
(Begin operation: Pocket_Shape)
(Path: Pocket_Shape)
(Pocket_Shape)
G0 Z1.000
G0 X7.641 Y-24.992
G0 Z0.500
G1 X7.641 Y-24.992 Z-0.200 F100.000
G1 X7.515 Y-24.992 Z-0.200 F150.000
G1 X6.886 Y-26.675 Z-0.200 F150.000
G2 X6.699 Y-26.675 Z-0.200 I-0.094 J0.035 K0.000 F150.000
G1 X6.066 Y-24.992 Z-0.200 F150.000
G1 X5.940 Y-24.992 Z-0.200 F150.000
G1 X6.678 Y-26.873 Z-0.200 F150.000
G1 X6.907 Y-26.873 Z-0.200 F150.000
G1 X7.641 Y-24.992 Z-0.200 F150.000
G0 Z1.000
G0 X7.568 Y-25.042 Z1.000
G0 X7.568 Y-25.042 Z0.500
G1 X7.568 Y-25.042 Z-0.200 F100.000
G1 X7.550 Y-25.042 Z-0.200 F150.000
G1 X7.131 Y-26.161 Z-0.200 F150.000
G1 X7.568 Y-25.042 Z-0.200 F150.000
G0 Z1.000
G0 X6.222 Y-25.548 Z1.000
G0 X6.222 Y-25.548 Z0.500
G1 X6.222 Y-25.548 Z-0.200 F100.000
G1 X6.031 Y-25.042 Z-0.200 F150.000
G1 X6.013 Y-25.042 Z-0.200 F150.000
G1 X6.450 Y-26.154 Z-0.200 F150.000
G1 X6.222 Y-25.548 Z-0.200 F150.000
G0 Z1.000
G0 X6.665 Y-26.703 Z1.000
G0 X6.665 Y-26.703 Z0.500
G1 X6.665 Y-26.703 Z-0.200 F100.000
G1 X6.712 Y-26.823 Z-0.200 F150.000
G1 X6.873 Y-26.823 Z-0.200 F150.000
G1 X6.917 Y-26.711 Z-0.200 F150.000
G2 X6.665 Y-26.703 Z-0.200 I-0.125 J0.058 K0.000 F150.000
G0 Z1.000
G0 Z1.000
G0 X6.665 Y-26.703
G0 X8.090 Y-26.263
G0 X8.090 Y-26.263 Z0.500
G1 X8.090 Y-26.263 Z-0.200 F100.000
G3 X9.260 Y-26.872 Z-0.200 I0.885 J0.273 K0.000 F150.000
G3 X9.879 Y-25.643 Z-0.200 I-0.316 J0.929 K0.000 F150.000
G1 X9.801 Y-25.439 Z-0.200 F150.000
G3 X8.050 Y-25.931 Z-0.200 I-0.821 J-0.439 K0.000 F150.000
G3 X8.090 Y-26.263 Z-0.200 I0.925 J-0.059 K0.000 F150.000
G0 Z1.000
G0 X8.149 Y-26.244 Z1.000
G0 X8.149 Y-26.244 Z0.500
G1 X8.149 Y-26.244 Z-0.200 F100.000
G3 X8.342 Y-26.593 Z-0.200 I0.974 J0.311 K0.000 F150.000
G2 X8.368 Y-25.244 Z-0.200 I0.831 J0.659 K0.000 F150.000
G3 X8.149 Y-26.244 Z-0.200 I0.755 J-0.689 K0.000 F150.000
G0 Z1.000
G0 X8.201 Y-26.226 Z1.000
G0 X8.201 Y-26.226 Z0.500
G1 X8.201 Y-26.226 Z-0.200 F100.000
G3 X8.215 Y-26.265 Z-0.200 I0.880 J0.303 K0.000 F150.000
G3 X9.802 Y-25.942 Z-0.200 I0.773 J0.259 K0.000 F150.000
G3 X8.568 Y-25.147 Z-0.200 I-0.820 J0.083 K0.000 F150.000
G3 X8.201 Y-26.226 Z-0.200 I0.513 J-0.776 K0.000 F150.000
G0 Z1.000
G0 X9.605 Y-26.608 Z1.000
G0 X9.605 Y-26.608 Z0.500
G1 X9.605 Y-26.608 Z-0.200 F100.000
G3 X9.757 Y-25.463 Z-0.200 I-0.762 J0.683 K0.000 F150.000
G1 X9.638 Y-25.297 Z-0.200 F150.000
G2 X9.605 Y-26.608 Z-0.200 I-0.837 J-0.635 K0.000 F150.000
G0 Z1.000
G0 X9.614 Y-25.264 Z1.000
G0 X9.614 Y-25.264 Z0.500
G1 X9.614 Y-25.264 Z-0.200 F100.000
G3 X9.574 Y-25.228 Z-0.200 I-0.083 J-0.052 K0.000 F150.000
G1 X9.614 Y-25.264 Z-0.200 F150.000
G0 Z1.000
G0 Z1.000
G0 X9.614 Y-25.264
G0 X10.527
G0 X10.527 Z0.500
G1 X10.527 Y-25.264 Z-0.200 F100.000
G1 X10.527 Y-26.873 Z-0.200 F150.000
G1 X10.639 Y-26.873 Z-0.200 F150.000
G1 X10.639 Y-24.159 Z-0.200 F150.000
G1 X10.527 Y-24.159 Z-0.200 F150.000
G1 X10.527 Y-25.264 Z-0.200 F150.000
G0 Z1.000
G0 X10.577 Z1.000
G0 X10.577 Z0.500
G1 X10.577 Y-25.264 Z-0.200 F100.000
G1 X10.577 Y-26.823 Z-0.200 F150.000
G1 X10.589 Y-26.823 Z-0.200 F150.000
G1 X10.589 Y-24.209 Z-0.200 F150.000
G1 X10.577 Y-24.209 Z-0.200 F150.000
G1 X10.577 Y-25.264 Z-0.200 F150.000
G0 Z1.000
G0 Z1.000
G0 X10.577 Y-25.264
G0 X11.359
G0 X11.359 Z0.500
G1 X11.359 Y-25.264 Z-0.200 F100.000
G1 X11.359 Y-26.097 Z-0.200 F150.000
G3 X12.710 Y-26.579 Z-0.200 I0.737 J-0.070 K0.000 F150.000
G2 X12.883 Y-26.648 Z-0.200 I0.072 J-0.069 K0.000 F150.000
G1 X12.883 Y-26.873 Z-0.200 F150.000
G1 X12.995 Y-26.873 Z-0.200 F150.000
G1 X12.995 Y-24.992 Z-0.200 F150.000
G1 X12.883 Y-24.992 Z-0.200 F150.000
G1 X12.881 Y-26.107 Z-0.200 F150.000
G2 X11.495 Y-26.303 Z-0.200 I-0.706 J-0.006 K0.000 F150.000
G1 X11.471 Y-26.095 Z-0.200 F150.000
G1 X11.471 Y-24.992 Z-0.200 F150.000
G1 X11.359 Y-24.992 Z-0.200 F150.000
G1 X11.359 Y-25.264 Z-0.200 F150.000
G0 Z1.000
G0 X12.893 Y-26.387 Z1.000
G0 X12.893 Y-26.387 Z0.500
G1 X12.893 Y-26.387 Z-0.200 F100.000
G3 X12.915 Y-26.537 Z-0.200 I0.088 J-0.064 K0.000 F150.000
G1 X12.915 Y-26.364 Z-0.200 F150.000
G3 X12.893 Y-26.387 Z-0.200 I0.065 J-0.087 K0.000 F150.000
G0 Z1.000
G0 Z1.000
G0 X12.893 Y-26.387
G0 X13.736
G0 X13.736 Z0.500
G1 X13.736 Y-26.387 Z-0.200 F100.000
G1 X13.736 Y-26.873 Z-0.200 F150.000
G1 X13.849 Y-26.873 Z-0.200 F150.000
G1 X13.850 Y-25.713 Z-0.200 F150.000
G2 X13.981 Y-25.296 Z-0.200 I0.672 J0.018 K0.000 F150.000
G2 X13.849 Y-25.208 Z-0.200 I-0.039 J0.085 K0.000 F150.000
G1 X13.849 Y-24.992 Z-0.200 F150.000
G1 X13.736 Y-24.992 Z-0.200 F150.000
G1 X13.736 Y-26.387 Z-0.200 F150.000
G0 Z1.000
G0 X13.816 Y-25.439 Z1.000
G0 X13.816 Y-25.439 Z0.500
G1 X13.816 Y-25.439 Z-0.200 F100.000
G3 X13.816 Y-25.323 Z-0.200 I-0.011 J0.058 K0.000 F150.000
G1 X13.816 Y-25.439 Z-0.200 F150.000
G0 Z1.000
G0 X14.080 Y-25.199 Z1.000
G0 X14.080 Y-25.199 Z0.500
G1 X14.080 Y-25.199 Z-0.200 F100.000
G2 X15.126 Y-25.724 Z-0.200 I0.419 J-0.469 K0.000 F150.000
G1 X15.126 Y-26.873 Z-0.200 F150.000
G1 X15.239 Y-26.873 Z-0.200 F150.000
G1 X15.240 Y-25.713 Z-0.200 F150.000
G2 X16.494 Y-25.527 Z-0.200 I0.636 J0.034 K0.000 F150.000
G1 X16.517 Y-25.724 Z-0.200 F150.000
G1 X16.517 Y-26.873 Z-0.200 F150.000
G1 X16.629 Y-26.873 Z-0.200 F150.000
G1 X16.629 Y-25.722 Z-0.200 F150.000
G3 X15.323 Y-25.339 Z-0.200 I-0.688 J0.074 K0.000 F150.000
G2 X15.160 Y-25.335 Z-0.200 I-0.080 J0.060 K0.000 F150.000
G3 X14.080 Y-25.199 Z-0.200 I-0.581 J-0.261 K0.000 F150.000
G0 Z1.000
G0 X15.141 Y-25.416 Z1.000
G0 X15.141 Y-25.416 Z0.500
G1 X15.141 Y-25.416 Z-0.200 F100.000
G2 X15.186 Y-25.539 Z-0.200 I-0.191 J-0.138 K0.000 F150.000
G2 X15.203 Y-25.449 Z-0.200 I0.275 J-0.007 K0.000 F150.000
G2 X15.141 Y-25.416 Z-0.200 I-0.008 J0.058 K0.000 F150.000
G0 Z1.000
G0 Z1.000
G0 X15.141 Y-25.416
G0 X17.231 Y-25.741
G0 X17.231 Y-25.741 Z0.500
G1 X17.231 Y-25.741 Z-0.200 F100.000
G3 X17.221 Y-25.930 Z-0.200 I0.921 J-0.143 K0.000 F150.000
G3 X18.963 Y-26.474 Z-0.200 I0.942 J-0.043 K0.000 F150.000
G3 X18.789 Y-26.541 Z-0.200 I-0.064 J-0.092 K0.000 F150.000
G2 X17.356 Y-26.005 Z-0.200 I-0.621 J0.523 K0.000 F150.000
G1 X17.441 Y-25.957 Z-0.200 F150.000
G1 X19.085 Y-25.957 Z-0.200 F150.000
G3 X19.017 Y-25.539 Z-0.200 I-1.102 J0.034 K0.000 F150.000
G3 X17.231 Y-25.741 Z-0.200 I-0.865 J-0.346 K0.000 F150.000
G0 Z1.000
G0 X17.346 Y-25.754 Z1.000
G0 X17.346 Y-25.754 Z0.500
G1 X17.346 Y-25.754 Z-0.200 F100.000
G3 X17.445 Y-25.866 Z-0.200 I0.099 J-0.012 K0.000 F150.000
G1 X18.860 Y-25.866 Z-0.200 F150.000
G1 X18.946 Y-25.817 Z-0.200 F150.000
G3 X17.350 Y-25.735 Z-0.200 I-0.801 J-0.014 K0.000 F150.000
G3 X17.346 Y-25.754 Z-0.200 I0.095 J-0.031 K0.000 F150.000
G0 Z1.000
G0 X17.306 Y-25.867 Z1.000
G0 X17.306 Y-25.867 Z0.500
G1 X17.306 Y-25.867 Z-0.200 F100.000
G3 X17.304 Y-25.953 Z-0.200 I0.207 J-0.048 K0.000 F150.000
G1 X17.340 Y-25.912 Z-0.200 F150.000
G2 X17.306 Y-25.867 Z-0.200 I0.014 J0.046 K0.000 F150.000
G0 Z1.000
G0 X18.990 Y-25.877 Z1.000
G0 X18.990 Y-25.877 Z0.500
G1 X18.990 Y-25.877 Z-0.200 F100.000
G1 X18.997 Y-25.877 Z-0.200 F150.000
G1 X18.997 Y-25.870 Z-0.200 F150.000
G1 X18.990 Y-25.877 Z-0.200 F150.000
G0 Z1.000
G0 Z1.000
G0 X18.990 Y-25.877
G0 X45.716 Y-25.988
G0 X45.716 Y-25.988 Z0.500
G1 X45.716 Y-25.988 Z-0.200 F100.000
G3 X47.296 Y-26.536 Z-0.200 I0.884 J-0.004 K0.000 F150.000
G2 X47.471 Y-26.603 Z-0.200 I0.075 J-0.067 K0.000 F150.000
G2 X47.416 Y-27.220 Z-0.200 I-1.131 J-0.211 K0.000 F150.000
G2 X47.010 Y-27.603 Z-0.200 I-0.573 J0.201 K0.000 F150.000
G2 X46.228 Y-27.536 Z-0.200 I-0.319 J0.887 K0.000 F150.000
G2 X46.018 Y-27.323 Z-0.200 I0.205 J0.413 K0.000 F150.000
G1 X45.888 Y-27.323 Z-0.200 F150.000
G3 X46.700 Y-27.730 Z-0.200 I0.723 J0.429 K0.000 F150.000
G3 X47.226 Y-27.614 Z-0.200 I0.053 J1.019 K0.000 F150.000
G3 X47.583 Y-26.909 Z-0.200 I-0.397 J0.643 K0.000 F150.000
G1 X47.583 Y-24.992 Z-0.200 F150.000
G1 X47.471 Y-24.992 Z-0.200 F150.000
G2 X47.441 Y-25.295 Z-0.200 I-0.381 J-0.116 K0.000 F150.000
G2 X47.203 Y-25.179 Z-0.200 I-0.066 J0.167 K0.000 F150.000
G3 X45.719 Y-25.915 Z-0.200 I-0.592 J-0.669 K0.000 F150.000
G3 X45.716 Y-25.988 Z-0.200 I0.880 J-0.077 K0.000 F150.000
G0 Z1.000
G0 X45.819 Y-25.982 Z1.000
G0 X45.819 Y-25.982 Z0.500
G1 X45.819 Y-25.982 Z-0.200 F100.000
G3 X46.209 Y-26.664 Z-0.200 I0.885 J0.054 K0.000 F150.000
G3 X47.383 Y-26.363 Z-0.200 I0.449 J0.691 K0.000 F150.000
G3 X46.682 Y-25.042 Z-0.200 I-0.755 J0.446 K0.000 F150.000
G3 X45.819 Y-25.982 Z-0.200 I0.021 J-0.886 K0.000 F150.000
G0 Z1.000
G0 X47.429 Y-26.436 Z1.000
G0 X47.429 Y-26.436 Z0.500
G1 X47.429 Y-26.436 Z-0.200 F100.000
G2 X47.503 Y-26.491 Z-0.200 I-0.000 J-0.079 K0.000 F150.000
G1 X47.503 Y-26.265 Z-0.200 F150.000
G2 X47.429 Y-26.436 Z-0.200 I-0.354 J0.052 K0.000 F150.000
G0 Z1.000
G0 X47.503 Y-25.572 Z1.000
G0 X47.503 Y-25.572 Z0.500
G1 X47.503 Y-25.572 Z-0.200 F100.000
G1 X47.503 Y-25.340 Z-0.200 F150.000
G3 X47.471 Y-25.469 Z-0.200 I-0.011 J-0.066 K0.000 F150.000
G1 X47.503 Y-25.572 Z-0.200 F150.000
G0 Z1.000
G0 Z1.000
G0 X47.503 Y-25.572
G0 X48.206 Y-25.697
G0 X48.206 Y-25.697 Z0.500
G1 X48.206 Y-25.697 Z-0.200 F100.000
G3 X48.196 Y-25.931 Z-0.200 I0.880 J-0.156 K0.000 F150.000
G3 X49.494 Y-26.818 Z-0.200 I0.898 J-0.080 K0.000 F150.000
G3 X49.771 Y-26.576 Z-0.200 I-0.359 J0.687 K0.000 F150.000
G2 X49.948 Y-26.640 Z-0.200 I0.077 J-0.064 K0.000 F150.000
G1 X49.948 Y-26.873 Z-0.200 F150.000
G1 X50.060 Y-26.873 Z-0.200 F150.000
G1 X50.060 Y-24.992 Z-0.200 F150.000
G1 X49.948 Y-24.992 Z-0.200 F150.000
G2 X49.918 Y-25.299 Z-0.200 I-0.386 J-0.118 K0.000 F150.000
G2 X49.693 Y-25.196 Z-0.200 I-0.066 J0.153 K0.000 F150.000
G3 X48.206 Y-25.697 Z-0.200 I-0.606 J-0.657 K0.000 F150.000
G0 Z1.000
G0 X48.324 Y-25.724 Z1.000
G0 X48.324 Y-25.724 Z0.500
G1 X48.324 Y-25.724 Z-0.200 F100.000
G3 X48.685 Y-26.692 Z-0.200 I0.915 J-0.210 K0.000 F150.000
G3 X49.964 Y-25.942 Z-0.200 I0.457 J0.686 K0.000 F150.000
G3 X48.740 Y-25.140 Z-0.200 I-0.821 J0.082 K0.000 F150.000
G3 X48.324 Y-25.724 Z-0.200 I0.499 J-0.795 K0.000 F150.000
G0 Z1.000
G0 X49.899 Y-25.429 Z1.000
G0 X49.899 Y-25.429 Z0.500
G1 X49.899 Y-25.429 Z-0.200 F100.000
G3 X49.953 Y-25.485 Z-0.200 I0.071 J0.013 K0.000 F150.000
G1 X49.980 Y-25.578 Z-0.200 F150.000
G1 X49.980 Y-25.344 Z-0.200 F150.000
G3 X49.899 Y-25.429 Z-0.200 I-0.010 J-0.071 K0.000 F150.000
G0 Z1.000
G0 X49.980 Y-26.290 Z1.000
G0 X49.980 Y-26.290 Z0.500
G1 X49.980 Y-26.290 Z-0.200 F100.000
G2 X49.899 Y-26.472 Z-0.200 I-0.365 J0.053 K0.000 F150.000
G2 X49.980 Y-26.527 Z-0.200 I0.002 J-0.083 K0.000 F150.000
G1 X49.980 Y-26.290 Z-0.200 F150.000
G0 Z1.000
G0 Z1.000
G0 X49.980 Y-26.290
G0 X50.801
G0 X50.801 Z0.500
G1 X50.801 Y-26.290 Z-0.200 F100.000
G1 X50.801 Y-26.873 Z-0.200 F150.000
G1 X50.913 Y-26.873 Z-0.200 F150.000
G1 X50.913 Y-24.992 Z-0.200 F150.000
G1 X50.801 Y-24.992 Z-0.200 F150.000
G1 X50.801 Y-26.290 Z-0.200 F150.000
G0 Z1.000
G0 X50.851 Z1.000
G0 X50.851 Z0.500
G1 X50.851 Y-26.290 Z-0.200 F100.000
G1 X50.851 Y-26.823 Z-0.200 F150.000
G1 X50.863 Y-26.823 Z-0.200 F150.000
G1 X50.863 Y-25.042 Z-0.200 F150.000
G1 X50.851 Y-25.042 Z-0.200 F150.000
G1 X50.851 Y-26.290 Z-0.200 F150.000
G0 Z1.000
G0 Z1.000
G0 X50.851 Y-26.290
G0 Y-24.442
G0 Y-24.442 Z0.500
G1 X50.851 Y-24.442 Z-0.200 F100.000
G1 X50.926 Y-24.442 Z-0.200 F150.000
G1 X50.926 Y-24.234 Z-0.200 F150.000
G1 X50.788 Y-24.234 Z-0.200 F150.000
G1 X50.788 Y-24.442 Z-0.200 F150.000
G1 X50.851 Y-24.442 Z-0.200 F150.000
G0 Z1.000
G0 Y-24.392 Z1.000
G0 Y-24.392 Z0.500
G1 X50.851 Y-24.392 Z-0.200 F100.000
G1 X50.876 Y-24.392 Z-0.200 F150.000
G1 X50.876 Y-24.284 Z-0.200 F150.000
G1 X50.838 Y-24.284 Z-0.200 F150.000
G1 X50.838 Y-24.392 Z-0.200 F150.000
G1 X50.851 Y-24.392 Z-0.200 F150.000
G0 Z1.000
G0 Z1.000
G0 X50.851 Y-24.392
G0 X51.654 Y-24.992
G0 X51.654 Y-24.992 Z0.500
G1 X51.654 Y-24.992 Z-0.200 F100.000
G1 X51.654 Y-26.873 Z-0.200 F150.000
G1 X51.767 Y-26.873 Z-0.200 F150.000
G1 X51.767 Y-25.762 Z-0.200 F150.000
G2 X53.153 Y-25.554 Z-0.200 I0.706 J0.015 K0.000 F150.000
G1 X53.178 Y-25.770 Z-0.200 F150.000
G1 X53.178 Y-26.873 Z-0.200 F150.000
G1 X53.290 Y-26.873 Z-0.200 F150.000
G1 X53.290 Y-25.768 Z-0.200 F150.000
G3 X51.942 Y-25.281 Z-0.200 I-0.737 J0.070 K0.000 F150.000
G2 X51.767 Y-25.216 Z-0.200 I-0.076 J0.065 K0.000 F150.000
G1 X51.767 Y-24.992 Z-0.200 F150.000
G1 X51.654 Y-24.992 Z-0.200 F150.000
G0 Z1.000
G0 X51.734 Y-25.328 Z1.000
G0 X51.734 Y-25.328 Z0.500
G1 X51.734 Y-25.328 Z-0.200 F100.000
G1 X51.734 Y-25.500 Z-0.200 F150.000
G1 X51.790 Y-25.376 Z-0.200 F150.000
G1 X51.734 Y-25.328 Z-0.200 F150.000
G0 Z1.000
G0 Z1.000
G0 X51.734 Y-25.328
G0 X48.753 Y-54.197
G0 X48.753 Y-54.197 Z0.500
G1 X48.753 Y-54.197 Z-0.200 F100.000
G1 X48.641 Y-54.197 Z-0.200 F150.000
G1 X48.641 Y-56.912 Z-0.200 F150.000
G1 X48.753 Y-56.912 Z-0.200 F150.000
G1 X48.753 Y-54.197 Z-0.200 F150.000
G0 Z1.000
G0 X48.703 Y-54.247 Z1.000
G0 X48.703 Y-54.247 Z0.500
G1 X48.703 Y-54.247 Z-0.200 F100.000
G1 X48.691 Y-54.247 Z-0.200 F150.000
G1 X48.691 Y-56.862 Z-0.200 F150.000
G1 X48.703 Y-56.862 Z-0.200 F150.000
G1 X48.703 Y-54.247 Z-0.200 F150.000
G0 Z1.000
G0 Z1.000
G0 X48.703 Y-54.247
G0 X47.730 Y-55.254
G0 X47.730 Y-55.254 Z0.500
G1 X47.730 Y-55.254 Z-0.200 F100.000
G3 X47.389 Y-55.037 Z-0.200 I-0.701 J-0.726 K0.000 F150.000
G3 X46.257 Y-55.518 Z-0.200 I-0.300 J-0.866 K0.000 F150.000
G3 X46.810 Y-56.907 Z-0.200 I0.893 J-0.449 K0.000 F150.000
G3 X47.593 Y-56.817 Z-0.200 I0.287 J0.952 K0.000 F150.000
G3 X47.730 Y-55.254 Z-0.200 I-0.564 J0.837 K0.000 F150.000
G0 Z1.000
G0 X47.721 Y-55.296 Z1.000
G0 X47.721 Y-55.296 Z0.500
G1 X47.721 Y-55.296 Z-0.200 F100.000
G2 X47.719 Y-56.647 Z-0.200 I-0.806 J-0.675 K0.000 F150.000
G3 X47.721 Y-55.296 Z-0.200 I-0.753 J0.676 K0.000 F150.000
G0 Z1.000
G0 X47.686 Y-55.329 Z1.000
G0 X47.686 Y-55.329 Z0.500
G1 X47.686 Y-55.329 Z-0.200 F100.000
G3 X46.926 Y-55.095 Z-0.200 I-0.593 J-0.575 K0.000 F150.000
G3 X46.639 Y-56.728 Z-0.200 I0.271 J-0.889 K0.000 F150.000
G3 X47.916 Y-55.981 Z-0.200 I0.458 J0.683 K0.000 F150.000
G3 X47.686 Y-55.329 Z-0.200 I-0.822 J0.077 K0.000 F150.000
G0 Z1.000
G0 X46.517 Y-55.256 Z1.000
G0 X46.517 Y-55.256 Z0.500
G1 X46.517 Y-55.256 Z-0.200 F100.000
G3 X46.471 Y-55.296 Z-0.200 I0.046 J-0.100 K0.000 F150.000
G1 X46.517 Y-55.256 Z-0.200 F150.000
G0 Z1.000
G0 X46.406 Y-55.386 Z1.000
G0 X46.406 Y-55.386 Z0.500
G1 X46.406 Y-55.386 Z-0.200 F100.000
G3 X46.403 Y-56.556 Z-0.200 I0.806 J-0.587 K0.000 F150.000
G2 X46.406 Y-55.386 Z-0.200 I0.876 J0.583 K0.000 F150.000
G0 Z1.000
G0 X46.444 Y-56.614 Z1.000
G0 X46.444 Y-56.614 Z0.500
G1 X46.444 Y-56.614 Z-0.200 F100.000
G3 X46.538 Y-56.702 Z-0.200 I0.202 J0.122 K0.000 F150.000
G1 X46.444 Y-56.614 Z-0.200 F150.000
G0 Z1.000
G0 Z1.000
G0 X46.444 Y-56.614
G0 X45.649 Y-56.458
G0 X45.649 Y-56.458 Z0.500
G1 X45.649 Y-56.458 Z-0.200 F100.000
G3 X45.453 Y-56.584 Z-0.200 I-0.062 J-0.120 K0.000 F150.000
G2 X44.013 Y-55.957 Z-0.200 I-0.615 J0.555 K0.000 F150.000
G2 X45.465 Y-55.375 Z-0.200 I0.824 J0.046 K0.000 F150.000
G3 X45.649 Y-55.484 Z-0.200 I0.123 J-0.002 K0.000 F150.000
G3 X44.825 Y-54.998 Z-0.200 I-0.772 J-0.367 K0.000 F150.000
G3 X43.935 Y-56.258 Z-0.200 I0.016 J-0.956 K0.000 F150.000
G3 X45.106 Y-56.909 Z-0.200 I0.883 J0.209 K0.000 F150.000
G1 X45.255 Y-56.855 Z-0.200 F150.000
G3 X45.649 Y-56.458 Z-0.200 I-0.279 J0.671 K0.000 F150.000
G0 Z1.000
G0 X45.554 Y-56.508 Z1.000
G0 X45.554 Y-56.508 Z0.500
G1 X45.554 Y-56.508 Z-0.200 F100.000
G1 X45.502 Y-56.597 Z-0.200 F150.000
G3 X45.554 Y-56.508 Z-0.200 I-0.000 J0.060 K0.000 F150.000
G0 Z1.000
G0 X45.556 Y-55.434 Z1.000
G0 X45.556 Y-55.434 Z0.500
G1 X45.556 Y-55.434 Z-0.200 F100.000
G1 X45.571 Y-55.434 Z-0.200 F150.000
G3 X45.405 Y-55.246 Z-0.200 I-0.525 J-0.297 K0.000 F150.000
G2 X45.556 Y-55.434 Z-0.200 I-0.268 J-0.370 K0.000 F150.000
G0 Z1.000
G0 X44.557 Y-55.089 Z1.000
G0 X44.557 Y-55.089 Z0.500
G1 X44.557 Y-55.089 Z-0.200 F100.000
G3 X44.500 Y-55.106 Z-0.200 I-0.001 J-0.104 K0.000 F150.000
G1 X44.557 Y-55.089 Z-0.200 F150.000
G0 Z1.000
G0 X44.408 Y-55.149 Z1.000
G0 X44.408 Y-55.149 Z0.500
G1 X44.408 Y-55.149 Z-0.200 F100.000
G3 X44.017 Y-56.352 Z-0.200 I0.472 J-0.818 K0.000 F150.000
G3 X44.431 Y-56.804 Z-0.200 I0.745 J0.266 K0.000 F150.000
G2 X44.408 Y-55.149 Z-0.200 I0.510 J0.835 K0.000 F150.000
G0 Z1.000
G0 Z1.000
G0 X44.408 Y-55.149
G0 X49.372 Y-55.794
G0 X49.372 Y-55.794 Z0.500
G1 X49.372 Y-55.794 Z-0.200 F100.000
G3 X49.366 Y-55.969 Z-0.200 I0.919 J-0.119 K0.000 F150.000
G3 X50.794 Y-56.817 Z-0.200 I0.931 J-0.059 K0.000 F150.000
G3 X50.591 Y-55.037 Z-0.200 I-0.584 J0.835 K0.000 F150.000
G3 X49.372 Y-55.794 Z-0.200 I-0.300 J-0.876 K0.000 F150.000
G0 Z1.000
G0 X49.430 Y-55.804 Z1.000
G0 X49.430 Y-55.804 Z0.500
G1 X49.430 Y-55.804 Z-0.200 F100.000
G3 X49.658 Y-56.631 Z-0.200 I1.005 J-0.169 K0.000 F150.000
G2 X49.675 Y-55.294 Z-0.200 I0.828 J0.658 K0.000 F150.000
G3 X49.430 Y-55.804 Z-0.200 I0.760 J-0.679 K0.000 F150.000
G0 Z1.000
G0 X49.491 Y-55.814 Z1.000
G0 X49.491 Y-55.814 Z0.500
G1 X49.491 Y-55.814 Z-0.200 F100.000
G3 X49.841 Y-56.730 Z-0.200 I0.952 J-0.160 K0.000 F150.000
G3 X51.117 Y-55.981 Z-0.200 I0.456 J0.684 K0.000 F150.000
G3 X49.902 Y-55.175 Z-0.200 I-0.820 J0.083 K0.000 F150.000
G3 X49.491 Y-55.814 Z-0.200 I0.541 J-0.800 K0.000 F150.000
G0 Z1.000
G0 X50.922 Y-55.296 Z1.000
G0 X50.922 Y-55.296 Z0.500
G1 X50.922 Y-55.296 Z-0.200 F100.000
G2 X50.920 Y-56.647 Z-0.200 I-0.806 J-0.675 K0.000 F150.000
G3 X50.922 Y-55.296 Z-0.200 I-0.755 J0.676 K0.000 F150.000
G0 Z1.000
G0 Z1.000
G0 X50.922 Y-55.296
G0 X51.821
G0 X51.821 Z0.500
G1 X51.821 Y-55.296 Z-0.200 F100.000
G1 X51.821 Y-56.135 Z-0.200 F150.000
G3 X52.917 Y-56.855 Z-0.200 I0.735 J-0.075 K0.000 F150.000
G3 X53.169 Y-56.622 Z-0.200 I-0.513 J0.807 K0.000 F150.000
G2 X53.345 Y-56.686 Z-0.200 I0.076 J-0.065 K0.000 F150.000
G1 X53.345 Y-56.912 Z-0.200 F150.000
G1 X53.457 Y-56.912 Z-0.200 F150.000
G1 X53.457 Y-55.030 Z-0.200 F150.000
G1 X53.345 Y-55.030 Z-0.200 F150.000
G1 X53.343 Y-56.145 Z-0.200 F150.000
G2 X51.957 Y-56.342 Z-0.200 I-0.706 J-0.008 K0.000 F150.000
G1 X51.934 Y-56.133 Z-0.200 F150.000
G1 X51.934 Y-55.030 Z-0.200 F150.000
G1 X51.821 Y-55.030 Z-0.200 F150.000
G1 X51.821 Y-55.296 Z-0.200 F150.000
G0 Z1.000
G0 X53.354 Y-56.425 Z1.000
G0 X53.354 Y-56.425 Z0.500
G1 X53.354 Y-56.425 Z-0.200 F100.000
G3 X53.377 Y-56.574 Z-0.200 I0.086 J-0.063 K0.000 F150.000
G1 X53.377 Y-56.403 Z-0.200 F150.000
G3 X53.354 Y-56.425 Z-0.200 I0.063 J-0.086 K0.000 F150.000
G0 Z1.000
G0 Z1.000
G0 X53.354 Y-56.425
G0 X54.198
G0 X54.198 Z0.500
G1 X54.198 Y-56.425 Z-0.200 F100.000
G1 X54.198 Y-56.912 Z-0.200 F150.000
G1 X54.310 Y-56.912 Z-0.200 F150.000
G2 X54.352 Y-55.780 Z-0.200 I4.251 J0.410 K0.000 F150.000
G2 X54.491 Y-55.493 Z-0.200 I0.709 J-0.167 K0.000 F150.000
G2 X54.310 Y-55.442 Z-0.200 I-0.084 J0.049 K0.000 F150.000
G1 X54.310 Y-55.030 Z-0.200 F150.000
G1 X54.198 Y-55.030 Z-0.200 F150.000
G1 X54.198 Y-56.425 Z-0.200 F150.000
G0 Z1.000
G0 X54.278 Y-55.748 Z1.000
G0 X54.278 Y-55.748 Z0.500
G1 X54.278 Y-55.748 Z-0.200 F100.000
G2 X54.334 Y-55.596 Z-0.200 I0.791 J-0.207 K0.000 F150.000
G2 X54.278 Y-55.549 Z-0.200 I-0.002 J0.055 K0.000 F150.000
G1 X54.278 Y-55.748 Z-0.200 F150.000
G0 Z1.000
G0 X54.510 Y-55.463 Z1.000
G0 X54.510 Y-55.463 Z0.500
G1 X54.510 Y-55.463 Z-0.200 F100.000
G2 X55.097 Y-55.115 Z-0.200 I0.617 J-0.373 K0.000 F150.000
G1 X55.097 Y-55.004 Z-0.200 F150.000
G3 X54.510 Y-55.463 Z-0.200 I0.058 J-0.679 K0.000 F150.000
G0 Z1.000
G0 Z1.000
G0 X54.510 Y-55.463
G0 X52.194 Y-59.205
G0 X52.194 Y-59.205 Z0.500
G1 X52.194 Y-59.205 Z-0.200 F100.000
G3 X50.355 Y-59.154 Z-0.200 I-0.978 J-2.080 K0.000 F150.000
G3 X50.186 Y-59.687 Z-0.200 I0.771 J-0.538 K0.000 F150.000
G1 X50.135 Y-60.174 Z-0.200 F150.000
G1 X50.103 Y-60.239 Z-0.200 F150.000
G2 X48.240 Y-61.826 Z-0.200 I-13.270 J13.685 K0.000 F150.000
G2 X47.500 Y-62.097 Z-0.200 I-0.933 J1.401 K0.000 F150.000
G2 X45.702 Y-62.841 Z-0.200 I-53.297 J126.239 K0.000 F150.000
G3 X44.079 Y-63.401 Z-0.200 I2.100 J-8.722 K0.000 F150.000
G1 X43.118 Y-63.818 Z-0.200 F150.000
G1 X43.046 Y-63.821 Z-0.200 F150.000
G3 X41.243 Y-63.273 Z-0.200 I-4.494 J-11.541 K0.000 F150.000
G3 X40.567 Y-63.406 Z-0.200 I-0.229 J-0.622 K0.000 F150.000
G3 X40.261 Y-64.430 Z-0.200 I1.595 J-1.034 K0.000 F150.000
G3 X40.498 Y-66.525 Z-0.200 I3.762 J-0.636 K0.000 F150.000
G3 X40.933 Y-66.688 Z-0.200 I0.357 J0.290 K0.000 F150.000
G3 X41.821 Y-66.397 Z-0.200 I-0.096 J1.797 K0.000 F150.000
G2 X41.964 Y-66.510 Z-0.200 I0.046 J-0.089 K0.000 F150.000
G3 X41.900 Y-67.056 Z-0.200 I0.889 J-0.382 K0.000 F150.000
G3 X42.781 Y-67.659 Z-0.200 I2.689 J2.984 K0.000 F150.000
G2 X45.048 Y-70.360 Z-0.200 I-3.209 J-4.994 K0.000 F150.000
G2 X45.185 Y-71.831 Z-0.200 I-2.055 J-0.934 K0.000 F150.000
G2 X44.761 Y-72.005 Z-0.200 I-0.278 J0.074 K0.000 F150.000
G2 X42.828 Y-70.755 Z-0.200 I2.653 J6.222 K0.000 F150.000
G2 X38.130 Y-66.337 Z-0.200 I42.636 J50.050 K0.000 F150.000
G3 X36.891 Y-65.269 Z-0.200 I-4.529 J-4.000 K0.000 F150.000
G3 X36.557 Y-65.345 Z-0.200 I-0.092 J-0.366 K0.000 F150.000
G3 X36.583 Y-66.871 Z-0.200 I4.384 J-0.690 K0.000 F150.000
G3 X37.810 Y-68.581 Z-0.200 I6.564 J3.415 K0.000 F150.000
G3 X42.169 Y-72.594 Z-0.200 I18.697 J15.933 K0.000 F150.000
G2 X45.782 Y-76.158 Z-0.200 I-19.716 J-23.603 K0.000 F150.000
G2 X46.566 Y-77.895 Z-0.200 I-5.392 J-3.478 K0.000 F150.000
G2 X46.989 Y-79.395 Z-0.200 I-5.156 J-2.266 K0.000 F150.000
G3 X47.026 Y-81.147 Z-0.200 I13.903 J-0.590 K0.000 F150.000
G3 X47.226 Y-81.761 Z-0.200 I3.185 J0.699 K0.000 F150.000
G2 X47.119 Y-81.895 Z-0.200 I-0.094 J-0.035 K0.000 F150.000
G2 X45.348 Y-81.322 Z-0.200 I0.274 J3.872 K0.000 F150.000
G3 X44.225 Y-80.883 Z-0.200 I-1.609 J-2.455 K0.000 F150.000
G2 X43.241 Y-80.649 Z-0.200 I0.487 J4.237 K0.000 F150.000
G3 X42.257 Y-81.154 Z-0.200 I-0.088 J-1.039 K0.000 F150.000
G3 X41.632 Y-82.202 Z-0.200 I3.571 J-2.841 K0.000 F150.000
G3 X41.904 Y-82.979 Z-0.200 I0.646 J-0.210 K0.000 F150.000
G3 X44.631 Y-83.953 Z-0.200 I2.514 J2.733 K0.000 F150.000
G2 X46.608 Y-84.046 Z-0.200 I0.425 J-11.995 K0.000 F150.000
G2 X48.655 Y-85.017 Z-0.200 I-2.946 J-8.853 K0.000 F150.000
G3 X49.621 Y-85.285 Z-0.200 I0.873 J1.270 K0.000 F150.000
G2 X52.304 Y-84.625 Z-0.200 I10.911 J-38.538 K0.000 F150.000
G2 X53.077 Y-84.251 Z-0.200 I1.481 J-2.079 K0.000 F150.000
G3 X55.426 Y-84.002 Z-0.200 I-0.075 J11.892 K0.000 F150.000
G3 X55.850 Y-83.159 Z-0.200 I-0.462 J0.761 K0.000 F150.000
G3 X55.760 Y-81.414 Z-0.200 I-8.654 J0.427 K0.000 F150.000
G3 X54.116 Y-78.805 Z-0.200 I-12.631 J-6.139 K0.000 F150.000
G3 X53.773 Y-78.355 Z-0.200 I-34.355 J-25.865 K0.000 F150.000
G2 X53.952 Y-77.918 Z-0.200 I0.857 J-0.096 K0.000 F150.000
G3 X54.268 Y-76.044 Z-0.200 I-4.887 J1.790 K0.000 F150.000
G3 X53.993 Y-75.224 Z-0.200 I-3.357 J-0.669 K0.000 F150.000
G1 X54.006 Y-75.126 Z-0.200 F150.000
G3 X57.610 Y-70.084 Z-0.200 I-188.135 J138.269 K0.000 F150.000
G2 X59.342 Y-68.376 Z-0.200 I10.907 J-9.327 K0.000 F150.000
G3 X59.518 Y-68.147 Z-0.200 I-0.303 J0.416 K0.000 F150.000
G3 X59.002 Y-67.400 Z-0.200 I-1.111 J-0.215 K0.000 F150.000
G3 X57.918 Y-66.645 Z-0.200 I-3.559 J-3.955 K0.000 F150.000
G3 X57.656 Y-66.996 Z-0.200 I0.043 J-0.306 K0.000 F150.000
G2 X57.021 Y-68.217 Z-0.200 I-2.136 J0.335 K0.000 F150.000
G3 X56.368 Y-69.295 Z-0.200 I4.154 J-3.250 K0.000 F150.000
G2 X53.426 Y-73.621 Z-0.200 I-48.156 J29.583 K0.000 F150.000
G2 X53.204 Y-73.532 Z-0.200 I-0.075 J0.135 K0.000 F150.000
G2 X52.149 Y-71.913 Z-0.200 I16.294 J11.769 K0.000 F150.000
G2 X52.569 Y-69.318 Z-0.200 I7.956 J0.046 K0.000 F150.000
G2 X53.625 Y-67.762 Z-0.200 I6.101 J-3.006 K0.000 F150.000
G1 X53.790 Y-67.553 Z-0.200 F150.000
G1 X53.790 Y-67.553 Z-0.200 F150.000
G3 X55.409 Y-65.381 Z-0.200 I-16.234 J13.788 K0.000 F150.000
G3 X55.448 Y-63.611 Z-0.200 I-2.141 J0.933 K0.000 F150.000
G3 X54.753 Y-62.443 Z-0.200 I-2.272 J-0.561 K0.000 F150.000
G3 X54.384 Y-62.669 Z-0.200 I-0.127 J-0.208 K0.000 F150.000
G3 X54.229 Y-64.758 Z-0.200 I21.500 J-2.639 K0.000 F150.000
G2 X51.905 Y-67.504 Z-0.200 I-43.788 J34.703 K0.000 F150.000
G3 X50.450 Y-69.865 Z-0.200 I97.156 J-61.517 K0.000 F150.000
G2 X49.983 Y-69.987 Z-0.200 I-0.295 J0.175 K0.000 F150.000
G2 X49.283 Y-69.708 Z-0.200 I1.618 J5.074 K0.000 F150.000
G1 X49.222 Y-69.615 Z-0.200 F150.000
G2 X49.467 Y-67.895 Z-0.200 I3.891 J0.323 K0.000 F150.000
G2 X50.774 Y-66.742 Z-0.200 I5.549 J-4.974 K0.000 F150.000
G3 X51.244 Y-66.324 Z-0.200 I-1.208 J1.830 K0.000 F150.000
G3 X51.406 Y-64.577 Z-0.200 I-2.662 J1.128 K0.000 F150.000
G3 X50.968 Y-64.133 Z-0.200 I-0.549 J-0.103 K0.000 F150.000
G2 X50.948 Y-63.963 Z-0.200 I0.041 J0.091 K0.000 F150.000
G3 X51.256 Y-63.696 Z-0.200 I-0.341 J0.705 K0.000 F150.000
G3 X51.299 Y-62.693 Z-0.200 I-2.903 J0.627 K0.000 F150.000
G2 X51.360 Y-61.581 Z-0.200 I3.199 J0.383 K0.000 F150.000
G3 X52.299 Y-59.785 Z-0.200 I-4.105 J3.290 K0.000 F150.000
G3 X52.194 Y-59.205 Z-0.200 I-0.503 J0.209 K0.000 F150.000
G0 Z1.000
G0 X52.146 Y-59.287 Z1.000
G0 X52.146 Y-59.287 Z0.500
G1 X52.146 Y-59.287 Z-0.200 F100.000
G3 X50.818 Y-59.102 Z-0.200 I-0.883 J-1.485 K0.000 F150.000
G3 X50.380 Y-59.243 Z-0.200 I0.032 J-0.850 K0.000 F150.000
G3 X50.215 Y-60.183 Z-0.200 I2.375 J-0.901 K0.000 F150.000
G1 X50.156 Y-60.298 Z-0.200 F150.000
G2 X48.281 Y-61.895 Z-0.200 I-13.126 J13.519 K0.000 F150.000
G2 X47.525 Y-62.173 Z-0.200 I-0.964 J1.450 K0.000 F150.000
G2 X45.725 Y-62.918 Z-0.200 I-49.607 J117.351 K0.000 F150.000
G3 X44.110 Y-63.475 Z-0.200 I2.085 J-8.665 K0.000 F150.000
G1 X43.150 Y-63.891 Z-0.200 F150.000
G1 X43.021 Y-63.897 Z-0.200 F150.000
G3 X41.232 Y-63.352 Z-0.200 I-4.494 J-11.547 K0.000 F150.000
G3 X40.624 Y-63.462 Z-0.200 I-0.216 J-0.539 K0.000 F150.000
G3 X40.341 Y-64.438 Z-0.200 I1.559 J-0.982 K0.000 F150.000
G3 X40.560 Y-66.473 Z-0.200 I3.737 J-0.626 K0.000 F150.000
G3 X40.929 Y-66.608 Z-0.200 I0.295 J0.237 K0.000 F150.000
G3 X41.785 Y-66.326 Z-0.200 I-0.092 J1.722 K0.000 F150.000
G2 X42.042 Y-66.530 Z-0.200 I0.083 J-0.160 K0.000 F150.000
G3 X41.975 Y-67.022 Z-0.200 I0.844 J-0.366 K0.000 F150.000
G3 X42.827 Y-67.594 Z-0.200 I2.793 J3.243 K0.000 F150.000
G2 X45.123 Y-70.334 Z-0.200 I-3.253 J-5.057 K0.000 F150.000
G2 X45.256 Y-71.869 Z-0.200 I-2.098 J-0.954 K0.000 F150.000
G2 X44.733 Y-72.080 Z-0.200 I-0.345 J0.102 K0.000 F150.000
G2 X42.778 Y-70.817 Z-0.200 I2.682 J6.298 K0.000 F150.000
G2 X38.074 Y-66.395 Z-0.200 I42.679 J50.103 K0.000 F150.000
G3 X36.868 Y-65.346 Z-0.200 I-4.628 J-4.108 K0.000 F150.000
G3 X36.632 Y-65.381 Z-0.200 I-0.065 J-0.374 K0.000 F150.000
G3 X36.699 Y-66.950 Z-0.200 I4.185 J-0.606 K0.000 F150.000
G3 X38.656 Y-69.396 Z-0.200 I11.327 J7.055 K0.000 F150.000
G3 X42.402 Y-72.680 Z-0.200 I20.036 J19.077 K0.000 F150.000
G2 X45.846 Y-76.110 Z-0.200 I-19.598 J-23.124 K0.000 F150.000
G2 X46.641 Y-77.869 Z-0.200 I-5.456 J-3.526 K0.000 F150.000
G2 X47.069 Y-79.398 Z-0.200 I-5.113 J-2.255 K0.000 F150.000
G3 X47.104 Y-81.131 Z-0.200 I13.891 J-0.588 K0.000 F150.000
G3 X47.301 Y-81.733 Z-0.200 I3.122 J0.687 K0.000 F150.000
G2 X47.109 Y-81.975 Z-0.200 I-0.169 J-0.063 K0.000 F150.000
G2 X45.311 Y-81.393 Z-0.200 I0.284 J3.948 K0.000 F150.000
G3 X44.217 Y-80.962 Z-0.200 I-1.572 J-2.386 K0.000 F150.000
G2 X43.227 Y-80.728 Z-0.200 I0.497 J4.301 K0.000 F150.000
G3 X42.322 Y-81.201 Z-0.200 I-0.074 J-0.962 K0.000 F150.000
G3 X41.710 Y-82.219 Z-0.200 I3.557 J-2.830 K0.000 F150.000
G3 X41.959 Y-82.920 Z-0.200 I0.571 J-0.192 K0.000 F150.000
G3 X44.633 Y-83.873 Z-0.200 I2.460 J2.676 K0.000 F150.000
G2 X46.630 Y-83.969 Z-0.200 I0.426 J-11.921 K0.000 F150.000
G2 X48.691 Y-84.945 Z-0.200 I-2.962 J-8.916 K0.000 F150.000
G3 X49.609 Y-85.206 Z-0.200 I0.839 J1.207 K0.000 F150.000
G2 X52.274 Y-84.550 Z-0.200 I10.618 J-37.405 K0.000 F150.000
G2 X53.069 Y-84.171 Z-0.200 I1.507 J-2.141 K0.000 F150.000
G3 X55.388 Y-83.931 Z-0.200 I-0.100 J12.260 K0.000 F150.000
G3 X55.770 Y-83.157 Z-0.200 I-0.426 J0.692 K0.000 F150.000
G3 X55.684 Y-81.439 Z-0.200 I-8.675 J0.424 K0.000 F150.000
G3 X54.052 Y-78.853 Z-0.200 I-12.588 J-6.137 K0.000 F150.000
G3 X53.704 Y-78.396 Z-0.200 I-49.031 J-36.995 K0.000 F150.000
G2 X53.781 Y-78.055 Z-0.200 I0.357 J0.099 K0.000 F150.000
G3 X54.189 Y-76.386 Z-0.200 I-3.398 J1.714 K0.000 F150.000
G3 X54.071 Y-75.634 Z-0.200 I-1.320 J0.180 K0.000 F150.000
G1 X53.919 Y-75.253 Z-0.200 F150.000
G2 X53.942 Y-75.078 Z-0.200 I0.167 J0.067 K0.000 F150.000
G3 X57.548 Y-70.033 Z-0.200 I-189.800 J139.468 K0.000 F150.000
G2 X59.285 Y-68.320 Z-0.200 I10.945 J-9.357 K0.000 F150.000
G3 X59.441 Y-68.124 Z-0.200 I-0.257 J0.365 K0.000 F150.000
G3 X58.804 Y-67.339 Z-0.200 I-1.320 J-0.420 K0.000 F150.000
G3 X57.902 Y-66.724 Z-0.200 I-2.140 J-2.171 K0.000 F150.000
G3 X57.733 Y-67.015 Z-0.200 I0.071 J-0.236 K0.000 F150.000
G2 X57.081 Y-68.269 Z-0.200 I-2.209 J0.352 K0.000 F150.000
G3 X56.438 Y-69.335 Z-0.200 I4.113 J-3.210 K0.000 F150.000
G2 X53.484 Y-73.677 Z-0.200 I-47.622 J29.219 K0.000 F150.000
G2 X53.140 Y-73.580 Z-0.200 I-0.132 J0.189 K0.000 F150.000
G2 X52.098 Y-72.019 Z-0.200 I22.020 J15.818 K0.000 F150.000
G1 X52.070 Y-71.908 Z-0.200 F150.000
G2 X52.493 Y-69.292 Z-0.200 I8.030 J0.042 K0.000 F150.000
G2 X53.563 Y-67.712 Z-0.200 I6.143 J-3.007 K0.000 F150.000
G3 X55.339 Y-65.343 Z-0.200 I-19.442 J16.425 K0.000 F150.000
G3 X55.372 Y-63.635 Z-0.200 I-2.072 J0.895 K0.000 F150.000
G3 X54.719 Y-62.516 Z-0.200 I-2.230 J-0.551 K0.000 F150.000
G3 X54.462 Y-62.685 Z-0.200 I-0.090 J-0.143 K0.000 F150.000
G3 X54.331 Y-64.704 Z-0.200 I11.792 J-1.781 K0.000 F150.000
G1 X54.292 Y-64.808 Z-0.200 F150.000
G2 X51.969 Y-67.553 Z-0.200 I-43.630 J34.572 K0.000 F150.000
G3 X50.510 Y-69.918 Z-0.200 I109.280 J-69.032 K0.000 F150.000
G2 X49.959 Y-70.064 Z-0.200 I-0.357 J0.234 K0.000 F150.000
G2 X49.167 Y-69.708 Z-0.200 I1.048 J3.393 K0.000 F150.000
G1 X49.142 Y-69.615 Z-0.200 F150.000
G2 X49.404 Y-67.846 Z-0.200 I3.883 J0.329 K0.000 F150.000
G2 X50.723 Y-66.680 Z-0.200 I5.610 J-5.021 K0.000 F150.000
G3 X51.173 Y-66.286 Z-0.200 I-1.382 J2.031 K0.000 F150.000
G3 X51.330 Y-64.603 Z-0.200 I-2.593 J1.091 K0.000 F150.000
G3 X50.935 Y-64.206 Z-0.200 I-0.482 J-0.084 K0.000 F150.000
G2 X50.898 Y-63.900 Z-0.200 I0.075 J0.164 K0.000 F150.000
G3 X51.184 Y-63.659 Z-0.200 I-0.303 J0.648 K0.000 F150.000
G3 X51.219 Y-62.694 Z-0.200 I-2.958 J0.590 K0.000 F150.000
G2 X51.289 Y-61.543 Z-0.200 I3.154 J0.385 K0.000 F150.000
G3 X52.220 Y-59.771 Z-0.200 I-4.082 J3.274 K0.000 F150.000
G3 X52.186 Y-59.312 Z-0.200 I-0.480 J0.196 K0.000 F150.000
G3 X52.146 Y-59.287 Z-0.200 I-0.924 J-1.460 K0.000 F150.000
G0 Z1.000
G0 X52.094 Y-59.332 Z1.000
G0 X52.094 Y-59.332 Z0.500
G1 X52.094 Y-59.332 Z-0.200 F100.000
G3 X50.446 Y-59.289 Z-0.200 I-0.875 J-1.973 K0.000 F150.000
G3 X50.295 Y-60.191 Z-0.200 I2.369 J-0.863 K0.000 F150.000
G1 X50.209 Y-60.358 Z-0.200 F150.000
G2 X48.321 Y-61.964 Z-0.200 I-12.998 J13.370 K0.000 F150.000
G2 X47.549 Y-62.249 Z-0.200 I-0.992 J1.495 K0.000 F150.000
G2 X45.748 Y-62.995 Z-0.200 I-46.406 J109.640 K0.000 F150.000
G3 X44.141 Y-63.549 Z-0.200 I2.069 J-8.608 K0.000 F150.000
G1 X43.182 Y-63.965 Z-0.200 F150.000
G1 X42.995 Y-63.973 Z-0.200 F150.000
G3 X41.221 Y-63.431 Z-0.200 I-4.497 J-11.560 K0.000 F150.000
G3 X40.761 Y-63.448 Z-0.200 I-0.209 J-0.575 K0.000 F150.000
G3 X40.517 Y-63.909 Z-0.200 I0.393 J-0.503 K0.000 F150.000
G3 X40.575 Y-66.320 Z-0.200 I4.159 J-1.105 K0.000 F150.000
G3 X40.925 Y-66.527 Z-0.200 I0.271 J0.058 K0.000 F150.000
G3 X41.748 Y-66.255 Z-0.200 I-0.089 J1.648 K0.000 F150.000
G2 X42.120 Y-66.549 Z-0.200 I0.120 J-0.231 K0.000 F150.000
G3 X42.049 Y-66.988 Z-0.200 I0.857 J-0.362 K0.000 F150.000
G3 X42.873 Y-67.528 Z-0.200 I3.003 J3.679 K0.000 F150.000
G2 X45.199 Y-70.309 Z-0.200 I-3.297 J-5.121 K0.000 F150.000
G2 X45.326 Y-71.906 Z-0.200 I-2.146 J-0.975 K0.000 F150.000
G2 X44.705 Y-72.155 Z-0.200 I-0.412 J0.129 K0.000 F150.000
G2 X42.727 Y-70.879 Z-0.200 I2.711 J6.374 K0.000 F150.000
G2 X38.019 Y-66.452 Z-0.200 I42.722 J50.157 K0.000 F150.000
G3 X36.845 Y-65.424 Z-0.200 I-4.769 J-4.259 K0.000 F150.000
G3 X36.691 Y-65.496 Z-0.200 I-0.057 J-0.079 K0.000 F150.000
G3 X36.772 Y-66.916 Z-0.200 I4.419 J-0.463 K0.000 F150.000
G3 X38.714 Y-69.342 Z-0.200 I11.283 J7.045 K0.000 F150.000
G3 X42.453 Y-72.618 Z-0.200 I19.990 J19.036 K0.000 F150.000
G2 X45.911 Y-76.063 Z-0.200 I-19.632 J-23.167 K0.000 F150.000
G2 X46.717 Y-77.843 Z-0.200 I-5.520 J-3.574 K0.000 F150.000
G2 X47.149 Y-79.402 Z-0.200 I-5.088 J-2.249 K0.000 F150.000
G3 X47.183 Y-81.116 Z-0.200 I13.883 J-0.586 K0.000 F150.000
G3 X47.376 Y-81.706 Z-0.200 I3.060 J0.675 K0.000 F150.000
G2 X47.099 Y-82.054 Z-0.200 I-0.244 J-0.091 K0.000 F150.000
G2 X45.091 Y-81.370 Z-0.200 I0.410 J4.496 K0.000 F150.000
G3 X44.208 Y-81.042 Z-0.200 I-1.278 J-2.082 K0.000 F150.000
G2 X43.213 Y-80.807 Z-0.200 I0.506 J4.359 K0.000 F150.000
G3 X42.387 Y-81.248 Z-0.200 I-0.059 J-0.885 K0.000 F150.000
G3 X41.789 Y-82.236 Z-0.200 I3.552 J-2.824 K0.000 F150.000
G3 X42.013 Y-82.862 Z-0.200 I0.497 J-0.175 K0.000 F150.000
G3 X44.636 Y-83.793 Z-0.200 I2.406 J2.619 K0.000 F150.000
G2 X46.651 Y-83.892 Z-0.200 I0.427 J-11.857 K0.000 F150.000
G2 X48.727 Y-84.874 Z-0.200 I-2.977 J-8.978 K0.000 F150.000
G3 X49.596 Y-85.127 Z-0.200 I0.805 J1.146 K0.000 F150.000
G2 X52.244 Y-84.476 Z-0.200 I10.334 J-36.306 K0.000 F150.000
G2 X53.061 Y-84.092 Z-0.200 I1.532 J-2.200 K0.000 F150.000
G3 X55.351 Y-83.859 Z-0.200 I-0.123 J12.607 K0.000 F150.000
G3 X55.690 Y-83.154 Z-0.200 I-0.391 J0.622 K0.000 F150.000
G3 X55.607 Y-81.464 Z-0.200 I-8.708 J0.420 K0.000 F150.000
G3 X53.988 Y-78.900 Z-0.200 I-12.547 J-6.136 K0.000 F150.000
G3 X53.635 Y-78.437 Z-0.200 I-79.670 J-60.228 K0.000 F150.000
G2 X53.761 Y-77.928 Z-0.200 I0.515 J0.143 K0.000 F150.000
G3 X54.109 Y-76.380 Z-0.200 I-3.513 J1.604 K0.000 F150.000
G3 X53.997 Y-75.663 Z-0.200 I-1.242 J0.173 K0.000 F150.000
G2 X53.829 Y-75.149 Z-0.200 I0.874 J0.570 K0.000 F150.000
G1 X53.878 Y-75.030 Z-0.200 F150.000
G3 X57.486 Y-69.982 Z-0.200 I-191.497 J140.690 K0.000 F150.000
G2 X59.227 Y-68.264 Z-0.200 I10.983 J-9.386 K0.000 F150.000
G3 X59.361 Y-68.105 Z-0.200 I-0.204 J0.309 K0.000 F150.000
G3 X58.753 Y-67.401 Z-0.200 I-1.331 J-0.534 K0.000 F150.000
G3 X57.887 Y-66.804 Z-0.200 I-2.130 J-2.164 K0.000 F150.000
G2 X57.564 Y-67.751 Z-0.200 I-6.193 J1.579 K0.000 F150.000
G3 X56.733 Y-68.889 Z-0.200 I42.120 J-31.648 K0.000 F150.000
G2 X55.813 Y-70.494 Z-0.200 I-7.097 J3.001 K0.000 F150.000
G2 X53.565 Y-73.709 Z-0.200 I-40.220 J25.737 K0.000 F150.000
G2 X53.037 Y-73.576 Z-0.200 I-0.218 J0.248 K0.000 F150.000
G2 X52.031 Y-72.062 Z-0.200 I24.434 J17.330 K0.000 F150.000
G1 X51.990 Y-71.902 Z-0.200 F150.000
G2 X52.417 Y-69.266 Z-0.200 I8.104 J0.038 K0.000 F150.000
G2 X53.500 Y-67.662 Z-0.200 I6.187 J-3.010 K0.000 F150.000
G3 X55.268 Y-65.305 Z-0.200 I-19.424 J16.410 K0.000 F150.000
G3 X55.295 Y-63.659 Z-0.200 I-2.002 J0.857 K0.000 F150.000
G3 X54.685 Y-62.589 Z-0.200 I-2.198 J-0.545 K0.000 F150.000
G3 X54.541 Y-62.700 Z-0.200 I-0.053 J-0.080 K0.000 F150.000
G3 X54.411 Y-64.707 Z-0.200 I11.731 J-1.767 K0.000 F150.000
G1 X54.355 Y-64.858 Z-0.200 F150.000
G2 X52.033 Y-67.601 Z-0.200 I-43.468 J34.438 K0.000 F150.000
G3 X50.571 Y-69.970 Z-0.200 I124.330 J-78.360 K0.000 F150.000
G2 X49.934 Y-70.140 Z-0.200 I-0.419 J0.291 K0.000 F150.000
G2 X49.114 Y-69.772 Z-0.200 I1.113 J3.579 K0.000 F150.000
G1 X49.062 Y-69.614 Z-0.200 F150.000
G2 X49.340 Y-67.797 Z-0.200 I3.888 J0.334 K0.000 F150.000
G2 X50.672 Y-66.618 Z-0.200 I5.671 J-5.067 K0.000 F150.000
G3 X51.102 Y-66.249 Z-0.200 I-2.320 J3.130 K0.000 F150.000
G3 X51.254 Y-64.629 Z-0.200 I-2.524 J1.054 K0.000 F150.000
G3 X50.902 Y-64.279 Z-0.200 I-0.417 J-0.066 K0.000 F150.000
G2 X50.849 Y-63.838 Z-0.200 I0.108 J0.237 K0.000 F150.000
G3 X51.112 Y-63.622 Z-0.200 I-0.264 J0.592 K0.000 F150.000
G3 X51.139 Y-62.695 Z-0.200 I-3.079 J0.553 K0.000 F150.000
G2 X51.219 Y-61.506 Z-0.200 I3.134 J0.388 K0.000 F150.000
G3 X52.085 Y-59.948 Z-0.200 I-4.504 J3.525 K0.000 F150.000
G3 X52.094 Y-59.332 Z-0.200 I-0.518 J0.316 K0.000 F150.000
G0 Z1.000
G0 X52.035 Y-59.382 Z1.000
G0 X52.035 Y-59.382 Z0.500
G1 X52.035 Y-59.382 Z-0.200 F100.000
G3 X51.877 Y-59.319 Z-0.200 I-0.138 J-0.117 K0.000 F150.000
G3 X50.509 Y-59.345 Z-0.200 I-0.644 J-2.169 K0.000 F150.000
G3 X50.374 Y-60.199 Z-0.200 I2.462 J-0.825 K0.000 F150.000
G1 X50.339 Y-60.298 Z-0.200 F150.000
G2 X51.127 Y-60.225 Z-0.200 I0.459 J-0.662 K0.000 F150.000
G2 X51.641 Y-60.403 Z-0.200 I-0.104 J-1.133 K0.000 F150.000
G2 X51.733 Y-60.559 Z-0.200 I-0.103 J-0.166 K0.000 F150.000
G3 X52.077 Y-59.495 Z-0.200 I-1.906 J1.204 K0.000 F150.000
G3 X52.035 Y-59.382 Z-0.200 I-0.181 J-0.004 K0.000 F150.000
G0 Z1.000
G0 X51.994 Y-59.462 Z1.000
G0 X51.994 Y-59.462 Z0.500
G1 X51.994 Y-59.462 Z-0.200 F100.000
G3 X50.632 Y-59.388 Z-0.200 I-0.769 J-1.585 K0.000 F150.000
G3 X50.519 Y-59.602 Z-0.200 I0.047 J-0.162 K0.000 F150.000
G3 X50.461 Y-60.141 Z-0.200 I12.980 J-1.673 K0.000 F150.000
G2 X51.147 Y-60.148 Z-0.200 I0.335 J-0.821 K0.000 F150.000
G2 X51.675 Y-60.327 Z-0.200 I-0.157 J-1.331 K0.000 F150.000
G1 X51.730 Y-60.394 Z-0.200 F150.000
G3 X51.994 Y-59.462 Z-0.200 I-1.414 J0.904 K0.000 F150.000
G0 Z1.000
G0 X51.905 Y-59.498 Z1.000
G0 X51.905 Y-59.498 Z0.500
G1 X51.905 Y-59.498 Z-0.200 F100.000
G3 X50.619 Y-59.500 Z-0.200 I-0.641 J-1.742 K0.000 F150.000
G3 X50.553 Y-60.026 Z-0.200 I5.181 J-0.919 K0.000 F150.000
G2 X51.168 Y-60.070 Z-0.200 I0.241 J-0.933 K0.000 F150.000
G2 X51.706 Y-60.252 Z-0.200 I-0.187 J-1.443 K0.000 F150.000
G3 X51.905 Y-59.498 Z-0.200 I-1.079 J0.688 K0.000 F150.000
G0 Z1.000
G0 X51.838 Y-59.560 Z1.000
G0 X51.838 Y-59.560 Z0.500
G1 X51.838 Y-59.560 Z-0.200 F100.000
G3 X50.693 Y-59.537 Z-0.200 I-0.607 J-1.772 K0.000 F150.000
G3 X50.644 Y-59.927 Z-0.200 I4.106 J-0.724 K0.000 F150.000
G2 X51.669 Y-60.138 Z-0.200 I-0.098 J-3.066 K0.000 F150.000
G1 X51.731 Y-59.983 Z-0.200 F150.000
G3 X51.838 Y-59.560 Z-0.200 I-0.842 J0.436 K0.000 F150.000
G0 Z1.000
G0 X51.754 Y-59.616 Z1.000
G0 X51.754 Y-59.616 Z0.500
G1 X51.754 Y-59.616 Z-0.200 F100.000
G3 X50.763 Y-59.603 Z-0.200 I-0.518 J-1.701 K0.000 F150.000
G3 X50.733 Y-59.838 Z-0.200 I3.298 J-0.534 K0.000 F150.000
G2 X51.624 Y-60.035 Z-0.200 I-0.109 J-2.612 K0.000 F150.000
G3 X51.754 Y-59.616 Z-0.200 I-1.031 J0.548 K0.000 F150.000
G0 Z1.000
G0 X51.667 Y-59.673 Z1.000
G0 X51.667 Y-59.673 Z0.500
G1 X51.667 Y-59.673 Z-0.200 F100.000
G3 X50.833 Y-59.670 Z-0.200 I-0.423 J-1.631 K0.000 F150.000
G3 X50.821 Y-59.762 Z-0.200 I2.221 J-0.321 K0.000 F150.000
G2 X51.582 Y-59.926 Z-0.200 I-1.026 J-6.635 K0.000 F150.000
G1 X51.631 Y-59.792 Z-0.200 F150.000
G3 X51.667 Y-59.673 Z-0.200 I-0.902 J0.338 K0.000 F150.000
G0 Z1.000
G0 X51.568 Y-59.728 Z1.000
G0 X51.568 Y-59.728 Z0.500
G1 X51.568 Y-59.728 Z-0.200 F100.000
G3 X51.041 Y-59.718 Z-0.200 I-0.284 J-1.053 K0.000 F150.000
G2 X51.530 Y-59.836 Z-0.200 I-0.786 J-4.324 K0.000 F150.000
G3 X51.568 Y-59.728 Z-0.200 I-1.380 J0.545 K0.000 F150.000
G0 Z1.000
G0 X51.503 Y-59.763 Z1.000
G0 X51.503 Y-59.763 Z0.500
G1 X51.503 Y-59.763 Z-0.200 F100.000
G3 X51.419 Y-59.755 Z-0.200 I-0.071 J-0.270 K0.000 F150.000
G1 X51.498 Y-59.776 Z-0.200 F150.000
G1 X51.503 Y-59.763 Z-0.200 F150.000
G0 Z1.000
G0 X51.328 Y-60.343 Z1.000
G0 X51.328 Y-60.343 Z0.500
G1 X51.328 Y-60.343 Z-0.200 F100.000
G3 X51.106 Y-60.302 Z-0.200 I-0.289 J-0.955 K0.000 F150.000
G3 X50.556 Y-60.270 Z-0.200 I-0.324 J-0.824 K0.000 F150.000
G3 X49.492 Y-61.132 Z-0.200 I3.477 J-5.378 K0.000 F150.000
G2 X48.035 Y-62.219 Z-0.200 I-4.845 J4.973 K0.000 F150.000
G3 X45.831 Y-63.187 Z-0.200 I1.888 J-7.292 K0.000 F150.000
G2 X44.806 Y-64.415 Z-0.200 I-7.882 J5.539 K0.000 F150.000
G1 X44.799 Y-64.384 Z-0.200 F150.000
G2 X45.161 Y-63.870 Z-0.200 I1.447 J-0.635 K0.000 F150.000
G3 X44.961 Y-63.333 Z-0.200 I-0.192 J0.235 K0.000 F150.000
G3 X43.466 Y-63.938 Z-0.200 I2.812 J-9.092 K0.000 F150.000
G2 X42.791 Y-64.104 Z-0.200 I-0.678 J1.296 K0.000 F150.000
G3 X41.571 Y-64.662 Z-0.200 I0.397 J-2.480 K0.000 F150.000
G3 X40.544 Y-65.697 Z-0.200 I1.108 J-2.126 K0.000 F150.000
G3 X41.208 Y-66.393 Z-0.200 I0.456 J-0.230 K0.000 F150.000
G3 X42.883 Y-65.514 Z-0.200 I-8.938 J19.078 K0.000 F150.000
G2 X42.924 Y-65.608 Z-0.200 I-0.056 J-0.080 K0.000 F150.000
G2 X42.314 Y-66.533 Z-0.200 I-4.062 J2.011 K0.000 F150.000
G3 X42.295 Y-67.063 Z-0.200 I0.241 J-0.274 K0.000 F150.000
G2 X44.746 Y-69.268 Z-0.200 I-3.113 J-5.928 K0.000 F150.000
G2 X45.420 Y-71.836 Z-0.200 I-2.808 J-2.109 K0.000 F150.000
G2 X45.182 Y-72.249 Z-0.200 I-0.349 J-0.074 K0.000 F150.000
G2 X44.345 Y-72.113 Z-0.200 I-0.240 J1.161 K0.000 F150.000
G2 X42.062 Y-70.443 Z-0.200 I5.852 J10.398 K0.000 F150.000
G2 X37.181 Y-65.731 Z-0.200 I85.699 J93.647 K0.000 F150.000
G3 X36.769 Y-65.795 Z-0.200 I-0.182 J-0.185 K0.000 F150.000
G3 X37.114 Y-67.326 Z-0.200 I1.966 J-0.362 K0.000 F150.000
G3 X40.726 Y-71.166 Z-0.200 I19.351 J14.582 K0.000 F150.000
G2 X43.836 Y-73.749 Z-0.200 I-17.235 J-23.914 K0.000 F150.000
G2 X46.202 Y-76.361 Z-0.200 I-8.979 J-10.511 K0.000 F150.000
G2 X46.866 Y-78.128 Z-0.200 I-8.678 J-4.268 K0.000 F150.000
G3 X47.156 Y-78.667 Z-0.200 I1.182 J0.289 K0.000 F150.000
G3 X47.561 Y-78.630 Z-0.200 I0.178 J0.280 K0.000 F150.000
G2 X48.251 Y-77.969 Z-0.200 I4.080 J-3.572 K0.000 F150.000
G3 X49.516 Y-77.218 Z-0.200 I-4.149 J8.422 K0.000 F150.000
G3 X50.409 Y-75.980 Z-0.200 I-1.246 J1.841 K0.000 F150.000
G2 X50.653 Y-75.284 Z-0.200 I2.605 J-0.521 K0.000 F150.000
G2 X51.469 Y-74.682 Z-0.200 I1.854 J-1.661 K0.000 F150.000
G3 X51.527 Y-74.290 Z-0.200 I-0.137 J0.221 K0.000 F150.000
G2 X50.311 Y-72.792 Z-0.200 I6.047 J6.151 K0.000 F150.000
G2 X49.810 Y-71.099 Z-0.200 I14.187 J5.126 K0.000 F150.000
G3 X48.977 Y-69.678 Z-0.200 I-2.095 J-0.273 K0.000 F150.000
G1 X49.016 Y-69.108 Z-0.200 F150.000
G2 X49.284 Y-67.668 Z-0.200 I4.185 J-0.034 K0.000 F150.000
G2 X50.544 Y-66.614 Z-0.200 I14.790 J-16.398 K0.000 F150.000
G3 X51.165 Y-65.825 Z-0.200 I-1.058 J1.473 K0.000 F150.000
G3 X51.150 Y-64.621 Z-0.200 I-1.750 J0.580 K0.000 F150.000
G3 X50.360 Y-64.409 Z-0.200 I-0.596 J-0.639 K0.000 F150.000
G3 X49.405 Y-64.911 Z-0.200 I0.175 J-1.491 K0.000 F150.000
G2 X47.617 Y-66.474 Z-0.200 I-14.358 J14.624 K0.000 F150.000
G2 X47.599 Y-66.462 Z-0.200 I0.007 J0.028 K0.000 F150.000
G2 X47.864 Y-65.826 Z-0.200 I0.968 J-0.031 K0.000 F150.000
G2 X50.961 Y-63.661 Z-0.200 I8.739 J-9.202 K0.000 F150.000
G3 X51.091 Y-63.434 Z-0.200 I-0.129 J0.226 K0.000 F150.000
G2 X51.119 Y-61.586 Z-0.200 I14.734 J0.704 K0.000 F150.000
G2 X51.616 Y-60.813 Z-0.200 I1.785 J-0.601 K0.000 F150.000
G3 X51.595 Y-60.469 Z-0.200 I-0.205 J0.160 K0.000 F150.000
G3 X51.328 Y-60.343 Z-0.200 I-0.556 J-0.829 K0.000 F150.000
G0 Z1.000
G0 X51.302 Y-60.438 Z1.000
G0 X51.302 Y-60.438 Z0.500
G1 X51.302 Y-60.438 Z-0.200 F100.000
G1 X51.085 Y-60.380 Z-0.200 F150.000
G3 X50.571 Y-60.348 Z-0.200 I-0.302 J-0.728 K0.000 F150.000
G3 X49.356 Y-61.359 Z-0.200 I4.770 J-6.976 K0.000 F150.000
G2 X48.066 Y-62.293 Z-0.200 I-3.960 J4.108 K0.000 F150.000
G3 X45.879 Y-63.251 Z-0.200 I1.867 J-7.240 K0.000 F150.000
G2 X44.819 Y-64.511 Z-0.200 I-7.139 J4.931 K0.000 F150.000
G2 X44.718 Y-64.383 Z-0.200 I-0.013 J0.094 K0.000 F150.000
G2 X45.098 Y-63.821 Z-0.200 I1.363 J-0.513 K0.000 F150.000
G3 X44.966 Y-63.413 Z-0.200 I-0.129 J0.184 K0.000 F150.000
G3 X43.496 Y-64.012 Z-0.200 I3.071 J-9.631 K0.000 F150.000
G2 X42.784 Y-64.184 Z-0.200 I-0.705 J1.359 K0.000 F150.000
G3 X41.614 Y-64.730 Z-0.200 I0.432 J-2.453 K0.000 F150.000
G3 X40.619 Y-65.726 Z-0.200 I1.067 J-2.061 K0.000 F150.000
G3 X41.186 Y-66.316 Z-0.200 I0.381 J-0.202 K0.000 F150.000
G3 X42.886 Y-65.427 Z-0.200 I-10.497 J22.130 K0.000 F150.000
G2 X43.005 Y-65.612 Z-0.200 I-0.052 J-0.165 K0.000 F150.000
G2 X42.380 Y-66.579 Z-0.200 I-3.753 J1.740 K0.000 F150.000
G3 X42.351 Y-67.006 Z-0.200 I0.173 J-0.227 K0.000 F150.000
G2 X44.814 Y-69.224 Z-0.200 I-3.112 J-5.932 K0.000 F150.000
G2 X45.500 Y-71.845 Z-0.200 I-2.874 J-2.152 K0.000 F150.000
G2 X45.212 Y-72.324 Z-0.200 I-0.421 J-0.073 K0.000 F150.000
G2 X44.313 Y-72.186 Z-0.200 I-0.273 J1.229 K0.000 F150.000
G2 X42.009 Y-70.504 Z-0.200 I5.868 J10.450 K0.000 F150.000
G2 X37.125 Y-65.788 Z-0.200 I85.704 J93.658 K0.000 F150.000
G3 X36.850 Y-65.816 Z-0.200 I-0.126 J-0.128 K0.000 F150.000
G3 X37.180 Y-67.280 Z-0.200 I1.864 J-0.349 K0.000 F150.000
G3 X40.778 Y-71.106 Z-0.200 I19.290 J14.542 K0.000 F150.000
G2 X43.440 Y-73.279 Z-0.200 I-16.034 J-22.354 K0.000 F150.000
G2 X46.193 Y-76.198 Z-0.200 I-10.854 J-12.995 K0.000 F150.000
G2 X46.826 Y-77.767 Z-0.200 I-5.050 J-2.950 K0.000 F150.000
G3 X47.193 Y-78.597 Z-0.200 I2.164 J0.462 K0.000 F150.000
G3 X47.514 Y-78.565 Z-0.200 I0.141 J0.210 K0.000 F150.000
G2 X48.207 Y-77.902 Z-0.200 I3.923 J-3.408 K0.000 F150.000
G3 X49.471 Y-77.152 Z-0.200 I-4.110 J8.360 K0.000 F150.000
G3 X50.334 Y-75.953 Z-0.200 I-1.197 J1.771 K0.000 F150.000
G2 X50.589 Y-75.235 Z-0.200 I2.592 J-0.517 K0.000 F150.000
G2 X51.427 Y-74.614 Z-0.200 I1.911 J-1.703 K0.000 F150.000
G3 X51.467 Y-74.343 Z-0.200 I-0.095 J0.153 K0.000 F150.000
G2 X50.240 Y-72.828 Z-0.200 I6.078 J6.180 K0.000 F150.000
G2 X49.732 Y-71.119 Z-0.200 I14.092 J5.118 K0.000 F150.000
G3 X48.895 Y-69.710 Z-0.200 I-2.054 J-0.267 K0.000 F150.000
G1 X48.936 Y-69.101 Z-0.200 F150.000
G2 X49.216 Y-67.625 Z-0.200 I4.219 J-0.035 K0.000 F150.000
G2 X50.493 Y-66.552 Z-0.200 I14.016 J-15.386 K0.000 F150.000
G3 X51.136 Y-65.603 Z-0.200 I-0.733 J1.188 K0.000 F150.000
G3 X51.079 Y-64.657 Z-0.200 I-1.638 J0.376 K0.000 F150.000
G3 X50.365 Y-64.488 Z-0.200 I-0.527 J-0.633 K0.000 F150.000
G3 X49.455 Y-64.973 Z-0.200 I0.172 J-1.418 K0.000 F150.000
G2 X47.650 Y-66.549 Z-0.200 I-14.140 J14.382 K0.000 F150.000
G2 X47.506 Y-66.449 Z-0.200 I-0.032 J0.108 K0.000 F150.000
G2 X47.804 Y-65.773 Z-0.200 I1.392 J-0.211 K0.000 F150.000
G2 X50.921 Y-63.592 Z-0.200 I8.790 J-9.240 K0.000 F150.000
G3 X51.011 Y-63.435 Z-0.200 I-0.090 J0.156 K0.000 F150.000
G2 X51.052 Y-61.491 Z-0.200 I12.467 J0.714 K0.000 F150.000
G2 X51.553 Y-60.764 Z-0.200 I2.649 J-1.289 K0.000 F150.000
G3 X51.457 Y-60.479 Z-0.200 I-0.142 J0.110 K0.000 F150.000
G1 X51.302 Y-60.438 Z-0.200 F150.000
G0 Z1.000
G0 X51.282 Y-60.515 Z1.000
G0 X51.282 Y-60.515 Z0.500
G1 X51.282 Y-60.515 Z-0.200 F100.000
G1 X51.064 Y-60.457 Z-0.200 F150.000
G3 X50.587 Y-60.427 Z-0.200 I-0.279 J-0.631 K0.000 F150.000
G3 X49.408 Y-61.419 Z-0.200 I5.710 J-7.979 K0.000 F150.000
G2 X48.096 Y-62.368 Z-0.200 I-4.016 J4.171 K0.000 F150.000
G3 X45.968 Y-63.284 Z-0.200 I1.901 J-7.347 K0.000 F150.000
G2 X44.967 Y-64.483 Z-0.200 I-10.415 J7.681 K0.000 F150.000
G2 X44.636 Y-64.382 Z-0.200 I-0.163 J0.060 K0.000 F150.000
G2 X45.035 Y-63.771 Z-0.200 I1.371 J-0.461 K0.000 F150.000
G3 X44.972 Y-63.492 Z-0.200 I-0.074 J0.130 K0.000 F150.000
G3 X43.526 Y-64.086 Z-0.200 I3.420 J-10.380 K0.000 F150.000
G2 X42.679 Y-64.272 Z-0.200 I-0.793 J1.587 K0.000 F150.000
G3 X40.934 Y-65.375 Z-0.200 I1.777 J-4.743 K0.000 F150.000
G3 X40.673 Y-66.021 Z-0.200 I0.519 J-0.585 K0.000 F150.000
G3 X41.084 Y-66.261 Z-0.200 I0.325 J0.084 K0.000 F150.000
G3 X42.876 Y-65.344 Z-0.200 I-7.979 J17.803 K0.000 F150.000
G2 X43.087 Y-65.613 Z-0.200 I-0.034 J-0.243 K0.000 F150.000
G2 X42.446 Y-66.624 Z-0.200 I-3.527 J1.527 K0.000 F150.000
G3 X42.406 Y-66.949 Z-0.200 I0.103 J-0.177 K0.000 F150.000
G2 X44.881 Y-69.181 Z-0.200 I-3.110 J-5.935 K0.000 F150.000
G2 X45.579 Y-71.853 Z-0.200 I-2.940 J-2.195 K0.000 F150.000
G2 X45.243 Y-72.398 Z-0.200 I-0.493 J-0.072 K0.000 F150.000
G2 X44.280 Y-72.259 Z-0.200 I-0.305 J1.298 K0.000 F150.000
G2 X41.957 Y-70.564 Z-0.200 I5.884 J10.502 K0.000 F150.000
G2 X37.069 Y-65.845 Z-0.200 I85.710 J93.670 K0.000 F150.000
G3 X36.926 Y-65.849 Z-0.200 I-0.070 J-0.071 K0.000 F150.000
G3 X37.245 Y-67.234 Z-0.200 I1.778 J-0.320 K0.000 F150.000
G3 X40.830 Y-71.045 Z-0.200 I19.230 J14.502 K0.000 F150.000
G2 X43.494 Y-73.220 Z-0.200 I-16.045 J-22.368 K0.000 F150.000
G2 X46.260 Y-76.154 Z-0.200 I-10.902 J-13.048 K0.000 F150.000
G2 X46.836 Y-77.538 Z-0.200 I-4.068 J-2.504 K0.000 F150.000
G3 X47.231 Y-78.526 Z-0.200 I3.568 J0.855 K0.000 F150.000
G3 X47.468 Y-78.500 Z-0.200 I0.104 J0.141 K0.000 F150.000
G2 X48.163 Y-77.836 Z-0.200 I3.770 J-3.248 K0.000 F150.000
G3 X49.427 Y-77.085 Z-0.200 I-4.071 J8.296 K0.000 F150.000
G3 X50.258 Y-75.927 Z-0.200 I-1.147 J1.701 K0.000 F150.000
G2 X50.526 Y-75.186 Z-0.200 I2.594 J-0.517 K0.000 F150.000
G2 X51.385 Y-74.546 Z-0.200 I1.968 J-1.746 K0.000 F150.000
G3 X51.407 Y-74.395 Z-0.200 I-0.053 J0.085 K0.000 F150.000
G1 X50.780 Y-73.681 Z-0.200 F150.000
G2 X50.103 Y-72.719 Z-0.200 I2.175 J2.252 K0.000 F150.000
G2 X49.458 Y-70.506 Z-0.200 I78.992 J24.219 K0.000 F150.000
G3 X48.813 Y-69.742 Z-0.200 I-1.814 J-0.877 K0.000 F150.000
G2 X48.949 Y-68.283 Z-0.200 I12.829 J-0.462 K0.000 F150.000
G2 X49.244 Y-67.461 Z-0.200 I1.750 J-0.164 K0.000 F150.000
G2 X50.442 Y-66.490 Z-0.200 I41.025 J-49.427 K0.000 F150.000
G3 X51.084 Y-65.345 Z-0.200 I-0.696 J1.143 K0.000 F150.000
G3 X50.969 Y-64.651 Z-0.200 I-0.874 J0.211 K0.000 F150.000
G3 X49.989 Y-64.674 Z-0.200 I-0.464 J-1.126 K0.000 F150.000
G3 X48.798 Y-65.673 Z-0.200 I3.542 J-5.434 K0.000 F150.000
G2 X47.641 Y-66.648 Z-0.200 I-5.889 J5.811 K0.000 F150.000
G2 X47.425 Y-66.464 Z-0.200 I0.013 J0.235 K0.000 F150.000
G2 X47.744 Y-65.721 Z-0.200 I1.452 J-0.183 K0.000 F150.000
G2 X50.881 Y-63.522 Z-0.200 I8.840 J-9.278 K0.000 F150.000
G1 X50.931 Y-63.435 Z-0.200 F150.000
G2 X50.973 Y-61.476 Z-0.200 I12.451 J0.716 K0.000 F150.000
G2 X51.490 Y-60.714 Z-0.200 I2.569 J-1.188 K0.000 F150.000
G3 X51.437 Y-60.556 Z-0.200 I-0.079 J0.061 K0.000 F150.000
G1 X51.282 Y-60.515 Z-0.200 F150.000
G0 Z1.000
G0 X50.718 Y-63.893 Z1.000
G0 X50.718 Y-63.893 Z0.500
G1 X50.718 Y-63.893 Z-0.200 F100.000
G3 X47.886 Y-65.927 Z-0.200 I5.217 J-10.247 K0.000 F150.000
G3 X47.695 Y-66.317 Z-0.200 I1.129 J-0.795 K0.000 F150.000
G3 X49.355 Y-64.849 Z-0.200 I-16.069 J19.836 K0.000 F150.000
G2 X50.355 Y-64.329 Z-0.200 I1.179 J-1.045 K0.000 F150.000
G2 X50.869 Y-64.352 Z-0.200 I0.187 J-1.597 K0.000 F150.000
G2 X50.718 Y-63.893 Z-0.200 I0.121 J0.294 K0.000 F150.000
G0 Z1.000
G0 X50.598 Y-64.054 Z1.000
G0 X50.598 Y-64.054 Z0.500
G1 X50.598 Y-64.054 Z-0.200 F100.000
G3 X50.235 Y-64.263 Z-0.200 I23.196 J-40.645 K0.000 F150.000
G2 X50.651 Y-64.243 Z-0.200 I0.315 J-2.219 K0.000 F150.000
G2 X50.598 Y-64.054 Z-0.200 I0.186 J0.155 K0.000 F150.000
G0 Z1.000
G0 X48.941 Y-65.110 Z1.000
G0 X48.941 Y-65.110 Z0.500
G1 X48.941 Y-65.110 Z-0.200 F100.000
G3 X47.910 Y-66.038 Z-0.200 I2.634 J-3.966 K0.000 F150.000
G3 X48.941 Y-65.110 Z-0.200 I-16.645 J19.545 K0.000 F150.000
G0 Z1.000
G0 X45.955 Y-63.008 Z1.000
G0 X45.955 Y-63.008 Z0.500
G1 X45.955 Y-63.008 Z-0.200 F100.000
G2 X45.084 Y-63.268 Z-0.200 I-27.912 J92.054 K0.000 F150.000
G2 X45.350 Y-63.602 Z-0.200 I-0.054 J-0.315 K0.000 F150.000
G2 X45.323 Y-63.719 Z-0.200 I-0.257 J-0.004 K0.000 F150.000
G2 X45.896 Y-63.044 Z-0.200 I2.945 J-1.916 K0.000 F150.000
G1 X45.955 Y-63.008 Z-0.200 F150.000
G0 Z1.000
G0 X45.613 Y-63.199 Z1.000
G0 X45.613 Y-63.199 Z0.500
G1 X45.613 Y-63.199 Z-0.200 F100.000
G3 X45.294 Y-63.283 Z-0.200 I0.608 J-2.962 K0.000 F150.000
G2 X45.409 Y-63.487 Z-0.200 I-0.160 J-0.225 K0.000 F150.000
G3 X45.613 Y-63.199 Z-0.200 I-1.310 J1.142 K0.000 F150.000
G0 Z1.000
G0 X45.432 Y-63.325 Z1.000
G0 X45.432 Y-63.325 Z0.500
G1 X45.432 Y-63.325 Z-0.200 F100.000
G1 X45.426 Y-63.327 Z-0.200 F150.000
G1 X45.429 Y-63.330 Z-0.200 F150.000
G1 X45.432 Y-63.325 Z-0.200 F150.000
G0 Z1.000
G0 X42.916 Y-64.031 Z1.000
G0 X42.916 Y-64.031 Z0.500
G1 X42.916 Y-64.031 Z-0.200 F100.000
G3 X42.129 Y-63.768 Z-0.200 I-12.589 J-36.406 K0.000 F150.000
G2 X42.080 Y-64.260 Z-0.200 I-0.316 J-0.217 K0.000 F150.000
G2 X42.798 Y-64.025 Z-0.200 I0.889 J-1.500 K0.000 F150.000
G3 X42.916 Y-64.031 Z-0.200 I0.070 J0.208 K0.000 F150.000
G0 Z1.000
G0 X42.526 Y-63.984 Z1.000
G0 X42.526 Y-63.984 Z0.500
G1 X42.526 Y-63.984 Z-0.200 F100.000
G1 X42.272 Y-63.899 Z-0.200 F150.000
G2 X42.264 Y-64.079 Z-0.200 I-0.375 J-0.072 K0.000 F150.000
G2 X42.526 Y-63.984 Z-0.200 I0.534 J-1.071 K0.000 F150.000
G0 Z1.000
G0 X42.118 Y-63.989 Z1.000
G0 X42.118 Y-63.989 Z0.500
G1 X42.118 Y-63.989 Z-0.200 F100.000
G3 X41.784 Y-63.659 Z-0.200 I-0.335 J-0.004 K0.000 F150.000
G3 X40.914 Y-63.517 Z-0.200 I-0.824 J-2.314 K0.000 F150.000
G3 X40.491 Y-64.203 Z-0.200 I0.288 J-0.652 K0.000 F150.000
G1 X40.490 Y-64.203 Z-0.200 F150.000
G2 X40.464 Y-64.406 Z-0.200 I-2.911 J0.276 K0.000 F150.000
G3 X40.531 Y-64.989 Z-0.200 I0.555 J-0.231 K0.000 F150.000
G3 X40.930 Y-65.025 Z-0.200 I0.220 J0.209 K0.000 F150.000
G2 X41.931 Y-64.294 Z-0.200 I4.261 J-4.781 K0.000 F150.000
G3 X42.118 Y-63.989 Z-0.200 I-0.148 J0.300 K0.000 F150.000
G0 Z1.000
G0 X42.029 Y-63.989 Z1.000
G0 X42.029 Y-63.989 Z0.500
G1 X42.029 Y-63.989 Z-0.200 F100.000
G3 X41.966 Y-63.815 Z-0.200 I-0.270 J-0.000 K0.000 F150.000
G3 X41.391 Y-63.636 Z-0.200 I-1.112 J-2.551 K0.000 F150.000
G3 X40.643 Y-63.887 Z-0.200 I-0.258 J-0.472 K0.000 F150.000
G3 X40.515 Y-64.783 Z-0.200 I3.492 J-0.957 K0.000 F150.000
G3 X40.693 Y-64.996 Z-0.200 I0.251 J0.028 K0.000 F150.000
G3 X40.965 Y-64.906 Z-0.200 I0.032 J0.359 K0.000 F150.000
G2 X41.881 Y-64.231 Z-0.200 I3.794 J-4.186 K0.000 F150.000
G3 X42.029 Y-63.989 Z-0.200 I-0.122 J0.241 K0.000 F150.000
G0 Z1.000
G0 X41.948 Y-63.988 Z1.000
G0 X41.948 Y-63.988 Z0.500
G1 X41.948 Y-63.988 Z-0.200 F100.000
G3 X41.919 Y-63.880 Z-0.200 I-0.202 J0.003 K0.000 F150.000
G3 X41.677 Y-63.795 Z-0.200 I-0.490 J-1.005 K0.000 F150.000
G3 X40.939 Y-63.675 Z-0.200 I-0.712 J-2.051 K0.000 F150.000
G3 X40.639 Y-64.315 Z-0.200 I0.375 J-0.567 K0.000 F150.000
G3 X40.632 Y-64.865 Z-0.200 I1.059 J-0.289 K0.000 F150.000
G3 X40.907 Y-64.851 Z-0.200 I0.131 J0.145 K0.000 F150.000
G2 X41.832 Y-64.168 Z-0.200 I3.809 J-4.186 K0.000 F150.000
G3 X41.948 Y-63.988 Z-0.200 I-0.087 J0.183 K0.000 F150.000
G0 Z1.000
G0 X40.824 Y-65.143 Z1.000
G0 X40.824 Y-65.143 Z0.500
G1 X40.824 Y-65.143 Z-0.200 F100.000
G2 X40.466 Y-65.032 Z-0.200 I-0.092 J0.337 K0.000 F150.000
G3 X40.497 Y-65.599 Z-0.200 I3.404 J-0.097 K0.000 F150.000
G2 X40.824 Y-65.143 Z-0.200 I1.449 J-0.693 K0.000 F150.000
G0 Z1.000
G0 X40.649 Y-65.223 Z1.000
G0 X40.649 Y-65.223 Z0.500
G1 X40.649 Y-65.223 Z-0.200 F100.000
G2 X40.548 Y-65.196 Z-0.200 I-0.010 J0.166 K0.000 F150.000
G1 X40.554 Y-65.347 Z-0.200 F150.000
G1 X40.649 Y-65.223 Z-0.200 F150.000
G0 Z1.000
G0 X41.898 Y-66.153 Z1.000
G0 X41.898 Y-66.153 Z0.500
G1 X41.898 Y-66.153 Z-0.200 F100.000
G2 X42.197 Y-66.565 Z-0.200 I-0.021 J-0.330 K0.000 F150.000
G3 X42.826 Y-65.629 Z-0.200 I-8.027 J6.076 K0.000 F150.000
G3 X41.898 Y-66.153 Z-0.200 I7.637 J-14.604 K0.000 F150.000
G0 Z1.000
G0 X42.087 Y-66.139 Z1.000
G0 X42.087 Y-66.139 Z0.500
G1 X42.087 Y-66.139 Z-0.200 F100.000
G2 X42.258 Y-66.333 Z-0.200 I-0.132 J-0.290 K0.000 F150.000
G1 X42.258 Y-66.334 Z-0.200 F150.000
G3 X42.618 Y-65.830 Z-0.200 I-9.414 J7.098 K0.000 F150.000
G3 X42.087 Y-66.139 Z-0.200 I24.340 J-42.506 K0.000 F150.000
G0 Z1.000
G0 X42.226 Y-66.150 Z1.000
G0 X42.226 Y-66.150 Z0.500
G1 X42.226 Y-66.150 Z-0.200 F100.000
G1 X42.261 Y-66.193 Z-0.200 F150.000
G1 X42.343 Y-66.081 Z-0.200 F150.000
G3 X42.226 Y-66.150 Z-0.200 I4.537 J-7.864 K0.000 F150.000
G0 Z1.000
G0 X36.950 Y-65.581 Z1.000
G0 X36.950 Y-65.581 Z0.500
G1 X36.950 Y-65.581 Z-0.200 F100.000
G3 X36.771 Y-65.507 Z-0.200 I-0.133 J-0.068 K0.000 F150.000
G3 X36.755 Y-65.693 Z-0.200 I2.356 J-0.290 K0.000 F150.000
G2 X36.950 Y-65.581 Z-0.200 I0.176 J-0.081 K0.000 F150.000
G0 Z1.000
G0 X49.447 Y-70.040 Z1.000
G0 X49.447 Y-70.040 Z0.500
G1 X49.447 Y-70.040 Z-0.200 F100.000
G2 X49.705 Y-70.485 Z-0.200 I-0.996 J-0.873 K0.000 F150.000
G2 X50.002 Y-70.241 Z-0.200 I0.341 J-0.112 K0.000 F150.000
G2 X49.447 Y-70.040 Z-0.200 I0.825 J3.141 K0.000 F150.000
G0 Z1.000
G0 X49.669 Y-70.218 Z1.000
G0 X49.669 Y-70.218 Z0.500
G1 X49.669 Y-70.218 Z-0.200 F100.000
G1 X49.714 Y-70.307 Z-0.200 F150.000
G1 X49.786 Y-70.260 Z-0.200 F150.000
G2 X49.669 Y-70.218 Z-0.200 I0.403 J1.336 K0.000 F150.000
G0 Z1.000
G0 X49.847 Y-70.398 Z1.000
G0 X49.847 Y-70.398 Z0.500
G1 X49.847 Y-70.398 Z-0.200 F100.000
G3 X49.802 Y-70.813 Z-0.200 I0.233 J-0.235 K0.000 F150.000
G3 X50.413 Y-72.849 Z-0.200 I18.823 J4.545 K0.000 F150.000
G3 X52.148 Y-74.751 Z-0.200 I11.095 J8.381 K0.000 F150.000
G3 X52.555 Y-74.994 Z-0.200 I0.520 J0.407 K0.000 F150.000
G3 X52.990 Y-74.573 Z-0.200 I-0.362 J0.809 K0.000 F150.000
G3 X53.149 Y-73.976 Z-0.200 I-0.491 J0.451 K0.000 F150.000
G3 X51.977 Y-72.105 Z-0.200 I-12.615 J-6.602 K0.000 F150.000
G2 X52.144 Y-70.046 Z-0.200 I7.433 J0.432 K0.000 F150.000
G2 X52.644 Y-68.636 Z-0.200 I5.280 J-1.077 K0.000 F150.000
G2 X54.487 Y-66.256 Z-0.200 I120.156 J-91.165 K0.000 F150.000
G3 X55.320 Y-65.005 Z-0.200 I-3.983 J3.553 K0.000 F150.000
G3 X55.031 Y-63.167 Z-0.200 I-2.795 J0.504 K0.000 F150.000
G3 X54.532 Y-63.264 Z-0.200 I-0.240 J-0.101 K0.000 F150.000
G2 X54.375 Y-64.846 Z-0.200 I-4.268 J-0.377 K0.000 F150.000
G2 X52.989 Y-66.678 Z-0.200 I-8.552 J5.029 K0.000 F150.000
G3 X51.268 Y-68.979 Z-0.200 I7.489 J-7.399 K0.000 F150.000
G2 X50.447 Y-70.337 Z-0.200 I-10.236 J5.259 K0.000 F150.000
G2 X50.163 Y-70.313 Z-0.200 I-0.091 J0.622 K0.000 F150.000
G3 X49.847 Y-70.398 Z-0.200 I-0.083 J-0.320 K0.000 F150.000
G0 Z1.000
G0 X49.909 Y-70.460 Z1.000
G0 X49.909 Y-70.460 Z0.500
G1 X49.909 Y-70.460 Z-0.200 F100.000
G3 X49.878 Y-70.790 Z-0.200 I0.182 J-0.183 K0.000 F150.000
G3 X50.487 Y-72.817 Z-0.200 I18.819 J4.543 K0.000 F150.000
G3 X51.928 Y-74.422 Z-0.200 I9.113 J6.735 K0.000 F150.000
G3 X52.528 Y-74.915 Z-0.200 I1.332 J1.009 K0.000 F150.000
G3 X52.923 Y-74.529 Z-0.200 I-0.320 J0.722 K0.000 F150.000
G3 X53.028 Y-73.892 Z-0.200 I-0.395 J0.392 K0.000 F150.000
G3 X51.897 Y-72.128 Z-0.200 I-20.586 J-11.957 K0.000 F150.000
G2 X52.066 Y-70.028 Z-0.200 I7.568 J0.446 K0.000 F150.000
G2 X52.576 Y-68.593 Z-0.200 I5.352 J-1.094 K0.000 F150.000
G2 X54.424 Y-66.207 Z-0.200 I119.102 J-90.330 K0.000 F150.000
G3 X55.246 Y-64.973 Z-0.200 I-3.910 J3.497 K0.000 F150.000
G3 X54.958 Y-63.198 Z-0.200 I-2.744 J0.465 K0.000 F150.000
G3 X54.612 Y-63.265 Z-0.200 I-0.166 J-0.070 K0.000 F150.000
G2 X54.449 Y-64.878 Z-0.200 I-4.328 J-0.378 K0.000 F150.000
G2 X53.049 Y-66.731 Z-0.200 I-8.602 J5.042 K0.000 F150.000
G3 X51.336 Y-69.020 Z-0.200 I7.430 J-7.346 K0.000 F150.000
G2 X50.500 Y-70.399 Z-0.200 I-9.647 J4.912 K0.000 F150.000
G2 X50.153 Y-70.393 Z-0.200 I-0.165 J0.482 K0.000 F150.000
G3 X49.909 Y-70.460 Z-0.200 I-0.062 J-0.251 K0.000 F150.000
G0 Z1.000
G0 X49.964 Y-70.517 Z1.000
G0 X49.964 Y-70.517 Z0.500
G1 X49.964 Y-70.517 Z-0.200 F100.000
G3 X49.955 Y-70.766 Z-0.200 I0.127 J-0.130 K0.000 F150.000
G3 X50.560 Y-72.785 Z-0.200 I18.816 J4.541 K0.000 F150.000
G3 X52.415 Y-74.778 Z-0.200 I12.764 J10.024 K0.000 F150.000
G3 X52.587 Y-74.816 Z-0.200 I0.116 J0.113 K0.000 F150.000
G3 X52.856 Y-74.486 Z-0.200 I-0.721 J0.860 K0.000 F150.000
G3 X52.954 Y-73.923 Z-0.200 I-0.324 J0.346 K0.000 F150.000
G3 X51.816 Y-72.152 Z-0.200 I-21.559 J-12.597 K0.000 F150.000
G2 X51.988 Y-70.009 Z-0.200 I7.703 J0.460 K0.000 F150.000
G2 X52.508 Y-68.550 Z-0.200 I5.425 J-1.112 K0.000 F150.000
G2 X54.361 Y-66.158 Z-0.200 I118.089 J-89.527 K0.000 F150.000
G3 X55.173 Y-64.941 Z-0.200 I-3.836 J3.440 K0.000 F150.000
G3 X54.884 Y-63.229 Z-0.200 I-2.696 J0.425 K0.000 F150.000
G3 X54.692 Y-63.266 Z-0.200 I-0.092 J-0.039 K0.000 F150.000
G2 X54.522 Y-64.911 Z-0.200 I-4.389 J-0.379 K0.000 F150.000
G2 X53.109 Y-66.784 Z-0.200 I-8.653 J5.056 K0.000 F150.000
G3 X51.404 Y-69.062 Z-0.200 I7.371 J-7.294 K0.000 F150.000
G2 X50.553 Y-70.460 Z-0.200 I-9.270 J4.690 K0.000 F150.000
G2 X50.142 Y-70.472 Z-0.200 I-0.220 J0.492 K0.000 F150.000
G3 X49.964 Y-70.517 Z-0.200 I-0.051 J-0.175 K0.000 F150.000
G0 Z1.000
G0 X50.312 Y-70.252 Z1.000
G0 X50.312 Y-70.252 Z0.500
G1 X50.312 Y-70.252 Z-0.200 F100.000
G3 X50.430 Y-70.233 Z-0.200 I0.050 J0.069 K0.000 F150.000
G3 X50.471 Y-70.169 Z-0.200 I-1.579 J1.072 K0.000 F150.000
G2 X50.312 Y-70.252 Z-0.200 I-0.248 J0.283 K0.000 F150.000
G0 Z1.000
G0 X51.662 Y-74.380 Z1.000
G0 X51.662 Y-74.380 Z0.500
G1 X51.662 Y-74.380 Z-0.200 F100.000
G2 X51.520 Y-74.743 Z-0.200 I-0.326 J-0.081 K0.000 F150.000
G2 X52.115 Y-74.829 Z-0.200 I0.215 J-0.614 K0.000 F150.000
G2 X51.662 Y-74.380 Z-0.200 I10.510 J11.053 K0.000 F150.000
G0 Z1.000
G0 X51.731 Y-74.564 Z1.000
G0 X51.731 Y-74.564 Z0.500
G1 X51.731 Y-74.564 Z-0.200 F100.000
G1 X51.709 Y-74.627 Z-0.200 F150.000
G2 X51.802 Y-74.636 Z-0.200 I0.027 J-0.225 K0.000 F150.000
G2 X51.731 Y-74.564 Z-0.200 I2.621 J2.701 K0.000 F150.000
G0 Z1.000
G0 X51.744 Y-74.803 Z1.000
G0 X51.744 Y-74.803 Z0.500
G1 X51.744 Y-74.803 Z-0.200 F100.000
G3 X50.514 Y-75.829 Z-0.200 I0.072 J-1.336 K0.000 F150.000
G1 X50.514 Y-75.829 Z-0.200 F150.000
G2 X50.006 Y-76.895 Z-0.200 I-2.357 J0.469 K0.000 F150.000
G2 X48.617 Y-77.864 Z-0.200 I-3.068 J2.919 K0.000 F150.000
G3 X47.426 Y-79.181 Z-0.200 I0.905 J-2.015 K0.000 F150.000
G3 X47.707 Y-81.607 Z-0.200 I70.744 J6.963 K0.000 F150.000
G3 X48.251 Y-82.612 Z-0.200 I1.253 J0.029 K0.000 F150.000
G3 X50.270 Y-83.205 Z-0.200 I2.362 J4.309 K0.000 F150.000
G3 X51.329 Y-82.897 Z-0.200 I0.102 J1.627 K0.000 F150.000
G3 X52.504 Y-81.661 Z-0.200 I-1.632 J2.725 K0.000 F150.000
G3 X52.424 Y-79.991 Z-0.200 I-2.910 J0.698 K0.000 F150.000
G1 X52.424 Y-79.991 Z-0.200 F150.000
G1 X52.378 Y-79.817 Z-0.200 F150.000
G2 X52.681 Y-78.998 Z-0.200 I1.460 J-0.075 K0.000 F150.000
G3 X53.785 Y-76.949 Z-0.200 I-3.636 J3.283 K0.000 F150.000
G3 X53.700 Y-75.939 Z-0.200 I-1.036 J0.421 K0.000 F150.000
G3 X52.403 Y-75.142 Z-0.200 I-3.165 J-3.692 K0.000 F150.000
G3 X51.822 Y-74.801 Z-0.200 I-1.088 J-1.191 K0.000 F150.000
G3 X51.744 Y-74.803 Z-0.200 I-0.006 J-1.338 K0.000 F150.000
G0 Z1.000
G0 X51.749 Y-74.879 Z1.000
G0 X51.749 Y-74.879 Z0.500
G1 X51.749 Y-74.879 Z-0.200 F100.000
G3 X50.592 Y-75.851 Z-0.200 I0.095 J-1.288 K0.000 F150.000
G1 X50.592 Y-75.851 Z-0.200 F150.000
G2 X50.069 Y-76.946 Z-0.200 I-2.432 J0.489 K0.000 F150.000
G2 X48.655 Y-77.935 Z-0.200 I-3.123 J2.958 K0.000 F150.000
G3 X47.504 Y-79.197 Z-0.200 I0.868 J-1.947 K0.000 F150.000
G3 X47.786 Y-81.594 Z-0.200 I115.626 J12.374 K0.000 F150.000
G3 X48.297 Y-82.546 Z-0.200 I1.169 J0.014 K0.000 F150.000
G3 X50.279 Y-83.125 Z-0.200 I2.319 J4.255 K0.000 F150.000
G3 X51.287 Y-82.829 Z-0.200 I0.092 J1.550 K0.000 F150.000
G3 X52.432 Y-81.626 Z-0.200 I-1.585 J2.653 K0.000 F150.000
G3 X52.299 Y-79.830 Z-0.200 I-3.069 J0.676 K0.000 F150.000
G2 X52.614 Y-78.953 Z-0.200 I1.523 J-0.053 K0.000 F150.000
G3 X53.642 Y-77.128 Z-0.200 I-3.541 J3.196 K0.000 F150.000
G3 X53.652 Y-76.003 Z-0.200 I-1.055 J0.572 K0.000 F150.000
G3 X52.358 Y-75.208 Z-0.200 I-3.146 J-3.671 K0.000 F150.000
G3 X51.795 Y-74.876 Z-0.200 I-1.051 J-1.139 K0.000 F150.000
G3 X51.749 Y-74.879 Z-0.200 I0.049 J-1.291 K0.000 F150.000
G0 Z1.000
G0 X51.756 Y-74.953 Z1.000
G0 X51.756 Y-74.953 Z0.500
G1 X51.756 Y-74.953 Z-0.200 F100.000
G3 X50.695 Y-75.768 Z-0.200 I0.109 J-1.239 K0.000 F150.000
G2 X50.131 Y-76.996 Z-0.200 I-2.639 J0.470 K0.000 F150.000
G2 X48.693 Y-78.005 Z-0.200 I-3.178 J2.999 K0.000 F150.000
G3 X47.583 Y-79.214 Z-0.200 I0.831 J-1.878 K0.000 F150.000
G2 X47.841 Y-81.439 Z-0.200 I-824.460 J-96.750 K0.000 F150.000
G3 X48.162 Y-82.352 Z-0.200 I1.769 J0.111 K0.000 F150.000
G3 X50.289 Y-83.046 Z-0.200 I2.404 J3.760 K0.000 F150.000
G3 X51.149 Y-82.821 Z-0.200 I0.130 J1.262 K0.000 F150.000
G3 X52.360 Y-81.591 Z-0.200 I-1.490 J2.677 K0.000 F150.000
G3 X52.220 Y-79.843 Z-0.200 I-3.041 J0.635 K0.000 F150.000
G2 X52.548 Y-78.908 Z-0.200 I1.589 J-0.033 K0.000 F150.000
G3 X53.567 Y-77.102 Z-0.200 I-3.486 J3.156 K0.000 F150.000
G3 X53.604 Y-76.067 Z-0.200 I-1.027 J0.555 K0.000 F150.000
G3 X52.313 Y-75.275 Z-0.200 I-3.128 J-3.650 K0.000 F150.000
G3 X51.769 Y-74.952 Z-0.200 I-1.013 J-1.086 K0.000 F150.000
G3 X51.756 Y-74.953 Z-0.200 I0.096 J-1.240 K0.000 F150.000
G0 Z1.000
G0 X52.408 Y-75.041 Z1.000
G0 X52.408 Y-75.041 Z0.500
G1 X52.408 Y-75.041 Z-0.200 F100.000
G3 X52.820 Y-75.265 Z-0.200 I2.274 J3.685 K0.000 F150.000
G2 X52.779 Y-74.971 Z-0.200 I0.352 J0.198 K0.000 F150.000
G2 X52.408 Y-75.041 Z-0.200 I-0.241 J0.261 K0.000 F150.000
G0 Z1.000
G0 X52.693 Y-75.112 Z1.000
G0 X52.693 Y-75.112 Z0.500
G1 X52.693 Y-75.112 Z-0.200 F100.000
G1 X52.694 Y-75.112 Z-0.200 F150.000
G1 X52.694 Y-75.111 Z-0.200 F150.000
G1 X52.693 Y-75.112 Z-0.200 F150.000
G0 Z1.000
G0 X52.854 Y-75.091 Z1.000
G0 X52.854 Y-75.091 Z0.500
G1 X52.854 Y-75.091 Z-0.200 F100.000
G3 X53.021 Y-75.362 Z-0.200 I0.385 J0.050 K0.000 F150.000
G3 X53.606 Y-75.180 Z-0.200 I0.187 J0.430 K0.000 F150.000
G3 X56.048 Y-71.901 Z-0.200 I-36.293 J29.575 K0.000 F150.000
G2 X57.792 Y-69.485 Z-0.200 I25.261 J-16.395 K0.000 F150.000
G3 X58.976 Y-68.316 Z-0.200 I-134.299 J137.156 K0.000 F150.000
G3 X59.105 Y-67.848 Z-0.200 I-0.228 J0.315 K0.000 F150.000
G3 X58.269 Y-67.133 Z-0.200 I-3.116 J-2.796 K0.000 F150.000
G3 X57.866 Y-67.246 Z-0.200 I-0.160 J-0.205 K0.000 F150.000
G2 X57.532 Y-67.980 Z-0.200 I-2.376 J0.639 K0.000 F150.000
G2 X56.842 Y-68.841 Z-0.200 I-80.489 J63.877 K0.000 F150.000
G3 X56.594 Y-69.475 Z-0.200 I21.197 J-8.660 K0.000 F150.000
G2 X52.952 Y-74.779 Z-0.200 I-259.322 J174.157 K0.000 F150.000
G3 X52.854 Y-75.091 Z-0.200 I0.287 J-0.262 K0.000 F150.000
G0 Z1.000
G0 X52.932 Y-75.081 Z1.000
G0 X52.932 Y-75.081 Z0.500
G1 X52.932 Y-75.081 Z-0.200 F100.000
G3 X53.054 Y-75.289 Z-0.200 I0.308 J0.040 K0.000 F150.000
G3 X53.550 Y-75.123 Z-0.200 I0.155 J0.361 K0.000 F150.000
G3 X55.983 Y-71.855 Z-0.200 I-37.035 J30.105 K0.000 F150.000
G2 X57.733 Y-69.431 Z-0.200 I25.286 J-16.413 K0.000 F150.000
G3 X58.918 Y-68.260 Z-0.200 I-135.689 J138.560 K0.000 F150.000
G3 X59.042 Y-67.896 Z-0.200 I-0.174 J0.262 K0.000 F150.000
G3 X58.220 Y-67.196 Z-0.200 I-3.072 J-2.770 K0.000 F150.000
G3 X57.941 Y-67.275 Z-0.200 I-0.111 J-0.142 K0.000 F150.000
G2 X57.599 Y-68.025 Z-0.200 I-2.437 J0.659 K0.000 F150.000
G2 X56.906 Y-68.888 Z-0.200 I-76.119 J60.347 K0.000 F150.000
G3 X56.664 Y-69.512 Z-0.200 I23.194 J-9.343 K0.000 F150.000
G2 X53.019 Y-74.822 Z-0.200 I-255.621 J171.586 K0.000 F150.000
G3 X52.932 Y-75.081 Z-0.200 I0.220 J-0.219 K0.000 F150.000
G0 Z1.000
G0 X53.009 Y-75.071 Z1.000
G0 X53.009 Y-75.071 Z0.500
G1 X53.009 Y-75.071 Z-0.200 F100.000
G3 X53.086 Y-75.216 Z-0.200 I0.232 J0.030 K0.000 F150.000
G3 X53.434 Y-75.124 Z-0.200 I0.128 J0.221 K0.000 F150.000
G3 X55.917 Y-71.809 Z-0.200 I-27.150 J22.924 K0.000 F150.000
G2 X57.674 Y-69.377 Z-0.200 I25.313 J-16.432 K0.000 F150.000
G3 X58.861 Y-68.204 Z-0.200 I-137.089 J139.974 K0.000 F150.000
G3 X58.978 Y-67.945 Z-0.200 I-0.123 J0.212 K0.000 F150.000
G3 X58.171 Y-67.259 Z-0.200 I-3.030 J-2.747 K0.000 F150.000
G3 X58.016 Y-67.303 Z-0.200 I-0.061 J-0.079 K0.000 F150.000
G2 X57.665 Y-68.070 Z-0.200 I-2.499 J0.680 K0.000 F150.000
G2 X56.970 Y-68.936 Z-0.200 I-72.354 J57.304 K0.000 F150.000
G3 X56.735 Y-69.550 Z-0.200 I28.522 J-11.283 K0.000 F150.000
G2 X53.087 Y-74.865 Z-0.200 I-252.054 J169.107 K0.000 F150.000
G3 X53.009 Y-75.071 Z-0.200 I0.154 J-0.176 K0.000 F150.000
G0 Z1.000
G0 X53.217 Y-75.475 Z1.000
G0 X53.217 Y-75.475 Z0.500
G1 X53.217 Y-75.475 Z-0.200 F100.000
G2 X53.852 Y-76.002 Z-0.200 I-1.495 J-2.445 K0.000 F150.000
G2 X53.763 Y-77.268 Z-0.200 I-1.442 J-0.535 K0.000 F150.000
G2 X53.174 Y-78.492 Z-0.200 I-4.215 J1.273 K0.000 F150.000
G2 X53.571 Y-78.485 Z-0.200 I0.204 J-0.339 K0.000 F150.000
G2 X53.692 Y-77.888 Z-0.200 I0.574 J0.195 K0.000 F150.000
G3 X54.029 Y-76.373 Z-0.200 I-3.454 J1.565 K0.000 F150.000
G3 X53.922 Y-75.691 Z-0.200 I-1.164 J0.166 K0.000 F150.000
G2 X53.748 Y-75.152 Z-0.200 I1.008 J0.623 K0.000 F150.000
G1 X53.757 Y-75.129 Z-0.200 F150.000
G2 X53.217 Y-75.475 Z-0.200 I-0.619 J0.372 K0.000 F150.000
G0 Z1.000
G0 X53.422 Y-75.515 Z1.000
G0 X53.422 Y-75.515 Z0.500
G1 X53.422 Y-75.515 Z-0.200 F100.000
G2 X53.922 Y-75.966 Z-0.200 I-1.515 J-2.183 K0.000 F150.000
G3 X53.692 Y-75.319 Z-0.200 I-4.556 J-1.257 K0.000 F150.000
G2 X53.422 Y-75.515 Z-0.200 I-0.642 J0.599 K0.000 F150.000
G0 Z1.000
G0 X53.569 Y-75.525 Z1.000
G0 X53.569 Y-75.525 Z0.500
G1 X53.569 Y-75.525 Z-0.200 F100.000
G2 X53.740 Y-75.667 Z-0.200 I-1.066 J-1.454 K0.000 F150.000
G1 X53.656 Y-75.458 Z-0.200 F150.000
G1 X53.569 Y-75.525 Z-0.200 F150.000
G0 Z1.000
G0 X53.244 Y-74.209 Z1.000
G0 X53.244 Y-74.209 Z0.500
G1 X53.244 Y-74.209 Z-0.200 F100.000
G3 X53.509 Y-73.845 Z-0.200 I-25.987 J19.177 K0.000 F150.000
G2 X53.174 Y-73.828 Z-0.200 I-0.156 J0.231 K0.000 F150.000
G2 X53.244 Y-74.209 Z-0.200 I-0.483 J-0.286 K0.000 F150.000
G0 Z1.000
G0 X53.313 Y-73.979 Z1.000
G0 X53.313 Y-73.979 Z0.500
G1 X53.313 Y-73.979 Z-0.200 F100.000
G1 X53.322 Y-73.967 Z-0.200 F150.000
G1 X53.310 Y-73.964 Z-0.200 F150.000
G1 X53.313 Y-73.979 Z-0.200 F150.000
G0 Z1.000
G0 X53.786 Y-77.435 Z1.000
G0 X53.786 Y-77.435 Z0.500
G1 X53.786 Y-77.435 Z-0.200 F100.000
G2 X53.530 Y-78.017 Z-0.200 I-3.623 J1.249 K0.000 F150.000
G3 X53.786 Y-77.435 Z-0.200 I-1.544 J1.027 K0.000 F150.000
G0 Z1.000
G0 X53.476 Y-78.131 Z1.000
G0 X53.476 Y-78.131 Z0.500
G1 X53.476 Y-78.131 Z-0.200 F100.000
G2 X53.354 Y-78.359 Z-0.200 I-0.939 J0.357 K0.000 F150.000
G2 X53.443 Y-78.358 Z-0.200 I0.045 J-0.084 K0.000 F150.000
G2 X53.476 Y-78.131 Z-0.200 I0.400 J0.057 K0.000 F150.000
G0 Z1.000
G0 X53.423 Y-78.525 Z1.000
G0 X53.423 Y-78.525 Z0.500
G1 X53.423 Y-78.525 Z-0.200 F100.000
G3 X53.301 Y-78.524 Z-0.200 I-0.062 J-0.459 K0.000 F150.000
G3 X52.588 Y-79.300 Z-0.200 I0.706 J-1.366 K0.000 F150.000
G3 X52.481 Y-80.060 Z-0.200 I0.670 J-0.481 K0.000 F150.000
G2 X52.667 Y-80.744 Z-0.200 I-1.505 J-0.776 K0.000 F150.000
G3 X52.671 Y-82.037 Z-0.200 I9.051 J-0.618 K0.000 F150.000
G2 X52.907 Y-83.134 Z-0.200 I-2.683 J-1.153 K0.000 F150.000
G3 X53.050 Y-83.901 Z-0.200 I1.535 J-0.112 K0.000 F150.000
G3 X53.419 Y-84.010 Z-0.200 I0.259 J0.201 K0.000 F150.000
G2 X55.032 Y-83.835 Z-0.200 I2.301 J-13.703 K0.000 F150.000
G3 X55.534 Y-83.559 Z-0.200 I-0.028 J0.646 K0.000 F150.000
G3 X55.629 Y-82.528 Z-0.200 I-3.792 J0.869 K0.000 F150.000
G3 X55.432 Y-81.227 Z-0.200 I-2.861 J0.232 K0.000 F150.000
G3 X54.238 Y-79.395 Z-0.200 I-12.552 J-6.874 K0.000 F150.000
G1 X54.163 Y-79.288 Z-0.200 F150.000
G1 X54.163 Y-79.288 Z-0.200 F150.000
G3 X53.759 Y-78.745 Z-0.200 I-5.535 J-3.699 K0.000 F150.000
G3 X53.423 Y-78.525 Z-0.200 I-0.397 J-0.238 K0.000 F150.000
G0 Z1.000
G0 X53.413 Y-78.602 Z1.000
G0 X53.413 Y-78.602 Z0.500
G1 X53.413 Y-78.602 Z-0.200 F100.000
G3 X53.329 Y-78.600 Z-0.200 I-0.051 J-0.379 K0.000 F150.000
G3 X52.657 Y-79.340 Z-0.200 I0.722 J-1.330 K0.000 F150.000
G3 X52.557 Y-80.035 Z-0.200 I0.594 J-0.440 K0.000 F150.000
G2 X52.747 Y-80.743 Z-0.200 I-1.560 J-0.798 K0.000 F150.000
G3 X52.750 Y-82.025 Z-0.200 I9.045 J-0.619 K0.000 F150.000
G2 X52.987 Y-83.128 Z-0.200 I-2.678 J-1.153 K0.000 F150.000
G3 X53.117 Y-83.858 Z-0.200 I1.467 J-0.116 K0.000 F150.000
G3 X53.396 Y-83.933 Z-0.200 I0.192 J0.158 K0.000 F150.000
G2 X55.022 Y-83.755 Z-0.200 I2.281 J-13.364 K0.000 F150.000
G3 X55.460 Y-83.531 Z-0.200 I-0.066 J0.665 K0.000 F150.000
G3 X55.549 Y-82.527 Z-0.200 I-3.782 J0.843 K0.000 F150.000
G3 X55.357 Y-81.255 Z-0.200 I-2.773 J0.232 K0.000 F150.000
G3 X53.697 Y-78.797 Z-0.200 I-21.248 J-12.555 K0.000 F150.000
G3 X53.413 Y-78.602 Z-0.200 I-0.336 J-0.184 K0.000 F150.000
G0 Z1.000
G0 X53.388 Y-78.683 Z1.000
G0 X53.388 Y-78.683 Z0.500
G1 X53.388 Y-78.683 Z-0.200 F100.000
G3 X53.356 Y-78.675 Z-0.200 I-0.165 J-0.548 K0.000 F150.000
G3 X52.813 Y-79.230 Z-0.200 I0.586 J-1.116 K0.000 F150.000
G3 X52.632 Y-80.009 Z-0.200 I0.654 J-0.562 K0.000 F150.000
G2 X52.827 Y-80.742 Z-0.200 I-1.614 J-0.820 K0.000 F150.000
G3 X52.829 Y-82.012 Z-0.200 I9.042 J-0.620 K0.000 F150.000
G2 X53.067 Y-83.121 Z-0.200 I-2.671 J-1.154 K0.000 F150.000
G3 X53.184 Y-83.814 Z-0.200 I1.401 J-0.120 K0.000 F150.000
G3 X53.374 Y-83.856 Z-0.200 I0.125 J0.116 K0.000 F150.000
G2 X55.012 Y-83.676 Z-0.200 I2.266 J-13.072 K0.000 F150.000
G3 X55.385 Y-83.502 Z-0.200 I-0.060 J0.615 K0.000 F150.000
G3 X55.469 Y-82.526 Z-0.200 I-3.783 J0.818 K0.000 F150.000
G3 X55.282 Y-81.283 Z-0.200 I-2.684 J0.232 K0.000 F150.000
G3 X53.722 Y-78.950 Z-0.200 I-23.727 J-14.181 K0.000 F150.000
G3 X53.388 Y-78.683 Z-0.200 I-0.499 J-0.281 K0.000 F150.000
G0 Z1.000
G0 X52.552 Y-81.741 Z1.000
G0 X52.552 Y-81.741 Z0.500
G1 X52.552 Y-81.741 Z-0.200 F100.000
G2 X52.225 Y-82.248 Z-0.200 I-1.589 J0.669 K0.000 F150.000
G2 X52.662 Y-82.247 Z-0.200 I0.220 J-0.320 K0.000 F150.000
G2 X52.552 Y-81.741 Z-0.200 I1.040 J0.491 K0.000 F150.000
G0 Z1.000
G0 X52.505 Y-82.010 Z1.000
G0 X52.505 Y-82.010 Z0.500
G1 X52.505 Y-82.010 Z-0.200 F100.000
G2 X52.440 Y-82.107 Z-0.200 I-0.339 J0.158 K0.000 F150.000
G2 X52.527 Y-82.113 Z-0.200 I0.036 J-0.105 K0.000 F150.000
G2 X52.505 Y-82.010 Z-0.200 I0.395 J0.136 K0.000 F150.000
G0 Z1.000
G0 X52.497 Y-82.264 Z1.000
G0 X52.497 Y-82.264 Z0.500
G1 X52.497 Y-82.264 Z-0.200 F100.000
G3 X51.962 Y-82.554 Z-0.200 I0.019 J-0.675 K0.000 F150.000
G1 X51.962 Y-82.554 Z-0.200 F150.000
G2 X50.576 Y-83.282 Z-0.200 I-2.271 J2.638 K0.000 F150.000
G2 X48.321 Y-82.751 Z-0.200 I-0.098 J4.635 K0.000 F150.000
G3 X47.346 Y-82.158 Z-0.200 I-3.526 J-4.697 K0.000 F150.000
G2 X46.064 Y-81.946 Z-0.200 I0.041 J4.229 K0.000 F150.000
G2 X44.679 Y-81.277 Z-0.200 I4.665 J11.435 K0.000 F150.000
G3 X43.559 Y-81.002 Z-0.200 I-19.844 J-78.364 K0.000 F150.000
G3 X42.831 Y-80.938 Z-0.200 I-0.444 J-0.870 K0.000 F150.000
G3 X42.013 Y-81.942 Z-0.200 I2.420 J-2.808 K0.000 F150.000
G3 X41.910 Y-82.602 Z-0.200 I0.455 J-0.409 K0.000 F150.000
G3 X43.461 Y-83.586 Z-0.200 I2.298 J1.911 K0.000 F150.000
G3 X46.037 Y-83.765 Z-0.200 I2.715 J20.355 K0.000 F150.000
G2 X47.329 Y-84.009 Z-0.200 I0.112 J-2.950 K0.000 F150.000
G2 X49.040 Y-84.904 Z-0.200 I-28.582 J-56.801 K0.000 F150.000
G3 X49.583 Y-84.968 Z-0.200 I0.404 J1.090 K0.000 F150.000
G3 X51.542 Y-84.535 Z-0.200 I-2.211 J14.666 K0.000 F150.000
G3 X52.469 Y-84.213 Z-0.200 I-0.254 J2.226 K0.000 F150.000
G2 X52.765 Y-83.746 Z-0.200 I6.462 J-3.761 K0.000 F150.000
G3 X52.849 Y-82.762 Z-0.200 I-1.786 J0.647 K0.000 F150.000
G3 X52.497 Y-82.264 Z-0.200 I-0.500 J0.020 K0.000 F150.000
G0 Z1.000
G0 X52.485 Y-82.353 Z1.000
G0 X52.485 Y-82.353 Z0.500
G1 X52.485 Y-82.353 Z-0.200 F100.000
G3 X52.212 Y-82.445 Z-0.200 I-0.045 J-0.317 K0.000 F150.000
G2 X50.588 Y-83.362 Z-0.200 I-2.640 J2.778 K0.000 F150.000
G2 X48.280 Y-82.820 Z-0.200 I-0.113 J4.704 K0.000 F150.000
G3 X47.324 Y-82.235 Z-0.200 I-3.541 J-4.714 K0.000 F150.000
G2 X45.590 Y-81.823 Z-0.200 I-0.014 J3.798 K0.000 F150.000
G3 X43.624 Y-81.104 Z-0.200 I-2.790 J-4.575 K0.000 F150.000
G3 X42.958 Y-80.969 Z-0.200 I-0.723 J-1.861 K0.000 F150.000
G3 X42.081 Y-81.985 Z-0.200 I1.656 J-2.317 K0.000 F150.000
G3 X41.979 Y-82.563 Z-0.200 I0.383 J-0.365 K0.000 F150.000
G3 X43.478 Y-83.507 Z-0.200 I2.236 J1.888 K0.000 F150.000
G3 X46.042 Y-83.686 Z-0.200 I2.705 J20.385 K0.000 F150.000
G2 X47.363 Y-83.937 Z-0.200 I0.109 J-3.023 K0.000 F150.000
G2 X49.073 Y-84.830 Z-0.200 I-28.180 J-56.023 K0.000 F150.000
G3 X49.580 Y-84.888 Z-0.200 I0.372 J1.019 K0.000 F150.000
G3 X51.524 Y-84.457 Z-0.200 I-2.249 J14.757 K0.000 F150.000
G3 X52.416 Y-84.153 Z-0.200 I-0.240 J2.166 K0.000 F150.000
G2 X52.701 Y-83.698 Z-0.200 I4.347 J-2.401 K0.000 F150.000
G3 X52.758 Y-82.703 Z-0.200 I-1.803 J0.603 K0.000 F150.000
G3 X52.485 Y-82.353 Z-0.200 I-0.318 J0.033 K0.000 F150.000
G0 Z1.000
G0 X52.471 Y-82.424 Z1.000
G0 X52.471 Y-82.424 Z0.500
G1 X52.471 Y-82.424 Z-0.200 F100.000
G3 X52.258 Y-82.510 Z-0.200 I-0.039 J-0.210 K0.000 F150.000
G2 X50.600 Y-83.441 Z-0.200 I-2.674 J2.820 K0.000 F150.000
G2 X48.239 Y-82.889 Z-0.200 I-0.128 J4.774 K0.000 F150.000
G3 X47.301 Y-82.312 Z-0.200 I-3.564 J-4.742 K0.000 F150.000
G2 X45.174 Y-81.694 Z-0.200 I-0.025 J3.888 K0.000 F150.000
G3 X43.666 Y-81.197 Z-0.200 I-2.186 J-4.092 K0.000 F150.000
G3 X42.971 Y-81.048 Z-0.200 I-1.024 J-3.079 K0.000 F150.000
G3 X42.246 Y-81.872 Z-0.200 I1.489 J-2.042 K0.000 F150.000
G3 X42.011 Y-82.449 Z-0.200 I0.607 J-0.583 K0.000 F150.000
G3 X43.494 Y-83.429 Z-0.200 I2.131 J1.614 K0.000 F150.000
G3 X46.046 Y-83.606 Z-0.200 I2.695 J20.418 K0.000 F150.000
G2 X47.396 Y-83.864 Z-0.200 I0.106 J-3.096 K0.000 F150.000
G2 X49.105 Y-84.757 Z-0.200 I-27.787 J-55.264 K0.000 F150.000
G3 X49.577 Y-84.808 Z-0.200 I0.341 J0.948 K0.000 F150.000
G3 X51.505 Y-84.379 Z-0.200 I-2.290 J14.858 K0.000 F150.000
G3 X52.363 Y-84.094 Z-0.200 I-0.227 J2.110 K0.000 F150.000
G2 X52.636 Y-83.650 Z-0.200 I2.874 J-1.468 K0.000 F150.000
G3 X52.634 Y-82.565 Z-0.200 I-1.784 J0.539 K0.000 F150.000
G3 X52.471 Y-82.424 Z-0.200 I-0.202 J-0.069 K0.000 F150.000
G0 Z1.000
G0 X52.881 Y-83.688 Z1.000
G0 X52.881 Y-83.688 Z0.500
G1 X52.881 Y-83.688 Z-0.200 F100.000
G3 X52.644 Y-84.077 Z-0.200 I13.914 J-8.759 K0.000 F150.000
G2 X52.605 Y-84.161 Z-0.200 I-0.218 J0.049 K0.000 F150.000
G2 X53.042 Y-84.014 Z-0.200 I0.613 J-1.103 K0.000 F150.000
G2 X52.881 Y-83.688 Z-0.200 I0.399 J0.401 K0.000 F150.000
G0 Z1.000
G0 X52.859 Y-83.886 Z1.000
G0 X52.859 Y-83.886 Z0.500
G1 X52.859 Y-83.886 Z-0.200 F100.000
G2 X52.767 Y-84.002 Z-0.200 I-1.117 J0.792 K0.000 F150.000
G2 X52.898 Y-83.961 Z-0.200 I0.205 J-0.423 K0.000 F150.000
G2 X52.859 Y-83.886 Z-0.200 I0.243 J0.172 K0.000 F150.000
G0 Z1.000
G0 X49.584 Y-85.048 Z1.000
G0 X49.584 Y-85.048 Z0.500
G1 X49.584 Y-85.048 Z-0.200 F100.000
G1 X49.425 Y-85.051 Z-0.200 F150.000
G3 X49.584 Y-85.048 Z-0.200 I0.072 J0.438 K0.000 F150.000
G1 X49.584 Y-85.048 Z-0.200 F150.000
G0 Z1.000
G0 X47.845 Y-82.330 Z1.000
G0 X47.845 Y-82.330 Z0.500
G1 X47.845 Y-82.330 Z-0.200 F100.000
G2 X47.525 Y-80.919 Z-0.200 I4.522 J1.767 K0.000 F150.000
G2 X47.348 Y-79.164 Z-0.200 I33.689 J4.282 K0.000 F150.000
G2 X47.521 Y-78.749 Z-0.200 I1.113 J-0.220 K0.000 F150.000
G2 X47.086 Y-78.707 Z-0.200 I-0.191 J0.302 K0.000 F150.000
G2 X47.214 Y-80.104 Z-0.200 I-2.992 J-0.979 K0.000 F150.000
G3 X47.323 Y-81.334 Z-0.200 I3.422 J-0.316 K0.000 F150.000
G2 X47.469 Y-81.839 Z-0.200 I-0.952 J-0.550 K0.000 F150.000
G2 X47.315 Y-82.075 Z-0.200 I-0.302 J0.029 K0.000 F150.000
G2 X47.845 Y-82.330 Z-0.200 I-0.187 J-1.068 K0.000 F150.000
G0 Z1.000
G0 X47.665 Y-82.121 Z1.000
G0 X47.665 Y-82.121 Z0.500
G1 X47.665 Y-82.121 Z-0.200 F100.000
G2 X47.303 Y-79.595 Z-0.200 I16.410 J3.642 K0.000 F150.000
G3 X47.340 Y-81.084 Z-0.200 I13.213 J-0.420 K0.000 F150.000
G3 X47.526 Y-81.650 Z-0.200 I2.935 J0.651 K0.000 F150.000
G2 X47.471 Y-82.031 Z-0.200 I-0.290 J-0.153 K0.000 F150.000
G2 X47.665 Y-82.121 Z-0.200 I-0.203 J-0.696 K0.000 F150.000
G0 Z1.000
G0 X47.277 Y-79.113 Z1.000
G0 X47.277 Y-79.113 Z0.500
G1 X47.277 Y-79.113 Z-0.200 F100.000
G2 X47.364 Y-78.873 Z-0.200 I0.743 J-0.133 K0.000 F150.000
G2 X47.213 Y-78.860 Z-0.200 I-0.060 J0.186 K0.000 F150.000
G2 X47.277 Y-79.113 Z-0.200 I-2.864 J-0.860 K0.000 F150.000
G0 Z1.000
G0 X57.879 Y-67.090 Z1.000
G0 X57.879 Y-67.090 Z0.500
G1 X57.879 Y-67.090 Z-0.200 F100.000
G2 X58.090 Y-67.008 Z-0.200 I0.180 J-0.150 K0.000 F150.000
G3 X57.925 Y-66.906 Z-0.200 I-0.608 J-0.804 K0.000 F150.000
G2 X57.879 Y-67.090 Z-0.200 I-21.123 J5.161 K0.000 F150.000
G0 Z1.000
G0 X59.226 Y-67.989 Z1.000
G0 X59.226 Y-67.989 Z0.500
G1 X59.226 Y-67.989 Z-0.200 F100.000
G2 X59.180 Y-68.196 Z-0.200 I-0.263 J-0.050 K0.000 F150.000
G1 X59.276 Y-68.085 Z-0.200 F150.000
G3 X59.226 Y-67.989 Z-0.200 I-0.468 J-0.182 K0.000 F150.000
G0 Z1.000
G0 X54.897 Y-62.948 Z1.000
G0 X54.897 Y-62.948 Z0.500
G1 X54.897 Y-62.948 Z-0.200 F100.000
G3 X54.648 Y-62.661 Z-0.200 I-0.529 J-0.207 K0.000 F150.000
G3 X54.581 Y-63.009 Z-0.200 I1.041 J-0.381 K0.000 F150.000
G2 X54.897 Y-62.948 Z-0.200 I0.206 J-0.221 K0.000 F150.000
G0 Z1.000
G0 X54.731 Y-62.861 Z1.000
G0 X54.731 Y-62.861 Z0.500
G1 X54.731 Y-62.861 Z-0.200 F100.000
G1 X54.685 Y-62.809 Z-0.200 F150.000
G3 X54.677 Y-62.866 Z-0.200 I0.886 J-0.160 K0.000 F150.000
G1 X54.731 Y-62.861 Z-0.200 F150.000
G0 Z1.000
G0 Z1.000
G0 X54.731 Y-62.861
G0 X50.671 Y-78.959
G0 X50.671 Y-78.959 Z0.500
G1 X50.671 Y-78.959 Z-0.200 F100.000
G3 X49.839 Y-78.900 Z-0.200 I-0.582 J-2.309 K0.000 F150.000
G3 X49.425 Y-80.725 Z-0.200 I1.339 J-1.263 K0.000 F150.000
G3 X50.423 Y-81.121 Z-0.200 I0.744 J0.419 K0.000 F150.000
G3 X51.372 Y-80.015 Z-0.200 I-0.653 J1.521 K0.000 F150.000
G3 X50.982 Y-79.061 Z-0.200 I-0.785 J0.236 K0.000 F150.000
G3 X50.671 Y-78.959 Z-0.200 I-0.894 J-2.207 K0.000 F150.000
G0 Z1.000
G0 X50.646 Y-79.043 Z1.000
G0 X50.646 Y-79.043 Z0.500
G1 X50.646 Y-79.043 Z-0.200 F100.000
G1 X50.617 Y-79.035 Z-0.200 F150.000
G3 X49.865 Y-78.980 Z-0.200 I-0.479 J-1.386 K0.000 F150.000
G3 X49.494 Y-80.684 Z-0.200 I1.345 J-1.185 K0.000 F150.000
G3 X50.590 Y-80.948 Z-0.200 I0.663 J0.346 K0.000 F150.000
G3 X51.289 Y-80.021 Z-0.200 I-0.839 J1.360 K0.000 F150.000
G3 X50.677 Y-79.052 Z-0.200 I-0.676 J0.250 K0.000 F150.000
G1 X50.646 Y-79.043 Z-0.200 F150.000
G0 Z1.000
G0 X50.624 Y-79.120 Z1.000
G0 X50.624 Y-79.120 Z0.500
G1 X50.624 Y-79.120 Z-0.200 F100.000
G1 X50.595 Y-79.112 Z-0.200 F150.000
G3 X49.917 Y-79.041 Z-0.200 I-0.546 J-1.936 K0.000 F150.000
G3 X49.565 Y-80.645 Z-0.200 I1.302 J-1.127 K0.000 F150.000
G3 X50.546 Y-80.880 Z-0.200 I0.592 J0.307 K0.000 F150.000
G3 X51.211 Y-80.002 Z-0.200 I-0.790 J1.289 K0.000 F150.000
G3 X50.655 Y-79.129 Z-0.200 I-0.601 J0.230 K0.000 F150.000
G1 X50.624 Y-79.120 Z-0.200 F150.000
G0 Z1.000
G0 X50.607 Y-79.227 Z1.000
G0 X50.607 Y-79.227 Z0.500
G1 X50.607 Y-79.227 Z-0.200 F100.000
G3 X50.574 Y-79.222 Z-0.200 I-0.113 J-0.704 K0.000 F150.000
G3 X49.673 Y-79.559 Z-0.200 I-0.301 J-0.568 K0.000 F150.000
G3 X49.999 Y-80.903 Z-0.200 I0.790 J-0.520 K0.000 F150.000
G3 X50.288 Y-80.939 Z-0.200 I0.185 J0.313 K0.000 F150.000
G3 X50.936 Y-80.359 Z-0.200 I-0.719 J1.456 K0.000 F150.000
G3 X51.138 Y-79.626 Z-0.200 I-0.514 J0.536 K0.000 F150.000
G3 X50.607 Y-79.227 Z-0.200 I-0.645 J-0.305 K0.000 F150.000
G0 Z1.000
G0 X50.594 Y-79.304 Z1.000
G0 X50.594 Y-79.304 Z0.500
G1 X50.594 Y-79.304 Z-0.200 F100.000
G3 X50.550 Y-79.299 Z-0.200 I-0.101 J-0.627 K0.000 F150.000
G3 X49.742 Y-79.600 Z-0.200 I-0.276 J-0.495 K0.000 F150.000
G3 X49.940 Y-80.767 Z-0.200 I0.727 J-0.478 K0.000 F150.000
G3 X50.257 Y-80.865 Z-0.200 I0.259 J0.277 K0.000 F150.000
G3 X50.875 Y-80.308 Z-0.200 I-0.694 J1.390 K0.000 F150.000
G3 X51.060 Y-79.644 Z-0.200 I-0.450 J0.483 K0.000 F150.000
G3 X50.594 Y-79.304 Z-0.200 I-0.567 J-0.287 K0.000 F150.000
G0 Z1.000
G0 X50.574 Y-79.386 Z1.000
G0 X50.574 Y-79.386 Z0.500
G1 X50.574 Y-79.386 Z-0.200 F100.000
G3 X50.527 Y-79.375 Z-0.200 I-0.190 J-0.749 K0.000 F150.000
G3 X49.811 Y-79.640 Z-0.200 I-0.248 J-0.430 K0.000 F150.000
G3 X49.992 Y-80.707 Z-0.200 I0.656 J-0.437 K0.000 F150.000
G3 X50.226 Y-80.791 Z-0.200 I0.211 J0.217 K0.000 F150.000
G3 X50.814 Y-80.256 Z-0.200 I-0.669 J1.324 K0.000 F150.000
G3 X50.965 Y-79.626 Z-0.200 I-0.371 J0.422 K0.000 F150.000
G3 X50.574 Y-79.386 Z-0.200 I-0.582 J-0.508 K0.000 F150.000
G0 Z1.000
G0 X50.026 Y-79.110 Z1.000
G0 X50.026 Y-79.110 Z0.500
G1 X50.026 Y-79.110 Z-0.200 F100.000
G3 X49.928 Y-79.153 Z-0.200 I-0.029 J-0.067 K0.000 F150.000
G2 X50.026 Y-79.110 Z-0.200 I0.134 J-0.174 K0.000 F150.000
G0 Z1.000
G0 Z1.000
G0 X50.026 Y-79.110
G0 X48.930 Y-80.837
G0 X48.930 Y-80.837 Z0.500
G1 X48.930 Y-80.837 Z-0.200 F100.000
G3 X48.441 Y-80.567 Z-0.200 I-2.477 J-3.905 K0.000 F150.000
G3 X48.497 Y-80.997 Z-0.200 I0.167 J-0.197 K0.000 F150.000
G3 X49.719 Y-81.853 Z-0.200 I2.994 J2.971 K0.000 F150.000
G3 X49.851 Y-81.606 Z-0.200 I0.021 J0.148 K0.000 F150.000
G3 X48.930 Y-80.837 Z-0.200 I-3.399 J-3.136 K0.000 F150.000
G0 Z1.000
G0 X48.889 Y-80.902 Z1.000
G0 X48.889 Y-80.902 Z0.500
G1 X48.889 Y-80.902 Z-0.200 F100.000
G3 X48.451 Y-80.657 Z-0.200 I-2.385 J-3.750 K0.000 F150.000
G3 X48.551 Y-80.938 Z-0.200 I0.236 J-0.074 K0.000 F150.000
G3 X49.728 Y-81.773 Z-0.200 I3.279 J3.374 K0.000 F150.000
G3 X49.787 Y-81.656 Z-0.200 I0.022 J0.062 K0.000 F150.000
G3 X48.889 Y-80.902 Z-0.200 I-3.283 J-2.995 K0.000 F150.000
G0 Z1.000
G0 X48.846 Y-80.969 Z1.000
G0 X48.846 Y-80.969 Z0.500
G1 X48.846 Y-80.969 Z-0.200 F100.000
G3 X48.521 Y-80.778 Z-0.200 I-2.571 J-3.997 K0.000 F150.000
G3 X49.097 Y-81.281 Z-0.200 I1.600 J1.252 K0.000 F150.000
G3 X49.703 Y-81.675 Z-0.200 I2.311 J2.893 K0.000 F150.000
G3 X48.846 Y-80.969 Z-0.200 I-3.428 J-3.292 K0.000 F150.000
G0 Z1.000
G0 X48.965 Y-81.115 Z1.000
G0 X48.965 Y-81.115 Z0.500
G1 X48.965 Y-81.115 Z-0.200 F100.000
G3 X49.291 Y-81.358 Z-0.200 I3.237 J3.976 K0.000 F150.000
G3 X48.965 Y-81.115 Z-0.200 I-2.387 J-2.843 K0.000 F150.000
G0 Z1.000
G0 Z1.000
G0 X48.965 Y-81.115
G0 X39.985 Y-84.462
G0 X39.985 Y-84.462 Z0.500
G1 X39.985 Y-84.462 Z-0.200 F100.000
G3 X39.528 Y-84.072 Z-0.200 I-0.579 J-0.216 K0.000 F150.000
G3 X39.137 Y-84.043 Z-0.200 I-0.271 J-1.038 K0.000 F150.000
G1 X23.012 Y-85.893 Z-0.200 F150.000
G3 X22.098 Y-86.742 Z-0.200 I0.034 J-0.953 K0.000 F150.000
G1 X22.098 Y-95.175 Z-0.200 F150.000
G3 X22.672 Y-95.787 Z-0.200 I0.635 J0.020 K0.000 F150.000
G1 X22.991 Y-95.795 Z-0.200 F150.000
G1 X39.111 Y-93.947 Z-0.200 F150.000
G3 X40.023 Y-93.097 Z-0.200 I-0.034 J0.952 K0.000 F150.000
G1 X40.023 Y-84.665 Z-0.200 F150.000
G3 X39.985 Y-84.462 Z-0.200 I-0.618 J-0.012 K0.000 F150.000
G0 Z1.000
G0 X39.929 Y-84.478 Z1.000
G0 X39.929 Y-84.478 Z0.500
G1 X39.929 Y-84.478 Z-0.200 F100.000
G3 X39.217 Y-84.091 Z-0.200 I-0.636 J-0.322 K0.000 F150.000
G1 X39.200 Y-84.100 Z-0.200 F150.000
G1 X39.199 Y-84.091 Z-0.200 F150.000
G1 X39.120 Y-84.097 Z-0.200 F150.000
G1 X22.984 Y-85.956 Z-0.200 F150.000
G3 X22.159 Y-86.686 Z-0.200 I0.084 J-0.926 K0.000 F150.000
G1 X22.150 Y-95.155 Z-0.200 F150.000
G3 X22.197 Y-95.370 Z-0.200 I0.521 J0.001 K0.000 F150.000
G3 X22.992 Y-95.744 Z-0.200 I0.649 J0.347 K0.000 F150.000
G1 X39.131 Y-93.870 Z-0.200 F150.000
G3 X39.963 Y-93.129 Z-0.200 I-0.162 J1.019 K0.000 F150.000
G1 X39.973 Y-84.685 Z-0.200 F150.000
G3 X39.929 Y-84.478 Z-0.200 I-0.520 J-0.001 K0.000 F150.000
G0 Z1.000
G0 X39.768 Y-93.574 Z1.000
G0 X39.768 Y-93.574 Z0.500
G1 X39.768 Y-93.574 Z-0.200 F100.000
G1 X39.754 Y-93.588 Z-0.200 F150.000
G3 X39.768 Y-93.574 Z-0.200 I-0.024 J0.037 K0.000 F150.000
G0 Z1.000
G0 Z1.000
G0 X39.768 Y-93.574
G0 X39.118 Y-92.939
G0 X39.118 Y-92.939 Z0.500
G1 X39.118 Y-92.939 Z-0.200 F100.000
G3 X39.166 Y-92.729 Z-0.200 I-0.147 J0.144 K0.000 F150.000
G3 X39.148 Y-89.694 Z-0.200 I-18.376 J1.410 K0.000 F150.000
G2 X39.127 Y-85.049 Z-0.200 I39.945 J2.505 K0.000 F150.000
G2 X39.145 Y-84.846 Z-0.200 I3.785 J-0.230 K0.000 F150.000
G3 X38.112 Y-84.994 Z-0.200 I0.006 J-3.724 K0.000 F150.000
G3 X38.073 Y-87.240 Z-0.200 I21.213 J-1.484 K0.000 F150.000
G2 X38.119 Y-91.590 Z-0.200 I-168.038 J-3.936 K0.000 F150.000
G2 X37.906 Y-91.633 Z-0.200 I-0.109 J-0.007 K0.000 F150.000
G2 X35.832 Y-86.914 Z-0.200 I51.360 J25.389 K0.000 F150.000
G3 X35.188 Y-85.436 Z-0.200 I-6.983 J-2.166 K0.000 F150.000
G3 X35.135 Y-85.361 Z-0.200 I-0.336 J-0.178 K0.000 F150.000
G3 X34.047 Y-85.512 Z-0.200 I-0.289 J-1.909 K0.000 F150.000
G3 X33.920 Y-90.011 Z-0.200 I20.172 J-2.821 K0.000 F150.000
G2 X34.109 Y-93.592 Z-0.200 I-135.578 J-8.954 K0.000 F150.000
G3 X35.155 Y-93.447 Z-0.200 I0.070 J3.338 K0.000 F150.000
G2 X35.133 Y-91.843 Z-0.200 I10987.211 J148.936 K0.000 F150.000
G1 X35.133 Y-91.843 Z-0.200 F150.000
G3 X35.100 Y-89.432 Z-0.200 I-5862.045 J-79.080 K0.000 F150.000
G1 X35.100 Y-89.432 Z-0.200 F150.000
G2 X35.067 Y-86.694 Z-0.200 I45.923 J1.928 K0.000 F150.000
G2 X35.287 Y-86.771 Z-0.200 I0.096 J-0.080 K0.000 F150.000
G3 X37.105 Y-90.966 Z-0.200 I53.671 J20.766 K0.000 F150.000
G2 X37.996 Y-92.648 Z-0.200 I-25.520 J-14.598 K0.000 F150.000
G3 X38.161 Y-93.085 Z-0.200 I0.935 J0.104 K0.000 F150.000
G3 X39.060 Y-92.981 Z-0.200 I0.252 J1.758 K0.000 F150.000
G3 X39.118 Y-92.939 Z-0.200 I-0.089 J0.186 K0.000 F150.000
G0 Z1.000
G0 X39.053 Y-92.892 Z1.000
G0 X39.053 Y-92.892 Z0.500
G1 X39.053 Y-92.892 Z-0.200 F100.000
G3 X39.139 Y-91.161 Z-0.200 I-6.779 J1.204 K0.000 F150.000
G2 X39.047 Y-85.043 Z-0.200 I50.393 J3.819 K0.000 F150.000
G2 X39.056 Y-84.933 Z-0.200 I6.370 J-0.462 K0.000 F150.000
G3 X38.175 Y-85.053 Z-0.200 I-0.127 J-2.356 K0.000 F150.000
G3 X38.195 Y-91.635 Z-0.200 I366.791 J-2.215 K0.000 F150.000
G2 X37.799 Y-91.610 Z-0.200 I-0.194 J0.069 K0.000 F150.000
G2 X35.393 Y-86.029 Z-0.200 I66.749 J32.088 K0.000 F150.000
G3 X35.092 Y-85.438 Z-0.200 I-3.095 J-1.202 K0.000 F150.000
G3 X34.122 Y-85.551 Z-0.200 I-0.181 J-2.670 K0.000 F150.000
G3 X34.000 Y-90.007 Z-0.200 I20.162 J-2.780 K0.000 F150.000
G1 X34.057 Y-90.909 Z-0.200 F150.000
G1 X34.057 Y-90.909 Z-0.200 F150.000
G3 X34.191 Y-93.517 Z-0.200 I1434.359 J72.383 K0.000 F150.000
G3 X35.074 Y-93.398 Z-0.200 I-0.127 J4.279 K0.000 F150.000
G2 X35.063 Y-92.581 Z-0.200 I591.429 J8.388 K0.000 F150.000
G1 X35.063 Y-92.581 Z-0.200 F150.000
G3 X35.022 Y-89.582 Z-0.200 I-6618.417 J-88.670 K0.000 F150.000
G1 X35.022 Y-89.582 Z-0.200 F150.000
G2 X34.991 Y-86.669 Z-0.200 I49.838 J1.993 K0.000 F150.000
G2 X35.361 Y-86.742 Z-0.200 I0.173 J-0.098 K0.000 F150.000
G3 X37.175 Y-90.929 Z-0.200 I53.611 J20.743 K0.000 F150.000
G2 X38.071 Y-92.622 Z-0.200 I-25.086 J-14.360 K0.000 F150.000
G2 X38.202 Y-93.003 Z-0.200 I-4.326 J-1.701 K0.000 F150.000
G1 X38.205 Y-93.006 Z-0.200 F150.000
G3 X39.053 Y-92.892 Z-0.200 I0.239 J1.432 K0.000 F150.000
G0 Z1.000
G0 X38.987 Y-92.834 Z1.000
G0 X38.987 Y-92.834 Z0.500
G1 X38.987 Y-92.834 Z-0.200 F100.000
G3 X39.059 Y-91.162 Z-0.200 I-7.470 J1.159 K0.000 F150.000
G2 X38.967 Y-85.036 Z-0.200 I50.435 J3.820 K0.000 F150.000
G1 X38.969 Y-85.019 Z-0.200 F150.000
G3 X38.254 Y-85.106 Z-0.200 I0.165 J-4.331 K0.000 F150.000
G3 X38.274 Y-91.648 Z-0.200 I397.917 J-2.078 K0.000 F150.000
G2 X37.729 Y-91.648 Z-0.200 I-0.273 J0.076 K0.000 F150.000
G2 X35.319 Y-86.060 Z-0.200 I66.761 J32.102 K0.000 F150.000
G3 X35.048 Y-85.516 Z-0.200 I-3.503 J-1.403 K0.000 F150.000
G3 X34.193 Y-85.611 Z-0.200 I-0.124 J-2.775 K0.000 F150.000
G3 X34.080 Y-90.002 Z-0.200 I20.215 J-2.716 K0.000 F150.000
G2 X34.259 Y-93.435 Z-0.200 I-61.369 J-4.911 K0.000 F150.000
G3 X34.993 Y-93.337 Z-0.200 I-0.249 J4.677 K0.000 F150.000
G2 X34.915 Y-86.644 Z-0.200 I316.137 J7.048 K0.000 F150.000
G2 X35.436 Y-86.714 Z-0.200 I0.249 J-0.121 K0.000 F150.000
G3 X37.246 Y-90.892 Z-0.200 I53.550 J20.720 K0.000 F150.000
G2 X38.147 Y-92.595 Z-0.200 I-24.688 J-14.142 K0.000 F150.000
G2 X38.263 Y-92.927 Z-0.200 I-3.801 J-1.515 K0.000 F150.000
G3 X38.987 Y-92.834 Z-0.200 I0.200 J1.302 K0.000 F150.000
G0 Z1.000
G0 X38.915 Y-92.780 Z1.000
G0 X38.915 Y-92.780 Z0.500
G1 X38.915 Y-92.780 Z-0.200 F100.000
G3 X38.979 Y-91.164 Z-0.200 I-7.458 J1.106 K0.000 F150.000
G2 X38.882 Y-85.105 Z-0.200 I51.729 J3.860 K0.000 F150.000
G3 X38.333 Y-85.170 Z-0.200 I0.219 J-4.258 K0.000 F150.000
G3 X38.354 Y-91.652 Z-0.200 I404.146 J-1.924 K0.000 F150.000
G2 X37.895 Y-91.911 Z-0.200 I-0.322 J0.034 K0.000 F150.000
G2 X38.322 Y-92.849 Z-0.200 I-3.671 J-2.241 K0.000 F150.000
G3 X38.915 Y-92.780 Z-0.200 I0.054 J2.105 K0.000 F150.000
G0 Z1.000
G0 X38.844 Y-92.714 Z1.000
G0 X38.844 Y-92.714 Z0.500
G1 X38.844 Y-92.714 Z-0.200 F100.000
G3 X38.852 Y-90.147 Z-0.200 I-10.894 J1.318 K0.000 F150.000
G1 X38.828 Y-89.709 Z-0.200 F150.000
G2 X38.796 Y-85.193 Z-0.200 I42.688 J2.568 K0.000 F150.000
G3 X38.412 Y-85.234 Z-0.200 I0.304 J-4.692 K0.000 F150.000
G3 X38.433 Y-91.665 Z-0.200 I441.178 J-1.755 K0.000 F150.000
G2 X38.044 Y-92.020 Z-0.200 I-0.400 J0.047 K0.000 F150.000
G2 X38.379 Y-92.770 Z-0.200 I-3.234 J-1.893 K0.000 F150.000
G3 X38.844 Y-92.714 Z-0.200 I-0.007 J2.034 K0.000 F150.000
G0 Z1.000
G0 X38.773 Y-92.646 Z1.000
G0 X38.773 Y-92.646 Z0.500
G1 X38.773 Y-92.646 Z-0.200 F100.000
G3 X38.749 Y-89.713 Z-0.200 I-18.328 J1.314 K0.000 F150.000
G2 X38.710 Y-85.280 Z-0.200 I49.798 J2.651 K0.000 F150.000
G3 X38.491 Y-85.304 Z-0.200 I0.183 J-2.679 K0.000 F150.000
G3 X38.518 Y-91.616 Z-0.200 I337.584 J-1.684 K0.000 F150.000
G2 X38.167 Y-92.078 Z-0.200 I-0.490 J0.008 K0.000 F150.000
G2 X38.434 Y-92.687 Z-0.200 I-2.917 J-1.645 K0.000 F150.000
G3 X38.773 Y-92.646 Z-0.200 I-0.007 J1.481 K0.000 F150.000
G0 Z1.000
G0 X38.700 Y-92.577 Z1.000
G0 X38.700 Y-92.577 Z0.500
G1 X38.700 Y-92.577 Z-0.200 F100.000
G3 X38.669 Y-89.717 Z-0.200 I-18.723 J1.224 K0.000 F150.000
G2 X38.624 Y-85.368 Z-0.200 I52.106 J2.704 K0.000 F150.000
G1 X38.570 Y-85.375 Z-0.200 F150.000
G3 X38.600 Y-91.569 Z-0.200 I307.919 J-1.586 K0.000 F150.000
G2 X38.274 Y-92.116 Z-0.200 I-0.592 J-0.018 K0.000 F150.000
G2 X38.489 Y-92.603 Z-0.200 I-2.405 J-1.354 K0.000 F150.000
G3 X38.700 Y-92.577 Z-0.200 I-0.006 J0.922 K0.000 F150.000
G0 Z1.000
G0 X38.627 Y-92.509 Z1.000
G0 X38.627 Y-92.509 Z0.500
G1 X38.627 Y-92.509 Z-0.200 F100.000
G3 X38.658 Y-91.742 Z-0.200 I-4.688 J0.573 K0.000 F150.000
G2 X38.378 Y-92.149 Z-0.200 I-0.529 J0.064 K0.000 F150.000
G2 X38.545 Y-92.520 Z-0.200 I-1.839 J-1.050 K0.000 F150.000
G3 X38.627 Y-92.509 Z-0.200 I-0.006 J0.362 K0.000 F150.000
G0 Z1.000
G0 X38.563 Y-92.356 Z1.000
G0 X38.563 Y-92.356 Z0.500
G1 X38.563 Y-92.356 Z-0.200 F100.000
G3 X38.578 Y-92.079 Z-0.200 I-2.037 J0.250 K0.000 F150.000
G2 X38.478 Y-92.176 Z-0.200 I-0.198 J0.105 K0.000 F150.000
G1 X38.563 Y-92.356 Z-0.200 F150.000
G0 Z1.000
G0 X34.901 Y-92.406 Z1.000
G0 X34.901 Y-92.406 Z0.500
G1 X34.901 Y-92.406 Z-0.200 F100.000
G3 X34.873 Y-90.401 Z-0.200 I-9681.737 J-130.393 K0.000 F150.000
G2 X34.836 Y-86.626 Z-0.200 I71.078 J2.584 K0.000 F150.000
G2 X35.412 Y-86.508 Z-0.200 I0.319 J-0.093 K0.000 F150.000
G3 X35.002 Y-85.593 Z-0.200 I-5.164 J-1.766 K0.000 F150.000
G3 X34.263 Y-85.674 Z-0.200 I-0.048 J-2.974 K0.000 F150.000
G3 X34.160 Y-89.997 Z-0.200 I20.299 J-2.648 K0.000 F150.000
G1 X34.217 Y-90.899 Z-0.200 F150.000
G2 X34.336 Y-93.350 Z-0.200 I-46.895 J-3.502 K0.000 F150.000
G3 X34.912 Y-93.273 Z-0.200 I-0.346 J4.812 K0.000 F150.000
G3 X34.901 Y-92.406 Z-0.200 I-9681.748 J-129.525 K0.000 F150.000
G0 Z1.000
G0 X34.821 Y-92.407 Z1.000
G0 X34.821 Y-92.407 Z0.500
G1 X34.821 Y-92.407 Z-0.200 F100.000
G3 X34.813 Y-91.847 Z-0.200 I-8190.779 J-109.917 K0.000 F150.000
G1 X34.813 Y-91.847 Z-0.200 F150.000
G2 X34.740 Y-86.702 Z-0.200 I1245.651 J20.177 K0.000 F150.000
G2 X35.253 Y-86.325 Z-0.200 I0.412 J-0.023 K0.000 F150.000
G3 X34.942 Y-85.670 Z-0.200 I-1.798 J-0.453 K0.000 F150.000
G3 X34.333 Y-85.740 Z-0.200 I0.038 J-3.016 K0.000 F150.000
G3 X34.240 Y-89.992 Z-0.200 I21.670 J-2.604 K0.000 F150.000
G2 X34.413 Y-93.263 Z-0.200 I-65.982 J-5.139 K0.000 F150.000
G3 X34.831 Y-93.207 Z-0.200 I-0.409 J4.613 K0.000 F150.000
G3 X34.821 Y-92.407 Z-0.200 I-8190.790 J-109.117 K0.000 F150.000
G0 Z1.000
G0 X34.740 Y-92.408 Z1.000
G0 X34.740 Y-92.408 Z0.500
G1 X34.740 Y-92.408 Z-0.200 F100.000
G2 X34.661 Y-86.696 Z-0.200 I8166.687 J116.279 K0.000 F150.000
G2 X35.128 Y-86.227 Z-0.200 I0.502 J-0.033 K0.000 F150.000
G3 X34.907 Y-85.752 Z-0.200 I-5.107 J-2.081 K0.000 F150.000
G3 X34.405 Y-85.807 Z-0.200 I0.075 J-3.047 K0.000 F150.000
G3 X34.320 Y-89.987 Z-0.200 I21.673 J-2.534 K0.000 F150.000
G1 X34.377 Y-90.889 Z-0.200 F150.000
G2 X34.491 Y-93.175 Z-0.200 I-45.317 J-3.413 K0.000 F150.000
G3 X34.750 Y-93.141 Z-0.200 I-0.451 J4.408 K0.000 F150.000
G2 X34.740 Y-92.408 Z-0.200 I8166.676 J117.012 K0.000 F150.000
G0 Z1.000
G0 X34.660 Y-92.409 Z1.000
G0 X34.660 Y-92.409 Z0.500
G1 X34.660 Y-92.409 Z-0.200 F100.000
G2 X34.581 Y-86.690 Z-0.200 I5218.220 J74.995 K0.000 F150.000
G2 X35.019 Y-86.172 Z-0.200 I0.563 J-0.031 K0.000 F150.000
G3 X34.860 Y-85.836 Z-0.200 I-5.537 J-2.409 K0.000 F150.000
G3 X34.477 Y-85.875 Z-0.200 I0.080 J-2.672 K0.000 F150.000
G3 X34.400 Y-89.983 Z-0.200 I21.697 J-2.462 K0.000 F150.000
G2 X34.569 Y-93.086 Z-0.200 I-67.127 J-5.211 K0.000 F150.000
G1 X34.669 Y-93.071 Z-0.200 F150.000
G2 X34.660 Y-92.409 Z-0.200 I5218.211 J75.658 K0.000 F150.000
G0 Z1.000
G0 X34.566 Y-91.355 Z1.000
G0 X34.566 Y-91.355 Z0.500
G1 X34.566 Y-91.355 Z-0.200 F100.000
G1 X34.553 Y-90.405 Z-0.200 F150.000
G1 X34.553 Y-90.405 Z-0.200 F150.000
G1 X34.547 Y-89.906 Z-0.200 F150.000
G1 X34.547 Y-89.906 Z-0.200 F150.000
G2 X34.501 Y-86.684 Z-0.200 I200.666 J4.447 K0.000 F150.000
G2 X34.910 Y-86.125 Z-0.200 I0.635 J-0.035 K0.000 F150.000
G3 X34.812 Y-85.919 Z-0.200 I-4.162 J-1.862 K0.000 F150.000
G3 X34.548 Y-85.945 Z-0.200 I0.064 J-2.000 K0.000 F150.000
G3 X34.479 Y-89.978 Z-0.200 I21.745 J-2.386 K0.000 F150.000
G3 X34.566 Y-91.355 Z-0.200 I9183.840 J578.688 K0.000 F150.000
G0 Z1.000
G0 X34.585 Y-86.268 Z1.000
G0 X34.585 Y-86.268 Z0.500
G1 X34.585 Y-86.268 Z-0.200 F100.000
G2 X34.805 Y-86.087 Z-0.200 I0.389 J-0.248 K0.000 F150.000
G3 X34.689 Y-86.007 Z-0.200 I-0.074 J0.017 K0.000 F150.000
G1 X34.619 Y-86.016 Z-0.200 F150.000
G1 X34.585 Y-86.268 Z-0.200 F150.000
G0 Z1.000
G0 X34.654 Y-86.130 Z1.000
G0 X34.654 Y-86.130 Z0.500
G1 X34.654 Y-86.130 Z-0.200 F100.000
G2 X34.739 Y-86.065 Z-0.200 I0.143 J-0.098 K0.000 F150.000
G3 X34.654 Y-86.130 Z-0.200 I-0.032 J-0.047 K0.000 F150.000
G0 Z1.000
G0 Z1.000
G0 X34.654 Y-86.130
G0 X32.550 Y-86.070
G0 X32.550 Y-86.070 Z0.500
G1 X32.550 Y-86.070 Z-0.200 F100.000
G3 X32.553 Y-85.838 Z-0.200 I-7.539 J0.216 K0.000 F150.000
G3 X32.464 Y-85.754 Z-0.200 I-0.159 J-0.079 K0.000 F150.000
G3 X29.909 Y-85.973 Z-0.200 I2.393 J-42.770 K0.000 F150.000
G3 X28.590 Y-86.208 Z-0.200 I-0.011 J-3.766 K0.000 F150.000
G3 X28.433 Y-86.498 Z-0.200 I0.201 J-0.295 K0.000 F150.000
G3 X28.480 Y-89.802 Z-0.200 I24.382 J-1.308 K0.000 F150.000
G2 X28.380 Y-93.805 Z-0.200 I-27.895 J-1.304 K0.000 F150.000
G3 X28.426 Y-94.233 Z-0.200 I0.731 J-0.138 K0.000 F150.000
G3 X28.796 Y-94.270 Z-0.200 I0.236 J0.481 K0.000 F150.000
G1 X29.239 Y-94.233 Z-0.200 F150.000
G3 X32.148 Y-93.779 Z-0.200 I-0.937 J15.566 K0.000 F150.000
G3 X32.576 Y-93.212 Z-0.200 I-0.196 J0.593 K0.000 F150.000
G3 X32.681 Y-91.807 Z-0.200 I-4.861 J1.072 K0.000 F150.000
G2 X32.596 Y-89.702 Z-0.200 I40.683 J2.698 K0.000 F150.000
G3 X31.886 Y-89.472 Z-0.200 I-0.590 J-0.613 K0.000 F150.000
G3 X30.806 Y-89.621 Z-0.200 I0.036 J-4.260 K0.000 F150.000
G3 X30.628 Y-90.043 Z-0.200 I0.259 J-0.359 K0.000 F150.000
G3 X31.137 Y-90.154 Z-0.200 I0.387 J0.553 K0.000 F150.000
G1 X31.320 Y-90.137 Z-0.200 F150.000
G1 X31.320 Y-90.137 Z-0.200 F150.000
G2 X31.688 Y-90.345 Z-0.200 I0.105 J-0.244 K0.000 F150.000
G2 X31.720 Y-91.887 Z-0.200 I-5.746 J-0.889 K0.000 F150.000
G2 X31.597 Y-93.464 Z-0.200 I-12.912 J0.208 K0.000 F150.000
G2 X31.173 Y-93.757 Z-0.200 I-0.503 J0.273 K0.000 F150.000
G2 X29.587 Y-93.947 Z-0.200 I-11.304 J87.777 K0.000 F150.000
G2 X29.457 Y-93.638 Z-0.200 I0.061 J0.207 K0.000 F150.000
G3 X29.599 Y-90.223 Z-0.200 I-26.531 J2.811 K0.000 F150.000
G2 X29.481 Y-86.768 Z-0.200 I79.472 J4.447 K0.000 F150.000
G2 X29.545 Y-86.401 Z-0.200 I0.523 J0.098 K0.000 F150.000
G2 X31.364 Y-86.124 Z-0.200 I1.852 J-6.050 K0.000 F150.000
G2 X31.442 Y-86.454 Z-0.200 I-0.221 J-0.227 K0.000 F150.000
G3 X31.391 Y-87.023 Z-0.200 I24.228 J-2.473 K0.000 F150.000
G3 X32.478 Y-86.914 Z-0.200 I0.332 J2.183 K0.000 F150.000
G3 X32.550 Y-86.070 Z-0.200 I-7.467 J1.061 K0.000 F150.000
G0 Z1.000
G0 X32.470 Y-86.071 Z1.000
G0 X32.470 Y-86.071 Z0.500
G1 X32.470 Y-86.071 Z-0.200 F100.000
G3 X32.461 Y-85.845 Z-0.200 I-4.258 J-0.052 K0.000 F150.000
G3 X32.443 Y-85.834 Z-0.200 I-0.118 J-0.182 K0.000 F150.000
G3 X29.917 Y-86.053 Z-0.200 I2.490 J-43.379 K0.000 F150.000
G3 X28.585 Y-86.314 Z-0.200 I-0.072 J-3.170 K0.000 F150.000
G3 X28.470 Y-87.073 Z-0.200 I1.717 J-0.648 K0.000 F150.000
G3 X28.589 Y-91.104 Z-0.200 I1795.146 J51.100 K0.000 F150.000
G2 X28.460 Y-93.806 Z-0.200 I-71.749 J2.076 K0.000 F150.000
G3 X28.508 Y-94.189 Z-0.200 I0.448 J-0.138 K0.000 F150.000
G3 X29.231 Y-94.153 Z-0.200 I0.231 J2.644 K0.000 F150.000
G3 X32.120 Y-93.704 Z-0.200 I-0.941 J15.573 K0.000 F150.000
G3 X32.498 Y-93.194 Z-0.200 I-0.170 J0.522 K0.000 F150.000
G3 X32.601 Y-91.809 Z-0.200 I-4.788 J1.054 K0.000 F150.000
G2 X32.517 Y-89.745 Z-0.200 I40.476 J2.686 K0.000 F150.000
G3 X31.893 Y-89.552 Z-0.200 I-0.508 J-0.535 K0.000 F150.000
G3 X30.842 Y-89.696 Z-0.200 I-0.008 J-3.849 K0.000 F150.000
G3 X30.700 Y-90.001 Z-0.200 I0.239 J-0.297 K0.000 F150.000
G3 X31.312 Y-90.057 Z-0.200 I0.405 J1.034 K0.000 F150.000
G1 X31.312 Y-90.057 Z-0.200 F150.000
G2 X31.767 Y-90.331 Z-0.200 I0.124 J-0.307 K0.000 F150.000
G2 X31.800 Y-91.889 Z-0.200 I-5.844 J-0.903 K0.000 F150.000
G2 X31.668 Y-93.500 Z-0.200 I-12.159 J0.178 K0.000 F150.000
G2 X31.182 Y-93.837 Z-0.200 I-0.577 J0.314 K0.000 F150.000
G2 X29.568 Y-94.025 Z-0.200 I-6.797 J51.342 K0.000 F150.000
G2 X29.377 Y-93.632 Z-0.200 I0.081 J0.282 K0.000 F150.000
G3 X29.519 Y-90.224 Z-0.200 I-26.463 J2.805 K0.000 F150.000
G2 X29.401 Y-86.766 Z-0.200 I79.072 J4.431 K0.000 F150.000
G2 X29.498 Y-86.336 Z-0.200 I0.554 J0.101 K0.000 F150.000
G2 X31.378 Y-86.045 Z-0.200 I1.873 J-5.880 K0.000 F150.000
G2 X31.522 Y-86.464 Z-0.200 I-0.159 J-0.288 K0.000 F150.000
G3 X31.477 Y-86.953 Z-0.200 I20.934 J-2.164 K0.000 F150.000
G3 X32.407 Y-86.855 Z-0.200 I0.245 J2.127 K0.000 F150.000
