(Exported by FreeCAD)
(Post Processor: grbl_post)
(Output Time:2023-04-30 22:08:09.547225)
(Begin preamble)
G17 G90
G21
(Begin operation: G54)
(Path: G54)
G54
G0 Z5.000
(Finish operation: G54)
(Begin operation: endmill-0_4mm001)
(Path: endmill-0_4mm001)
(endmill-0_4mm001)
(Begin toolchange)
( M6 T3 )
M3 S10000
(Finish operation: endmill-0_4mm001)
(Begin operation: ENGRAVE2 0.4MM)
(Path: ENGRAVE2 0.4MM)
(Pocket_Shape)
G0 Z0.500
G0 X9.003 Y-74.218
G0 Z0.300
G1 X9.003 Y-74.218 Z-0.200 F100.000
G3 X7.011 Y-74.510 Z-0.200 I-0.581 J-2.977 K0.000 F150.000
G2 X6.392 Y-74.722 Z-0.200 I-0.604 J0.753 K0.000 F150.000
G2 X6.295 Y-74.229 Z-0.200 I0.120 J0.280 K0.000 F150.000
G3 X6.898 Y-73.186 Z-0.200 I-5.060 J3.622 K0.000 F150.000
G3 X6.876 Y-72.917 Z-0.200 I-0.134 J0.125 K0.000 F150.000
G3 X6.358 Y-73.746 Z-0.200 I2.218 J-1.962 K0.000 F150.000
G2 X6.028 Y-74.009 Z-0.200 I-0.499 J0.287 K0.000 F150.000
G2 X5.247 Y-75.995 Z-0.200 I-15.377 J4.901 K0.000 F150.000
G3 X4.121 Y-80.162 Z-0.200 I14.648 J-6.196 K0.000 F150.000
G1 X4.125 Y-80.214 Z-0.200 F150.000
G2 X4.926 Y-77.449 Z-0.200 I16.899 J-3.394 K0.000 F150.000
G3 X5.472 Y-76.304 Z-0.200 I-4.297 J2.752 K0.000 F150.000
G2 X6.143 Y-75.546 Z-0.200 I1.261 J-0.441 K0.000 F150.000
G2 X6.526 Y-75.813 Z-0.200 I0.022 J-0.377 K0.000 F150.000
G2 X7.588 Y-79.568 Z-0.200 I-85.112 J-26.103 K0.000 F150.000
G3 X8.187 Y-79.618 Z-0.200 I0.314 J0.151 K0.000 F150.000
G3 X9.721 Y-77.787 Z-0.200 I-3.982 J4.895 K0.000 F150.000
G3 X8.871 Y-78.687 Z-0.200 I2.894 J-3.582 K0.000 F150.000
G2 X8.240 Y-79.424 Z-0.200 I-1.638 J0.765 K0.000 F150.000
G2 X7.732 Y-79.402 Z-0.200 I-0.234 J0.484 K0.000 F150.000
G2 X7.420 Y-78.651 Z-0.200 I0.958 J0.839 K0.000 F150.000
G3 X6.803 Y-76.323 Z-0.200 I-469.658 J-123.038 K0.000 F150.000
G2 X7.184 Y-76.041 Z-0.200 I0.318 J-0.032 K0.000 F150.000
G3 X8.226 Y-75.598 Z-0.200 I0.007 J1.430 K0.000 F150.000
G3 X9.024 Y-74.716 Z-0.200 I-0.956 J1.668 K0.000 F150.000
G3 X9.003 Y-74.218 Z-0.200 I-0.542 J0.226 K0.000 F150.000
G0 Z0.500
G0 X8.780 Y-74.460 Z0.500
G0 X8.780 Y-74.460 Z0.300
G1 X8.780 Y-74.460 Z-0.200 F100.000
G3 X8.579 Y-74.390 Z-0.200 I-0.182 J-0.197 K0.000 F150.000
G3 X6.835 Y-74.859 Z-0.200 I0.516 J-5.396 K0.000 F150.000
G3 X6.534 Y-75.189 Z-0.200 I0.111 J-0.404 K0.000 F150.000
G3 X7.310 Y-75.767 Z-0.200 I0.928 J0.435 K0.000 F150.000
G3 X8.783 Y-74.851 Z-0.200 I-0.982 J3.223 K0.000 F150.000
G3 X8.780 Y-74.460 Z-0.200 I-0.185 J0.194 K0.000 F150.000
G0 Z0.500
G0 X6.952 Y-75.874 Z0.500
G0 X6.952 Y-75.874 Z0.300
G1 X6.952 Y-75.874 Z-0.200 F100.000
G2 X6.686 Y-75.689 Z-0.200 I0.384 J0.836 K0.000 F150.000
G2 X6.786 Y-75.953 Z-0.200 I-0.939 J-0.508 K0.000 F150.000
G2 X6.952 Y-75.874 Z-0.200 I0.250 J-0.312 K0.000 F150.000
G0 Z0.500
G0 X6.417 Y-75.397 Z0.500
G0 X6.417 Y-75.397 Z0.300
G1 X6.417 Y-75.397 Z-0.200 F100.000
G2 X6.423 Y-74.927 Z-0.200 I0.275 J0.231 K0.000 F150.000
G2 X6.046 Y-74.640 Z-0.200 I-0.003 J0.387 K0.000 F150.000
G3 X5.553 Y-75.778 Z-0.200 I33.700 J-15.302 K0.000 F150.000
G2 X6.247 Y-75.339 Z-0.200 I0.749 J-0.416 K0.000 F150.000
G2 X6.417 Y-75.397 Z-0.200 I-0.052 J-0.426 K0.000 F150.000
G0 Z0.500
G0 X6.138 Y-75.150 Z0.500
G0 X6.138 Y-75.150 Z0.300
G1 X6.138 Y-75.150 Z-0.200 F100.000
G3 X6.150 Y-75.059 Z-0.200 I-0.061 J0.054 K0.000 F150.000
G2 X6.098 Y-75.023 Z-0.200 I0.023 J0.089 K0.000 F150.000
G3 X6.033 Y-75.164 Z-0.200 I2.955 J-1.460 K0.000 F150.000
G3 X6.138 Y-75.150 Z-0.200 I0.045 J0.068 K0.000 F150.000
G0 Z0.500
G0 Z0.500
(Finish operation: ENGRAVE2 0.4MM)
(Begin operation: endmill-0_5mm001)
(Path: endmill-0_5mm001)
(endmill-0_5mm001)
(Begin toolchange)
( M6 T2 )
M3 S10000
(Finish operation: endmill-0_5mm001)
(Begin operation: ENGRAVE2 0.5MM)
(Path: ENGRAVE2 0.5MM)
(ENGRAVE2 0.5MM)
G0 Z0.500
G0 X13.098 Y-64.096
G0 Z0.300
G1 X13.098 Y-64.096 Z-0.200 F100.000
G3 X12.970 Y-63.952 Z-0.200 I-0.863 J-0.642 K0.000 F150.000
G3 X10.991 Y-64.384 Z-0.200 I2.002 J-13.927 K0.000 F150.000
G3 X10.181 Y-65.576 Z-0.200 I0.583 J-1.268 K0.000 F150.000
G3 X10.301 Y-66.426 Z-0.200 I1.340 J-0.244 K0.000 F150.000
G3 X10.505 Y-66.854 Z-0.200 I0.858 J0.146 K0.000 F150.000
G2 X11.931 Y-67.619 Z-0.200 I-2.489 J-6.353 K0.000 F150.000
G2 X11.958 Y-68.321 Z-0.200 I-0.183 J-0.358 K0.000 F150.000
G2 X11.107 Y-68.498 Z-0.200 I-0.596 J0.731 K0.000 F150.000
G2 X8.997 Y-67.551 Z-0.200 I0.585 J4.127 K0.000 F150.000
G3 X8.349 Y-67.724 Z-0.200 I-0.235 J-0.421 K0.000 F150.000
G3 X9.868 Y-68.742 Z-0.200 I3.130 J3.029 K0.000 F150.000
G3 X11.684 Y-69.174 Z-0.200 I1.797 J3.523 K0.000 F150.000
G1 X11.801 Y-69.135 Z-0.200 F150.000
G3 X12.648 Y-68.469 Z-0.200 I-0.800 J1.888 K0.000 F150.000
G3 X12.539 Y-67.210 Z-0.200 I-0.879 J0.558 K0.000 F150.000
G2 X10.862 Y-66.263 Z-0.200 I0.523 J2.885 K0.000 F150.000
G2 X10.974 Y-65.264 Z-0.200 I1.014 J0.392 K0.000 F150.000
G2 X11.660 Y-64.962 Z-0.200 I0.610 J-0.454 K0.000 F150.000
G3 X13.194 Y-64.643 Z-0.200 I-0.260 J5.096 K0.000 F150.000
G3 X13.232 Y-64.334 Z-0.200 I-0.098 J0.169 K0.000 F150.000
G3 X13.098 Y-64.096 Z-0.200 I-0.997 J-0.404 K0.000 F150.000
G0 Z0.500
G0 X12.894 Y-64.242 Z0.500
G0 X12.894 Y-64.242 Z0.300
G1 X12.894 Y-64.242 Z-0.200 F100.000
G3 X12.882 Y-64.226 Z-0.200 I-0.873 J-0.622 K0.000 F150.000
G3 X11.102 Y-64.607 Z-0.200 I1.275 J-10.297 K0.000 F150.000
G3 X10.427 Y-65.618 Z-0.200 I0.478 J-1.050 K0.000 F150.000
G3 X10.535 Y-66.339 Z-0.200 I1.108 J-0.203 K0.000 F150.000
G3 X10.672 Y-66.664 Z-0.200 I0.731 J0.117 K0.000 F150.000
G3 X11.143 Y-66.873 Z-0.200 I1.307 J2.312 K0.000 F150.000
G2 X10.600 Y-65.539 Z-0.200 I0.441 J0.957 K0.000 F150.000
G2 X11.630 Y-64.714 Z-0.200 I0.947 J-0.126 K0.000 F150.000
G3 X13.009 Y-64.448 Z-0.200 I-0.320 J5.382 K0.000 F150.000
G3 X12.894 Y-64.242 Z-0.200 I-0.988 J-0.416 K0.000 F150.000
G0 Z0.500
G0 X12.823 Y-64.365 Z0.500
G0 X12.823 Y-64.365 Z0.300
G1 X12.823 Y-64.365 Z-0.200 F100.000
G3 X11.702 Y-64.579 Z-0.200 I20.849 J-112.703 K0.000 F150.000
G3 X12.829 Y-64.375 Z-0.200 I-0.558 J6.318 K0.000 F150.000
G1 X12.823 Y-64.365 Z-0.200 F150.000
G0 Z0.500
G0 X11.861 Y-67.262 Z0.500
G0 X11.861 Y-67.262 Z0.300
G1 X11.861 Y-67.262 Z-0.200 F100.000
G2 X12.403 Y-67.914 Z-0.200 I-0.361 J-0.851 K0.000 F150.000
G2 X11.307 Y-68.762 Z-0.200 I-0.939 J0.082 K0.000 F150.000
G2 X8.886 Y-67.775 Z-0.200 I0.249 J4.074 K0.000 F150.000
G3 X8.712 Y-67.754 Z-0.200 I-0.101 J-0.104 K0.000 F150.000
G3 X11.573 Y-68.935 Z-0.200 I3.413 J4.213 K0.000 F150.000
G3 X12.475 Y-68.244 Z-0.200 I-0.319 J1.350 K0.000 F150.000
G3 X12.401 Y-67.428 Z-0.200 I-0.700 J0.348 K0.000 F150.000
G2 X11.861 Y-67.262 Z-0.200 I1.326 J5.275 K0.000 F150.000
G0 Z0.500
G0 Z0.500
G0 X11.861 Y-67.262
G0 X14.357 Y-67.723
G0 X14.357 Y-67.723 Z0.300
G1 X14.357 Y-67.723 Z-0.200 F100.000
G2 X14.251 Y-68.266 Z-0.200 I-29.349 J5.423 K0.000 F150.000
G3 X14.170 Y-69.503 Z-0.200 I6.467 J-1.046 K0.000 F150.000
G3 X14.635 Y-69.527 Z-0.200 I186.257 J3566.471 K0.000 F150.000
G2 X14.940 Y-69.031 Z-0.200 I0.446 J0.068 K0.000 F150.000
G2 X15.672 Y-69.297 Z-0.200 I-0.913 J-3.647 K0.000 F150.000
G3 X17.025 Y-69.763 Z-0.200 I4.479 J10.813 K0.000 F150.000
G3 X17.182 Y-69.414 Z-0.200 I-0.475 J0.424 K0.000 F150.000
G3 X17.069 Y-69.225 Z-0.200 I-0.473 J-0.155 K0.000 F150.000
G2 X15.973 Y-68.824 Z-0.200 I0.776 J3.823 K0.000 F150.000
G3 X15.110 Y-68.573 Z-0.200 I-1.102 J-2.180 K0.000 F150.000
G2 X14.894 Y-68.119 Z-0.200 I0.165 J0.356 K0.000 F150.000
G2 X15.100 Y-66.604 Z-0.200 I22.786 J-2.319 K0.000 F150.000
G2 X15.631 Y-66.414 Z-0.200 I0.350 J-0.142 K0.000 F150.000
G2 X16.666 Y-66.905 Z-0.200 I-0.331 J-2.033 K0.000 F150.000
G3 X17.686 Y-67.418 Z-0.200 I4.866 J8.397 K0.000 F150.000
G3 X17.773 Y-67.325 Z-0.200 I-0.632 J0.676 K0.000 F150.000
G3 X17.295 Y-66.974 Z-0.200 I-0.847 J-0.654 K0.000 F150.000
G3 X16.084 Y-66.291 Z-0.200 I-3.082 J-4.046 K0.000 F150.000
G2 X15.679 Y-65.812 Z-0.200 I0.019 J0.426 K0.000 F150.000
G2 X16.126 Y-64.507 Z-0.200 I32.005 J-10.225 K0.000 F150.000
G2 X16.757 Y-64.435 Z-0.200 I0.347 J-0.239 K0.000 F150.000
G2 X17.640 Y-64.936 Z-0.200 I-25.158 J-45.355 K0.000 F150.000
G3 X17.818 Y-64.625 Z-0.200 I-0.313 J0.385 K0.000 F150.000
G3 X17.743 Y-64.485 Z-0.200 I-0.077 J0.049 K0.000 F150.000
G2 X16.752 Y-63.843 Z-0.200 I1.280 J3.065 K0.000 F150.000
G2 X16.364 Y-63.394 Z-0.200 I0.246 J0.604 K0.000 F150.000
G3 X16.447 Y-62.930 Z-0.200 I-3.114 J0.796 K0.000 F150.000
G3 X15.886 Y-62.783 Z-0.200 I-0.508 J-0.799 K0.000 F150.000
G2 X15.657 Y-63.243 Z-0.200 I-0.787 J0.105 K0.000 F150.000
G2 X15.267 Y-63.208 Z-0.200 I-0.159 J0.412 K0.000 F150.000
G3 X15.274 Y-63.349 Z-0.200 I0.041 J-0.069 K0.000 F150.000
G2 X15.404 Y-63.944 Z-0.200 I-0.339 J-0.386 K0.000 F150.000
G2 X14.935 Y-65.313 Z-0.200 I-4.447 J0.758 K0.000 F150.000
G2 X14.686 Y-65.456 Z-0.200 I-0.268 J0.179 K0.000 F150.000
G2 X14.357 Y-67.723 Z-0.200 I-29.678 J3.155 K0.000 F150.000
G0 Z0.500
G0 X14.608 Y-67.771 Z0.500
G0 X14.608 Y-67.771 Z0.300
G1 X14.608 Y-67.771 Z-0.200 F100.000
G2 X14.499 Y-68.301 Z-0.200 I-19.745 J3.776 K0.000 F150.000
G3 X14.421 Y-69.252 Z-0.200 I5.241 J-0.908 K0.000 F150.000
G2 X14.987 Y-68.791 Z-0.200 I0.556 J-0.104 K0.000 F150.000
G2 X14.646 Y-68.090 Z-0.200 I0.294 J0.577 K0.000 F150.000
G2 X14.877 Y-66.490 Z-0.200 I16.565 J-1.578 K0.000 F150.000
G2 X15.472 Y-66.133 Z-0.200 I0.521 J-0.195 K0.000 F150.000
G2 X15.559 Y-65.387 Z-0.200 I0.939 J0.269 K0.000 F150.000
G2 X15.897 Y-64.405 Z-0.200 I11.618 J-3.459 K0.000 F150.000
G2 X16.746 Y-64.153 Z-0.200 I0.546 J-0.283 K0.000 F150.000
G2 X16.178 Y-63.633 Z-0.200 I0.672 J1.306 K0.000 F150.000
G2 X16.175 Y-63.072 Z-0.200 I0.587 J0.284 K0.000 F150.000
G3 X16.070 Y-63.048 Z-0.200 I-0.197 J-0.632 K0.000 F150.000
G2 X15.662 Y-63.508 Z-0.200 I-0.631 J0.148 K0.000 F150.000
G2 X15.501 Y-64.563 Z-0.200 I-2.388 J-0.175 K0.000 F150.000
G2 X14.976 Y-65.613 Z-0.200 I-1.829 J0.258 K0.000 F150.000
G3 X14.891 Y-65.731 Z-0.200 I0.000 J-0.090 K0.000 F150.000
G2 X14.608 Y-67.771 Z-0.200 I-20.028 J1.736 K0.000 F150.000
G0 Z0.500
G0 X15.294 Y-68.855 Z0.500
G0 X15.294 Y-68.855 Z0.300
G1 X15.294 Y-68.855 Z-0.200 F100.000
G3 X16.919 Y-69.458 Z-0.200 I4.122 J8.607 K0.000 F150.000
G2 X15.341 Y-68.861 Z-0.200 I25.771 J70.535 K0.000 F150.000
G3 X15.294 Y-68.855 Z-0.200 I-0.056 J-0.218 K0.000 F150.000
G0 Z0.500
G0 X15.136 Y-65.934 Z0.500
G0 X15.136 Y-65.934 Z0.300
G1 X15.136 Y-65.934 Z-0.200 F100.000
G3 X15.166 Y-65.859 Z-0.200 I-0.002 J0.044 K0.000 F150.000
G1 X15.184 Y-65.768 Z-0.200 F150.000
G3 X15.119 Y-65.932 Z-0.200 I0.150 J-0.154 K0.000 F150.000
G3 X15.136 Y-65.934 Z-0.200 I0.014 J0.042 K0.000 F150.000
G0 Z0.500
G0 X15.900 Y-64.012 Z0.500
G0 X15.900 Y-64.012 Z0.300
G1 X15.900 Y-64.012 Z-0.200 F100.000
G2 X16.067 Y-63.910 Z-0.200 I0.404 J-0.477 K0.000 F150.000
G2 X15.937 Y-63.696 Z-0.200 I0.349 J0.357 K0.000 F150.000
G2 X15.900 Y-64.012 Z-0.200 I-1.463 J0.014 K0.000 F150.000
G0 Z0.500
G0 Z0.500
G0 X15.900 Y-64.012
G0 X21.115 Y-64.211
G0 X21.115 Y-64.211 Z0.300
G1 X21.115 Y-64.211 Z-0.200 F100.000
G3 X21.084 Y-65.231 Z-0.200 I62.569 J-2.395 K0.000 F150.000
G3 X21.037 Y-65.785 Z-0.200 I266.268 J-23.149 K0.000 F150.000
G1 X21.037 Y-65.785 Z-0.200 F150.000
G3 X20.916 Y-67.209 Z-0.200 I2489.340 J-211.491 K0.000 F150.000
G1 X20.838 Y-67.370 Z-0.200 F150.000
G3 X18.955 Y-69.349 Z-0.200 I7.826 J-9.334 K0.000 F150.000
G3 X18.988 Y-69.422 Z-0.200 I0.064 J-0.016 K0.000 F150.000
G3 X19.372 Y-69.422 Z-0.200 I0.192 J0.134 K0.000 F150.000
G2 X20.575 Y-68.308 Z-0.200 I11.002 J-10.675 K0.000 F150.000
G2 X20.974 Y-68.592 Z-0.200 I0.104 J-0.277 K0.000 F150.000
G3 X21.048 Y-70.276 Z-0.200 I19.947 J0.030 K0.000 F150.000
G3 X21.173 Y-70.246 Z-0.200 I0.029 J0.154 K0.000 F150.000
G3 X21.371 Y-69.838 Z-0.200 I-0.161 J0.330 K0.000 F150.000
G2 X21.555 Y-67.419 Z-0.200 I21.680 J-0.429 K0.000 F150.000
G2 X22.239 Y-66.414 Z-0.200 I3.247 J-1.473 K0.000 F150.000
G3 X23.658 Y-64.565 Z-0.200 I-9.224 J8.551 K0.000 F150.000
G3 X23.566 Y-64.050 Z-0.200 I-0.314 J0.209 K0.000 F150.000
G3 X23.316 Y-64.319 Z-0.200 I-0.021 J-0.232 K0.000 F150.000
G2 X22.742 Y-65.012 Z-0.200 I-1.822 J0.925 K0.000 F150.000
G3 X22.137 Y-65.815 Z-0.200 I3.109 J-2.968 K0.000 F150.000
G2 X21.642 Y-65.593 Z-0.200 I-0.219 J0.176 K0.000 F150.000
G3 X21.495 Y-62.880 Z-0.200 I-17.984 J0.389 K0.000 F150.000
G1 X21.452 Y-62.717 Z-0.200 F150.000
G3 X21.159 Y-63.253 Z-0.200 I0.218 J-0.468 K0.000 F150.000
G3 X21.115 Y-64.211 Z-0.200 I62.525 J-3.354 K0.000 F150.000
G0 Z0.500
G0 X21.361 Y-64.207 Z0.500
G0 X21.361 Y-64.207 Z0.300
G1 X21.361 Y-64.207 Z-0.200 F100.000
G2 X21.357 Y-63.906 Z-0.200 I113.056 J1.852 K0.000 F150.000
G2 X21.307 Y-65.555 Z-0.200 I-13.747 J-0.414 K0.000 F150.000
G3 X21.165 Y-67.230 Z-0.200 I1745.086 J-148.794 K0.000 F150.000
G2 X21.010 Y-67.552 Z-0.200 I-0.498 J0.042 K0.000 F150.000
G3 X20.411 Y-68.116 Z-0.200 I22.065 J-24.052 K0.000 F150.000
G2 X21.194 Y-68.423 Z-0.200 I0.290 J-0.412 K0.000 F150.000
G2 X21.422 Y-67.073 Z-0.200 I3.129 J0.165 K0.000 F150.000
G2 X22.174 Y-66.101 Z-0.200 I8.943 J-6.136 K0.000 F150.000
G2 X21.393 Y-65.615 Z-0.200 I-0.245 J0.476 K0.000 F150.000
G2 X21.361 Y-64.207 Z-0.200 I113.024 J3.260 K0.000 F150.000
G0 Z0.500
G0 X22.756 Y-65.367 Z0.500
G0 X22.756 Y-65.367 Z0.300
G1 X22.756 Y-65.367 Z-0.200 F100.000
G3 X22.572 Y-65.619 Z-0.200 I1.886 J-1.568 K0.000 F150.000
G3 X22.900 Y-65.209 Z-0.200 I-9.836 J8.188 K0.000 F150.000
G3 X22.756 Y-65.367 Z-0.200 I1.742 J-1.727 K0.000 F150.000
G0 Z0.500
G0 X21.635 Y-66.366 Z0.500
G0 X21.635 Y-66.366 Z0.300
G1 X21.635 Y-66.366 Z-0.200 F100.000
G2 X21.496 Y-66.283 Z-0.200 I0.057 J0.255 K0.000 F150.000
G1 X21.472 Y-66.575 Z-0.200 F150.000
G2 X21.635 Y-66.366 Z-0.200 I10.258 J-7.877 K0.000 F150.000
G0 Z0.500
G0 Z0.500
G0 X21.635 Y-66.366
G0 X25.106 Y-65.451
G0 X25.106 Y-65.451 Z0.300
G1 X25.106 Y-65.451 Z-0.200 F100.000
G3 X25.241 Y-65.691 Z-0.200 I0.533 J0.141 K0.000 F150.000
G3 X25.420 Y-66.317 Z-0.200 I1.681 J0.143 K0.000 F150.000
G2 X25.867 Y-66.337 Z-0.200 I0.161 J-1.405 K0.000 F150.000
G2 X25.972 Y-66.866 Z-0.200 I-0.112 J-0.297 K0.000 F150.000
G3 X25.498 Y-69.031 Z-0.200 I7.195 J-2.709 K0.000 F150.000
G3 X25.899 Y-71.207 Z-0.200 I2.698 J-0.629 K0.000 F150.000
G3 X26.227 Y-71.253 Z-0.200 I0.230 J0.450 K0.000 F150.000
G1 X26.281 Y-71.217 Z-0.200 F150.000
G3 X26.988 Y-70.043 Z-0.200 I-1.808 J1.890 K0.000 F150.000
G3 X27.632 Y-67.136 Z-0.200 I-16.672 J5.215 K0.000 F150.000
G2 X27.911 Y-66.228 Z-0.200 I2.641 J-0.316 K0.000 F150.000
G2 X28.736 Y-65.956 Z-0.200 I0.680 J-0.673 K0.000 F150.000
G2 X31.745 Y-65.980 Z-0.200 I1.292 J-27.244 K0.000 F150.000
G2 X32.505 Y-66.214 Z-0.200 I-3.479 J-12.639 K0.000 F150.000
G2 X32.853 Y-66.244 Z-0.200 I0.112 J-0.720 K0.000 F150.000
G1 X32.889 Y-66.142 Z-0.200 F150.000
G3 X32.021 Y-65.907 Z-0.200 I-1.199 J-2.716 K0.000 F150.000
G3 X29.267 Y-65.753 Z-0.200 I-2.681 J-23.241 K0.000 F150.000
G2 X28.167 Y-65.675 Z-0.200 I-0.223 J4.651 K0.000 F150.000
G2 X28.009 Y-65.141 Z-0.200 I0.206 J0.351 K0.000 F150.000
G2 X28.263 Y-63.911 Z-0.200 I677.564 J-139.497 K0.000 F150.000
G2 X27.390 Y-65.360 Z-0.200 I-7.772 J3.697 K0.000 F150.000
G2 X26.187 Y-65.987 Z-0.200 I-1.639 J1.674 K0.000 F150.000
G2 X25.481 Y-65.694 Z-0.200 I-0.227 J0.450 K0.000 F150.000
G2 X25.586 Y-64.635 Z-0.200 I1.998 J0.337 K0.000 F150.000
G3 X26.286 Y-62.928 Z-0.200 I-12.374 J6.071 K0.000 F150.000
G3 X26.321 Y-62.773 Z-0.200 I-1.258 J0.370 K0.000 F150.000
G3 X25.094 Y-65.230 Z-0.200 I13.758 J-8.408 K0.000 F150.000
G3 X25.106 Y-65.451 Z-0.200 I0.545 J-0.081 K0.000 F150.000
G0 Z0.500
G0 X26.166 Y-66.247 Z0.500
G0 X26.166 Y-66.247 Z0.300
G1 X26.166 Y-66.247 Z-0.200 F100.000
G1 X26.220 Y-66.305 Z-0.200 F150.000
G2 X26.349 Y-66.205 Z-0.200 I0.436 J-0.435 K0.000 F150.000
G2 X26.166 Y-66.247 Z-0.200 I-0.659 J2.493 K0.000 F150.000
G0 Z0.500
G0 X26.406 Y-66.492 Z0.500
G0 X26.406 Y-66.492 Z0.300
G1 X26.406 Y-66.492 Z-0.200 F100.000
G3 X25.943 Y-67.176 Z-0.200 I1.425 J-1.460 K0.000 F150.000
G3 X25.531 Y-69.678 Z-0.200 I12.833 J-3.402 K0.000 F150.000
G3 X25.858 Y-71.045 Z-0.200 I1.702 J-0.315 K0.000 F150.000
G3 X26.191 Y-71.082 Z-0.200 I0.190 J0.197 K0.000 F150.000
G3 X26.708 Y-70.296 Z-0.200 I-1.049 J1.252 K0.000 F150.000
G3 X27.543 Y-66.412 Z-0.200 I-20.783 J6.499 K0.000 F150.000
G3 X27.023 Y-66.078 Z-0.200 I-0.326 J0.064 K0.000 F150.000
G3 X26.406 Y-66.492 Z-0.200 I0.807 J-1.874 K0.000 F150.000
G0 Z0.500
G0 X27.322 Y-65.769 Z0.500
G0 X27.322 Y-65.769 Z0.300
G1 X27.322 Y-65.769 Z-0.200 F100.000
G2 X27.716 Y-66.073 Z-0.200 I-0.100 J-0.536 K0.000 F150.000
G2 X27.978 Y-65.850 Z-0.200 I0.652 J-0.502 K0.000 F150.000
G2 X27.769 Y-65.635 Z-0.200 I0.190 J0.396 K0.000 F150.000
G2 X27.725 Y-65.332 Z-0.200 I0.483 J0.224 K0.000 F150.000
G2 X27.322 Y-65.769 Z-0.200 I-1.635 J1.102 K0.000 F150.000
G0 Z0.500
G0 X27.553 Y-65.727 Z0.500
G0 X27.553 Y-65.727 Z0.300
G1 X27.553 Y-65.727 Z-0.200 F100.000
G2 X27.733 Y-65.878 Z-0.200 I-0.133 J-0.341 K0.000 F150.000
G1 X27.771 Y-65.843 Z-0.200 F150.000
G2 X27.643 Y-65.637 Z-0.200 I0.219 J0.279 K0.000 F150.000
G1 X27.553 Y-65.727 Z-0.200 F150.000
G0 Z0.500
G0 Z0.500
G0 X27.553 Y-65.727
G0 X32.003 Y-73.086
G0 X32.003 Y-73.086 Z0.300
G1 X32.003 Y-73.086 Z-0.200 F100.000
G3 X31.556 Y-73.574 Z-0.200 I0.715 J-1.105 K0.000 F150.000
G2 X31.297 Y-74.644 Z-0.200 I-2.940 J0.145 K0.000 F150.000
G3 X30.732 Y-75.704 Z-0.200 I13.352 J-7.796 K0.000 F150.000
G3 X29.765 Y-78.618 Z-0.200 I18.489 J-7.751 K0.000 F150.000
G3 X30.447 Y-76.458 Z-0.200 I-14.157 J5.657 K0.000 F150.000
G2 X30.962 Y-75.942 Z-0.200 I0.581 J-0.065 K0.000 F150.000
G2 X31.596 Y-75.026 Z-0.200 I3.015 J-1.410 K0.000 F150.000
G2 X32.118 Y-75.250 Z-0.200 I0.203 J-0.247 K0.000 F150.000
G2 X32.443 Y-77.079 Z-0.200 I-5.902 J-1.993 K0.000 F150.000
G3 X33.054 Y-79.081 Z-0.200 I10.996 J2.261 K0.000 F150.000
G3 X33.248 Y-79.872 Z-0.200 I14.002 J3.013 K0.000 F150.000
G3 X34.226 Y-75.998 Z-0.200 I-35.310 J10.972 K0.000 F150.000
G3 X34.905 Y-73.595 Z-0.200 I-18.259 J6.453 K0.000 F150.000
G1 X34.869 Y-73.588 Z-0.200 F150.000
G3 X34.757 Y-73.890 Z-0.200 I0.544 J-0.374 K0.000 F150.000
G1 X34.757 Y-73.890 Z-0.200 F150.000
G2 X34.370 Y-75.281 Z-0.200 I-14.275 J3.221 K0.000 F150.000
G3 X33.986 Y-76.530 Z-0.200 I16.016 J-5.611 K0.000 F150.000
G2 X33.477 Y-78.730 Z-0.200 I-11.486 J1.496 K0.000 F150.000
G2 X32.939 Y-78.635 Z-0.200 I-0.254 J0.135 K0.000 F150.000
G2 X32.133 Y-74.794 Z-0.200 I56.654 J13.893 K0.000 F150.000
G3 X32.025 Y-73.196 Z-0.200 I-321.744 J-20.902 K0.000 F150.000
G3 X32.003 Y-73.086 Z-0.200 I-0.665 J-0.075 K0.000 F150.000
G0 Z0.500
G0 X31.810 Y-73.615 Z0.500
G0 X31.810 Y-73.615 Z0.300
G1 X31.810 Y-73.615 Z-0.200 F100.000
G2 X31.553 Y-74.704 Z-0.200 I-4.432 J0.472 K0.000 F150.000
G1 X31.494 Y-74.796 Z-0.200 F150.000
G2 X31.873 Y-74.702 Z-0.200 I0.288 J-0.345 K0.000 F150.000
G2 X31.810 Y-73.615 Z-0.200 I14.012 J1.351 K0.000 F150.000
G0 Z0.500
G0 Z0.500
G0 X31.810 Y-73.615
G0 X36.014 Y-73.923
G0 X36.014 Y-73.923 Z0.300
G1 X36.014 Y-73.923 Z-0.200 F100.000
G3 X36.041 Y-73.978 Z-0.200 I0.062 J-0.005 K0.000 F150.000
G3 X37.432 Y-74.503 Z-0.200 I2.238 J3.830 K0.000 F150.000
G2 X37.612 Y-74.757 Z-0.200 I-0.070 J-0.240 K0.000 F150.000
G2 X37.061 Y-78.199 Z-0.200 I-13.769 J0.438 K0.000 F150.000
G3 X36.853 Y-80.053 Z-0.200 I7.186 J-1.746 K0.000 F150.000
G3 X36.975 Y-80.253 Z-0.200 I0.274 J0.030 K0.000 F150.000
G3 X37.112 Y-80.236 Z-0.200 I0.047 J0.183 K0.000 F150.000
G3 X37.238 Y-79.027 Z-0.200 I-5.753 J1.213 K0.000 F150.000
G2 X37.581 Y-76.719 Z-0.200 I8.664 J-0.107 K0.000 F150.000
G2 X37.823 Y-75.848 Z-0.200 I106.504 J-29.134 K0.000 F150.000
G2 X38.296 Y-75.007 Z-0.200 I2.015 J-0.579 K0.000 F150.000
G2 X39.311 Y-75.013 Z-0.200 I0.500 J-1.240 K0.000 F150.000
G3 X39.963 Y-75.196 Z-0.200 I1.390 J3.685 K0.000 F150.000
G3 X39.889 Y-75.093 Z-0.200 I-0.043 J0.047 K0.000 F150.000
G2 X38.688 Y-74.713 Z-0.200 I1.158 J5.740 K0.000 F150.000
G2 X38.508 Y-74.066 Z-0.200 I0.296 J0.430 K0.000 F150.000
G3 X38.676 Y-73.014 Z-0.200 I-7.798 J1.780 K0.000 F150.000
G3 X38.379 Y-72.936 Z-0.200 I-0.233 J-0.284 K0.000 F150.000
G3 X38.017 Y-73.915 Z-0.200 I16.647 J-6.723 K0.000 F150.000
G2 X37.318 Y-74.191 Z-0.200 I-0.477 J0.188 K0.000 F150.000
G2 X36.026 Y-73.891 Z-0.200 I1.445 J9.176 K0.000 F150.000
G3 X36.014 Y-73.923 Z-0.200 I0.051 J-0.036 K0.000 F150.000
G0 Z0.500
G0 X37.760 Y-74.453 Z0.500
G0 X37.760 Y-74.453 Z0.300
G1 X37.760 Y-74.453 Z-0.200 F100.000
G1 X37.801 Y-74.502 Z-0.200 F150.000
G2 X37.836 Y-75.212 Z-0.200 I-1.216 J-0.417 K0.000 F150.000
G2 X38.327 Y-74.714 Z-0.200 I0.793 J-0.291 K0.000 F150.000
G2 X38.272 Y-73.954 Z-0.200 I0.997 J0.454 K0.000 F150.000
G2 X37.760 Y-74.453 Z-0.200 I-0.702 J0.208 K0.000 F150.000
G0 Z0.500
G0 X37.934 Y-74.513 Z0.500
G0 X37.934 Y-74.513 Z0.300
G1 X37.934 Y-74.513 Z-0.200 F100.000
G2 X37.986 Y-74.781 Z-0.200 I-0.492 J-0.235 K0.000 F150.000
G2 X38.155 Y-74.662 Z-0.200 I0.359 J-0.329 K0.000 F150.000
G2 X38.104 Y-74.416 Z-0.200 I0.553 J0.244 K0.000 F150.000
G2 X37.934 Y-74.513 Z-0.200 I-0.301 J0.331 K0.000 F150.000
G0 Z0.500
G0 Z0.500
G0 X37.934 Y-74.513
G0 X28.567 Y-74.722
G0 X28.567 Y-74.722 Z0.300
G1 X28.567 Y-74.722 Z-0.200 F100.000
G3 X28.478 Y-74.633 Z-0.200 I-0.091 J-0.002 K0.000 F150.000
G2 X27.487 Y-73.991 Z-0.200 I1.280 J3.065 K0.000 F150.000
G2 X27.099 Y-73.542 Z-0.200 I0.246 J0.604 K0.000 F150.000
G3 X27.172 Y-73.058 Z-0.200 I-2.249 J0.587 K0.000 F150.000
G3 X26.614 Y-72.948 Z-0.200 I-0.425 J-0.687 K0.000 F150.000
G2 X26.392 Y-73.391 Z-0.200 I-0.739 J0.093 K0.000 F150.000
G2 X26.002 Y-73.356 Z-0.200 I-0.159 J0.412 K0.000 F150.000
G3 X26.009 Y-73.497 Z-0.200 I0.041 J-0.069 K0.000 F150.000
G2 X26.139 Y-74.092 Z-0.200 I-0.339 J-0.386 K0.000 F150.000
G2 X25.670 Y-75.461 Z-0.200 I-4.447 J0.758 K0.000 F150.000
G2 X25.421 Y-75.604 Z-0.200 I-0.268 J0.179 K0.000 F150.000
G2 X24.986 Y-78.414 Z-0.200 I-29.679 J3.155 K0.000 F150.000
G3 X24.905 Y-79.651 Z-0.200 I6.467 J-1.046 K0.000 F150.000
G3 X25.370 Y-79.675 Z-0.200 I185.874 J3559.135 K0.000 F150.000
G2 X25.675 Y-79.179 Z-0.200 I0.446 J0.068 K0.000 F150.000
G2 X26.407 Y-79.445 Z-0.200 I-0.912 J-3.646 K0.000 F150.000
G3 X27.760 Y-79.910 Z-0.200 I4.562 J11.056 K0.000 F150.000
G3 X27.917 Y-79.562 Z-0.200 I-0.475 J0.424 K0.000 F150.000
G3 X27.804 Y-79.373 Z-0.200 I-0.473 J-0.155 K0.000 F150.000
G2 X26.708 Y-78.972 Z-0.200 I0.776 J3.823 K0.000 F150.000
G3 X25.845 Y-78.721 Z-0.200 I-1.102 J-2.180 K0.000 F150.000
G2 X25.629 Y-78.267 Z-0.200 I0.165 J0.356 K0.000 F150.000
G2 X25.835 Y-76.752 Z-0.200 I22.785 J-2.319 K0.000 F150.000
G2 X26.366 Y-76.562 Z-0.200 I0.350 J-0.142 K0.000 F150.000
G2 X27.401 Y-77.053 Z-0.200 I-0.331 J-2.033 K0.000 F150.000
G3 X28.421 Y-77.566 Z-0.200 I4.866 J8.397 K0.000 F150.000
G3 X28.508 Y-77.473 Z-0.200 I-0.632 J0.676 K0.000 F150.000
G3 X28.030 Y-77.122 Z-0.200 I-0.847 J-0.654 K0.000 F150.000
G3 X26.819 Y-76.439 Z-0.200 I-3.082 J-4.046 K0.000 F150.000
G2 X26.414 Y-75.960 Z-0.200 I0.019 J0.426 K0.000 F150.000
G2 X26.861 Y-74.655 Z-0.200 I44.828 J-14.614 K0.000 F150.000
G2 X27.492 Y-74.583 Z-0.200 I0.347 J-0.239 K0.000 F150.000
G2 X28.375 Y-75.084 Z-0.200 I-25.159 J-45.356 K0.000 F150.000
G3 X28.553 Y-74.773 Z-0.200 I-0.313 J0.385 K0.000 F150.000
G3 X28.567 Y-74.722 Z-0.200 I-0.077 J0.049 K0.000 F150.000
G0 Z0.500
G0 X27.481 Y-74.301 Z0.500
G0 X27.481 Y-74.301 Z0.300
G1 X27.481 Y-74.301 Z-0.200 F100.000
G2 X26.913 Y-73.781 Z-0.200 I0.672 J1.306 K0.000 F150.000
G2 X26.910 Y-73.220 Z-0.200 I0.587 J0.284 K0.000 F150.000
G3 X26.805 Y-73.196 Z-0.200 I-0.197 J-0.632 K0.000 F150.000
G2 X26.397 Y-73.656 Z-0.200 I-0.631 J0.148 K0.000 F150.000
G2 X26.236 Y-74.711 Z-0.200 I-2.388 J-0.175 K0.000 F150.000
G2 X25.711 Y-75.761 Z-0.200 I-1.829 J0.258 K0.000 F150.000
G3 X25.626 Y-75.879 Z-0.200 I0.000 J-0.090 K0.000 F150.000
G2 X25.234 Y-78.449 Z-0.200 I-20.027 J1.736 K0.000 F150.000
G3 X25.156 Y-79.400 Z-0.200 I5.240 J-0.908 K0.000 F150.000
G2 X25.722 Y-78.939 Z-0.200 I0.556 J-0.104 K0.000 F150.000
G2 X25.381 Y-78.238 Z-0.200 I0.294 J0.577 K0.000 F150.000
G2 X25.612 Y-76.638 Z-0.200 I16.564 J-1.578 K0.000 F150.000
G2 X26.207 Y-76.281 Z-0.200 I0.521 J-0.195 K0.000 F150.000
G2 X26.294 Y-75.535 Z-0.200 I0.939 J0.269 K0.000 F150.000
G2 X26.632 Y-74.553 Z-0.200 I11.618 J-3.459 K0.000 F150.000
G2 X27.481 Y-74.301 Z-0.200 I0.546 J-0.283 K0.000 F150.000
G0 Z0.500
G0 X26.802 Y-74.058 Z0.500
G0 X26.802 Y-74.058 Z0.300
G1 X26.802 Y-74.058 Z-0.200 F100.000
G2 X26.672 Y-73.844 Z-0.200 I0.349 J0.357 K0.000 F150.000
G2 X26.635 Y-74.160 Z-0.200 I-1.463 J0.014 K0.000 F150.000
G2 X26.802 Y-74.058 Z-0.200 I0.404 J-0.477 K0.000 F150.000
G0 Z0.500
G0 X25.919 Y-75.916 Z0.500
G0 X25.919 Y-75.916 Z0.300
G1 X25.919 Y-75.916 Z-0.200 F100.000
G3 X25.854 Y-76.080 Z-0.200 I0.150 J-0.154 K0.000 F150.000
G3 X25.901 Y-76.007 Z-0.200 I0.014 J0.042 K0.000 F150.000
G1 X25.919 Y-75.916 Z-0.200 F150.000
G0 Z0.500
G0 X26.029 Y-79.002 Z0.500
G0 X26.029 Y-79.002 Z0.300
G1 X26.029 Y-79.002 Z-0.200 F100.000
G3 X27.654 Y-79.606 Z-0.200 I4.121 J8.606 K0.000 F150.000
G2 X26.076 Y-79.009 Z-0.200 I25.777 J70.552 K0.000 F150.000
G3 X26.029 Y-79.002 Z-0.200 I-0.056 J-0.218 K0.000 F150.000
G0 Z0.500
G0 Z0.500
G0 X26.029 Y-79.002
G0 X23.749 Y-77.881
G0 X23.749 Y-77.881 Z0.300
G1 X23.749 Y-77.881 Z-0.200 F100.000
G3 X23.908 Y-77.480 Z-0.200 I-2.412 J1.187 K0.000 F150.000
G3 X23.704 Y-75.762 Z-0.200 I-6.443 J0.108 K0.000 F150.000
G3 X22.562 Y-74.474 Z-0.200 I-3.434 J-1.896 K0.000 F150.000
G3 X20.404 Y-73.109 Z-0.200 I-9.211 J-12.170 K0.000 F150.000
G3 X19.441 Y-72.825 Z-0.200 I-0.991 J-1.582 K0.000 F150.000
G3 X19.456 Y-73.000 Z-0.200 I0.027 J-0.086 K0.000 F150.000
G3 X20.038 Y-73.279 Z-0.200 I1.095 J1.541 K0.000 F150.000
G2 X20.255 Y-73.891 Z-0.200 I-0.155 J-0.399 K0.000 F150.000
G3 X19.886 Y-74.950 Z-0.200 I4.710 J-2.235 K0.000 F150.000
G3 X19.140 Y-77.355 Z-0.200 I44.887 J-15.239 K0.000 F150.000
G2 X18.729 Y-78.979 Z-0.200 I-13.731 J2.610 K0.000 F150.000
G2 X18.246 Y-79.060 Z-0.200 I-0.270 J0.129 K0.000 F150.000
G3 X18.336 Y-79.233 Z-0.200 I0.109 J-0.053 K0.000 F150.000
G2 X18.630 Y-79.810 Z-0.200 I-0.174 J-0.452 K0.000 F150.000
G3 X18.598 Y-80.227 Z-0.200 I1.712 J-0.343 K0.000 F150.000
G3 X18.850 Y-79.617 Z-0.200 I-1.227 J0.864 K0.000 F150.000
G2 X19.086 Y-79.444 Z-0.200 I0.238 J-0.077 K0.000 F150.000
G3 X20.772 Y-79.398 Z-0.200 I0.546 J10.719 K0.000 F150.000
G2 X21.697 Y-79.254 Z-0.200 I2.543 J-13.289 K0.000 F150.000
G3 X23.359 Y-78.466 Z-0.200 I-2.856 J8.175 K0.000 F150.000
G3 X23.749 Y-77.881 Z-0.200 I-2.022 J1.772 K0.000 F150.000
G0 Z0.500
G0 X23.663 Y-77.838 Z0.500
G0 X23.663 Y-77.838 Z0.300
G1 X23.663 Y-77.838 Z-0.200 F100.000
G3 X23.739 Y-77.653 Z-0.200 I-1.312 J0.644 K0.000 F150.000
G3 X23.730 Y-76.290 Z-0.200 I-3.649 J0.658 K0.000 F150.000
G3 X23.004 Y-75.131 Z-0.200 I-1.838 J-0.344 K0.000 F150.000
G3 X21.088 Y-73.808 Z-0.200 I-14.765 J-19.345 K0.000 F150.000
G3 X20.573 Y-73.935 Z-0.200 I-0.202 J-0.289 K0.000 F150.000
G3 X19.855 Y-75.632 Z-0.200 I13.249 J-6.604 K0.000 F150.000
G3 X19.334 Y-77.379 Z-0.200 I12.358 J-4.637 K0.000 F150.000
G3 X18.933 Y-78.943 Z-0.200 I6.371 J-2.468 K0.000 F150.000
G3 X19.441 Y-79.271 Z-0.200 I0.426 J0.102 K0.000 F150.000
G3 X21.341 Y-79.140 Z-0.200 I0.253 J10.163 K0.000 F150.000
G3 X23.164 Y-78.410 Z-0.200 I-0.806 J4.653 K0.000 F150.000
G3 X23.663 Y-77.838 Z-0.200 I-0.813 J1.215 K0.000 F150.000
G0 Z0.500
G0 X18.817 Y-79.282 Z0.500
G0 X18.817 Y-79.282 Z0.300
G1 X18.817 Y-79.282 Z-0.200 F100.000
G3 X18.808 Y-79.269 Z-0.200 I-0.023 J-0.007 K0.000 F150.000
G3 X18.783 Y-79.310 Z-0.200 I-0.010 J-0.022 K0.000 F150.000
G3 X18.817 Y-79.282 Z-0.200 I0.011 J0.022 K0.000 F150.000
G0 Z0.500
G0 X20.553 Y-73.595 Z0.500
G0 X20.553 Y-73.595 Z0.300
G1 X20.553 Y-73.595 Z-0.200 F100.000
G1 X20.673 Y-73.536 Z-0.200 F150.000
G3 X20.510 Y-73.441 Z-0.200 I-2.532 J-4.138 K0.000 F150.000
G2 X20.553 Y-73.595 Z-0.200 I-0.263 J-0.157 K0.000 F150.000
G0 Z0.500
G0 Z0.500
G0 X20.553 Y-73.595
G0 X16.852 Y-74.685
G0 X16.852 Y-74.685 Z0.300
G1 X16.852 Y-74.685 Z-0.200 F100.000
G3 X16.579 Y-74.002 Z-0.200 I-3.707 J-1.091 K0.000 F150.000
G3 X15.385 Y-73.355 Z-0.200 I-1.375 J-1.111 K0.000 F150.000
G3 X12.304 Y-75.072 Z-0.200 I1.216 J-5.804 K0.000 F150.000
G3 X10.974 Y-77.482 Z-0.200 I8.499 J-6.262 K0.000 F150.000
G3 X11.338 Y-79.327 Z-0.200 I3.294 J-0.308 K0.000 F150.000
G3 X12.155 Y-79.934 Z-0.200 I1.039 J0.545 K0.000 F150.000
G3 X12.924 Y-79.967 Z-0.200 I0.422 J0.853 K0.000 F150.000
G3 X15.329 Y-78.683 Z-0.200 I-1.940 J6.528 K0.000 F150.000
G3 X16.798 Y-76.460 Z-0.200 I-5.279 J5.083 K0.000 F150.000
G3 X16.969 Y-75.217 Z-0.200 I-1.172 J0.795 K0.000 F150.000
G3 X16.852 Y-74.685 Z-0.200 I-3.824 J-0.559 K0.000 F150.000
G0 Z0.500
G0 X16.418 Y-74.785 Z0.500
G0 X16.418 Y-74.785 Z0.300
G1 X16.418 Y-74.785 Z-0.200 F100.000
G2 X16.521 Y-75.642 Z-0.200 I-3.907 J-0.905 K0.000 F150.000
G2 X16.153 Y-76.647 Z-0.200 I-62.109 J22.156 K0.000 F150.000
G2 X15.939 Y-77.063 Z-0.200 I-0.490 J-0.011 K0.000 F150.000
G2 X14.212 Y-79.089 Z-0.200 I-4.086 J1.735 K0.000 F150.000
G2 X12.998 Y-79.575 Z-0.200 I-1.256 J1.378 K0.000 F150.000
G1 X12.899 Y-79.560 Z-0.200 F150.000
G2 X11.568 Y-78.309 Z-0.200 I0.048 J1.383 K0.000 F150.000
G2 X11.632 Y-77.683 Z-0.200 I0.854 J0.229 K0.000 F150.000
G2 X12.577 Y-75.706 Z-0.200 I10.491 J-3.802 K0.000 F150.000
G2 X14.223 Y-74.212 Z-0.200 I3.580 J-2.289 K0.000 F150.000
G1 X14.843 Y-73.897 Z-0.200 F150.000
G2 X15.043 Y-73.885 Z-0.200 I0.113 J-0.223 K0.000 F150.000
G2 X16.179 Y-74.305 Z-0.200 I-68561.233 J-185482.787 K0.000 F150.000
G2 X16.336 Y-74.486 Z-0.200 I-0.087 J-0.234 K0.000 F150.000
G2 X16.418 Y-74.785 Z-0.200 I-3.825 J-1.204 K0.000 F150.000
G0 Z0.500
G0 X16.351 Y-74.123 Z0.500
G0 X16.351 Y-74.123 Z0.300
G1 X16.351 Y-74.123 Z-0.200 F100.000
G3 X15.391 Y-73.607 Z-0.200 I-1.142 J-0.975 K0.000 F150.000
G3 X15.142 Y-73.655 Z-0.200 I0.085 J-1.103 K0.000 F150.000
G2 X16.266 Y-74.071 Z-0.200 I-63452.300 J-171661.447 K0.000 F150.000
G1 X16.351 Y-74.123 Z-0.200 F150.000
G0 Z0.500
G0 X16.768 Y-75.671 Z0.500
G0 X16.768 Y-75.671 Z0.300
G1 X16.768 Y-75.671 Z-0.200 F100.000
G2 X16.448 Y-76.555 Z-0.200 I-7.052 J2.050 K0.000 F150.000
G1 X16.415 Y-76.653 Z-0.200 F150.000
G3 X16.773 Y-75.875 Z-0.200 I-3.142 J1.918 K0.000 F150.000
G1 X16.768 Y-75.671 Z-0.200 F150.000
G0 Z0.500
G0 X13.287 Y-74.532 Z0.500
G0 X13.287 Y-74.532 Z0.300
G1 X13.287 Y-74.532 Z-0.200 F100.000
G3 X11.791 Y-76.336 Z-0.200 I2.413 J-3.523 K0.000 F150.000
G3 X11.220 Y-77.531 Z-0.200 I6.212 J-3.699 K0.000 F150.000
G3 X11.563 Y-79.218 Z-0.200 I3.046 J-0.260 K0.000 F150.000
G3 X12.238 Y-79.698 Z-0.200 I0.817 J0.434 K0.000 F150.000
G3 X12.654 Y-79.769 Z-0.200 I0.311 J0.573 K0.000 F150.000
G2 X11.319 Y-78.325 Z-0.200 I0.251 J1.572 K0.000 F150.000
G2 X11.497 Y-77.394 Z-0.200 I1.455 J0.205 K0.000 F150.000
G2 X13.287 Y-74.532 Z-0.200 I5.919 J-1.712 K0.000 F150.000
G0 Z0.500
G0 Z0.500
G0 X13.287 Y-74.532
G0 X48.501 Y-80.757
G0 X48.501 Y-80.757 Z0.300
G1 X48.501 Y-80.757 Z-0.200 F100.000
G3 X48.804 Y-81.063 Z-0.200 I0.633 J0.323 K0.000 F150.000
G3 X49.724 Y-81.696 Z-0.200 I3.055 J3.457 K0.000 F150.000
G3 X48.501 Y-80.757 Z-0.200 I-2.822 J-2.408 K0.000 F150.000
G0 Z0.500
G0 Z0.500
G0 X48.501 Y-80.757
G0 X49.527 Y-80.534
G0 X49.527 Y-80.534 Z0.300
G1 X49.527 Y-80.534 Z-0.200 F100.000
G3 X49.556 Y-80.650 Z-0.200 I1.693 J0.367 K0.000 F150.000
G3 X50.372 Y-80.978 Z-0.200 I0.612 J0.343 K0.000 F150.000
G3 X51.225 Y-79.986 Z-0.200 I-0.597 J1.376 K0.000 F150.000
G3 X50.658 Y-79.119 Z-0.200 I-0.613 J0.217 K0.000 F150.000
G3 X49.911 Y-79.033 Z-0.200 I-0.597 J-1.884 K0.000 F150.000
G3 X49.527 Y-80.534 Z-0.200 I1.308 J-1.135 K0.000 F150.000
G0 Z0.500
G0 X49.624 Y-80.487 Z0.500
G0 X49.624 Y-80.487 Z0.300
G1 X49.624 Y-80.487 Z-0.200 F100.000
G3 X50.005 Y-80.895 Z-0.200 I0.847 J0.410 K0.000 F150.000
G3 X50.284 Y-80.930 Z-0.200 I0.180 J0.305 K0.000 F150.000
G3 X50.928 Y-80.353 Z-0.200 I-0.716 J1.448 K0.000 F150.000
G3 X51.128 Y-79.628 Z-0.200 I-0.506 J0.530 K0.000 F150.000
G3 X50.571 Y-79.232 Z-0.200 I-0.635 J-0.303 K0.000 F150.000
G3 X49.682 Y-79.564 Z-0.200 I-0.297 J-0.559 K0.000 F150.000
G3 X49.624 Y-80.487 Z-0.200 I0.789 J-0.513 K0.000 F150.000
G0 Z0.500
G0 Z0.500
G0 X49.624 Y-80.487
G0 X47.606 Y-80.731
G0 X47.606 Y-80.731 Z0.300
G1 X47.606 Y-80.731 Z-0.200 F100.000
G3 X47.717 Y-81.606 Z-0.200 I73.993 J8.924 K0.000 F150.000
G3 X48.257 Y-82.603 Z-0.200 I1.243 J0.027 K0.000 F150.000
G3 X50.271 Y-83.195 Z-0.200 I2.357 J4.302 K0.000 F150.000
G3 X51.324 Y-82.889 Z-0.200 I0.101 J1.618 K0.000 F150.000
G3 X52.495 Y-81.656 Z-0.200 I-1.626 J2.716 K0.000 F150.000
G3 X52.368 Y-79.818 Z-0.200 I-3.096 J0.710 K0.000 F150.000
G2 X52.675 Y-78.989 Z-0.200 I1.472 J-0.073 K0.000 F150.000
G3 X53.776 Y-76.946 Z-0.200 I-3.618 J3.268 K0.000 F150.000
G3 X53.694 Y-75.947 Z-0.200 I-1.029 J0.419 K0.000 F150.000
G3 X52.398 Y-75.150 Z-0.200 I-3.162 J-3.690 K0.000 F150.000
G3 X51.819 Y-74.810 Z-0.200 I-1.084 J-1.185 K0.000 F150.000
G3 X50.524 Y-75.832 Z-0.200 I-0.001 J-1.330 K0.000 F150.000
G1 X50.524 Y-75.832 Z-0.200 F150.000
G2 X50.014 Y-76.902 Z-0.200 I-2.366 J0.472 K0.000 F150.000
G2 X48.622 Y-77.873 Z-0.200 I-3.211 J3.119 K0.000 F150.000
G3 X47.436 Y-79.183 Z-0.200 I0.900 J-2.007 K0.000 F150.000
G3 X47.606 Y-80.731 Z-0.200 I74.163 J7.376 K0.000 F150.000
G0 Z0.500
G0 X47.148 Y-80.756 Z0.500
G0 X47.148 Y-80.756 Z0.300
G1 X47.148 Y-80.756 Z-0.200 F100.000
G3 X47.173 Y-81.118 Z-0.200 I13.874 J0.768 K0.000 F150.000
G3 X47.366 Y-81.709 Z-0.200 I3.068 J0.677 K0.000 F150.000
G2 X47.100 Y-82.044 Z-0.200 I-0.234 J-0.087 K0.000 F150.000
G2 X45.095 Y-81.361 Z-0.200 I0.409 J4.486 K0.000 F150.000
G3 X44.209 Y-81.032 Z-0.200 I-1.282 J-2.091 K0.000 F150.000
G2 X43.215 Y-80.797 Z-0.200 I0.505 J4.352 K0.000 F150.000
G3 X42.379 Y-81.242 Z-0.200 I-0.061 J-0.895 K0.000 F150.000
G3 X41.779 Y-82.234 Z-0.200 I3.552 J-2.825 K0.000 F150.000
G3 X42.007 Y-82.869 Z-0.200 I0.507 J-0.177 K0.000 F150.000
G3 X44.636 Y-83.803 Z-0.200 I2.413 J2.626 K0.000 F150.000
G2 X46.649 Y-83.902 Z-0.200 I0.427 J-11.865 K0.000 F150.000
G2 X48.722 Y-84.883 Z-0.200 I-2.975 J-8.970 K0.000 F150.000
G3 X49.598 Y-85.137 Z-0.200 I0.809 J1.153 K0.000 F150.000
G2 X52.248 Y-84.485 Z-0.200 I10.369 J-36.441 K0.000 F150.000
G2 X52.944 Y-84.124 Z-0.200 I1.876 J-2.769 K0.000 F150.000
G3 X55.301 Y-83.885 Z-0.200 I-1.850 J29.971 K0.000 F150.000
G3 X55.700 Y-83.155 Z-0.200 I-0.294 J0.636 K0.000 F150.000
G3 X55.617 Y-81.461 Z-0.200 I-8.703 J0.421 K0.000 F150.000
G3 X53.996 Y-78.894 Z-0.200 I-12.552 J-6.136 K0.000 F150.000
G2 X53.629 Y-78.402 Z-0.200 I9.864 J7.738 K0.000 F150.000
G2 X53.720 Y-78.021 Z-0.200 I0.459 J0.092 K0.000 F150.000
G3 X54.119 Y-76.380 Z-0.200 I-3.339 J1.681 K0.000 F150.000
G3 X54.006 Y-75.659 Z-0.200 I-1.252 J0.174 K0.000 F150.000
G2 X53.839 Y-75.151 Z-0.200 I0.865 J0.566 K0.000 F150.000
G1 X53.886 Y-75.036 Z-0.200 F150.000
G3 X57.494 Y-69.989 Z-0.200 I-191.285 J140.537 K0.000 F150.000
G2 X59.234 Y-68.271 Z-0.200 I10.979 J-9.382 K0.000 F150.000
G3 X59.372 Y-68.107 Z-0.200 I-0.212 J0.317 K0.000 F150.000
G3 X58.760 Y-67.393 Z-0.200 I-1.332 J-0.523 K0.000 F150.000
G3 X57.882 Y-66.794 Z-0.200 I-2.007 J-1.997 K0.000 F150.000
G2 X57.556 Y-67.745 Z-0.200 I-6.724 J1.771 K0.000 F150.000
G3 X56.724 Y-68.885 Z-0.200 I42.221 J-31.720 K0.000 F150.000
G2 X55.805 Y-70.488 Z-0.200 I-7.088 J2.997 K0.000 F150.000
G2 X53.557 Y-73.702 Z-0.200 I-40.371 J25.842 K0.000 F150.000
G2 X53.046 Y-73.570 Z-0.200 I-0.211 J0.241 K0.000 F150.000
G2 X52.040 Y-72.057 Z-0.200 I24.427 J17.326 K0.000 F150.000
G1 X52.000 Y-71.903 Z-0.200 F150.000
G2 X52.427 Y-69.269 Z-0.200 I8.095 J0.039 K0.000 F150.000
G2 X53.508 Y-67.669 Z-0.200 I6.181 J-3.010 K0.000 F150.000
G3 X55.277 Y-65.310 Z-0.200 I-19.426 J16.412 K0.000 F150.000
G3 X55.305 Y-63.656 Z-0.200 I-2.011 J0.861 K0.000 F150.000
G3 X54.689 Y-62.580 Z-0.200 I-2.201 J-0.546 K0.000 F150.000
G3 X54.531 Y-62.698 Z-0.200 I-0.057 J-0.088 K0.000 F150.000
G3 X54.401 Y-64.707 Z-0.200 I11.723 J-1.768 K0.000 F150.000
G1 X54.347 Y-64.852 Z-0.200 F150.000
G2 X52.025 Y-67.595 Z-0.200 I-43.488 J34.454 K0.000 F150.000
G3 X50.563 Y-69.963 Z-0.200 I122.271 J-77.084 K0.000 F150.000
G2 X49.937 Y-70.130 Z-0.200 I-0.411 J0.284 K0.000 F150.000
G2 X49.122 Y-69.766 Z-0.200 I1.124 J3.609 K0.000 F150.000
G1 X49.072 Y-69.614 Z-0.200 F150.000
G2 X49.348 Y-67.803 Z-0.200 I3.887 J0.334 K0.000 F150.000
G2 X50.679 Y-66.626 Z-0.200 I5.663 J-5.061 K0.000 F150.000
G3 X51.111 Y-66.253 Z-0.200 I-2.050 J2.813 K0.000 F150.000
G3 X51.263 Y-64.626 Z-0.200 I-2.533 J1.058 K0.000 F150.000
G3 X50.906 Y-64.269 Z-0.200 I-0.425 J-0.069 K0.000 F150.000
G2 X50.855 Y-63.845 Z-0.200 I0.104 J0.228 K0.000 F150.000
G3 X51.121 Y-63.626 Z-0.200 I-0.269 J0.599 K0.000 F150.000
G3 X51.149 Y-62.695 Z-0.200 I-3.058 J0.558 K0.000 F150.000
G2 X51.227 Y-61.510 Z-0.200 I3.135 J0.387 K0.000 F150.000
G3 X52.094 Y-59.951 Z-0.200 I-4.505 J3.526 K0.000 F150.000
G3 X52.101 Y-59.324 Z-0.200 I-0.524 J0.319 K0.000 F150.000
G3 X50.438 Y-59.284 Z-0.200 I-0.879 J-1.967 K0.000 F150.000
G3 X50.285 Y-60.190 Z-0.200 I2.368 J-0.867 K0.000 F150.000
G1 X50.202 Y-60.351 Z-0.200 F150.000
G2 X48.316 Y-61.955 Z-0.200 I-13.013 J13.387 K0.000 F150.000
G2 X47.546 Y-62.240 Z-0.200 I-0.989 J1.490 K0.000 F150.000
G2 X45.745 Y-62.985 Z-0.200 I-46.783 J110.548 K0.000 F150.000
G3 X44.137 Y-63.539 Z-0.200 I2.071 J-8.615 K0.000 F150.000
G1 X43.178 Y-63.956 Z-0.200 F150.000
G1 X42.999 Y-63.963 Z-0.200 F150.000
G3 X41.222 Y-63.421 Z-0.200 I-4.496 J-11.559 K0.000 F150.000
G3 X40.755 Y-63.440 Z-0.200 I-0.210 J-0.585 K0.000 F150.000
G3 X40.507 Y-63.907 Z-0.200 I0.399 J-0.511 K0.000 F150.000
G3 X40.566 Y-66.324 Z-0.200 I4.169 J-1.108 K0.000 F150.000
G3 X40.925 Y-66.537 Z-0.200 I0.279 J0.061 K0.000 F150.000
G3 X41.752 Y-66.264 Z-0.200 I-0.089 J1.657 K0.000 F150.000
G2 X42.110 Y-66.547 Z-0.200 I0.115 J-0.222 K0.000 F150.000
G3 X42.040 Y-66.992 Z-0.200 I0.848 J-0.361 K0.000 F150.000
G3 X42.867 Y-67.536 Z-0.200 I2.968 J3.609 K0.000 F150.000
G2 X45.190 Y-70.312 Z-0.200 I-3.291 J-5.113 K0.000 F150.000
G2 X45.317 Y-71.902 Z-0.200 I-2.139 J-0.972 K0.000 F150.000
G2 X44.708 Y-72.145 Z-0.200 I-0.403 J0.125 K0.000 F150.000
G2 X42.734 Y-70.871 Z-0.200 I2.707 J6.364 K0.000 F150.000
G2 X38.026 Y-66.445 Z-0.200 I42.716 J50.150 K0.000 F150.000
G3 X36.847 Y-65.414 Z-0.200 I-4.748 J-4.238 K0.000 F150.000
G3 X36.670 Y-65.607 Z-0.200 I-0.056 J-0.126 K0.000 F150.000
G3 X36.763 Y-66.920 Z-0.200 I3.418 J-0.420 K0.000 F150.000
G3 X38.707 Y-69.348 Z-0.200 I11.289 J7.046 K0.000 F150.000
G3 X42.446 Y-72.626 Z-0.200 I19.996 J19.041 K0.000 F150.000
G2 X45.902 Y-76.069 Z-0.200 I-19.627 J-23.161 K0.000 F150.000
G2 X46.708 Y-77.846 Z-0.200 I-5.512 J-3.568 K0.000 F150.000
G2 X47.139 Y-79.401 Z-0.200 I-5.090 J-2.250 K0.000 F150.000
G3 X47.148 Y-80.756 Z-0.200 I13.883 J-0.586 K0.000 F150.000
G0 Z0.500
G0 X47.031 Y-82.153 Z0.500
G0 X47.031 Y-82.153 Z0.300
G1 X47.031 Y-82.153 Z-0.200 F100.000
G2 X46.060 Y-81.955 Z-0.200 I0.352 J4.212 K0.000 F150.000
G2 X44.674 Y-81.286 Z-0.200 I4.668 J11.441 K0.000 F150.000
G3 X43.556 Y-81.012 Z-0.200 I-20.555 J-81.322 K0.000 F150.000
G3 X42.837 Y-80.946 Z-0.200 I-0.442 J-0.864 K0.000 F150.000
G3 X42.022 Y-81.947 Z-0.200 I2.415 J-2.801 K0.000 F150.000
G3 X41.918 Y-82.597 Z-0.200 I0.446 J-0.404 K0.000 F150.000
G3 X43.463 Y-83.576 Z-0.200 I2.291 J1.908 K0.000 F150.000
G3 X46.038 Y-83.755 Z-0.200 I2.714 J20.358 K0.000 F150.000
G2 X47.333 Y-84.000 Z-0.200 I0.112 J-2.959 K0.000 F150.000
G2 X49.045 Y-84.894 Z-0.200 I-28.530 J-56.701 K0.000 F150.000
G3 X49.582 Y-84.958 Z-0.200 I0.400 J1.081 K0.000 F150.000
G3 X51.540 Y-84.525 Z-0.200 I-2.215 J14.677 K0.000 F150.000
G3 X52.463 Y-84.206 Z-0.200 I-0.252 J2.218 K0.000 F150.000
G2 X52.757 Y-83.740 Z-0.200 I6.152 J-3.561 K0.000 F150.000
G3 X52.827 Y-82.691 Z-0.200 I-1.817 J0.648 K0.000 F150.000
G3 X52.235 Y-82.343 Z-0.200 I-0.383 J0.026 K0.000 F150.000
G2 X50.577 Y-83.292 Z-0.200 I-2.803 J2.971 K0.000 F150.000
G2 X48.316 Y-82.760 Z-0.200 I-0.100 J4.644 K0.000 F150.000
G3 X47.343 Y-82.168 Z-0.200 I-3.527 J-4.699 K0.000 F150.000
G2 X47.031 Y-82.153 Z-0.200 I0.040 J4.226 K0.000 F150.000
G0 Z0.500
G0 X47.309 Y-78.708 Z0.500
G0 X47.309 Y-78.708 Z0.300
G1 X47.309 Y-78.708 Z-0.200 F100.000
G3 X47.555 Y-78.622 Z-0.200 I0.026 J0.321 K0.000 F150.000
G2 X48.246 Y-77.961 Z-0.200 I4.060 J-3.552 K0.000 F150.000
G3 X49.510 Y-77.210 Z-0.200 I-4.144 J8.414 K0.000 F150.000
G3 X50.400 Y-75.977 Z-0.200 I-1.240 J1.832 K0.000 F150.000
G2 X50.645 Y-75.278 Z-0.200 I2.602 J-0.520 K0.000 F150.000
G2 X51.464 Y-74.673 Z-0.200 I1.861 J-1.666 K0.000 F150.000
G3 X51.520 Y-74.296 Z-0.200 I-0.132 J0.212 K0.000 F150.000
G2 X50.303 Y-72.796 Z-0.200 I6.051 J6.154 K0.000 F150.000
G2 X49.800 Y-71.101 Z-0.200 I14.174 J5.124 K0.000 F150.000
G3 X48.967 Y-69.682 Z-0.200 I-2.090 J-0.272 K0.000 F150.000
G1 X49.006 Y-69.107 Z-0.200 F150.000
G2 X49.275 Y-67.662 Z-0.200 I4.189 J-0.034 K0.000 F150.000
G2 X50.538 Y-66.606 Z-0.200 I14.684 J-16.260 K0.000 F150.000
G3 X51.156 Y-65.822 Z-0.200 I-1.051 J1.465 K0.000 F150.000
G3 X51.142 Y-64.626 Z-0.200 I-1.740 J0.577 K0.000 F150.000
G3 X50.361 Y-64.419 Z-0.200 I-0.587 J-0.637 K0.000 F150.000
G3 X49.411 Y-64.919 Z-0.200 I0.175 J-1.482 K0.000 F150.000
G2 X47.619 Y-66.485 Z-0.200 I-14.292 J14.551 K0.000 F150.000
G2 X47.591 Y-66.468 Z-0.200 I0.008 J0.043 K0.000 F150.000
G2 X47.857 Y-65.820 Z-0.200 I0.953 J-0.012 K0.000 F150.000
G2 X50.956 Y-63.652 Z-0.200 I8.746 J-9.207 K0.000 F150.000
G3 X51.081 Y-63.434 Z-0.200 I-0.124 J0.217 K0.000 F150.000
G2 X51.120 Y-61.505 Z-0.200 I12.486 J0.713 K0.000 F150.000
G2 X51.608 Y-60.806 Z-0.200 I2.794 J-1.433 K0.000 F150.000
G3 X51.588 Y-60.476 Z-0.200 I-0.197 J0.153 K0.000 F150.000
G3 X51.103 Y-60.312 Z-0.200 I-0.549 J-0.822 K0.000 F150.000
G3 X50.558 Y-60.280 Z-0.200 I-0.322 J-0.812 K0.000 F150.000
G3 X49.499 Y-61.139 Z-0.200 I3.526 J-5.426 K0.000 F150.000
G2 X48.039 Y-62.228 Z-0.200 I-4.851 J4.980 K0.000 F150.000
G3 X45.837 Y-63.195 Z-0.200 I1.885 J-7.285 K0.000 F150.000
G2 X44.805 Y-64.429 Z-0.200 I-7.763 J5.443 K0.000 F150.000
G2 X44.789 Y-64.384 Z-0.200 I0.049 J0.043 K0.000 F150.000
G2 X45.153 Y-63.864 Z-0.200 I1.426 J-0.612 K0.000 F150.000
G3 X44.961 Y-63.343 Z-0.200 I-0.184 J0.228 K0.000 F150.000
G3 X43.470 Y-63.947 Z-0.200 I2.841 J-9.151 K0.000 F150.000
G2 X42.790 Y-64.114 Z-0.200 I-0.681 J1.303 K0.000 F150.000
G3 X41.576 Y-64.671 Z-0.200 I0.401 J-2.476 K0.000 F150.000
G3 X40.553 Y-65.701 Z-0.200 I1.103 J-2.118 K0.000 F150.000
G3 X41.103 Y-66.410 Z-0.200 I0.441 J-0.226 K0.000 F150.000
G3 X42.795 Y-65.544 Z-0.200 I-3.904 J9.720 K0.000 F150.000
G2 X42.934 Y-65.609 Z-0.200 I0.068 J-0.036 K0.000 F150.000
G2 X42.323 Y-66.539 Z-0.200 I-4.038 J1.988 K0.000 F150.000
G3 X42.302 Y-67.056 Z-0.200 I0.233 J-0.269 K0.000 F150.000
G2 X44.755 Y-69.262 Z-0.200 I-3.113 J-5.929 K0.000 F150.000
G2 X45.430 Y-71.837 Z-0.200 I-2.816 J-2.114 K0.000 F150.000
G2 X45.186 Y-72.259 Z-0.200 I-0.358 J-0.074 K0.000 F150.000
G2 X44.341 Y-72.122 Z-0.200 I-0.244 J1.170 K0.000 F150.000
G2 X42.055 Y-70.451 Z-0.200 I5.854 J10.404 K0.000 F150.000
G2 X37.174 Y-65.739 Z-0.200 I85.699 J93.647 K0.000 F150.000
G3 X36.778 Y-65.800 Z-0.200 I-0.175 J-0.178 K0.000 F150.000
G3 X37.122 Y-67.320 Z-0.200 I1.959 J-0.356 K0.000 F150.000
G3 X40.733 Y-71.159 Z-0.200 I19.343 J14.577 K0.000 F150.000
G2 X43.843 Y-73.742 Z-0.200 I-17.237 J-23.916 K0.000 F150.000
G2 X46.210 Y-76.356 Z-0.200 I-8.985 J-10.517 K0.000 F150.000
G2 X46.829 Y-77.993 Z-0.200 I-8.048 J-3.976 K0.000 F150.000
G3 X47.161 Y-78.658 Z-0.200 I1.645 J0.405 K0.000 F150.000
G3 X47.309 Y-78.708 Z-0.200 I0.174 J0.271 K0.000 F150.000
G0 Z0.500
G0 X52.455 Y-79.637 Z0.500
G0 X52.455 Y-79.637 Z0.300
G1 X52.455 Y-79.637 Z-0.200 F100.000
G3 X52.490 Y-80.057 Z-0.200 I0.801 J-0.145 K0.000 F150.000
G2 X52.677 Y-80.743 Z-0.200 I-1.512 J-0.779 K0.000 F150.000
G3 X52.681 Y-82.036 Z-0.200 I9.050 J-0.618 K0.000 F150.000
G2 X52.917 Y-83.133 Z-0.200 I-2.682 J-1.153 K0.000 F150.000
G3 X53.058 Y-83.896 Z-0.200 I1.527 J-0.112 K0.000 F150.000
G3 X53.416 Y-84.000 Z-0.200 I0.251 J0.196 K0.000 F150.000
G2 X55.031 Y-83.825 Z-0.200 I2.298 J-13.656 K0.000 F150.000
G3 X55.525 Y-83.556 Z-0.200 I-0.027 J0.636 K0.000 F150.000
G3 X55.619 Y-82.528 Z-0.200 I-3.790 J0.866 K0.000 F150.000
G3 X55.423 Y-81.231 Z-0.200 I-2.850 J0.232 K0.000 F150.000
G3 X53.751 Y-78.752 Z-0.200 I-21.091 J-12.420 K0.000 F150.000
G3 X53.305 Y-78.534 Z-0.200 I-0.389 J-0.231 K0.000 F150.000
G3 X52.596 Y-79.305 Z-0.200 I0.703 J-1.357 K0.000 F150.000
G3 X52.455 Y-79.637 Z-0.200 I0.660 J-0.476 K0.000 F150.000
G0 Z0.500
G0 X53.740 Y-75.667 Z0.500
G0 X53.740 Y-75.667 Z0.300
G1 X53.740 Y-75.667 Z-0.200 F100.000
G1 X53.656 Y-75.458 Z-0.200 F150.000
G1 X53.569 Y-75.525 Z-0.200 F150.000
G2 X53.740 Y-75.667 Z-0.200 I-1.066 J-1.454 K0.000 F150.000
G0 Z0.500
G0 X53.477 Y-75.304 Z0.500
G0 X53.477 Y-75.304 Z0.300
G1 X53.477 Y-75.304 Z-0.200 F100.000
G3 X53.599 Y-75.173 Z-0.200 I-0.269 J0.372 K0.000 F150.000
G3 X56.040 Y-71.895 Z-0.200 I-36.382 J29.639 K0.000 F150.000
G2 X57.784 Y-69.478 Z-0.200 I25.264 J-16.397 K0.000 F150.000
G3 X58.968 Y-68.309 Z-0.200 I-134.474 J137.333 K0.000 F150.000
G3 X59.097 Y-67.854 Z-0.200 I-0.221 J0.308 K0.000 F150.000
G3 X58.263 Y-67.140 Z-0.200 I-3.110 J-2.793 K0.000 F150.000
G3 X57.876 Y-67.250 Z-0.200 I-0.154 J-0.197 K0.000 F150.000
G2 X57.541 Y-67.986 Z-0.200 I-2.384 J0.641 K0.000 F150.000
G2 X56.850 Y-68.847 Z-0.200 I-79.907 J63.406 K0.000 F150.000
G3 X56.602 Y-69.480 Z-0.200 I21.342 J-8.706 K0.000 F150.000
G2 X52.960 Y-74.784 Z-0.200 I-258.851 J173.830 K0.000 F150.000
G3 X53.025 Y-75.353 Z-0.200 I0.279 J-0.256 K0.000 F150.000
G3 X53.477 Y-75.304 Z-0.200 I0.183 J0.421 K0.000 F150.000
G0 Z0.500
G0 X52.854 Y-74.761 Z0.500
G0 X52.854 Y-74.761 Z0.300
G1 X52.854 Y-74.761 Z-0.200 F100.000
G3 X52.981 Y-74.567 Z-0.200 I-0.664 J0.579 K0.000 F150.000
G3 X53.140 Y-73.980 Z-0.200 I-0.483 J0.446 K0.000 F150.000
G3 X51.967 Y-72.108 Z-0.200 I-12.631 J-6.613 K0.000 F150.000
G2 X52.134 Y-70.044 Z-0.200 I7.450 J0.434 K0.000 F150.000
G2 X52.635 Y-68.631 Z-0.200 I5.289 J-1.079 K0.000 F150.000
G2 X54.479 Y-66.250 Z-0.200 I120.022 J-91.059 K0.000 F150.000
G3 X55.310 Y-65.001 Z-0.200 I-3.974 J3.546 K0.000 F150.000
G3 X55.022 Y-63.171 Z-0.200 I-2.788 J0.499 K0.000 F150.000
G3 X54.542 Y-63.264 Z-0.200 I-0.231 J-0.097 K0.000 F150.000
G2 X54.385 Y-64.850 Z-0.200 I-4.276 J-0.377 K0.000 F150.000
G2 X52.997 Y-66.685 Z-0.200 I-8.558 J5.031 K0.000 F150.000
G3 X51.276 Y-68.984 Z-0.200 I7.482 J-7.392 K0.000 F150.000
G2 X50.453 Y-70.345 Z-0.200 I-10.106 J5.182 K0.000 F150.000
G2 X50.162 Y-70.323 Z-0.200 I-0.100 J0.608 K0.000 F150.000
G3 X49.811 Y-70.810 Z-0.200 I-0.082 J-0.311 K0.000 F150.000
G3 X50.422 Y-72.845 Z-0.200 I18.822 J4.545 K0.000 F150.000
G3 X52.155 Y-74.743 Z-0.200 I11.123 J8.413 K0.000 F150.000
G3 X52.554 Y-74.984 Z-0.200 I0.514 J0.401 K0.000 F150.000
G3 X52.854 Y-74.761 Z-0.200 I-0.365 J0.802 K0.000 F150.000
G0 Z0.500
G0 X42.261 Y-66.193 Z0.500
G0 X42.261 Y-66.193 Z0.300
G1 X42.261 Y-66.193 Z-0.200 F100.000
G1 X42.343 Y-66.081 Z-0.200 F150.000
G3 X42.226 Y-66.150 Z-0.200 I4.537 J-7.864 K0.000 F150.000
G1 X42.261 Y-66.193 Z-0.200 F150.000
G0 Z0.500
G0 X41.148 Y-64.826 Z0.500
G0 X41.148 Y-64.826 Z0.300
G1 X41.148 Y-64.826 Z-0.200 F100.000
G2 X41.925 Y-64.286 Z-0.200 I3.959 J-4.860 K0.000 F150.000
G3 X41.781 Y-63.668 Z-0.200 I-0.131 J0.295 K0.000 F150.000
G3 X40.916 Y-63.527 Z-0.200 I-0.821 J-2.306 K0.000 F150.000
G3 X40.501 Y-64.204 Z-0.200 I0.287 J-0.642 K0.000 F150.000
G1 X40.500 Y-64.204 Z-0.200 F150.000
G2 X40.474 Y-64.408 Z-0.200 I-2.918 J0.277 K0.000 F150.000
G3 X40.537 Y-64.981 Z-0.200 I0.545 J-0.230 K0.000 F150.000
G3 X40.926 Y-65.015 Z-0.200 I0.214 J0.202 K0.000 F150.000
G2 X41.148 Y-64.826 Z-0.200 I4.180 J-4.671 K0.000 F150.000
G0 Z0.500
G0 X45.426 Y-63.327 Z0.500
G0 X45.426 Y-63.327 Z0.300
G1 X45.426 Y-63.327 Z-0.200 F100.000
G1 X45.429 Y-63.330 Z-0.200 F150.000
G1 X45.432 Y-63.325 Z-0.200 F150.000
G1 X45.426 Y-63.327 Z-0.200 F150.000
G0 Z0.500
G0 X50.553 Y-60.026 Z0.500
G0 X50.553 Y-60.026 Z0.300
G1 X50.553 Y-60.026 Z-0.200 F100.000
G2 X51.168 Y-60.070 Z-0.200 I0.241 J-0.933 K0.000 F150.000
G2 X51.706 Y-60.252 Z-0.200 I-0.187 J-1.443 K0.000 F150.000
G3 X51.905 Y-59.498 Z-0.200 I-1.079 J0.688 K0.000 F150.000
G3 X50.619 Y-59.500 Z-0.200 I-0.641 J-1.742 K0.000 F150.000
G3 X50.553 Y-60.026 Z-0.200 I5.181 J-0.919 K0.000 F150.000
G0 Z0.500
G0 X50.832 Y-59.754 Z0.500
G0 X50.832 Y-59.754 Z0.300
G1 X50.832 Y-59.754 Z-0.200 F100.000
G2 X51.573 Y-59.920 Z-0.200 I-0.737 J-5.009 K0.000 F150.000
G3 X51.655 Y-59.680 Z-0.200 I-1.320 J0.582 K0.000 F150.000
G3 X50.842 Y-59.679 Z-0.200 I-0.410 J-1.625 K0.000 F150.000
G1 X50.832 Y-59.754 Z-0.200 F150.000
G0 Z0.500
G0 X51.462 Y-59.761 Z0.500
G0 X51.462 Y-59.761 Z0.300
G1 X51.462 Y-59.761 Z-0.200 F100.000
G3 X51.496 Y-59.767 Z-0.200 I0.018 J-0.001 K0.000 F150.000
G3 X51.462 Y-59.761 Z-0.200 I-0.038 J-0.117 K0.000 F150.000
G0 Z0.500
G0 Z0.500
(Finish operation: ENGRAVE2 0.5MM)
(Begin postamble)
M5
G17 G90
M2
