(Exported by FreeCAD)
(Post Processor: grbl_post)
(Output Time:2023-04-16 14:40:43.275693)
(Begin preamble)
G17 G90
G21
(Begin operation: G54)
(Path: G54)
G54
G0 Z5.000
(Finish operation: G54)
(Begin operation: endmill-0_8mm001)
(Path: endmill-0_8mm001)
(endmill-0_8mm001)
(Begin toolchange)
( M6 T4 )
(Post processing added : Ramp up the spindle speed)
M3 S100
G4 P.25
M3 S200
G4 P.25
M3 S400
G4 P.25
M3 S600
G4 P.25
M3 S800
G4 P.25
M3 S1000
G4 P.25
M3 S2000
G4 P.25
M3 S4000
G4 P.25
M3 S6000
G4 P.25
M3 S10000
(End post processing)
(Finish operation: endmill-0_8mm001)
(Begin operation: ENGRAVE 0.8MM)
(Path: ENGRAVE 0.8MM)
(ENGRAVE 0.8MM)
G0 Z1.000
G0 X18.406 Y-35.042
G0 Z0.500
G1 X18.406 Y-35.042 Z-0.200 F100.000
G3 X18.400 Y-35.017 Z-0.200 I-3.232 J-0.802 K0.000 F150.000
G3 X15.232 Y-35.559 Z-0.200 I7.333 J-52.397 K0.000 F150.000
G3 X15.314 Y-36.508 Z-0.200 I3.868 J-0.142 K0.000 F150.000
G2 X16.175 Y-36.502 Z-0.200 I0.442 J-1.764 K0.000 F150.000
G2 X16.477 Y-37.000 Z-0.200 I-0.268 J-0.503 K0.000 F150.000
G3 X16.843 Y-39.192 Z-0.200 I85.310 J13.148 K0.000 F150.000
G3 X17.449 Y-39.135 Z-0.200 I-0.030 J3.560 K0.000 F150.000
G3 X17.986 Y-38.999 Z-0.200 I-0.408 J2.744 K0.000 F150.000
G3 X17.589 Y-36.574 Z-0.200 I-276.460 J-44.002 K0.000 F150.000
G2 X18.092 Y-36.062 Z-0.200 I0.547 J-0.034 K0.000 F150.000
G3 X18.501 Y-35.972 Z-0.200 I-1.016 J5.599 K0.000 F150.000
G3 X18.406 Y-35.042 Z-0.200 I-3.328 J0.129 K0.000 F150.000
G0 Z1.000
G0 X18.143 Y-35.376 Z1.000
G0 X18.143 Y-35.376 Z0.500
G1 X18.143 Y-35.376 Z-0.200 F100.000
G3 X15.557 Y-35.819 Z-0.200 I8.831 J-59.280 K0.000 F150.000
G3 X15.582 Y-36.159 Z-0.200 I3.434 J0.084 K0.000 F150.000
G2 X16.699 Y-36.559 Z-0.200 I0.266 J-1.016 K0.000 F150.000
G1 X16.773 Y-36.823 Z-0.200 F150.000
G3 X17.107 Y-38.853 Z-0.200 I73.783 J11.094 K0.000 F150.000
G3 X17.635 Y-38.763 Z-0.200 I-0.132 J2.370 K0.000 F150.000
G2 X17.271 Y-36.614 Z-0.200 I130.978 J23.278 K0.000 F150.000
G2 X17.900 Y-35.782 Z-0.200 I0.781 J0.063 K0.000 F150.000
G2 X18.176 Y-35.716 Z-0.200 I1.009 J-3.607 K0.000 F150.000
G3 X18.143 Y-35.376 Z-0.200 I-1.469 J0.027 K0.000 F150.000
G0 Z1.000
G0 X17.196 Y-35.850 Z1.000
G0 X17.196 Y-35.850 Z0.500
G1 X17.196 Y-35.850 Z-0.200 F100.000
G3 X16.526 Y-35.965 Z-0.200 I5.862 J-36.219 K0.000 F150.000
G2 X16.957 Y-36.381 Z-0.200 I-0.276 J-0.717 K0.000 F150.000
G2 X17.196 Y-35.850 Z-0.200 I0.996 J-0.130 K0.000 F150.000
G0 Z1.000
G0 Z1.000
G0 X17.196 Y-35.850
G0 X19.735 Y-35.641
G0 X19.735 Y-35.641 Z0.500
G1 X19.735 Y-35.641 Z-0.200 F100.000
G3 X20.036 Y-38.642 Z-0.200 I84.582 J6.978 K0.000 F150.000
G3 X21.013 Y-38.577 Z-0.200 I0.196 J4.430 K0.000 F150.000
G2 X20.905 Y-36.719 Z-0.200 I43.730 J3.464 K0.000 F150.000
G2 X21.078 Y-35.869 Z-0.200 I1.400 J0.157 K0.000 F150.000
G2 X21.351 Y-35.711 Z-0.200 I0.318 J-0.235 K0.000 F150.000
G1 X21.351 Y-35.711 Z-0.200 F150.000
G2 X21.956 Y-36.167 Z-0.200 I0.094 J-0.505 K0.000 F150.000
G2 X22.165 Y-37.437 Z-0.200 I-7.900 J-1.954 K0.000 F150.000
G1 X22.283 Y-38.445 Z-0.200 F150.000
G3 X23.256 Y-38.338 Z-0.200 I-0.137 J5.745 K0.000 F150.000
G3 X22.913 Y-35.729 Z-0.200 I-15.034 J-0.651 K0.000 F150.000
G3 X22.596 Y-35.324 Z-0.200 I-0.662 J-0.192 K0.000 F150.000
G3 X21.443 Y-35.619 Z-0.200 I-0.137 J-1.861 K0.000 F150.000
G2 X20.826 Y-35.318 Z-0.200 I-0.219 J0.335 K0.000 F150.000
G3 X20.726 Y-34.259 Z-0.200 I-12.877 J-0.674 K0.000 F150.000
G3 X19.649 Y-34.500 Z-0.200 I0.108 J-3.017 K0.000 F150.000
G3 X19.735 Y-35.641 Z-0.200 I84.668 J5.837 K0.000 F150.000
G0 Z1.000
G0 X20.058 Y-35.613 Z1.000
G0 X20.058 Y-35.613 Z0.500
G1 X20.058 Y-35.613 Z-0.200 F100.000
G3 X20.325 Y-38.318 Z-0.200 I118.986 J10.380 K0.000 F150.000
G3 X20.675 Y-38.297 Z-0.200 I0.019 J2.641 K0.000 F150.000
G2 X20.621 Y-36.282 Z-0.200 I8.010 J1.223 K0.000 F150.000
G2 X20.737 Y-35.815 Z-0.200 I1.348 J-0.087 K0.000 F150.000
G2 X20.507 Y-35.345 Z-0.200 I0.487 J0.530 K0.000 F150.000
G3 X20.444 Y-34.613 Z-0.200 I-20.468 J-1.389 K0.000 F150.000
G3 X19.983 Y-34.713 Z-0.200 I0.303 J-2.488 K0.000 F150.000
G3 X20.058 Y-35.613 Z-0.200 I119.061 J9.481 K0.000 F150.000
G0 Z1.000
G0 X20.257 Y-35.595 Z1.000
G0 X20.257 Y-35.595 Z0.500
G1 X20.257 Y-35.595 Z-0.200 F100.000
G3 X20.381 Y-36.880 Z-0.200 I87.036 J7.764 K0.000 F150.000
G2 X20.508 Y-35.853 Z-0.200 I3.658 J0.069 K0.000 F150.000
G2 X20.264 Y-34.846 Z-0.200 I1.484 J0.892 K0.000 F150.000
G1 X20.195 Y-34.863 Z-0.200 F150.000
G3 X20.257 Y-35.595 Z-0.200 I87.098 J7.031 K0.000 F150.000
G0 Z1.000
G0 X22.067 Y-35.688 Z1.000
G0 X22.067 Y-35.688 Z0.500
G1 X22.067 Y-35.688 Z-0.200 F100.000
G2 X22.389 Y-36.693 Z-0.200 I-1.925 J-1.171 K0.000 F150.000
G2 X22.566 Y-38.110 Z-0.200 I-45.528 J-6.406 K0.000 F150.000
G3 X22.916 Y-38.069 Z-0.200 I-0.339 J4.392 K0.000 F150.000
G3 X22.683 Y-36.090 Z-0.200 I-23.099 J-1.715 K0.000 F150.000
G3 X22.476 Y-35.640 Z-0.200 I-0.658 J-0.030 K0.000 F150.000
G3 X22.067 Y-35.688 Z-0.200 I0.057 J-2.269 K0.000 F150.000
G0 Z1.000
G0 X22.415 Y-35.902 Z1.000
G0 X22.415 Y-35.902 Z0.500
G1 X22.415 Y-35.902 Z-0.200 F100.000
G2 X22.492 Y-36.161 Z-0.200 I-1.876 J-0.702 K0.000 F150.000
G3 X22.415 Y-35.902 Z-0.200 I-0.571 J-0.029 K0.000 F150.000
G0 Z1.000
G0 Z1.000
G0 X22.415 Y-35.902
G0 X24.197 Y-36.198
G0 X24.197 Y-36.198 Z0.500
G1 X24.197 Y-36.198 Z-0.200 F100.000
G3 X24.182 Y-36.355 Z-0.200 I1.146 J-0.190 K0.000 F150.000
G3 X24.329 Y-37.650 Z-0.200 I2.407 J-0.382 K0.000 F150.000
G3 X24.934 Y-38.198 Z-0.200 I1.114 J0.620 K0.000 F150.000
G3 X26.418 Y-38.237 Z-0.200 I0.901 J6.066 K0.000 F150.000
G3 X27.122 Y-38.126 Z-0.200 I-0.054 J2.627 K0.000 F150.000
G1 X27.259 Y-38.049 Z-0.200 F150.000
G3 X27.027 Y-37.654 Z-0.200 I-1.132 J-0.397 K0.000 F150.000
G3 X26.776 Y-37.751 Z-0.200 I0.040 J-0.477 K0.000 F150.000
G1 X26.776 Y-37.751 Z-0.200 F150.000
G2 X25.786 Y-37.842 Z-0.200 I-0.583 J0.913 K0.000 F150.000
G2 X25.391 Y-37.122 Z-0.200 I0.184 J0.569 K0.000 F150.000
G2 X25.920 Y-36.796 Z-0.200 I0.579 J-0.348 K0.000 F150.000
G2 X25.128 Y-36.214 Z-0.200 I-0.142 J0.636 K0.000 F150.000
G2 X26.359 Y-35.862 Z-0.200 I0.630 J0.124 K0.000 F150.000
G2 X25.953 Y-36.790 Z-0.200 I-0.705 J-0.244 K0.000 F150.000
G3 X27.082 Y-36.437 Z-0.200 I-0.110 J2.337 K0.000 F150.000
G3 X27.004 Y-35.297 Z-0.200 I-0.570 J0.534 K0.000 F150.000
G3 X26.647 Y-35.180 Z-0.200 I-0.522 J-0.981 K0.000 F150.000
G3 X24.616 Y-35.482 Z-0.200 I-0.572 J-3.132 K0.000 F150.000
G3 X24.197 Y-36.198 Z-0.200 I0.727 J-0.906 K0.000 F150.000
G0 Z1.000
G0 X24.506 Y-36.240 Z1.000
G0 X24.506 Y-36.240 Z0.500
G1 X24.506 Y-36.240 Z-0.200 F100.000
G3 X24.500 Y-36.390 Z-0.200 I0.728 J-0.101 K0.000 F150.000
G3 X24.611 Y-37.498 Z-0.200 I2.077 J-0.351 K0.000 F150.000
G3 X25.148 Y-37.910 Z-0.200 I0.665 J0.310 K0.000 F150.000
G1 X25.346 Y-37.924 Z-0.200 F150.000
G2 X25.151 Y-36.903 Z-0.200 I0.494 J0.624 K0.000 F150.000
G2 X24.891 Y-35.691 Z-0.200 I0.719 J0.788 K0.000 F150.000
G3 X24.506 Y-36.240 Z-0.200 I0.342 J-0.650 K0.000 F150.000
G0 Z1.000
G0 X24.691 Y-36.575 Z1.000
G0 X24.691 Y-36.575 Z0.500
G1 X24.691 Y-36.575 Z-0.200 F100.000
G3 X24.802 Y-37.425 Z-0.200 I1.585 J-0.225 K0.000 F150.000
G1 X24.875 Y-37.512 Z-0.200 F150.000
G2 X24.912 Y-36.943 Z-0.200 I0.844 J0.230 K0.000 F150.000
G2 X24.691 Y-36.575 Z-0.200 I0.863 J0.768 K0.000 F150.000
G0 Z1.000
G0 X26.699 Y-36.292 Z1.000
G0 X26.699 Y-36.292 Z0.500
G1 X26.699 Y-36.292 Z-0.200 F100.000
G3 X26.968 Y-35.845 Z-0.200 I-0.076 J0.350 K0.000 F150.000
G3 X26.511 Y-35.491 Z-0.200 I-0.379 J-0.016 K0.000 F150.000
G2 X26.699 Y-36.292 Z-0.200 I-0.776 J-0.605 K0.000 F150.000
G0 Z1.000
G0 Z1.000
G0 X26.699 Y-36.292
G0 X29.703 Y-35.132
G0 X29.703 Y-35.132 Z0.500
G1 X29.703 Y-35.132 Z-0.200 F100.000
G1 X30.304 Y-35.167 Z-0.200 F150.000
G2 X30.681 Y-35.566 Z-0.200 I-0.023 J-0.399 K0.000 F150.000
G3 X30.705 Y-38.082 Z-0.200 I37.208 J-0.910 K0.000 F150.000
G3 X31.526 Y-38.081 Z-0.200 I0.405 J8.511 K0.000 F150.000
G3 X31.900 Y-38.048 Z-0.200 I-0.040 J2.560 K0.000 F150.000
G1 X31.900 Y-35.557 Z-0.200 F150.000
G2 X32.300 Y-35.157 Z-0.200 I0.400 J-0.000 K0.000 F150.000
G3 X32.910 Y-35.150 Z-0.200 I0.279 J2.275 K0.000 F150.000
G3 X32.969 Y-34.213 Z-0.200 I-3.271 J0.676 K0.000 F150.000
G3 X29.920 Y-34.234 Z-0.200 I-1.263 J-39.162 K0.000 F150.000
G3 X29.681 Y-34.278 Z-0.200 I-0.029 J-0.507 K0.000 F150.000
G3 X29.703 Y-35.132 Z-0.200 I6.199 J-0.271 K0.000 F150.000
G0 Z1.000
G0 X30.011 Y-34.829 Z1.000
G0 X30.011 Y-34.829 Z0.500
G1 X30.011 Y-34.829 Z-0.200 F100.000
G2 X30.755 Y-35.024 Z-0.200 I0.157 J-0.921 K0.000 F150.000
G2 X31.001 Y-35.566 Z-0.200 I-0.474 J-0.542 K0.000 F150.000
G3 X31.013 Y-37.771 Z-0.200 I45.862 J-0.864 K0.000 F150.000
G3 X31.580 Y-37.758 Z-0.200 I0.118 J7.028 K0.000 F150.000
G1 X31.580 Y-35.557 Z-0.200 F150.000
G2 X32.300 Y-34.837 Z-0.200 I0.720 J0.000 K0.000 F150.000
G1 X32.635 Y-34.837 Z-0.200 F150.000
G3 X32.654 Y-34.533 Z-0.200 I-1.746 J0.262 K0.000 F150.000
G3 X29.999 Y-34.549 Z-0.200 I-1.100 J-38.284 K0.000 F150.000
G2 X30.011 Y-34.829 Z-0.200 I-57.007 J-2.586 K0.000 F150.000
G0 Z1.000
G0 X31.028 Y-34.853 Z1.000
G0 X31.028 Y-34.853 Z0.500
G1 X31.028 Y-34.853 Z-0.200 F100.000
G2 X31.289 Y-35.343 Z-0.200 I-0.589 J-0.629 K0.000 F150.000
G2 X31.544 Y-34.853 Z-0.200 I0.853 J-0.133 K0.000 F150.000
G2 X31.028 Y-34.853 Z-0.200 I-0.082 J568.999 K0.000 F150.000
G0 Z1.000
G0 Z1.000
G0 X31.028 Y-34.853
G0 X33.980 Y-35.894
G0 X33.980 Y-35.894 Z0.500
G1 X33.980 Y-35.894 Z-0.200 F100.000
G3 X33.917 Y-36.227 Z-0.200 I1.068 J-0.377 K0.000 F150.000
G3 X33.975 Y-37.423 Z-0.200 I3.360 J-0.435 K0.000 F150.000
G3 X34.919 Y-38.139 Z-0.200 I1.062 J0.419 K0.000 F150.000
G3 X35.996 Y-38.161 Z-0.200 I0.650 J5.418 K0.000 F150.000
G3 X37.305 Y-37.007 Z-0.200 I0.082 J1.227 K0.000 F150.000
G3 X37.177 Y-35.627 Z-0.200 I-2.358 J0.477 K0.000 F150.000
G3 X36.496 Y-35.184 Z-0.200 I-0.824 J-0.520 K0.000 F150.000
G3 X34.767 Y-35.174 Z-0.200 I-0.887 J-4.096 K0.000 F150.000
G3 X33.980 Y-35.894 Z-0.200 I0.281 J-1.097 K0.000 F150.000
G0 Z1.000
G0 X34.283 Y-36.002 Z1.000
G0 X34.283 Y-36.002 Z0.500
G1 X34.283 Y-36.002 Z-0.200 F100.000
G3 X34.235 Y-36.260 Z-0.200 I0.777 J-0.277 K0.000 F150.000
G3 X34.280 Y-37.326 Z-0.200 I3.118 J-0.402 K0.000 F150.000
G3 X34.776 Y-37.775 Z-0.200 I0.624 J0.190 K0.000 F150.000
G2 X34.728 Y-35.924 Z-0.200 I3.276 J1.011 K0.000 F150.000
G2 X34.883 Y-35.473 Z-0.200 I1.325 J-0.206 K0.000 F150.000
G3 X34.283 Y-36.002 Z-0.200 I0.176 J-0.806 K0.000 F150.000
G0 Z1.000
G0 X34.481 Y-36.068 Z1.000
G0 X34.481 Y-36.068 Z0.500
G1 X34.481 Y-36.068 Z-0.200 F100.000
G3 X34.416 Y-36.652 Z-0.200 I1.357 J-0.448 K0.000 F150.000
G3 X34.435 Y-37.044 Z-0.200 I1.749 J-0.111 K0.000 F150.000
G2 X34.515 Y-35.976 Z-0.200 I6.308 J0.066 K0.000 F150.000
G3 X34.481 Y-36.068 Z-0.200 I1.323 J-0.539 K0.000 F150.000
G0 Z1.000
G0 X35.002 Y-36.167 Z1.000
G0 X35.002 Y-36.167 Z0.500
G1 X35.002 Y-36.167 Z-0.200 F100.000
G3 X34.955 Y-37.050 Z-0.200 I3.228 J-0.614 K0.000 F150.000
G3 X35.344 Y-37.913 Z-0.200 I0.856 J-0.134 K0.000 F150.000
G3 X35.949 Y-37.735 Z-0.200 I0.188 J0.478 K0.000 F150.000
G3 X36.115 Y-35.726 Z-0.200 I-2.115 J1.186 K0.000 F150.000
G3 X35.139 Y-35.666 Z-0.200 I-0.500 J-0.172 K0.000 F150.000
G3 X35.002 Y-36.167 Z-0.200 I3.091 J-1.115 K0.000 F150.000
G0 Z1.000
G0 X36.419 Y-35.666 Z1.000
G0 X36.419 Y-35.666 Z0.500
G1 X36.419 Y-35.666 Z-0.200 F100.000
G2 X36.292 Y-37.804 Z-0.200 I-2.600 J-0.919 K0.000 F150.000
G3 X36.987 Y-36.971 Z-0.200 I-0.156 J0.836 K0.000 F150.000
G3 X36.900 Y-35.791 Z-0.200 I-2.120 J0.437 K0.000 F150.000
G3 X36.349 Y-35.488 Z-0.200 I-0.560 J-0.368 K0.000 F150.000
G2 X36.419 Y-35.666 Z-0.200 I-2.530 J-1.097 K0.000 F150.000
G0 Z1.000
G0 X36.706 Y-35.863 Z1.000
G0 X36.706 Y-35.863 Z0.500
G1 X36.706 Y-35.863 Z-0.200 F100.000
G2 X36.701 Y-37.277 Z-0.200 I-3.349 J-0.697 K0.000 F150.000
G3 X36.706 Y-35.863 Z-0.200 I-2.238 J0.714 K0.000 F150.000
G0 Z1.000
G0 Z1.000
G0 X36.706 Y-35.863
G0 X38.506 Y-36.092
G0 X38.506 Y-36.092 Z0.500
G1 X38.506 Y-36.092 Z-0.200 F100.000
G3 X38.323 Y-38.280 Z-0.200 I25.203 J-3.215 K0.000 F150.000
G3 X39.364 Y-38.319 Z-0.200 I0.758 J6.372 K0.000 F150.000
G2 X39.599 Y-36.038 Z-0.200 I24.953 J-1.417 K0.000 F150.000
G2 X40.049 Y-35.626 Z-0.200 I0.556 J-0.155 K0.000 F150.000
G2 X39.667 Y-35.466 Z-0.200 I0.548 J1.843 K0.000 F150.000
G3 X38.597 Y-35.442 Z-0.200 I-0.596 J-2.767 K0.000 F150.000
G3 X38.506 Y-36.092 Z-0.200 I25.111 J-3.865 K0.000 F150.000
G0 Z1.000
G0 X38.819 Y-36.129 Z1.000
G0 X38.819 Y-36.129 Z0.500
G1 X38.819 Y-36.129 Z-0.200 F100.000
G3 X38.652 Y-37.987 Z-0.200 I35.086 J-4.089 K0.000 F150.000
G3 X39.075 Y-37.996 Z-0.200 I0.455 J10.840 K0.000 F150.000
G2 X39.294 Y-35.940 Z-0.200 I18.967 J-0.986 K0.000 F150.000
G2 X39.393 Y-35.743 Z-0.200 I0.785 J-0.269 K0.000 F150.000
G3 X38.867 Y-35.734 Z-0.200 I-0.299 J-2.108 K0.000 F150.000
G3 X38.819 Y-36.129 Z-0.200 I35.038 J-4.484 K0.000 F150.000
G0 Z1.000
G0 X39.015 Y-36.150 Z1.000
G0 X39.015 Y-36.150 Z0.500
G1 X39.015 Y-36.150 Z-0.200 F100.000
G3 X38.864 Y-37.793 Z-0.200 I43.728 J-4.840 K0.000 F150.000
G1 X38.894 Y-37.794 Z-0.200 F150.000
G2 X39.089 Y-35.924 Z-0.200 I20.658 J-1.215 K0.000 F150.000
G1 X39.040 Y-35.924 Z-0.200 F150.000
G3 X39.015 Y-36.150 Z-0.200 I43.702 J-5.067 K0.000 F150.000
G0 Z1.000
G0 X40.215 Y-35.634 Z1.000
G0 X40.215 Y-35.634 Z0.500
G1 X40.215 Y-35.634 Z-0.200 F100.000
G2 X40.604 Y-36.178 Z-0.200 I-0.182 J-0.541 K0.000 F150.000
G2 X40.542 Y-38.431 Z-0.200 I-20.461 J-0.566 K0.000 F150.000
G3 X40.626 Y-38.519 Z-0.200 I0.049 J-0.038 K0.000 F150.000
G3 X41.563 Y-38.565 Z-0.200 I0.670 J4.088 K0.000 F150.000
G3 X41.625 Y-35.691 Z-0.200 I-15.276 J1.770 K0.000 F150.000
G3 X41.006 Y-35.498 Z-0.200 I-0.492 J-0.488 K0.000 F150.000
G3 X40.215 Y-35.634 Z-0.200 I-0.091 J-1.829 K0.000 F150.000
G0 Z1.000
G0 X40.842 Y-35.824 Z1.000
G0 X40.842 Y-35.824 Z0.500
G1 X40.842 Y-35.824 Z-0.200 F100.000
G2 X40.899 Y-37.805 Z-0.200 I-5.435 J-1.149 K0.000 F150.000
G3 X40.874 Y-38.230 Z-0.200 I147.542 J-8.925 K0.000 F150.000
G3 X41.277 Y-38.251 Z-0.200 I0.346 J2.808 K0.000 F150.000
G3 X41.339 Y-35.870 Z-0.200 I-19.306 J1.691 K0.000 F150.000
G3 X40.842 Y-35.824 Z-0.200 I-0.314 J-0.695 K0.000 F150.000
G0 Z1.000
G0 X41.102 Y-36.021 Z1.000
G0 X41.102 Y-36.021 Z0.500
G1 X41.102 Y-36.021 Z-0.200 F100.000
G2 X41.148 Y-36.441 Z-0.200 I-2.300 J-0.462 K0.000 F150.000
G1 X41.146 Y-36.022 Z-0.200 F150.000
G1 X41.102 Y-36.021 Z-0.200 F150.000
G0 Z1.000
G0 X41.140 Y-37.116 Z1.000
G0 X41.140 Y-37.116 Z0.500
G1 X41.140 Y-37.116 Z-0.200 F100.000
G3 X41.095 Y-38.048 Z-0.200 I10.668 J-0.978 K0.000 F150.000
G3 X41.140 Y-37.116 Z-0.200 I-17.693 J1.314 K0.000 F150.000
G0 Z1.000
G0 Z1.000
G0 X41.140 Y-37.116
G0 X42.699 Y-37.287
G0 X42.699 Y-37.287 Z0.500
G1 X42.699 Y-37.287 Z-0.200 F100.000
G3 X42.794 Y-38.280 Z-0.200 I2.434 J-0.266 K0.000 F150.000
G3 X43.097 Y-38.620 Z-0.200 I0.637 J0.261 K0.000 F150.000
G3 X44.843 Y-39.061 Z-0.200 I1.519 J2.339 K0.000 F150.000
G3 X45.468 Y-39.028 Z-0.200 I0.030 J5.390 K0.000 F150.000
G3 X45.357 Y-38.634 Z-0.200 I-1.317 J-0.158 K0.000 F150.000
G2 X44.476 Y-38.771 Z-0.200 I-1.040 J3.775 K0.000 F150.000
G2 X43.813 Y-37.989 Z-0.200 I0.057 J0.720 K0.000 F150.000
G2 X44.308 Y-37.590 Z-0.200 I0.534 J-0.155 K0.000 F150.000
G2 X43.882 Y-36.695 Z-0.200 I0.108 J0.600 K0.000 F150.000
G2 X44.516 Y-36.147 Z-0.200 I0.628 J-0.085 K0.000 F150.000
G2 X44.702 Y-37.507 Z-0.200 I-0.130 J-0.711 K0.000 F150.000
G1 X44.589 Y-37.556 Z-0.200 F150.000
G3 X45.595 Y-37.439 Z-0.200 I-0.176 J5.872 K0.000 F150.000
G3 X45.942 Y-37.010 Z-0.200 I-0.181 J0.502 K0.000 F150.000
G3 X45.547 Y-36.142 Z-0.200 I-0.601 J0.250 K0.000 F150.000
G3 X43.351 Y-36.062 Z-0.200 I-1.192 J-2.545 K0.000 F150.000
G3 X42.936 Y-36.472 Z-0.200 I0.418 J-0.840 K0.000 F150.000
G3 X42.699 Y-37.287 Z-0.200 I2.197 J-1.081 K0.000 F150.000
G0 Z1.000
G0 X43.018 Y-37.322 Z1.000
G0 X43.018 Y-37.322 Z0.500
G1 X43.018 Y-37.322 Z-0.200 F100.000
G3 X43.090 Y-38.153 Z-0.200 I2.120 J-0.235 K0.000 F150.000
G3 X43.605 Y-38.526 Z-0.200 I0.747 J0.491 K0.000 F150.000
G2 X43.691 Y-37.557 Z-0.200 I0.679 J0.428 K0.000 F150.000
G2 X43.734 Y-36.259 Z-0.200 I0.922 J0.619 K0.000 F150.000
G3 X43.223 Y-36.616 Z-0.200 I0.125 J-0.723 K0.000 F150.000
G3 X43.018 Y-37.322 Z-0.200 I1.914 J-0.940 K0.000 F150.000
G0 Z1.000
G0 X43.203 Y-37.347 Z1.000
G0 X43.203 Y-37.347 Z0.500
G1 X43.203 Y-37.347 Z-0.200 F100.000
G3 X43.299 Y-38.119 Z-0.200 I1.530 J-0.202 K0.000 F150.000
G2 X43.438 Y-37.558 Z-0.200 I0.809 J0.097 K0.000 F150.000
G2 X43.304 Y-36.966 Z-0.200 I0.904 J0.516 K0.000 F150.000
G3 X43.203 Y-37.347 Z-0.200 I1.429 J-0.583 K0.000 F150.000
G0 Z1.000
G0 X45.357 Y-37.172 Z1.000
G0 X45.357 Y-37.172 Z0.500
G1 X45.357 Y-37.172 Z-0.200 F100.000
G3 X45.634 Y-36.918 Z-0.200 I0.006 J0.271 K0.000 F150.000
G3 X45.409 Y-36.432 Z-0.200 I-0.306 J0.154 K0.000 F150.000
G1 X45.321 Y-36.395 Z-0.200 F150.000
G2 X45.357 Y-37.172 Z-0.200 I-1.007 J-0.435 K0.000 F150.000
G0 Z1.000
G0 Z1.000
G0 X45.357 Y-37.172
G0 X46.631 Y-40.366
G0 X46.631 Y-40.366 Z0.500
G1 X46.631 Y-40.366 Z-0.200 F100.000
G3 X46.534 Y-40.407 Z-0.200 I1.259 J-3.157 K0.000 F150.000
G3 X45.581 Y-40.993 Z-0.200 I3.303 J-6.431 K0.000 F150.000
G2 X45.298 Y-41.057 Z-0.200 I-0.223 J0.332 K0.000 F150.000
G3 X34.017 Y-39.741 Z-0.200 I-18.599 J-110.457 K0.000 F150.000
G3 X22.524 Y-40.209 Z-0.200 I-3.132 J-64.501 K0.000 F150.000
G2 X16.928 Y-40.912 Z-0.200 I-21.511 J148.709 K0.000 F150.000
G2 X16.152 Y-40.833 Z-0.200 I-0.259 J1.308 K0.000 F150.000
G3 X14.342 Y-40.109 Z-0.200 I-2.625 J-3.935 K0.000 F150.000
G3 X10.785 Y-43.827 Z-0.200 I-0.222 J-3.349 K0.000 F150.000
G3 X11.502 Y-45.558 Z-0.200 I4.429 J0.821 K0.000 F150.000
G2 X11.548 Y-45.802 Z-0.200 I-0.351 J-0.192 K0.000 F150.000
G3 X10.806 Y-58.573 Z-0.200 I76.916 J-10.872 K0.000 F150.000
G3 X11.473 Y-65.932 Z-0.200 I80.591 J3.590 K0.000 F150.000
G2 X11.182 Y-67.199 Z-0.200 I-1.598 J-0.300 K0.000 F150.000
G3 X11.428 Y-70.719 Z-0.200 I2.667 J-1.582 K0.000 F150.000
G3 X14.149 Y-72.078 Z-0.200 I2.667 J1.938 K0.000 F150.000
G3 X16.237 Y-71.297 Z-0.200 I-0.580 J4.731 K0.000 F150.000
G2 X17.660 Y-71.336 Z-0.200 I0.615 J-3.521 K0.000 F150.000
G3 X28.999 Y-72.509 Z-0.200 I17.875 J117.383 K0.000 F150.000
G3 X40.880 Y-71.806 Z-0.200 I1.813 J70.143 K0.000 F150.000
G3 X45.262 Y-71.102 Z-0.200 I-9.934 J75.817 K0.000 F150.000
G2 X45.559 Y-71.164 Z-0.200 I0.073 J-0.393 K0.000 F150.000
G3 X47.706 Y-72.063 Z-0.200 I2.493 J2.937 K0.000 F150.000
G3 X51.039 Y-69.866 Z-0.200 I0.131 J3.427 K0.000 F150.000
G3 X50.564 Y-66.786 Z-0.200 I-3.257 J1.075 K0.000 F150.000
G2 X50.318 Y-65.847 Z-0.200 I1.000 J0.764 K0.000 F150.000
G3 X51.131 Y-59.442 Z-0.200 I-108.932 J17.084 K0.000 F150.000
G3 X51.173 Y-53.787 Z-0.200 I-34.282 J3.081 K0.000 F150.000
G3 X50.386 Y-46.881 Z-0.200 I-101.057 J-8.017 K0.000 F150.000
G2 X50.343 Y-45.849 Z-0.200 I2.944 J0.640 K0.000 F150.000
G2 X50.850 Y-44.923 Z-0.200 I4.079 J-1.633 K0.000 F150.000
G3 X50.774 Y-41.725 Z-0.200 I-3.094 J1.527 K0.000 F150.000
G3 X46.631 Y-40.366 Z-0.200 I-2.884 J-1.799 K0.000 F150.000
G0 Z1.000
G0 X46.754 Y-40.670 Z1.000
G0 X46.754 Y-40.670 Z0.500
G1 X46.754 Y-40.670 Z-0.200 F100.000
G3 X46.194 Y-40.966 Z-0.200 I1.147 J-2.840 K0.000 F150.000
G2 X45.544 Y-41.357 Z-0.200 I-1.496 J1.753 K0.000 F150.000
G1 X45.251 Y-41.374 Z-0.200 F150.000
G3 X33.999 Y-40.061 Z-0.200 I-18.551 J-110.151 K0.000 F150.000
G3 X22.561 Y-40.527 Z-0.200 I-3.114 J-64.182 K0.000 F150.000
G2 X16.951 Y-41.231 Z-0.200 I-21.369 J147.623 K0.000 F150.000
G2 X15.795 Y-40.983 Z-0.200 I-0.319 J1.329 K0.000 F150.000
G3 X13.910 Y-40.415 Z-0.200 I-1.998 J-3.220 K0.000 F150.000
G3 X11.100 Y-43.771 Z-0.200 I0.230 J-3.046 K0.000 F150.000
G3 X11.783 Y-45.404 Z-0.200 I4.134 J0.768 K0.000 F150.000
G2 X11.865 Y-45.844 Z-0.200 I-0.632 J-0.346 K0.000 F150.000
G3 X11.126 Y-58.561 Z-0.200 I76.603 J-10.830 K0.000 F150.000
G3 X11.810 Y-66.063 Z-0.200 I78.364 J3.357 K0.000 F150.000
G2 X11.465 Y-67.347 Z-0.200 I-1.921 J-0.174 K0.000 F150.000
G3 X11.685 Y-70.528 Z-0.200 I2.386 J-1.433 K0.000 F150.000
G3 X14.130 Y-71.758 Z-0.200 I2.412 J1.748 K0.000 F150.000
G3 X16.130 Y-70.995 Z-0.200 I-0.616 J4.619 K0.000 F150.000
G2 X17.384 Y-70.980 Z-0.200 I0.666 J-3.136 K0.000 F150.000
G3 X29.011 Y-72.189 Z-0.200 I18.480 J121.184 K0.000 F150.000
G3 X40.835 Y-71.489 Z-0.200 I1.801 J69.826 K0.000 F150.000
G3 X45.203 Y-70.788 Z-0.200 I-9.894 J75.528 K0.000 F150.000
G2 X45.737 Y-70.898 Z-0.200 I0.132 J-0.708 K0.000 F150.000
G3 X47.721 Y-71.742 Z-0.200 I2.318 J2.693 K0.000 F150.000
G3 X50.734 Y-69.766 Z-0.200 I0.118 J3.105 K0.000 F150.000
G3 X50.286 Y-66.944 Z-0.200 I-2.965 J0.976 K0.000 F150.000
G2 X50.001 Y-65.801 Z-0.200 I1.284 J0.927 K0.000 F150.000
G3 X50.812 Y-59.418 Z-0.200 I-108.667 J17.045 K0.000 F150.000
G3 X50.853 Y-53.808 Z-0.200 I-33.986 J3.057 K0.000 F150.000
G3 X50.069 Y-46.925 Z-0.200 I-100.762 J-7.999 K0.000 F150.000
G2 X50.044 Y-45.732 Z-0.200 I2.763 J0.653 K0.000 F150.000
G2 X50.565 Y-44.776 Z-0.200 I4.373 J-1.759 K0.000 F150.000
G3 X50.498 Y-41.887 Z-0.200 I-2.806 J1.380 K0.000 F150.000
G3 X46.754 Y-40.670 Z-0.200 I-2.598 J-1.623 K0.000 F150.000
G0 Z1.000
G0 X46.894 Y-40.998 Z1.000
G0 X46.894 Y-40.998 Z0.500
G1 X46.894 Y-40.998 Z-0.200 F100.000
G3 X46.041 Y-41.583 Z-0.200 I1.036 J-2.424 K0.000 F150.000
G2 X45.668 Y-41.845 Z-0.200 I-0.549 J0.384 K0.000 F150.000
G2 X44.698 Y-41.673 Z-0.200 I0.251 J4.233 K0.000 F150.000
G3 X35.299 Y-40.488 Z-0.200 I-20.678 J-126.131 K0.000 F150.000
G3 X26.090 Y-40.532 Z-0.200 I-4.249 J-73.747 K0.000 F150.000
G3 X20.889 Y-41.110 Z-0.200 I11.785 J-129.848 K0.000 F150.000
G2 X16.166 Y-41.770 Z-0.200 I-55.742 J381.651 K0.000 F150.000
G2 X16.042 Y-41.665 Z-0.200 I0.870 J1.162 K0.000 F150.000
G3 X14.544 Y-40.853 Z-0.200 I-1.902 J-1.722 K0.000 F150.000
G3 X11.494 Y-43.617 Z-0.200 I-0.381 J-2.645 K0.000 F150.000
G3 X12.309 Y-45.357 Z-0.200 I3.302 J0.486 K0.000 F150.000
G2 X12.268 Y-46.099 Z-0.200 I-1.983 J-0.264 K0.000 F150.000
G3 X11.532 Y-53.722 Z-0.200 I80.663 J-11.636 K0.000 F150.000
G3 X11.956 Y-63.908 Z-0.200 I66.083 J-2.355 K0.000 F150.000
G3 X12.293 Y-66.313 Z-0.200 I19.745 J1.542 K0.000 F150.000
G2 X12.136 Y-67.062 Z-0.200 I-0.651 J-0.255 K0.000 F150.000
G3 X12.595 Y-70.869 Z-0.200 I1.924 J-1.699 K0.000 F150.000
G3 X14.492 Y-71.347 Z-0.200 I1.500 J1.956 K0.000 F150.000
G3 X16.082 Y-70.474 Z-0.200 I-0.695 J3.153 K0.000 F150.000
G2 X16.434 Y-70.434 Z-0.200 I0.208 J-0.260 K0.000 F150.000
G3 X24.007 Y-71.430 Z-0.200 I36.589 J248.941 K0.000 F150.000
G3 X34.156 Y-71.778 Z-0.200 I7.189 J61.503 K0.000 F150.000
G3 X42.584 Y-70.831 Z-0.200 I-6.734 J97.859 K0.000 F150.000
G2 X45.522 Y-70.356 Z-0.200 I16.322 J-91.758 K0.000 F150.000
G2 X45.831 Y-70.413 Z-0.200 I0.109 J-0.272 K0.000 F150.000
G3 X47.251 Y-71.289 Z-0.200 I2.616 J2.652 K0.000 F150.000
G3 X50.455 Y-69.199 Z-0.200 I0.635 J2.528 K0.000 F150.000
G3 X49.567 Y-66.750 Z-0.200 I-2.812 J0.366 K0.000 F150.000
G1 X49.567 Y-66.750 Z-0.200 F150.000
G2 X49.481 Y-66.655 Z-0.200 I0.678 J0.699 K0.000 F150.000
G2 X49.576 Y-65.504 Z-0.200 I3.143 J0.318 K0.000 F150.000
G3 X50.518 Y-56.841 Z-0.200 I-54.572 J10.311 K0.000 F150.000
G3 X49.410 Y-45.627 Z-0.200 I-60.582 J-0.322 K0.000 F150.000
G2 X49.846 Y-45.110 Z-0.200 I4.820 J-3.620 K0.000 F150.000
G3 X48.070 Y-40.789 Z-0.200 I-1.994 J1.705 K0.000 F150.000
G3 X46.894 Y-40.998 Z-0.200 I-0.140 J-2.633 K0.000 F150.000
G0 Z1.000
G0 X47.019 Y-41.292 Z1.000
G0 X47.019 Y-41.292 Z0.500
G1 X47.019 Y-41.292 Z-0.200 F100.000
G3 X46.246 Y-41.829 Z-0.200 I0.919 J-2.151 K0.000 F150.000
G2 X45.685 Y-42.165 Z-0.200 I-0.701 J0.534 K0.000 F150.000
G2 X44.634 Y-41.986 Z-0.200 I0.173 J4.199 K0.000 F150.000
G3 X35.265 Y-40.806 Z-0.200 I-20.646 J-126.085 K0.000 F150.000
G3 X27.196 Y-40.777 Z-0.200 I-4.283 J-68.656 K0.000 F150.000
G3 X22.981 Y-41.174 Z-0.200 I3.742 J-62.258 K0.000 F150.000
G3 X16.329 Y-42.073 Z-0.200 I72.678 J-562.992 K0.000 F150.000
G2 X15.955 Y-42.011 Z-0.200 I-0.146 J0.281 K0.000 F150.000
G3 X15.002 Y-41.311 Z-0.200 I-3.101 J-3.225 K0.000 F150.000
G3 X11.918 Y-42.829 Z-0.200 I-0.856 J-2.154 K0.000 F150.000
G3 X11.874 Y-43.972 Z-0.200 I1.801 J-0.640 K0.000 F150.000
G3 X12.611 Y-45.244 Z-0.200 I4.907 J1.992 K0.000 F150.000
G2 X12.586 Y-46.137 Z-0.200 I-2.057 J-0.389 K0.000 F150.000
G3 X11.852 Y-53.736 Z-0.200 I80.440 J-11.607 K0.000 F150.000
G3 X12.274 Y-63.877 Z-0.200 I65.767 J-2.340 K0.000 F150.000
G3 X12.609 Y-66.262 Z-0.200 I19.520 J1.522 K0.000 F150.000
G2 X12.393 Y-67.252 Z-0.200 I-0.940 J-0.313 K0.000 F150.000
G3 X12.151 Y-69.967 Z-0.200 I1.666 J-1.517 K0.000 F150.000
G3 X13.556 Y-70.990 Z-0.200 I2.086 J1.387 K0.000 F150.000
G3 X15.420 Y-70.591 Z-0.200 I0.538 J2.040 K0.000 F150.000
G2 X16.094 Y-70.080 Z-0.200 I3.759 J-4.258 K0.000 F150.000
G2 X16.477 Y-70.117 Z-0.200 I0.113 J-0.820 K0.000 F150.000
G3 X24.043 Y-71.112 Z-0.200 I36.557 J248.716 K0.000 F150.000
G3 X33.819 Y-71.472 Z-0.200 I7.139 J61.000 K0.000 F150.000
G3 X44.620 Y-70.168 Z-0.200 I-6.974 J103.155 K0.000 F150.000
G2 X45.841 Y-70.034 Z-0.200 I1.035 J-3.791 K0.000 F150.000
G2 X46.569 Y-70.603 Z-0.200 I-2.851 J-4.394 K0.000 F150.000
G3 X48.215 Y-71.047 Z-0.200 I1.374 J1.817 K0.000 F150.000
G3 X50.141 Y-69.134 Z-0.200 I-0.433 J2.362 K0.000 F150.000
G3 X49.408 Y-67.046 Z-0.200 I-2.390 J0.332 K0.000 F150.000
G2 X49.150 Y-66.694 Z-0.200 I0.555 J0.675 K0.000 F150.000
G2 X49.220 Y-65.715 Z-0.200 I3.588 J0.237 K0.000 F150.000
G3 X49.970 Y-60.581 Z-0.200 I-154.339 J25.170 K0.000 F150.000
G3 X50.186 Y-55.126 Z-0.200 I-40.911 J4.351 K0.000 F150.000
G3 X49.076 Y-45.562 Z-0.200 I-64.623 J-2.656 K0.000 F150.000
G3 X49.903 Y-44.468 Z-0.200 I-68.078 J52.347 K0.000 F150.000
G3 X48.020 Y-41.106 Z-0.200 I-2.070 J1.049 K0.000 F150.000
G3 X47.019 Y-41.292 Z-0.200 I-0.082 J-2.337 K0.000 F150.000
G0 Z1.000
G0 X46.159 Y-41.231 Z1.000
G0 X46.159 Y-41.231 Z0.500
G1 X46.159 Y-41.231 Z-0.200 F100.000
G2 X45.221 Y-41.571 Z-0.200 I-0.819 J0.796 K0.000 F150.000
G1 X45.163 Y-41.563 Z-0.200 F150.000
G3 X45.653 Y-41.641 Z-0.200 I0.535 J1.781 K0.000 F150.000
G2 X46.159 Y-41.231 Z-0.200 I36.895 J-45.039 K0.000 F150.000
G0 Z1.000
G0 X49.829 Y-41.409 Z1.000
G0 X49.829 Y-41.409 Z0.500
G1 X49.829 Y-41.409 Z-0.200 F100.000
G2 X50.678 Y-43.389 Z-0.200 I-1.953 J-2.010 K0.000 F150.000
G3 X50.637 Y-42.832 Z-0.200 I-2.755 J0.076 K0.000 F150.000
G3 X49.829 Y-41.409 Z-0.200 I-2.330 J-0.382 K0.000 F150.000
G0 Z1.000
G0 X50.642 Y-43.872 Z1.000
G0 X50.642 Y-43.872 Z0.500
G1 X50.642 Y-43.872 Z-0.200 F100.000
G1 X50.626 Y-43.974 Z-0.200 F150.000
G3 X50.642 Y-43.872 Z-0.200 I-0.281 J0.098 K0.000 F150.000
G0 Z1.000
G0 X50.549 Y-44.279 Z1.000
G0 X50.549 Y-44.279 Z0.500
G1 X50.549 Y-44.279 Z-0.200 F100.000
G2 X50.453 Y-44.534 Z-0.200 I-1.813 J0.536 K0.000 F150.000
G3 X50.549 Y-44.279 Z-0.200 I-0.706 J0.411 K0.000 F150.000
G0 Z1.000
G0 X50.445 Y-44.552 Z1.000
G0 X50.445 Y-44.552 Z0.500
G1 X50.445 Y-44.552 Z-0.200 F100.000
G2 X49.625 Y-45.700 Z-0.200 I-5.832 J3.301 K0.000 F150.000
G2 X50.218 Y-49.483 Z-0.200 I-45.885 J-9.135 K0.000 F150.000
G2 X49.782 Y-46.220 Z-0.200 I98.351 J14.789 K0.000 F150.000
G2 X50.214 Y-44.971 Z-0.200 I2.105 J-0.028 K0.000 F150.000
G3 X50.445 Y-44.552 Z-0.200 I-1.530 J1.115 K0.000 F150.000
G0 Z1.000
G0 X50.623 Y-53.407 Z1.000
G0 X50.623 Y-53.407 Z0.500
G1 X50.623 Y-53.407 Z-0.200 F100.000
G2 X49.962 Y-64.406 Z-0.200 I-44.449 J-2.847 K0.000 F150.000
G3 X49.662 Y-66.558 Z-0.200 I12.553 J-2.848 K0.000 F150.000
G1 X49.713 Y-66.614 Z-0.200 F150.000
G1 X49.713 Y-66.614 Z-0.200 F150.000
G2 X50.660 Y-68.420 Z-0.200 I-2.192 J-2.301 K0.000 F150.000
G3 X50.113 Y-67.043 Z-0.200 I-2.706 J-0.279 K0.000 F150.000
G2 X49.803 Y-65.772 Z-0.200 I1.460 J1.028 K0.000 F150.000
G3 X50.612 Y-59.402 Z-0.200 I-108.502 J17.020 K0.000 F150.000
G3 X50.654 Y-53.822 Z-0.200 I-33.801 J3.041 K0.000 F150.000
G1 X50.623 Y-53.407 Z-0.200 F150.000
G0 Z1.000
G0 X50.638 Y-69.302 Z1.000
G0 X50.638 Y-69.302 Z0.500
G1 X50.638 Y-69.302 Z-0.200 F100.000
G2 X49.856 Y-70.740 Z-0.200 I-2.719 J0.546 K0.000 F150.000
G3 X50.638 Y-69.302 Z-0.200 I-1.515 J1.755 K0.000 F150.000
G0 Z1.000
G0 X46.161 Y-70.942 Z1.000
G0 X46.161 Y-70.942 Z0.500
G1 X46.161 Y-70.942 Z-0.200 F100.000
G3 X45.668 Y-70.542 Z-0.200 I-5.621 J-6.424 K0.000 F150.000
G3 X45.312 Y-70.585 Z-0.200 I0.706 J-7.432 K0.000 F150.000
G2 X45.849 Y-70.732 Z-0.200 I0.056 J-0.850 K0.000 F150.000
G1 X46.161 Y-70.942 Z-0.200 F150.000
G0 Z1.000
G0 X42.421 Y-71.055 Z1.000
G0 X42.421 Y-71.055 Z0.500
G1 X42.421 Y-71.055 Z-0.200 F100.000
G2 X36.762 Y-71.757 Z-0.200 I-16.599 J110.609 K0.000 F150.000
G3 X42.421 Y-71.055 Z-0.200 I-8.191 J89.155 K0.000 F150.000
G0 Z1.000
G0 X17.585 Y-70.803 Z1.000
G0 X17.585 Y-70.803 Z0.500
G1 X17.585 Y-70.803 Z-0.200 F100.000
G3 X16.236 Y-70.610 Z-0.200 I-10.364 J-67.646 K0.000 F150.000
G2 X15.805 Y-70.946 Z-0.200 I-13.241 J16.532 K0.000 F150.000
G2 X16.809 Y-70.726 Z-0.200 I0.776 J-1.139 K0.000 F150.000
G2 X17.585 Y-70.803 Z-0.200 I-0.866 J-12.693 K0.000 F150.000
G0 Z1.000
G0 X13.033 Y-71.346 Z1.000
G0 X13.033 Y-71.346 Z0.500
G1 X13.033 Y-71.346 Z-0.200 F100.000
G1 X12.633 Y-71.130 Z-0.200 F150.000
G3 X13.033 Y-71.346 Z-0.200 I0.880 J1.152 K0.000 F150.000
G0 Z1.000
G0 X12.371 Y-70.946 Z1.000
G0 X12.371 Y-70.946 Z0.500
G1 X12.371 Y-70.946 Z-0.200 F100.000
G1 X12.328 Y-70.912 Z-0.200 F150.000
G3 X12.371 Y-70.946 Z-0.200 I0.160 J0.157 K0.000 F150.000
G0 Z1.000
G0 X11.507 Y-69.822 Z1.000
G0 X11.507 Y-69.822 Z0.500
G1 X11.507 Y-69.822 Z-0.200 F100.000
G2 X11.398 Y-68.017 Z-0.200 I2.462 J1.054 K0.000 F150.000
G3 X11.507 Y-69.822 Z-0.200 I2.230 J-0.771 K0.000 F150.000
G0 Z1.000
G0 X11.516 Y-67.706 Z1.000
G0 X11.516 Y-67.706 Z0.500
G1 X11.516 Y-67.706 Z-0.200 F100.000
G1 X11.550 Y-67.625 Z-0.200 F150.000
G3 X11.516 Y-67.706 Z-0.200 I0.378 J-0.206 K0.000 F150.000
G0 Z1.000
G0 X11.596 Y-67.534 Z1.000
G0 X11.596 Y-67.534 Z0.500
G1 X11.596 Y-67.534 Z-0.200 F100.000
G2 X12.113 Y-66.743 Z-0.200 I11.751 J-7.121 K0.000 F150.000
G3 X12.116 Y-66.487 Z-0.200 I-0.396 J0.133 K0.000 F150.000
G2 X11.770 Y-64.048 Z-0.200 I21.933 J4.355 K0.000 F150.000
G2 X12.017 Y-66.393 Z-0.200 I-57.381 J-7.222 K0.000 F150.000
G2 X11.596 Y-67.534 Z-0.200 I-3.069 J0.484 K0.000 F150.000
G0 Z1.000
G0 X11.596 Y-62.261 Z1.000
G0 X11.596 Y-62.261 Z0.500
G1 X11.596 Y-62.261 Z-0.200 F100.000
G2 X11.305 Y-57.360 Z-0.200 I55.779 J5.772 K0.000 F150.000
G3 X11.596 Y-62.261 Z-0.200 I51.997 J0.629 K0.000 F150.000
G0 Z1.000
G0 X11.681 Y-49.111 Z1.000
G0 X11.681 Y-49.111 Z0.500
G1 X11.681 Y-49.111 Z-0.200 F100.000
G3 X12.109 Y-45.711 Z-0.200 I-220.086 J29.405 K0.000 F150.000
G3 X12.110 Y-45.409 Z-0.200 I-0.736 J0.154 K0.000 F150.000
G2 X11.668 Y-44.778 Z-0.200 I5.875 J4.589 K0.000 F150.000
G2 X12.050 Y-45.553 Z-0.200 I-2.505 J-1.716 K0.000 F150.000
G2 X11.966 Y-46.604 Z-0.200 I-3.041 J-0.286 K0.000 F150.000
G3 X11.681 Y-49.111 Z-0.200 I40.522 J-5.873 K0.000 F150.000
G0 Z1.000
G0 X11.309 Y-43.787 Z1.000
G0 X11.309 Y-43.787 Z0.500
G1 X11.309 Y-43.787 Z-0.200 F100.000
G2 X13.527 Y-40.699 Z-0.200 I2.847 J0.296 K0.000 F150.000
G2 X14.361 Y-40.637 Z-0.200 I0.637 J-2.959 K0.000 F150.000
G3 X11.794 Y-41.835 Z-0.200 I-0.296 J-2.716 K0.000 F150.000
G3 X11.298 Y-43.737 Z-0.200 I2.020 J-1.543 K0.000 F150.000
G1 X11.309 Y-43.787 Z-0.200 F150.000
G0 Z1.000
G0 X15.902 Y-41.287 Z1.000
G0 X15.902 Y-41.287 Z0.500
G1 X15.902 Y-41.287 Z-0.200 F100.000
G2 X16.229 Y-41.561 Z-0.200 I-20.282 J-24.501 K0.000 F150.000
G3 X17.705 Y-41.353 Z-0.200 I-26.139 J190.821 K0.000 F150.000
G2 X16.190 Y-41.407 Z-0.200 I-0.919 J4.563 K0.000 F150.000
G2 X15.902 Y-41.287 Z-0.200 I0.225 J0.947 K0.000 F150.000
G0 Z1.000
G0 Z1.000
G0 X15.902 Y-41.287
G0 X47.246 Y-75.022
G0 X47.246 Y-75.022 Z0.500
G1 X47.246 Y-75.022 Z-0.200 F100.000
G3 X47.149 Y-76.793 Z-0.200 I6.805 J-1.260 K0.000 F150.000
G3 X47.193 Y-79.426 Z-0.200 I28.583 J-0.836 K0.000 F150.000
G3 X47.244 Y-79.598 Z-0.200 I0.143 J-0.051 K0.000 F150.000
G3 X48.026 Y-79.598 Z-0.200 I0.392 J3.047 K0.000 F150.000
G3 X48.269 Y-79.562 Z-0.200 I-0.197 J2.168 K0.000 F150.000
G2 X48.339 Y-78.605 Z-0.200 I3.594 J0.218 K0.000 F150.000
G2 X49.091 Y-78.350 Z-0.200 I0.452 J-0.096 K0.000 F150.000
G2 X51.223 Y-79.574 Z-0.200 I-17.356 J-32.675 K0.000 F150.000
G3 X52.823 Y-79.603 Z-0.200 I0.962 J8.999 K0.000 F150.000
G3 X52.935 Y-79.478 Z-0.200 I0.019 J0.095 K0.000 F150.000
G3 X53.026 Y-76.866 Z-0.200 I-15.187 J1.837 K0.000 F150.000
G3 X52.915 Y-75.033 Z-0.200 I-14.041 J0.073 K0.000 F150.000
G3 X52.038 Y-75.040 Z-0.200 I-0.417 J-2.511 K0.000 F150.000
G2 X51.971 Y-76.192 Z-0.200 I-12.457 J0.155 K0.000 F150.000
G2 X51.274 Y-76.478 Z-0.200 I-0.431 J0.058 K0.000 F150.000
G3 X48.409 Y-75.077 Z-0.200 I-104.175 J-209.402 K0.000 F150.000
G3 X47.246 Y-75.022 Z-0.200 I-0.760 J-3.756 K0.000 F150.000
G0 Z1.000
G0 X47.504 Y-75.327 Z1.000
G0 X47.504 Y-75.327 Z0.500
G1 X47.504 Y-75.327 Z-0.200 F100.000
G3 X47.502 Y-79.297 Z-0.200 I57.873 J-2.014 K0.000 F150.000
G3 X47.956 Y-79.282 Z-0.200 I0.107 J3.669 K0.000 F150.000
G2 X48.182 Y-78.217 Z-0.200 I1.748 J0.185 K0.000 F150.000
G2 X49.316 Y-78.106 Z-0.200 I0.626 J-0.549 K0.000 F150.000
G2 X51.315 Y-79.257 Z-0.200 I-18.750 J-34.853 K0.000 F150.000
G3 X52.640 Y-79.294 Z-0.200 I1.223 J20.281 K0.000 F150.000
G3 X52.626 Y-75.327 Z-0.200 I-21.055 J1.911 K0.000 F150.000
G3 X52.336 Y-75.326 Z-0.200 I-0.149 J-3.395 K0.000 F150.000
G2 X52.214 Y-76.462 Z-0.200 I-3.247 J-0.225 K0.000 F150.000
G2 X51.077 Y-76.739 Z-0.200 I-0.697 J0.391 K0.000 F150.000
G3 X48.309 Y-75.381 Z-0.200 I-103.091 J-206.718 K0.000 F150.000
G3 X47.504 Y-75.327 Z-0.200 I-0.584 J-2.643 K0.000 F150.000
G0 Z1.000
G0 X47.802 Y-75.645 Z1.000
G0 X47.802 Y-75.645 Z0.500
G1 X47.802 Y-75.645 Z-0.200 F100.000
G3 X47.792 Y-78.250 Z-0.200 I93.404 J-1.660 K0.000 F150.000
G2 X49.466 Y-77.823 Z-0.200 I1.006 J-0.450 K0.000 F150.000
G2 X51.407 Y-78.940 Z-0.200 I-18.352 J-34.128 K0.000 F150.000
G3 X52.348 Y-78.969 Z-0.200 I2.922 J79.336 K0.000 F150.000
G3 X52.382 Y-76.789 Z-0.200 I-18.336 J1.378 K0.000 F150.000
G2 X50.939 Y-77.028 Z-0.200 I-0.860 J0.720 K0.000 F150.000
G3 X48.208 Y-75.686 Z-0.200 I-125.695 J-252.327 K0.000 F150.000
G3 X47.802 Y-75.645 Z-0.200 I-0.357 J-1.496 K0.000 F150.000
G0 Z1.000
G0 X48.113 Y-75.992 Z1.000
G0 X48.113 Y-75.992 Z0.500
G1 X48.113 Y-75.992 Z-0.200 F100.000
G3 X48.110 Y-77.457 Z-0.200 I115.163 J-1.035 K0.000 F150.000
G2 X49.702 Y-77.586 Z-0.200 I0.689 J-1.385 K0.000 F150.000
G2 X51.499 Y-78.623 Z-0.200 I-22.571 J-41.185 K0.000 F150.000
G1 X52.050 Y-78.641 Z-0.200 F150.000
G3 X52.071 Y-77.419 Z-0.200 I-14.885 J0.864 K0.000 F150.000
G2 X50.736 Y-77.285 Z-0.200 I-0.519 J1.548 K0.000 F150.000
G3 X48.113 Y-75.992 Z-0.200 I-55.538 J-109.335 K0.000 F150.000
G0 Z1.000
G0 X48.429 Y-76.486 Z1.000
G0 X48.429 Y-76.486 Z0.500
G1 X48.429 Y-76.486 Z-0.200 F100.000
G3 X48.429 Y-77.005 Z-0.200 I204.804 J-0.344 K0.000 F150.000
G1 X48.642 Y-76.966 Z-0.200 F150.000
G2 X49.961 Y-77.362 Z-0.200 I-0.038 J-2.520 K0.000 F150.000
G2 X51.591 Y-78.306 Z-0.200 I-23.821 J-43.031 K0.000 F150.000
G1 X51.745 Y-78.311 Z-0.200 F150.000
G3 X51.754 Y-77.825 Z-0.200 I-11.868 J0.471 K0.000 F150.000
G2 X50.596 Y-77.573 Z-0.200 I-0.163 J2.039 K0.000 F150.000
G2 X48.429 Y-76.486 Z-0.200 I71.851 J145.870 K0.000 F150.000
G0 Z1.000
G0 X51.528 Y-78.037 Z1.000
G0 X51.528 Y-78.037 Z0.500
G1 X51.528 Y-78.037 Z-0.200 F100.000
G1 X51.551 Y-78.050 Z-0.200 F150.000
G1 X51.551 Y-78.036 Z-0.200 F150.000
G1 X51.528 Y-78.037 Z-0.200 F150.000
G0 Z1.000
G0 Z1.000
G0 X51.528 Y-78.037
G0 X45.914 Y-77.407
G0 X45.914 Y-77.407 Z0.500
G1 X45.914 Y-77.407 Z-0.200 F100.000
G3 X45.879 Y-76.654 Z-0.200 I-2.392 J0.268 K0.000 F150.000
G3 X44.647 Y-75.192 Z-0.200 I-2.181 J-0.588 K0.000 F150.000
G3 X42.425 Y-74.874 Z-0.200 I-1.821 J-4.799 K0.000 F150.000
G3 X39.661 Y-76.193 Z-0.200 I-0.128 J-3.286 K0.000 F150.000
G3 X40.488 Y-79.213 Z-0.200 I1.883 J-1.108 K0.000 F150.000
G3 X44.473 Y-79.350 Z-0.200 I2.129 J3.904 K0.000 F150.000
G3 X45.914 Y-77.407 Z-0.200 I-0.952 J2.211 K0.000 F150.000
G0 Z1.000
G0 X45.595 Y-77.372 Z1.000
G0 X45.595 Y-77.372 Z0.500
G1 X45.595 Y-77.372 Z-0.200 F100.000
G3 X45.566 Y-76.722 Z-0.200 I-2.073 J0.232 K0.000 F150.000
G3 X44.503 Y-75.479 Z-0.200 I-1.869 J-0.521 K0.000 F150.000
G3 X42.433 Y-75.194 Z-0.200 I-1.679 J-4.541 K0.000 F150.000
G3 X39.937 Y-76.357 Z-0.200 I-0.131 J-2.978 K0.000 F150.000
G3 X40.653 Y-78.939 Z-0.200 I1.608 J-0.944 K0.000 F150.000
G3 X44.337 Y-79.060 Z-0.200 I1.964 J3.636 K0.000 F150.000
G3 X45.595 Y-77.372 Z-0.200 I-0.815 J1.920 K0.000 F150.000
G0 Z1.000
G0 X45.282 Y-77.338 Z1.000
G0 X45.282 Y-77.338 Z0.500
G1 X45.282 Y-77.338 Z-0.200 F100.000
G3 X45.252 Y-76.791 Z-0.200 I-1.690 J0.182 K0.000 F150.000
G3 X44.953 Y-76.235 Z-0.200 I-1.028 J-0.195 K0.000 F150.000
G2 X44.584 Y-78.536 Z-0.200 I-1.574 J-0.927 K0.000 F150.000
G3 X45.282 Y-77.338 Z-0.200 I-0.992 J1.380 K0.000 F150.000
G0 Z1.000
G0 X44.882 Y-77.300 Z1.000
G0 X44.882 Y-77.300 Z0.500
G1 X44.882 Y-77.300 Z-0.200 F100.000
G3 X44.637 Y-76.331 Z-0.200 I-1.487 J0.140 K0.000 F150.000
G3 X42.737 Y-75.704 Z-0.200 I-1.380 J-0.991 K0.000 F150.000
G3 X41.731 Y-77.967 Z-0.200 I0.341 J-1.507 K0.000 F150.000
G3 X44.859 Y-77.458 Z-0.200 I1.458 J0.908 K0.000 F150.000
G3 X44.882 Y-77.300 Z-0.200 I-1.464 J0.297 K0.000 F150.000
G0 Z1.000
G0 X44.564 Y-77.268 Z1.000
G0 X44.564 Y-77.268 Z0.500
G1 X44.564 Y-77.268 Z-0.200 F100.000
G3 X44.364 Y-76.498 Z-0.200 I-1.142 J0.115 K0.000 F150.000
G3 X42.811 Y-76.016 Z-0.200 I-1.106 J-0.822 K0.000 F150.000
G3 X41.941 Y-77.672 Z-0.200 I0.265 J-1.195 K0.000 F150.000
G3 X44.509 Y-77.521 Z-0.200 I1.252 J0.607 K0.000 F150.000
G3 X44.564 Y-77.268 Z-0.200 I-1.087 J0.368 K0.000 F150.000
G0 Z1.000
G0 X43.069 Y-79.090 Z1.000
G0 X43.069 Y-79.090 Z0.500
G1 X43.069 Y-79.090 Z-0.200 F100.000
G2 X42.329 Y-75.519 Z-0.200 I0.015 J1.866 K0.000 F150.000
G3 X40.212 Y-76.520 Z-0.200 I-0.047 J-2.638 K0.000 F150.000
G3 X40.818 Y-78.664 Z-0.200 I1.333 J-0.781 K0.000 F150.000
G3 X43.069 Y-79.090 Z-0.200 I1.809 J3.396 K0.000 F150.000
G0 Z1.000
G0 X41.371 Y-78.568 Z1.000
G0 X41.371 Y-78.568 Z0.500
G1 X41.371 Y-78.568 Z-0.200 F100.000
G2 X41.188 Y-76.115 Z-0.200 I1.698 J1.360 K0.000 F150.000
G3 X40.368 Y-76.915 Z-0.200 I0.592 J-1.427 K0.000 F150.000
G3 X41.196 Y-78.500 Z-0.200 I1.268 J-0.347 K0.000 F150.000
G1 X41.371 Y-78.568 Z-0.200 F150.000
G0 Z1.000
G0 X40.842 Y-78.025 Z1.000
G0 X40.842 Y-78.025 Z0.500
G1 X40.842 Y-78.025 Z-0.200 F100.000
G2 X40.768 Y-76.662 Z-0.200 I2.071 J0.797 K0.000 F150.000
G3 X40.842 Y-78.025 Z-0.200 I0.691 J-0.646 K0.000 F150.000
G0 Z1.000
G0 Z1.000
G0 X40.842 Y-78.025
G0 X38.174 Y-78.027
G0 X38.174 Y-78.027 Z0.500
G1 X38.174 Y-78.027 Z-0.200 F100.000
G3 X38.166 Y-77.095 Z-0.200 I-63.012 J-0.045 K0.000 F150.000
G3 X38.098 Y-75.066 Z-0.200 I-18.762 J0.385 K0.000 F150.000
G3 X35.699 Y-75.078 Z-0.200 I-1.164 J-7.357 K0.000 F150.000
G3 X35.592 Y-76.546 Z-0.200 I5.891 J-1.167 K0.000 F150.000
G3 X35.670 Y-79.439 Z-0.200 I25.634 J-0.752 K0.000 F150.000
G3 X35.868 Y-79.599 Z-0.200 I0.150 J-0.017 K0.000 F150.000
G3 X38.106 Y-79.550 Z-0.200 I0.855 J12.160 K0.000 F150.000
G3 X38.165 Y-79.126 Z-0.200 I-0.733 J0.318 K0.000 F150.000
G3 X38.174 Y-78.027 Z-0.200 I-63.003 J1.054 K0.000 F150.000
G0 Z1.000
G0 X37.855 Y-78.027 Z1.000
G0 X37.855 Y-78.027 Z0.500
G1 X37.855 Y-78.027 Z-0.200 F100.000
G3 X37.846 Y-77.099 Z-0.200 I-51.667 J-0.016 K0.000 F150.000
G3 X37.805 Y-75.350 Z-0.200 I-37.763 J-0.006 K0.000 F150.000
G3 X35.968 Y-75.356 Z-0.200 I-0.890 J-8.469 K0.000 F150.000
G3 X35.921 Y-77.743 Z-0.200 I17.288 J-1.533 K0.000 F150.000
G3 X35.983 Y-79.286 Z-0.200 I12.419 J-0.278 K0.000 F150.000
G3 X37.840 Y-79.275 Z-0.200 I0.782 J24.318 K0.000 F150.000
G3 X37.855 Y-78.027 Z-0.200 I-51.652 J1.232 K0.000 F150.000
G0 Z1.000
G0 X37.534 Y-78.027 Z1.000
G0 X37.534 Y-78.027 Z0.500
G1 X37.534 Y-78.027 Z-0.200 F100.000
G3 X37.526 Y-77.102 Z-0.200 I-62.708 J-0.047 K0.000 F150.000
G3 X37.499 Y-75.649 Z-0.200 I-59.065 J-0.380 K0.000 F150.000
G3 X36.260 Y-75.653 Z-0.200 I-0.585 J-11.179 K0.000 F150.000
G3 X36.274 Y-78.974 Z-0.200 I46.425 J-1.473 K0.000 F150.000
G3 X37.527 Y-78.971 Z-0.200 I0.543 J32.749 K0.000 F150.000
G3 X37.534 Y-78.027 Z-0.200 I-62.702 J0.897 K0.000 F150.000
G0 Z1.000
G0 X37.213 Y-78.028 Z1.000
G0 X37.213 Y-78.028 Z0.500
G1 X37.213 Y-78.028 Z-0.200 F100.000
G3 X37.206 Y-77.106 Z-0.200 I-71.189 J-0.107 K0.000 F150.000
G3 X37.187 Y-75.961 Z-0.200 I-89.226 J-0.875 K0.000 F150.000
G3 X36.564 Y-75.964 Z-0.200 I-0.287 J-5.628 K0.000 F150.000
G3 X36.581 Y-78.658 Z-0.200 I57.518 J-0.985 K0.000 F150.000
G3 X37.212 Y-78.657 Z-0.200 I0.250 J57.125 K0.000 F150.000
G3 X37.213 Y-78.028 Z-0.200 I-71.188 J0.523 K0.000 F150.000
G0 Z1.000
G0 X36.893 Y-78.028 Z1.000
G0 X36.893 Y-78.028 Z0.500
G1 X36.893 Y-78.028 Z-0.200 F100.000
G3 X36.886 Y-77.110 Z-0.200 I-81.384 J-0.164 K0.000 F150.000
G3 X36.874 Y-76.329 Z-0.200 I-122.642 J-1.459 K0.000 F150.000
G3 X36.893 Y-78.338 Z-0.200 I65.968 J-0.386 K0.000 F150.000
G3 X36.893 Y-78.028 Z-0.200 I-81.384 J0.146 K0.000 F150.000
G0 Z1.000
G0 Z1.000
G0 X36.893 Y-78.028
G0 X34.273 Y-77.959
G0 X34.273 Y-77.959 Z0.500
G1 X34.273 Y-77.959 Z-0.200 F100.000
G3 X34.243 Y-75.778 Z-0.200 I-27.016 J0.717 K0.000 F150.000
G3 X34.149 Y-75.044 Z-0.200 I-2.628 J0.036 K0.000 F150.000
G3 X32.041 Y-75.064 Z-0.200 I-0.958 J-9.929 K0.000 F150.000
G3 X31.929 Y-75.338 Z-0.200 I0.130 J-0.213 K0.000 F150.000
G2 X31.860 Y-76.951 Z-0.200 I-8.928 J-0.429 K0.000 F150.000
G2 X30.996 Y-77.574 Z-0.200 I-0.746 J0.123 K0.000 F150.000
G2 X30.185 Y-77.288 Z-0.200 I-0.165 J0.824 K0.000 F150.000
G2 X30.017 Y-76.377 Z-0.200 I1.494 J0.745 K0.000 F150.000
G3 X29.970 Y-75.185 Z-0.200 I-4.327 J0.425 K0.000 F150.000
G3 X29.566 Y-75.014 Z-0.200 I-0.315 J-0.182 K0.000 F150.000
G3 X27.670 Y-75.051 Z-0.200 I-0.763 J-9.439 K0.000 F150.000
G3 X27.612 Y-75.994 Z-0.200 I2.908 J-0.653 K0.000 F150.000
G3 X27.608 Y-79.477 Z-0.200 I353.033 J-2.099 K0.000 F150.000
G3 X28.035 Y-79.611 Z-0.200 I0.336 J0.326 K0.000 F150.000
G3 X30.005 Y-79.538 Z-0.200 I0.571 J11.351 K0.000 F150.000
G2 X30.123 Y-78.612 Z-0.200 I1.993 J0.216 K0.000 F150.000
G2 X31.038 Y-78.152 Z-0.200 I0.776 J-0.404 K0.000 F150.000
G2 X31.900 Y-79.026 Z-0.200 I-0.017 J-0.878 K0.000 F150.000
G3 X31.926 Y-79.565 Z-0.200 I18.474 J0.625 K0.000 F150.000
G3 X34.120 Y-79.570 Z-0.200 I1.124 J11.924 K0.000 F150.000
G3 X34.199 Y-79.366 Z-0.200 I-0.125 J0.166 K0.000 F150.000
G3 X34.273 Y-77.959 Z-0.200 I-26.942 J2.124 K0.000 F150.000
G0 Z1.000
G0 X33.953 Y-77.951 Z1.000
G0 X33.953 Y-77.951 Z0.500
G1 X33.953 Y-77.951 Z-0.200 F100.000
G3 X33.924 Y-75.802 Z-0.200 I-27.624 J0.702 K0.000 F150.000
G3 X33.883 Y-75.346 Z-0.200 I-5.721 J-0.289 K0.000 F150.000
G3 X32.248 Y-75.366 Z-0.200 I-0.710 J-8.980 K0.000 F150.000
G2 X32.169 Y-77.033 Z-0.200 I-8.649 J-0.428 K0.000 F150.000
G2 X31.313 Y-77.866 Z-0.200 I-0.998 J0.168 K0.000 F150.000
G2 X32.219 Y-79.007 Z-0.200 I-0.305 J-1.172 K0.000 F150.000
G1 X32.234 Y-79.273 Z-0.200 F150.000
G3 X33.886 Y-79.288 Z-0.200 I0.984 J17.148 K0.000 F150.000
G3 X33.953 Y-77.951 Z-0.200 I-27.558 J2.039 K0.000 F150.000
G0 Z1.000
G0 X33.314 Y-77.935 Z1.000
G0 X33.314 Y-77.935 Z0.500
G1 X33.314 Y-77.935 Z-0.200 F100.000
G3 X33.293 Y-75.969 Z-0.200 I-27.791 J0.676 K0.000 F150.000
G3 X32.877 Y-75.966 Z-0.200 I-0.276 J-12.238 K0.000 F150.000
G2 X32.664 Y-77.558 Z-0.200 I-3.516 J-0.339 K0.000 F150.000
G2 X32.456 Y-77.894 Z-0.200 I-1.387 J0.628 K0.000 F150.000
G2 X32.809 Y-78.653 Z-0.200 I-1.545 J-1.180 K0.000 F150.000
G3 X33.287 Y-78.659 Z-0.200 I0.393 J14.392 K0.000 F150.000
G3 X33.314 Y-77.935 Z-0.200 I-27.764 J1.399 K0.000 F150.000
G0 Z1.000
G0 X32.995 Y-77.926 Z1.000
G0 X32.995 Y-77.926 Z0.500
G1 X32.995 Y-77.926 Z-0.200 F100.000
G3 X32.999 Y-77.583 Z-0.200 I-11.661 J0.331 K0.000 F150.000
G2 X32.830 Y-77.898 Z-0.200 I-1.092 J0.384 K0.000 F150.000
G1 X32.985 Y-78.173 Z-0.200 F150.000
G3 X32.995 Y-77.926 Z-0.200 I-11.651 J0.577 K0.000 F150.000
G0 Z1.000
G0 X33.635 Y-77.941 Z1.000
G0 X33.635 Y-77.941 Z0.500
G1 X33.635 Y-77.941 Z-0.200 F100.000
G3 X33.605 Y-75.825 Z-0.200 I-28.544 J0.653 K0.000 F150.000
G1 X33.589 Y-75.653 Z-0.200 F150.000
G3 X32.559 Y-75.650 Z-0.200 I-0.590 J-22.417 K0.000 F150.000
G2 X32.452 Y-77.214 Z-0.200 I-5.640 J-0.401 K0.000 F150.000
G2 X32.003 Y-77.889 Z-0.200 I-1.211 J0.318 K0.000 F150.000
G2 X32.535 Y-78.968 Z-0.200 I-1.013 J-1.171 K0.000 F150.000
G3 X33.592 Y-78.978 Z-0.200 I0.766 J25.931 K0.000 F150.000
G3 X33.635 Y-77.941 Z-0.200 I-28.501 J1.690 K0.000 F150.000
G0 Z1.000
G0 X30.598 Y-77.872 Z1.000
G0 X30.598 Y-77.872 Z0.500
G1 X30.598 Y-77.872 Z-0.200 F100.000
G2 X29.721 Y-76.890 Z-0.200 I0.136 J1.004 K0.000 F150.000
G2 X29.679 Y-75.344 Z-0.200 I121.530 J4.093 K0.000 F150.000
G3 X27.948 Y-75.342 Z-0.200 I-0.887 J-15.616 K0.000 F150.000
G3 X27.928 Y-79.283 Z-0.200 I105.694 J-2.484 K0.000 F150.000
G3 X29.695 Y-79.256 Z-0.200 I0.531 J22.442 K0.000 F150.000
G2 X30.405 Y-77.929 Z-0.200 I1.260 J0.179 K0.000 F150.000
G2 X30.598 Y-77.872 Z-0.200 I0.299 J-0.654 K0.000 F150.000
G0 Z1.000
G0 X29.884 Y-77.880 Z1.000
G0 X29.884 Y-77.880 Z0.500
G1 X29.884 Y-77.880 Z-0.200 F100.000
G2 X29.379 Y-76.533 Z-0.200 I1.071 J1.169 K0.000 F150.000
G3 X29.373 Y-75.649 Z-0.200 I-2541.774 J-17.091 K0.000 F150.000
G3 X28.258 Y-75.650 Z-0.200 I-0.542 J-30.548 K0.000 F150.000
G3 X28.248 Y-78.972 Z-0.200 I183.074 J-2.163 K0.000 F150.000
G3 X29.391 Y-78.950 Z-0.200 I-0.475 J54.559 K0.000 F150.000
G2 X29.884 Y-77.880 Z-0.200 I1.567 J-0.073 K0.000 F150.000
G0 Z1.000
G0 X29.433 Y-77.885 Z1.000
G0 X29.433 Y-77.885 Z0.500
G1 X29.433 Y-77.885 Z-0.200 F100.000
G1 X29.272 Y-77.627 Z-0.200 F150.000
G2 X29.056 Y-76.066 Z-0.200 I3.133 J1.228 K0.000 F150.000
G1 X29.056 Y-75.966 Z-0.200 F150.000
G3 X28.573 Y-75.967 Z-0.200 I-0.220 J-16.347 K0.000 F150.000
G3 X28.568 Y-78.648 Z-0.200 I241.994 J-1.710 K0.000 F150.000
G3 X29.112 Y-78.637 Z-0.200 I-0.461 J35.593 K0.000 F150.000
G2 X29.433 Y-77.885 Z-0.200 I2.409 J-0.587 K0.000 F150.000
G0 Z1.000
G0 X29.063 Y-77.893 Z1.000
G0 X29.063 Y-77.893 Z0.500
G1 X29.063 Y-77.893 Z-0.200 F100.000
G2 X28.888 Y-77.532 Z-0.200 I1.011 J0.711 K0.000 F150.000
G1 X28.888 Y-78.275 Z-0.200 F150.000
G2 X29.063 Y-77.893 Z-0.200 I1.415 J-0.416 K0.000 F150.000
G0 Z1.000
G0 Z1.000
G0 X29.063 Y-77.893
G0 X26.487 Y-78.248
G0 X26.487 Y-78.248 Z0.500
G1 X26.487 Y-78.248 Z-0.200 F100.000
G3 X26.456 Y-78.106 Z-0.200 I-0.908 J-0.125 K0.000 F150.000
G3 X25.797 Y-77.446 Z-0.200 I-1.151 J-0.489 K0.000 F150.000
G2 X24.667 Y-76.798 Z-0.200 I3.526 J7.463 K0.000 F150.000
G2 X24.701 Y-75.613 Z-0.200 I0.321 J0.584 K0.000 F150.000
G2 X25.714 Y-75.672 Z-0.200 I0.446 J-1.059 K0.000 F150.000
G3 X26.001 Y-75.725 Z-0.200 I0.203 J0.297 K0.000 F150.000
G3 X26.008 Y-75.219 Z-0.200 I-0.481 J0.260 K0.000 F150.000
G3 X25.071 Y-74.931 Z-0.200 I-1.180 J-2.167 K0.000 F150.000
G3 X22.992 Y-74.933 Z-0.200 I-1.033 J-5.971 K0.000 F150.000
G3 X21.820 Y-75.565 Z-0.200 I0.213 J-1.795 K0.000 F150.000
G3 X22.107 Y-76.956 Z-0.200 I0.925 J-0.534 K0.000 F150.000
G3 X23.039 Y-77.611 Z-0.200 I14.334 J19.385 K0.000 F150.000
G2 X23.473 Y-78.318 Z-0.200 I-0.395 J-0.730 K0.000 F150.000
G2 X22.643 Y-78.907 Z-0.200 I-0.654 J0.042 K0.000 F150.000
G3 X21.539 Y-78.634 Z-0.200 I-14.387 J-55.792 K0.000 F150.000
G3 X21.512 Y-79.185 Z-0.200 I0.956 J-0.323 K0.000 F150.000
G3 X23.463 Y-79.755 Z-0.200 I1.908 J2.908 K0.000 F150.000
G3 X25.741 Y-79.382 Z-0.200 I0.312 J5.234 K0.000 F150.000
G3 X26.368 Y-78.840 Z-0.200 I-0.515 J1.228 K0.000 F150.000
G3 X26.487 Y-78.248 Z-0.200 I-0.788 J0.467 K0.000 F150.000
G0 Z1.000
G0 X26.169 Y-78.294 Z1.000
G0 X26.169 Y-78.294 Z0.500
G1 X26.169 Y-78.294 Z-0.200 F100.000
G3 X26.077 Y-78.055 Z-0.200 I-0.579 J-0.084 K0.000 F150.000
G3 X25.201 Y-77.481 Z-0.200 I-2.292 J-2.546 K0.000 F150.000
G1 X25.201 Y-77.481 Z-0.200 F150.000
G2 X24.129 Y-76.679 Z-0.200 I0.777 J2.156 K0.000 F150.000
G2 X24.563 Y-75.324 Z-0.200 I0.850 J0.475 K0.000 F150.000
G2 X24.813 Y-75.225 Z-0.200 I0.421 J-0.698 K0.000 F150.000
G3 X22.824 Y-75.305 Z-0.200 I-0.818 J-4.450 K0.000 F150.000
G3 X22.095 Y-75.732 Z-0.200 I0.315 J-1.375 K0.000 F150.000
G3 X22.313 Y-76.710 Z-0.200 I0.651 J-0.369 K0.000 F150.000
G3 X23.241 Y-77.363 Z-0.200 I15.638 J21.221 K0.000 F150.000
G2 X23.782 Y-78.443 Z-0.200 I-0.577 J-0.965 K0.000 F150.000
G2 X22.587 Y-79.223 Z-0.200 I-0.962 J0.170 K0.000 F150.000
G2 X21.864 Y-79.038 Z-0.200 I1.119 J5.899 K0.000 F150.000
G3 X23.474 Y-79.434 Z-0.200 I1.599 J3.028 K0.000 F150.000
G3 X25.680 Y-79.055 Z-0.200 I0.343 J4.603 K0.000 F150.000
G3 X26.080 Y-78.697 Z-0.200 I-0.361 J0.808 K0.000 F150.000
G3 X26.169 Y-78.294 Z-0.200 I-0.491 J0.319 K0.000 F150.000
G0 Z1.000
G0 X25.850 Y-78.339 Z1.000
G0 X25.850 Y-78.339 Z0.500
G1 X25.850 Y-78.339 Z-0.200 F100.000
G3 X25.802 Y-78.221 Z-0.200 I-0.264 J-0.038 K0.000 F150.000
G3 X25.050 Y-77.763 Z-0.200 I-2.905 J-3.927 K0.000 F150.000
G1 X25.050 Y-77.763 Z-0.200 F150.000
G2 X23.858 Y-76.849 Z-0.200 I0.904 J2.412 K0.000 F150.000
G2 X23.927 Y-75.485 Z-0.200 I1.034 J0.631 K0.000 F150.000
G3 X22.558 Y-75.758 Z-0.200 I-0.138 J-2.878 K0.000 F150.000
G3 X22.313 Y-76.048 Z-0.200 I0.111 J-0.342 K0.000 F150.000
G3 X22.518 Y-76.464 Z-0.200 I0.514 J-0.004 K0.000 F150.000
G3 X23.442 Y-77.115 Z-0.200 I17.047 J23.202 K0.000 F150.000
G2 X23.938 Y-78.942 Z-0.200 I-0.693 J-1.168 K0.000 F150.000
G1 X23.818 Y-79.109 Z-0.200 F150.000
G3 X25.511 Y-78.781 Z-0.200 I0.094 J4.057 K0.000 F150.000
G3 X25.801 Y-78.533 Z-0.200 I-0.331 J0.681 K0.000 F150.000
G3 X25.850 Y-78.339 Z-0.200 I-0.216 J0.156 K0.000 F150.000
G0 Z1.000
G0 X25.494 Y-78.395 Z1.000
G0 X25.494 Y-78.395 Z0.500
G1 X25.494 Y-78.395 Z-0.200 F100.000
G3 X24.899 Y-78.045 Z-0.200 I-2.540 J-3.645 K0.000 F150.000
G1 X24.899 Y-78.045 Z-0.200 F150.000
G2 X24.308 Y-77.716 Z-0.200 I1.967 J4.221 K0.000 F150.000
G2 X24.394 Y-77.943 Z-0.200 I-0.601 J-0.358 K0.000 F150.000
G2 X24.363 Y-78.749 Z-0.200 I-1.472 J-0.346 K0.000 F150.000
G3 X25.494 Y-78.395 Z-0.200 I-0.131 J2.404 K0.000 F150.000
G0 Z1.000
G0 X24.793 Y-78.352 Z1.000
G0 X24.793 Y-78.352 Z0.500
G1 X24.793 Y-78.352 Z-0.200 F100.000
G1 X24.751 Y-78.329 Z-0.200 F150.000
G1 X24.750 Y-78.360 Z-0.200 F150.000
G3 X24.793 Y-78.352 Z-0.200 I-0.052 J0.388 K0.000 F150.000
G0 Z1.000
G0 X23.454 Y-76.735 Z1.000
G0 X23.454 Y-76.735 Z0.500
G1 X23.454 Y-76.735 Z-0.200 F100.000
G2 X23.409 Y-75.843 Z-0.200 I1.322 J0.515 K0.000 F150.000
G3 X22.639 Y-76.099 Z-0.200 I0.084 J-1.538 K0.000 F150.000
G3 X22.724 Y-76.217 Z-0.200 I0.276 J0.109 K0.000 F150.000
G3 X23.454 Y-76.735 Z-0.200 I14.810 J20.112 K0.000 F150.000
G0 Z1.000
G0 Z1.000
G0 X23.454 Y-76.735
G0 X20.536 Y-76.722
G0 X20.536 Y-76.722 Z0.500
G1 X20.536 Y-76.722 Z-0.200 F100.000
G3 X20.468 Y-75.027 Z-0.200 I-19.003 J0.085 K0.000 F150.000
G3 X19.519 Y-75.073 Z-0.200 I-0.304 J-3.558 K0.000 F150.000
G3 X19.440 Y-76.235 Z-0.200 I3.750 J-0.839 K0.000 F150.000
G2 X19.357 Y-77.995 Z-0.200 I-7.184 J-0.542 K0.000 F150.000
G2 X17.707 Y-78.131 Z-0.200 I-0.855 J0.300 K0.000 F150.000
G2 X17.540 Y-76.830 Z-0.200 I2.939 J1.038 K0.000 F150.000
G3 X17.477 Y-75.062 Z-0.200 I-8.438 J0.584 K0.000 F150.000
G3 X15.111 Y-75.068 Z-0.200 I-1.160 J-8.910 K0.000 F150.000
G3 X15.112 Y-77.786 Z-0.200 I14.058 J-1.355 K0.000 F150.000
G3 X16.218 Y-79.392 Z-0.200 I1.952 J0.161 K0.000 F150.000
G3 X19.045 Y-79.595 Z-0.200 I1.690 J3.749 K0.000 F150.000
G3 X20.470 Y-78.230 Z-0.200 I-0.511 J1.959 K0.000 F150.000
G3 X20.536 Y-76.722 Z-0.200 I-18.936 J1.593 K0.000 F150.000
G0 Z1.000
G0 X20.199 Y-76.720 Z1.000
G0 X20.199 Y-76.720 Z0.500
G1 X20.199 Y-76.720 Z-0.200 F100.000
G3 X20.178 Y-75.338 Z-0.200 I-30.773 J0.218 K0.000 F150.000
G3 X19.787 Y-75.354 Z-0.200 I0.033 J-5.711 K0.000 F150.000
G2 X19.717 Y-77.862 Z-0.200 I-160.337 J3.175 K0.000 F150.000
G2 X17.846 Y-78.733 Z-0.200 I-1.232 J0.202 K0.000 F150.000
G2 X17.238 Y-77.431 Z-0.200 I0.846 J1.188 K0.000 F150.000
G2 X17.200 Y-75.350 Z-0.200 I480.466 J9.722 K0.000 F150.000
G3 X15.401 Y-75.349 Z-0.200 I-0.908 J-10.775 K0.000 F150.000
G3 X15.428 Y-77.736 Z-0.200 I16.408 J-1.008 K0.000 F150.000
G3 X16.362 Y-79.105 Z-0.200 I1.636 J0.113 K0.000 F150.000
G3 X18.953 Y-79.288 Z-0.200 I1.547 J3.456 K0.000 F150.000
G3 X20.154 Y-78.174 Z-0.200 I-0.430 J1.668 K0.000 F150.000
G3 X20.199 Y-76.720 Z-0.200 I-30.729 J1.672 K0.000 F150.000
G0 Z1.000
G0 X16.900 Y-76.787 Z1.000
G0 X16.900 Y-76.787 Z0.500
G1 X16.900 Y-76.787 Z-0.200 F100.000
G2 X16.891 Y-75.650 Z-0.200 I45.166 J0.917 K0.000 F150.000
G3 X15.707 Y-75.648 Z-0.200 I-0.608 J-10.406 K0.000 F150.000
G3 X15.745 Y-77.685 Z-0.200 I14.425 J-0.751 K0.000 F150.000
G3 X16.506 Y-78.818 Z-0.200 I1.321 J0.066 K0.000 F150.000
G3 X17.866 Y-79.108 Z-0.200 I1.317 J2.835 K0.000 F150.000
G2 X16.918 Y-77.443 Z-0.200 I0.763 J1.537 K0.000 F150.000
G2 X16.900 Y-76.787 Z-0.200 I45.148 J1.573 K0.000 F150.000
G0 Z1.000
G0 X16.579 Y-76.790 Z1.000
G0 X16.579 Y-76.790 Z0.500
G1 X16.579 Y-76.790 Z-0.200 F100.000
G2 X16.576 Y-75.960 Z-0.200 I58.793 J0.689 K0.000 F150.000
G3 X16.015 Y-75.956 Z-0.200 I-0.336 J-7.075 K0.000 F150.000
G3 X16.106 Y-77.862 Z-0.200 I6.536 J-0.643 K0.000 F150.000
G3 X16.899 Y-78.629 Z-0.200 I1.007 J0.248 K0.000 F150.000
G2 X16.582 Y-76.982 Z-0.200 I2.813 J1.396 K0.000 F150.000
G2 X16.579 Y-76.790 Z-0.200 I58.790 J0.881 K0.000 F150.000
G0 Z1.000
G0 X16.376 Y-76.796 Z1.000
G0 X16.376 Y-76.796 Z0.500
G1 X16.376 Y-76.796 Z-0.200 F100.000
G2 X16.376 Y-76.154 Z-0.200 I11.609 J0.305 K0.000 F150.000
G3 X16.210 Y-76.153 Z-0.200 I-0.100 J-2.304 K0.000 F150.000
G3 X16.333 Y-77.917 Z-0.200 I5.281 J-0.519 K0.000 F150.000
G3 X16.495 Y-78.179 Z-0.200 I0.537 J0.152 K0.000 F150.000
G2 X16.376 Y-76.796 Z-0.200 I11.490 J1.688 K0.000 F150.000
G0 Z1.000
G0 Z1.000
G0 X16.376 Y-76.796
G0 X13.962 Y-75.632
G0 X13.962 Y-75.632 Z0.500
G1 X13.962 Y-75.632 Z-0.200 F100.000
G3 X13.963 Y-75.617 Z-0.200 I-0.016 J0.008 K0.000 F150.000
G3 X13.925 Y-75.122 Z-0.200 I-1.015 J0.173 K0.000 F150.000
G3 X12.333 Y-74.876 Z-0.200 I-1.449 J-4.107 K0.000 F150.000
G3 X10.429 Y-75.110 Z-0.200 I-0.386 J-4.728 K0.000 F150.000
G3 X9.038 Y-76.899 Z-0.200 I0.725 J-1.999 K0.000 F150.000
G3 X9.300 Y-78.717 Z-0.200 I2.432 J-0.576 K0.000 F150.000
G3 X11.292 Y-79.742 Z-0.200 I1.931 J1.304 K0.000 F150.000
G3 X13.941 Y-79.478 Z-0.200 I0.409 J9.300 K0.000 F150.000
G3 X14.111 Y-79.386 Z-0.200 I-0.020 J0.242 K0.000 F150.000
G3 X14.094 Y-78.887 Z-0.200 I-2.302 J0.170 K0.000 F150.000
G2 X12.496 Y-78.723 Z-0.200 I-0.087 J7.030 K0.000 F150.000
G2 X11.593 Y-77.174 Z-0.200 I0.747 J1.473 K0.000 F150.000
G2 X12.904 Y-75.547 Z-0.200 I1.553 J0.090 K0.000 F150.000
G2 X13.930 Y-75.633 Z-0.200 I-0.221 J-8.783 K0.000 F150.000
G3 X13.962 Y-75.632 Z-0.200 I0.016 J0.010 K0.000 F150.000
G0 Z1.000
G0 X12.856 Y-75.233 Z1.000
G0 X12.856 Y-75.233 Z0.500
G1 X12.856 Y-75.233 Z-0.200 F100.000
G3 X10.797 Y-75.320 Z-0.200 I-0.774 J-6.045 K0.000 F150.000
G3 X9.354 Y-76.948 Z-0.200 I0.388 J-1.798 K0.000 F150.000
G3 X9.572 Y-78.546 Z-0.200 I2.127 J-0.524 K0.000 F150.000
G3 X11.524 Y-79.428 Z-0.200 I1.739 J1.249 K0.000 F150.000
G3 X13.797 Y-79.185 Z-0.200 I0.325 J7.726 K0.000 F150.000
G3 X13.706 Y-79.179 Z-0.200 I-0.061 J-0.212 K0.000 F150.000
G2 X12.241 Y-78.952 Z-0.200 I-0.249 J3.238 K0.000 F150.000
G2 X12.190 Y-75.466 Z-0.200 I1.118 J1.760 K0.000 F150.000
G2 X12.856 Y-75.233 Z-0.200 I0.883 J-1.457 K0.000 F150.000
G0 Z1.000
G0 X11.601 Y-75.525 Z1.000
G0 X11.601 Y-75.525 Z0.500
G1 X11.601 Y-75.525 Z-0.200 F100.000
G3 X9.946 Y-76.245 Z-0.200 I-0.088 J-2.062 K0.000 F150.000
G3 X9.844 Y-78.376 Z-0.200 I1.964 J-1.162 K0.000 F150.000
G3 X11.528 Y-79.108 Z-0.200 I1.471 J1.082 K0.000 F150.000
G3 X11.882 Y-79.098 Z-0.200 I0.068 J3.908 K0.000 F150.000
G2 X11.601 Y-75.525 Z-0.200 I1.516 J1.917 K0.000 F150.000
G0 Z1.000
G0 X10.912 Y-75.958 Z1.000
G0 X10.912 Y-75.958 Z0.500
G1 X10.912 Y-75.958 Z-0.200 F100.000
G3 X9.987 Y-77.045 Z-0.200 I0.264 J-1.161 K0.000 F150.000
G3 X10.116 Y-78.206 Z-0.200 I1.523 J-0.419 K0.000 F150.000
G3 X11.114 Y-78.766 Z-0.200 I1.070 J0.736 K0.000 F150.000
G2 X10.912 Y-75.958 Z-0.200 I2.372 J1.582 K0.000 F150.000
G0 Z1.000
G0 X10.325 Y-76.994 Z1.000
G0 X10.325 Y-76.994 Z0.500
G1 X10.325 Y-76.994 Z-0.200 F100.000
G3 X10.454 Y-78.126 Z-0.200 I1.322 J-0.423 K0.000 F150.000
G2 X10.325 Y-76.994 Z-0.200 I2.984 J0.914 K0.000 F150.000
G0 Z1.000
G0 Z1.000
(Finish operation: ENGRAVE 0.8MM)
(Begin postamble)
M5
G17 G90
M2
