(Exported by FreeCAD)
(Post Processor: grbl_post)
(Output Time:2023-04-15 12:29:31.584692)
(Begin preamble)
G17 G90
G21
(Begin operation: G54)
(Path: G54)
G54
G0 Z5.000
(Finish operation: G54)
(Begin operation: ballend-012mm001)
(Path: ballend-012mm001)
(ballend-012mm001)
(Begin toolchange)
( M6 T5 )
(Post processing added : Ramp up the spindle speed)
M3 S100
G4 P.25
M3 S200
G4 P.25
M3 S400
G4 P.25
M3 S600
G4 P.25
M3 S800
G4 P.25
M3 S1000
G4 P.25
M3 S2000
G4 P.25
M3 S4000
G4 P.25
M3 S6000
G4 P.25
M3 S10000
(End post processing)
(Finish operation: ballend-012mm001)
(Begin operation: ENGRAVE 0.12MM)
(Path: ENGRAVE 0.12MM)
(ENGRAVE 0.12MM)
G0 Z0.500
G0 X16.341 Y-1.341
G0 Z0.300
G1 X16.341 Y-1.341 Z-0.200 F100.000
G3 X16.263 Y-1.277 Z-0.200 I-0.374 J-0.379 K0.000 F150.000
G2 X16.246 Y-2.172 Z-0.200 I-0.324 J-0.442 K0.000 F150.000
G3 X16.341 Y-1.341 Z-0.200 I-0.279 J0.453 K0.000 F150.000
G0 Z0.500
G0 X16.243 Y-1.263 Z0.500
G0 X16.243 Y-1.263 Z0.300
G1 X16.243 Y-1.263 Z-0.200 F100.000
G3 X15.532 Y-2.040 Z-0.200 I-0.286 J-0.452 K0.000 F150.000
G3 X15.804 Y-2.225 Z-0.200 I0.343 J0.214 K0.000 F150.000
G2 X16.123 Y-1.210 Z-0.200 I0.171 J0.504 K0.000 F150.000
G1 X16.243 Y-1.263 Z-0.200 F150.000
G0 Z0.500
G0 X16.227 Y-2.185 Z0.500
G0 X16.227 Y-2.185 Z0.300
G1 X16.227 Y-2.185 Z-0.200 F100.000
G2 X15.849 Y-2.233 Z-0.200 I-0.253 J0.479 K0.000 F150.000
G3 X16.183 Y-2.216 Z-0.200 I0.143 J0.471 K0.000 F150.000
G1 X16.227 Y-2.185 Z-0.200 F150.000
G0 Z0.500
G0 Z0.500
G0 X16.227 Y-2.185
G0 X16.845 Y-1.992
G0 X16.845 Y-1.992 Z0.300
G1 X16.845 Y-1.992 Z-0.200 F100.000
G3 X17.141 Y-2.234 Z-0.200 I0.331 J0.103 K0.000 F150.000
G2 X16.830 Y-1.804 Z-0.200 I0.093 J0.394 K0.000 F150.000
G1 X16.830 Y-1.195 Z-0.200 F150.000
G1 X16.818 Y-1.195 Z-0.200 F150.000
G3 X16.832 Y-1.931 Z-0.200 I3.396 J-0.301 K0.000 F150.000
G3 X16.845 Y-1.992 Z-0.200 I0.344 J0.042 K0.000 F150.000
G0 Z0.500
G0 X17.162 Y-2.238 Z0.500
G0 X17.162 Y-2.238 Z0.300
G1 X17.162 Y-2.238 Z-0.200 F100.000
G3 X17.483 Y-2.198 Z-0.200 I0.114 J0.393 K0.000 F150.000
G3 X17.691 Y-1.797 Z-0.200 I-0.232 J0.375 K0.000 F150.000
G1 X17.691 Y-1.195 Z-0.200 F150.000
G1 X17.679 Y-1.195 Z-0.200 F150.000
G2 X17.661 Y-1.948 Z-0.200 I-3.044 J-0.306 K0.000 F150.000
G2 X17.162 Y-2.238 Z-0.200 I-0.400 J0.115 K0.000 F150.000
G0 Z0.500
G0 Z0.500
G0 X17.162 Y-2.238
G0 X18.372 Y-2.243
G0 X18.372 Y-2.243 Z0.300
G1 X18.372 Y-2.243 Z-0.200 F100.000
G1 X18.384 Y-2.243 Z-0.200 F150.000
G1 X18.384 Y-1.260 Z-0.200 F150.000
G2 X18.444 Y-1.200 Z-0.200 I0.060 J0.000 K0.000 F150.000
G1 X18.792 Y-1.200 Z-0.200 F150.000
G1 X18.792 Y-1.195 Z-0.200 F150.000
G1 X17.964 Y-1.195 Z-0.200 F150.000
G1 X17.964 Y-1.200 Z-0.200 F150.000
G1 X18.312 Y-1.200 Z-0.200 F150.000
G2 X18.372 Y-1.260 Z-0.200 I0.000 J-0.060 K0.000 F150.000
G1 X18.372 Y-2.243 Z-0.200 F150.000
G0 Z0.500
G0 Z0.500
G0 X18.372 Y-2.243
G0 X30.066 Y-3.627
G0 X30.066 Y-3.627 Z0.300
G1 X30.066 Y-3.627 Z-0.200 F100.000
G3 X30.101 Y-3.821 Z-0.200 I0.334 J-0.040 K0.000 F150.000
G3 X30.525 Y-3.943 Z-0.200 I0.281 J0.181 K0.000 F150.000
G2 X30.247 Y-3.379 Z-0.200 I-0.138 J0.283 K0.000 F150.000
G2 X30.687 Y-3.814 Z-0.200 I0.154 J-0.284 K0.000 F150.000
G2 X30.757 Y-3.878 Z-0.200 I0.015 J-0.054 K0.000 F150.000
G2 X30.557 Y-4.359 Z-0.200 I-0.508 J-0.072 K0.000 F150.000
G2 X30.118 Y-4.247 Z-0.200 I-0.165 J0.270 K0.000 F150.000
G3 X30.586 Y-4.359 Z-0.200 I0.278 J0.127 K0.000 F150.000
G3 X30.600 Y-3.395 Z-0.200 I-0.565 J0.490 K0.000 F150.000
G3 X30.066 Y-3.627 Z-0.200 I-0.200 J-0.271 K0.000 F150.000
G0 Z0.500
G0 Z0.500
G0 X30.066 Y-3.627
G0 X31.000 Y-3.351
G0 X31.000 Y-3.351 Z0.300
G1 X31.000 Y-3.351 Z-0.200 F100.000
G1 X31.424 Y-4.399 Z-0.200 F150.000
G1 X31.495 Y-4.399 Z-0.200 F150.000
G1 X31.919 Y-3.351 Z-0.200 F150.000
G1 X31.904 Y-3.351 Z-0.200 F150.000
G1 X31.515 Y-4.331 Z-0.200 F150.000
G2 X31.403 Y-4.331 Z-0.200 I-0.056 J0.022 K0.000 F150.000
G1 X31.015 Y-3.351 Z-0.200 F150.000
G1 X31.000 Y-3.351 Z-0.200 F150.000
G0 Z0.500
G0 Z0.500
G0 X31.000 Y-3.351
G0 X44.239 Y-2.243
G0 X44.239 Y-2.243 Z0.300
G1 X44.239 Y-2.243 Z-0.200 F100.000
G1 X44.251 Y-2.243 Z-0.200 F150.000
G1 X44.251 Y-1.195 Z-0.200 F150.000
G1 X44.239 Y-1.195 Z-0.200 F150.000
G1 X44.239 Y-2.243 Z-0.200 F150.000
G0 Z0.500
G0 Z0.500
G0 X44.239 Y-2.243
G0 X44.657
G0 X44.657 Z0.300
G1 X44.657 Y-2.243 Z-0.200 F100.000
G1 X44.669 Y-2.243 Z-0.200 F150.000
G1 X44.669 Y-1.317 Z-0.200 F150.000
G2 X44.777 Y-1.281 Z-0.200 I0.060 J0.000 K0.000 F150.000
G1 X45.481 Y-2.243 Z-0.200 F150.000
G1 X45.544 Y-2.243 Z-0.200 F150.000
G1 X45.544 Y-1.195 Z-0.200 F150.000
G1 X45.532 Y-1.195 Z-0.200 F150.000
G1 X45.532 Y-2.117 Z-0.200 F150.000
G2 X45.423 Y-2.153 Z-0.200 I-0.060 J0.000 K0.000 F150.000
G1 X44.719 Y-1.195 Z-0.200 F150.000
G1 X44.657 Y-1.195 Z-0.200 F150.000
G1 X44.657 Y-2.243 Z-0.200 F150.000
G0 Z0.500
G0 X45.487 Y-2.201 Z0.500
G0 X45.487 Y-2.201 Z0.300
G1 X45.487 Y-2.201 Z-0.200 F100.000
G3 X45.514 Y-2.213 Z-0.200 I0.018 J0.004 K0.000 F150.000
G1 X45.514 Y-2.190 Z-0.200 F150.000
G1 X45.487 Y-2.201 Z-0.200 F150.000
G0 Z0.500
G0 X44.711 Y-1.234 Z0.500
G0 X44.711 Y-1.234 Z0.300
G1 X44.711 Y-1.234 Z-0.200 F100.000
G3 X44.687 Y-1.225 Z-0.200 I-0.016 J-0.004 K0.000 F150.000
G1 X44.687 Y-1.244 Z-0.200 F150.000
G1 X44.711 Y-1.234 Z-0.200 F150.000
G0 Z0.500
G0 Z0.500
(Finish operation: ENGRAVE 0.12MM)
(Begin operation: ballend-015mm003)
(Path: ballend-015mm003)
(ballend-015mm003)
(Begin toolchange)
( M6 T4 )
(Post processing added : Ramp up the spindle speed)
M3 S100
G4 P.25
M3 S200
G4 P.25
M3 S400
G4 P.25
M3 S600
G4 P.25
M3 S800
G4 P.25
M3 S1000
G4 P.25
M3 S2000
G4 P.25
M3 S4000
G4 P.25
M3 S6000
G4 P.25
M3 S10000
(End post processing)
(Finish operation: ballend-015mm003)
(Begin operation: ENGRAVE 0.15MM)
(Path: ENGRAVE 0.15MM)
(ENGRAVE 0.15MM)
G0 Z0.500
G0 X27.290 Y-1.346
G0 Z0.300
G1 X27.290 Y-1.346 Z-0.200 F100.000
G1 X27.247 Y-1.346 Z-0.200 F150.000
G2 X27.225 Y-1.674 Z-0.200 I-0.407 J-0.138 K0.000 F150.000
G2 X26.895 Y-1.696 Z-0.200 I-0.191 J0.387 K0.000 F150.000
G1 X26.895 Y-1.740 Z-0.200 F150.000
G2 X27.225 Y-1.762 Z-0.200 I0.138 J-0.409 K0.000 F150.000
G2 X27.247 Y-2.092 Z-0.200 I-0.387 J-0.191 K0.000 F150.000
G1 X27.290 Y-2.092 Z-0.200 F150.000
G2 X27.312 Y-1.762 Z-0.200 I0.409 J0.138 K0.000 F150.000
G2 X27.641 Y-1.740 Z-0.200 I0.191 J-0.385 K0.000 F150.000
G1 X27.641 Y-1.696 Z-0.200 F150.000
G2 X27.312 Y-1.674 Z-0.200 I-0.138 J0.407 K0.000 F150.000
G2 X27.290 Y-1.346 Z-0.200 I0.385 J0.191 K0.000 F150.000
G0 Z0.500
G0 X27.272 Y-1.710 Z0.500
G0 X27.272 Y-1.710 Z0.300
G1 X27.272 Y-1.710 Z-0.200 F100.000
G3 X27.266 Y-1.726 Z-0.200 I-0.003 J-0.008 K0.000 F150.000
G3 X27.272 Y-1.710 Z-0.200 I0.003 J0.008 K0.000 F150.000
G0 Z0.500
G0 Z0.500
G0 X27.272 Y-1.710
G0 X27.709 Y-1.059
G0 X27.709 Y-1.059 Z0.300
G1 X27.709 Y-1.059 Z-0.200 F100.000
G3 X26.697 Y-2.276 Z-0.200 I-0.444 J-0.660 K0.000 F150.000
G3 X27.822 Y-2.287 Z-0.200 I0.569 J0.557 K0.000 F150.000
G3 X27.833 Y-1.162 Z-0.200 I-0.557 J0.568 K0.000 F150.000
G3 X27.709 Y-1.059 Z-0.200 I-0.568 J-0.557 K0.000 F150.000
G0 Z0.500
G0 X27.726 Y-1.034 Z0.500
G0 X27.726 Y-1.034 Z0.300
G1 X27.726 Y-1.034 Z-0.200 F100.000
G3 X26.460 Y-1.902 Z-0.200 I-0.461 J-0.685 K0.000 F150.000
G3 X27.553 Y-2.492 Z-0.200 I0.804 J0.183 K0.000 F150.000
G3 X28.088 Y-1.787 Z-0.200 I-0.292 J0.778 K0.000 F150.000
G2 X28.161 Y-1.733 Z-0.200 I0.072 J-0.021 K0.000 F150.000
G1 X30.276 Y-1.733 Z-0.200 F150.000
G2 X30.384 Y-1.961 Z-0.200 I-0.086 J-0.180 K0.000 F150.000
G3 X31.588 Y-2.429 Z-0.200 I0.786 J0.239 K0.000 F150.000
G1 X31.588 Y-2.382 Z-0.200 F150.000
G2 X30.619 Y-1.147 Z-0.200 I-0.424 J0.664 K0.000 F150.000
G2 X31.588 Y-1.056 Z-0.200 I0.539 J-0.536 K0.000 F150.000
G1 X31.588 Y-1.011 Z-0.200 F150.000
G3 X30.351 Y-1.645 Z-0.200 I-0.419 J-0.706 K0.000 F150.000
G2 X30.277 Y-1.705 Z-0.200 I-0.074 J0.015 K0.000 F150.000
G1 X28.162 Y-1.705 Z-0.200 F150.000
G2 X28.060 Y-1.495 Z-0.200 I0.076 J0.167 K0.000 F150.000
G3 X27.726 Y-1.034 Z-0.200 I-0.795 J-0.224 K0.000 F150.000
G0 Z0.500
G0 X28.096 Y-1.715 Z0.500
G0 X28.096 Y-1.715 Z0.300
G1 X28.096 Y-1.715 Z-0.200 F100.000
G1 X28.096 Y-1.722 Z-0.200 F150.000
G1 X28.100 Y-1.717 Z-0.200 F150.000
G1 X28.096 Y-1.715 Z-0.200 F150.000
G0 Z0.500
G0 Z0.500
G0 X28.096 Y-1.715
G0 X34.353
G0 X34.353 Z0.300
G1 X34.353 Y-1.715 Z-0.200 F100.000
G1 X34.353 Y-1.744 Z-0.200 F150.000
G1 X35.208 Y-1.744 Z-0.200 F150.000
G1 X35.208 Y-1.694 Z-0.200 F150.000
G1 X34.353 Y-1.694 Z-0.200 F150.000
G1 X34.353 Y-1.715 Z-0.200 F150.000
G0 Z0.500
G0 Z0.500
G0 X34.353 Y-1.715
G0 X33.913 Y-1.650
G0 X33.913 Y-1.650 Z0.300
G1 X33.913 Y-1.650 Z-0.200 F100.000
G2 X33.841 Y-1.705 Z-0.200 I-0.072 J0.021 K0.000 F150.000
G1 X31.654 Y-1.705 Z-0.200 F150.000
G2 X31.517 Y-1.490 Z-0.200 I0.090 J0.209 K0.000 F150.000
G3 X30.788 Y-1.869 Z-0.200 I-0.344 J-0.229 K0.000 F150.000
G3 X31.583 Y-1.783 Z-0.200 I0.386 J0.152 K0.000 F150.000
G2 X31.654 Y-1.733 Z-0.200 I0.071 J-0.024 K0.000 F150.000
G1 X33.840 Y-1.733 Z-0.200 F150.000
G2 X33.912 Y-1.787 Z-0.200 I0.000 J-0.075 K0.000 F150.000
G3 X35.046 Y-2.484 Z-0.200 I0.824 J0.070 K0.000 F150.000
G3 X34.448 Y-0.946 Z-0.200 I-0.310 J0.765 K0.000 F150.000
G3 X33.913 Y-1.650 Z-0.200 I0.293 J-0.778 K0.000 F150.000
G0 Z0.500
G0 X33.944 Y-1.653 Z0.500
G0 X33.944 Y-1.653 Z0.300
G1 X33.944 Y-1.653 Z-0.200 F100.000
G3 X34.729 Y-2.515 Z-0.200 I0.793 J-0.066 K0.000 F150.000
G3 X34.751 Y-0.924 Z-0.200 I0.008 J0.796 K0.000 F150.000
G3 X33.944 Y-1.653 Z-0.200 I-0.013 J-0.796 K0.000 F150.000
G0 Z0.500
G0 X31.559 Y-1.720 Z0.500
G0 X31.559 Y-1.720 Z0.300
G1 X31.559 Y-1.720 Z-0.200 F100.000
G3 X31.529 Y-1.680 Z-0.200 I-0.043 J-0.001 K0.000 F150.000
G3 X30.820 Y-1.719 Z-0.200 I-0.353 J-0.041 K0.000 F150.000
G3 X31.397 Y-1.992 Z-0.200 I0.353 J0.001 K0.000 F150.000
G3 X31.526 Y-1.764 Z-0.200 I-0.257 J0.297 K0.000 F150.000
G3 X31.559 Y-1.720 Z-0.200 I-0.010 J0.042 K0.000 F150.000
G0 Z0.500
G0 X31.470 Y-1.721 Z0.500
G0 X31.470 Y-1.721 Z0.300
G1 X31.470 Y-1.721 Z-0.200 F100.000
G3 X30.901 Y-1.615 Z-0.200 I-0.295 J-0.002 K0.000 F150.000
G3 X31.356 Y-1.946 Z-0.200 I0.273 J-0.104 K0.000 F150.000
G3 X31.470 Y-1.744 Z-0.200 I-0.228 J0.260 K0.000 F150.000
G3 X31.470 Y-1.721 Z-0.200 I-0.294 J0.021 K0.000 F150.000
G0 Z0.500
G0 X31.287 Y-1.719 Z0.500
G0 X31.287 Y-1.719 Z0.300
G1 X31.287 Y-1.719 Z-0.200 F100.000
G3 X31.197 Y-1.612 Z-0.200 I-0.108 J0.001 K0.000 F150.000
G3 X31.137 Y-1.820 Z-0.200 I-0.023 J-0.106 K0.000 F150.000
G1 X31.170 Y-1.826 Z-0.200 F150.000
G3 X31.287 Y-1.719 Z-0.200 I0.008 J0.108 K0.000 F150.000
G0 Z0.500
G0 X31.222 Y-1.719 Z0.500
G0 X31.222 Y-1.719 Z0.300
G1 X31.222 Y-1.719 Z-0.200 F100.000
G3 X31.208 Y-1.686 Z-0.200 I-0.047 J0.000 K0.000 F150.000
G3 X31.138 Y-1.749 Z-0.200 I-0.034 J-0.032 K0.000 F150.000
G3 X31.170 Y-1.765 Z-0.200 I0.036 J0.029 K0.000 F150.000
G3 X31.222 Y-1.719 Z-0.200 I0.005 J0.046 K0.000 F150.000
G0 Z0.500
G0 X31.178 Y-1.712 Z0.500
G0 X31.178 Y-1.712 Z0.300
G1 X31.178 Y-1.712 Z-0.200 F100.000
G3 X31.166 Y-1.722 Z-0.200 I-0.005 J-0.006 K0.000 F150.000
G1 X31.173 Y-1.727 Z-0.200 F150.000
G3 X31.178 Y-1.712 Z-0.200 I0.001 J0.008 K0.000 F150.000
G0 Z0.500
G0 X31.216 Y-1.554 Z0.500
G0 X31.216 Y-1.554 Z0.300
G1 X31.216 Y-1.554 Z-0.200 F100.000
G3 X31.114 Y-1.877 Z-0.200 I-0.042 J-0.164 K0.000 F150.000
G1 X31.171 Y-1.888 Z-0.200 F150.000
G3 X31.216 Y-1.554 Z-0.200 I0.011 J0.168 K0.000 F150.000
G0 Z0.500
G0 X31.235 Y-1.496 Z0.500
G0 X31.235 Y-1.496 Z0.300
G1 X31.235 Y-1.496 Z-0.200 F100.000
G3 X31.091 Y-1.933 Z-0.200 I-0.062 J-0.222 K0.000 F150.000
G1 X31.171 Y-1.949 Z-0.200 F150.000
G3 X31.235 Y-1.496 Z-0.200 I0.012 J0.229 K0.000 F150.000
G0 Z0.500
G0 Z0.500
(Finish operation: ENGRAVE 0.15MM)
(Begin operation: ballend-020mm001)
(Path: ballend-020mm001)
(ballend-020mm001)
(Begin toolchange)
( M6 T3 )
(Post processing added : Ramp up the spindle speed)
M3 S100
G4 P.25
M3 S200
G4 P.25
M3 S400
G4 P.25
M3 S600
G4 P.25
M3 S800
G4 P.25
M3 S1000
G4 P.25
M3 S2000
G4 P.25
M3 S4000
G4 P.25
M3 S6000
G4 P.25
M3 S10000
(End post processing)
(Finish operation: ballend-020mm001)
(Begin operation: ENGRAVE 0.20MM)
(Path: ENGRAVE 0.20MM)
(ENGRAVE 0.20MM)
G0 Z0.500
G0 X9.046 Y-24.259
G0 Z0.300
G1 X9.046 Y-24.259 Z-0.200 F100.000
G1 X8.934 Y-24.259 Z-0.200 F150.000
G1 X8.934 Y-24.904 Z-0.200 F150.000
G2 X8.834 Y-25.004 Z-0.200 I-0.100 J0.000 K0.000 F150.000
G1 X8.509 Y-25.004 Z-0.200 F150.000
G1 X8.509 Y-25.079 Z-0.200 F150.000
G1 X8.834 Y-25.079 Z-0.200 F150.000
G2 X8.934 Y-25.179 Z-0.200 I0.000 J-0.100 K0.000 F150.000
G1 X8.934 Y-26.885 Z-0.200 F150.000
G1 X9.046 Y-26.885 Z-0.200 F150.000
G1 X9.046 Y-25.179 Z-0.200 F150.000
G2 X9.146 Y-25.079 Z-0.200 I0.100 J0.000 K0.000 F150.000
G1 X9.525 Y-25.079 Z-0.200 F150.000
G1 X9.525 Y-25.004 Z-0.200 F150.000
G1 X9.146 Y-25.004 Z-0.200 F150.000
G2 X9.046 Y-24.904 Z-0.200 I0.000 J0.100 K0.000 F150.000
G1 X9.046 Y-24.259 Z-0.200 F150.000
G0 Z0.500
G0 X8.995 Y-24.961 Z0.500
G0 X8.995 Y-24.961 Z0.300
G1 X8.995 Y-24.961 Z-0.200 F100.000
G2 X8.936 Y-25.032 Z-0.200 I-0.065 J-0.006 K0.000 F150.000
G2 X8.984 Y-25.121 Z-0.200 I-0.020 J-0.069 K0.000 F150.000
G2 X9.044 Y-25.051 Z-0.200 I0.065 J0.006 K0.000 F150.000
G2 X8.995 Y-24.961 Z-0.200 I0.020 J0.069 K0.000 F150.000
G0 Z0.500
G0 Z0.500
G0 X8.995 Y-24.961
G0 X10.032 Y-25.476
G0 X10.032 Y-25.476 Z0.300
G1 X10.032 Y-25.476 Z-0.200 F100.000
G3 X9.938 Y-25.943 Z-0.200 I0.830 J-0.412 K0.000 F150.000
G3 X11.147 Y-26.884 Z-0.200 I0.922 J-0.063 K0.000 F150.000
G1 X11.366 Y-26.791 Z-0.200 F150.000
G3 X11.163 Y-25.011 Z-0.200 I-0.584 J0.835 K0.000 F150.000
G3 X10.032 Y-25.476 Z-0.200 I-0.300 J-0.876 K0.000 F150.000
G0 Z0.500
G0 X10.085 Y-25.502 Z0.500
G0 X10.085 Y-25.502 Z0.300
G1 X10.085 Y-25.502 Z-0.200 F100.000
G3 X10.347 Y-26.711 Z-0.200 I0.888 J-0.441 K0.000 F150.000
G2 X10.247 Y-25.268 Z-0.200 I0.676 J0.772 K0.000 F150.000
G3 X10.085 Y-25.502 Z-0.200 I0.727 J-0.675 K0.000 F150.000
G0 Z0.500
G0 X10.144 Y-25.530 Z0.500
G0 X10.144 Y-25.530 Z0.300
G1 X10.144 Y-25.530 Z-0.200 F100.000
G3 X10.499 Y-26.755 Z-0.200 I0.862 J-0.414 K0.000 F150.000
G3 X11.689 Y-25.955 Z-0.200 I0.369 J0.736 K0.000 F150.000
G3 X10.475 Y-25.148 Z-0.200 I-0.820 J0.083 K0.000 F150.000
G3 X10.144 Y-25.530 Z-0.200 I0.531 J-0.795 K0.000 F150.000
G0 Z0.500
G0 X11.496 Y-25.271 Z0.500
G0 X11.496 Y-25.271 Z0.300
G1 X11.496 Y-25.271 Z-0.200 F100.000
G2 X11.493 Y-26.620 Z-0.200 I-0.809 J-0.673 K0.000 F150.000
G3 X11.496 Y-25.271 Z-0.200 I-0.757 J0.676 K0.000 F150.000
G0 Z0.500
G0 Z0.500
G0 X11.496 Y-25.271
G0 X12.414
G0 X12.414 Z0.300
G1 X12.414 Y-25.271 Z-0.200 F100.000
G1 X12.414 Y-26.885 Z-0.200 F150.000
G1 X12.526 Y-26.885 Z-0.200 F150.000
G1 X12.527 Y-25.775 Z-0.200 F150.000
G2 X13.912 Y-25.567 Z-0.200 I0.706 J0.015 K0.000 F150.000
G1 X13.937 Y-25.782 Z-0.200 F150.000
G1 X13.937 Y-26.885 Z-0.200 F150.000
G1 X14.050 Y-26.885 Z-0.200 F150.000
G1 X14.050 Y-25.780 Z-0.200 F150.000
G3 X12.700 Y-25.295 Z-0.200 I-0.737 J0.069 K0.000 F150.000
G2 X12.526 Y-25.228 Z-0.200 I-0.074 J0.067 K0.000 F150.000
G1 X12.526 Y-25.004 Z-0.200 F150.000
G1 X12.414 Y-25.004 Z-0.200 F150.000
G1 X12.414 Y-25.271 Z-0.200 F150.000
G0 Z0.500
G0 X12.494 Y-25.340 Z0.500
G0 X12.494 Y-25.340 Z0.300
G1 X12.494 Y-25.340 Z-0.200 F100.000
G1 X12.494 Y-25.512 Z-0.200 F150.000
G1 X12.549 Y-25.389 Z-0.200 F150.000
G1 X12.494 Y-25.340 Z-0.200 F150.000
G0 Z0.500
G0 Z0.500
G0 X12.494 Y-25.340
G0 X14.650 Y-25.778
G0 X14.650 Y-25.778 Z0.300
G1 X14.650 Y-25.778 Z-0.200 F100.000
G3 X16.139 Y-26.761 Z-0.200 I0.943 J-0.191 K0.000 F150.000
G3 X16.373 Y-26.486 Z-0.200 I-0.357 J0.542 K0.000 F150.000
G1 X16.256 Y-26.486 Z-0.200 F150.000
G2 X14.774 Y-26.022 Z-0.200 I-0.671 J0.457 K0.000 F150.000
G1 X14.862 Y-25.970 Z-0.200 F150.000
G1 X16.506 Y-25.970 Z-0.200 F150.000
G3 X14.658 Y-25.745 Z-0.200 I-0.930 J0.066 K0.000 F150.000
G3 X14.650 Y-25.778 Z-0.200 I0.935 J-0.225 K0.000 F150.000
G0 Z0.500
G0 X14.766 Y-25.778 Z0.500
G0 X14.766 Y-25.778 Z0.300
G1 X14.766 Y-25.778 Z-0.200 F100.000
G3 X14.866 Y-25.878 Z-0.200 I0.100 J-0.000 K0.000 F150.000
G1 X16.281 Y-25.878 Z-0.200 F150.000
G1 X16.367 Y-25.830 Z-0.200 F150.000
G3 X14.771 Y-25.747 Z-0.200 I-0.801 J-0.014 K0.000 F150.000
G3 X14.766 Y-25.778 Z-0.200 I0.095 J-0.031 K0.000 F150.000
G0 Z0.500
G0 X14.727 Y-25.878 Z0.500
G0 X14.727 Y-25.878 Z0.300
G1 X14.727 Y-25.878 Z-0.200 F100.000
G3 X14.725 Y-25.967 Z-0.200 I0.212 J-0.049 K0.000 F150.000
G3 X14.727 Y-25.878 Z-0.200 I-0.012 J0.045 K0.000 F150.000
G0 Z0.500
G0 X16.411 Y-25.890 Z0.500
G0 X16.411 Y-25.890 Z0.300
G1 X16.411 Y-25.890 Z-0.200 F100.000
G1 X16.418 Y-25.890 Z-0.200 F150.000
G1 X16.417 Y-25.883 Z-0.200 F150.000
G1 X16.411 Y-25.890 Z-0.200 F150.000
G0 Z0.500
G0 Z0.500
G0 X16.411 Y-25.890
G0 X17.674 Y-34.810
G0 X17.674 Y-34.810 Z0.300
G1 X17.674 Y-34.810 Z-0.200 F100.000
G3 X14.950 Y-35.319 Z-0.200 I4.405 J-31.124 K0.000 F150.000
G3 X15.101 Y-36.779 Z-0.200 I3.585 J-0.368 K0.000 F150.000
G3 X15.297 Y-36.811 Z-0.200 I0.129 J0.167 K0.000 F150.000
G2 X16.049 Y-36.775 Z-0.200 I0.472 J-1.951 K0.000 F150.000
G2 X16.202 Y-37.187 Z-0.200 I-0.288 J-0.342 K0.000 F150.000
G3 X16.594 Y-39.429 Z-0.200 I26.835 J3.536 K0.000 F150.000
G3 X16.880 Y-39.494 Z-0.200 I0.191 J0.179 K0.000 F150.000
G3 X18.205 Y-39.230 Z-0.200 I0.066 J3.132 K0.000 F150.000
G3 X18.283 Y-38.942 Z-0.200 I-0.126 J0.188 K0.000 F150.000
G3 X17.886 Y-36.537 Z-0.200 I-1200.527 J-196.525 K0.000 F150.000
G2 X18.157 Y-36.355 Z-0.200 I0.242 J-0.067 K0.000 F150.000
G3 X18.713 Y-36.218 Z-0.200 I-0.602 J3.644 K0.000 F150.000
G3 X18.803 Y-35.805 Z-0.200 I-0.301 J0.281 K0.000 F150.000
G3 X18.611 Y-34.724 Z-0.200 I-2.509 J0.113 K0.000 F150.000
G3 X18.269 Y-34.732 Z-0.200 I-0.160 J-0.481 K0.000 F150.000
G3 X17.674 Y-34.810 Z-0.200 I3.810 J-31.202 K0.000 F150.000
G0 Z0.500
G0 X17.687 Y-34.900 Z0.500
G0 X17.687 Y-34.900 Z0.300
G1 X17.687 Y-34.900 Z-0.200 F100.000
G3 X15.021 Y-35.383 Z-0.200 I6.685 J-44.589 K0.000 F150.000
G3 X15.177 Y-36.733 Z-0.200 I2.704 J-0.373 K0.000 F150.000
G2 X16.022 Y-36.686 Z-0.200 I0.630 J-3.667 K0.000 F150.000
G2 X16.259 Y-37.033 Z-0.200 I-0.080 J-0.309 K0.000 F150.000
G3 X16.669 Y-39.395 Z-0.200 I25.936 J3.288 K0.000 F150.000
G3 X16.878 Y-39.414 Z-0.200 I0.155 J0.555 K0.000 F150.000
G3 X18.166 Y-39.160 Z-0.200 I0.066 J3.065 K0.000 F150.000
G3 X18.208 Y-39.029 Z-0.200 I-0.037 J0.084 K0.000 F150.000
G3 X17.807 Y-36.547 Z-0.200 I-165.268 J-25.424 K0.000 F150.000
G2 X18.140 Y-36.276 Z-0.200 I0.324 J-0.058 K0.000 F150.000
G3 X18.674 Y-36.147 Z-0.200 I-0.623 J3.745 K0.000 F150.000
G3 X18.721 Y-36.008 Z-0.200 I-0.075 J0.103 K0.000 F150.000
G3 X18.549 Y-34.780 Z-0.200 I-2.649 J0.255 K0.000 F150.000
G3 X17.687 Y-34.900 Z-0.200 I5.823 J-44.710 K0.000 F150.000
G0 Z0.500
G0 X17.699 Y-34.977 Z0.500
G0 X17.699 Y-34.977 Z0.300
G1 X17.699 Y-34.977 Z-0.200 F100.000
G3 X15.095 Y-35.453 Z-0.200 I6.193 J-41.233 K0.000 F150.000
G3 X15.217 Y-36.653 Z-0.200 I3.171 J-0.282 K0.000 F150.000
G2 X16.029 Y-36.606 Z-0.200 I0.601 J-3.386 K0.000 F150.000
G2 X16.338 Y-37.021 Z-0.200 I-0.092 J-0.391 K0.000 F150.000
G3 X16.731 Y-39.327 Z-0.200 I37.191 J5.153 K0.000 F150.000
G3 X17.466 Y-39.274 Z-0.200 I0.121 J3.416 K0.000 F150.000
G3 X18.128 Y-39.082 Z-0.200 I-0.076 J1.497 K0.000 F150.000
G3 X17.728 Y-36.557 Z-0.200 I-111.512 J-16.384 K0.000 F150.000
G2 X18.123 Y-36.198 Z-0.200 I0.405 J-0.049 K0.000 F150.000
G3 X18.634 Y-36.077 Z-0.200 I-0.134 J1.702 K0.000 F150.000
G3 X18.498 Y-34.865 Z-0.200 I-3.245 J0.248 K0.000 F150.000
G3 X17.699 Y-34.977 Z-0.200 I5.394 J-41.345 K0.000 F150.000
G0 Z0.500
G0 X17.711 Y-35.058 Z0.500
G0 X17.711 Y-35.058 Z0.300
G1 X17.711 Y-35.058 Z-0.200 F100.000
G3 X15.173 Y-35.511 Z-0.200 I7.729 J-50.657 K0.000 F150.000
G3 X15.282 Y-36.572 Z-0.200 I2.762 J-0.252 K0.000 F150.000
G2 X16.150 Y-36.557 Z-0.200 I0.465 J-1.809 K0.000 F150.000
G2 X16.417 Y-37.009 Z-0.200 I-0.255 J-0.457 K0.000 F150.000
G3 X16.793 Y-39.250 Z-0.200 I81.562 J12.533 K0.000 F150.000
G3 X17.451 Y-39.195 Z-0.200 I0.049 J3.408 K0.000 F150.000
G3 X18.048 Y-39.034 Z-0.200 I-0.162 J1.790 K0.000 F150.000
G3 X17.648 Y-36.567 Z-0.200 I-185.148 J-28.730 K0.000 F150.000
G2 X18.105 Y-36.120 Z-0.200 I0.486 J-0.040 K0.000 F150.000
G3 X18.561 Y-36.001 Z-0.200 I-0.151 J1.507 K0.000 F150.000
G3 X18.443 Y-34.952 Z-0.200 I-3.361 J0.153 K0.000 F150.000
G3 X17.711 Y-35.058 Z-0.200 I6.997 J-50.763 K0.000 F150.000
G0 Z0.500
G0 X17.760 Y-35.374 Z0.500
G0 X17.760 Y-35.374 Z0.300
G1 X17.760 Y-35.374 Z-0.200 F100.000
G3 X15.495 Y-35.770 Z-0.200 I9.082 J-58.543 K0.000 F150.000
G3 X15.529 Y-36.223 Z-0.200 I4.298 J0.100 K0.000 F150.000
G2 X16.515 Y-36.413 Z-0.200 I0.299 J-1.105 K0.000 F150.000
G2 X16.714 Y-36.830 Z-0.200 I-0.446 J-0.469 K0.000 F150.000
G3 X17.058 Y-38.917 Z-0.200 I66.170 J9.816 K0.000 F150.000
G3 X17.701 Y-38.796 Z-0.200 I-0.061 J2.094 K0.000 F150.000
G2 X17.331 Y-36.607 Z-0.200 I141.656 J25.070 K0.000 F150.000
G2 X17.916 Y-35.840 Z-0.200 I0.722 J0.056 K0.000 F150.000
G2 X18.239 Y-35.764 Z-0.200 I1.157 J-4.214 K0.000 F150.000
G3 X18.192 Y-35.308 Z-0.200 I-1.970 J0.024 K0.000 F150.000
G3 X17.760 Y-35.374 Z-0.200 I8.651 J-58.608 K0.000 F150.000
G0 Z0.500
G0 X17.785 Y-35.532 Z0.500
G0 X17.785 Y-35.532 Z0.300
G1 X17.785 Y-35.532 Z-0.200 F100.000
G3 X15.661 Y-35.901 Z-0.200 I9.118 J-58.769 K0.000 F150.000
G3 X15.672 Y-36.052 Z-0.200 I2.105 J0.081 K0.000 F150.000
G2 X16.876 Y-36.825 Z-0.200 I0.253 J-0.931 K0.000 F150.000
G3 X17.190 Y-38.746 Z-0.200 I61.955 J9.142 K0.000 F150.000
G3 X17.522 Y-38.686 Z-0.200 I-0.141 J1.737 K0.000 F150.000
G2 X17.172 Y-36.627 Z-0.200 I111.305 J19.972 K0.000 F150.000
G2 X17.874 Y-35.685 Z-0.200 I0.872 J0.082 K0.000 F150.000
G2 X18.071 Y-35.636 Z-0.200 I0.700 J-2.378 K0.000 F150.000
G3 X18.062 Y-35.489 Z-0.200 I-0.633 J0.033 K0.000 F150.000
G3 X17.785 Y-35.532 Z-0.200 I8.841 J-58.811 K0.000 F150.000
G0 Z0.500
G0 X17.772 Y-35.452 Z0.500
G0 X17.772 Y-35.452 Z0.300
G1 X17.772 Y-35.452 Z-0.200 F100.000
G3 X15.578 Y-35.835 Z-0.200 I9.178 J-59.079 K0.000 F150.000
G3 X15.600 Y-36.137 Z-0.200 I3.139 J0.078 K0.000 F150.000
G2 X16.705 Y-36.529 Z-0.200 I0.256 J-1.035 K0.000 F150.000
G1 X16.793 Y-36.821 Z-0.200 F150.000
G3 X17.124 Y-38.832 Z-0.200 I81.667 J12.408 K0.000 F150.000
G3 X17.612 Y-38.748 Z-0.200 I-0.134 J2.237 K0.000 F150.000
G2 X17.251 Y-36.617 Z-0.200 I126.688 J22.558 K0.000 F150.000
G2 X17.895 Y-35.763 Z-0.200 I0.796 J0.069 K0.000 F150.000
G2 X18.155 Y-35.700 Z-0.200 I0.960 J-3.404 K0.000 F150.000
G3 X18.127 Y-35.398 Z-0.200 I-1.301 J0.028 K0.000 F150.000
G3 X17.772 Y-35.452 Z-0.200 I8.824 J-59.133 K0.000 F150.000
G0 Z0.500
G0 X17.797 Y-35.611 Z0.500
G0 X17.797 Y-35.611 Z0.300
G1 X17.797 Y-35.611 Z-0.200 F100.000
G3 X15.746 Y-35.966 Z-0.200 I9.129 J-58.893 K0.000 F150.000
G2 X16.956 Y-36.820 Z-0.200 I0.198 J-1.003 K0.000 F150.000
G3 X17.256 Y-38.659 Z-0.200 I70.269 J10.526 K0.000 F150.000
G3 X17.432 Y-38.625 Z-0.200 I-0.164 J1.304 K0.000 F150.000
G2 X17.093 Y-36.637 Z-0.200 I97.872 J17.705 K0.000 F150.000
G2 X17.712 Y-35.660 Z-0.200 I0.914 J0.105 K0.000 F150.000
G2 X17.906 Y-35.594 Z-0.200 I0.456 J-1.029 K0.000 F150.000
G3 X17.797 Y-35.611 Z-0.200 I9.020 J-58.909 K0.000 F150.000
G0 Z0.500
G0 X17.748 Y-35.293 Z0.500
G0 X17.748 Y-35.293 Z0.300
G1 X17.748 Y-35.293 Z-0.200 F100.000
G3 X15.412 Y-35.710 Z-0.200 I7.118 J-46.644 K0.000 F150.000
G3 X15.459 Y-36.310 Z-0.200 I5.139 J0.105 K0.000 F150.000
G2 X16.476 Y-36.486 Z-0.200 I0.327 J-1.135 K0.000 F150.000
G2 X16.636 Y-36.839 Z-0.200 I-0.410 J-0.398 K0.000 F150.000
G3 X16.992 Y-39.003 Z-0.200 I56.101 J8.122 K0.000 F150.000
G3 X17.792 Y-38.870 Z-0.200 I-0.140 J3.322 K0.000 F150.000
G2 X17.410 Y-36.597 Z-0.200 I309.181 J53.032 K0.000 F150.000
G2 X17.742 Y-35.999 Z-0.200 I0.576 J0.072 K0.000 F150.000
G2 X18.323 Y-35.817 Z-0.200 I2.472 J-6.899 K0.000 F150.000
G3 X18.257 Y-35.218 Z-0.200 I-2.591 J0.018 K0.000 F150.000
G3 X17.748 Y-35.293 Z-0.200 I6.610 J-46.719 K0.000 F150.000
G0 Z0.500
G0 X17.736 Y-35.215 Z0.500
G0 X17.736 Y-35.215 Z0.300
G1 X17.736 Y-35.215 Z-0.200 F100.000
G3 X15.331 Y-35.640 Z-0.200 I8.495 J-55.103 K0.000 F150.000
G3 X15.392 Y-36.398 Z-0.200 I4.919 J0.017 K0.000 F150.000
G2 X16.269 Y-36.436 Z-0.200 I0.381 J-1.360 K0.000 F150.000
G2 X16.576 Y-36.986 Z-0.200 I-0.401 J-0.585 K0.000 F150.000
G3 X16.926 Y-39.089 Z-0.200 I98.719 J15.365 K0.000 F150.000
G3 X17.879 Y-38.930 Z-0.200 I-0.133 J3.752 K0.000 F150.000
G2 X17.490 Y-36.587 Z-0.200 I753.122 J126.359 K0.000 F150.000
G2 X17.958 Y-35.994 Z-0.200 I0.549 J0.047 K0.000 F150.000
G2 X18.402 Y-35.894 Z-0.200 I1.629 J-6.156 K0.000 F150.000
G3 X18.322 Y-35.128 Z-0.200 I-3.011 J0.071 K0.000 F150.000
G3 X17.736 Y-35.215 Z-0.200 I7.910 J-55.190 K0.000 F150.000
G0 Z0.500
G0 X17.724 Y-35.137 Z0.500
G0 X17.724 Y-35.137 Z0.300
G1 X17.724 Y-35.137 Z-0.200 F100.000
G3 X15.251 Y-35.576 Z-0.200 I8.099 J-52.808 K0.000 F150.000
G3 X15.328 Y-36.486 Z-0.200 I4.114 J-0.110 K0.000 F150.000
G2 X16.183 Y-36.484 Z-0.200 I0.431 J-1.746 K0.000 F150.000
G2 X16.496 Y-36.997 Z-0.200 I-0.278 J-0.522 K0.000 F150.000
G3 X16.874 Y-39.173 Z-0.200 I30.417 J4.153 K0.000 F150.000
G3 X17.965 Y-38.986 Z-0.200 I-0.029 J3.440 K0.000 F150.000
G3 X17.569 Y-36.577 Z-0.200 I-344.392 J-55.349 K0.000 F150.000
G2 X18.088 Y-36.042 Z-0.200 I0.567 J-0.031 K0.000 F150.000
G3 X18.481 Y-35.956 Z-0.200 I-0.971 J5.388 K0.000 F150.000
G3 X18.385 Y-35.040 Z-0.200 I-3.298 J0.116 K0.000 F150.000
G3 X17.724 Y-35.137 Z-0.200 I7.438 J-52.905 K0.000 F150.000
G0 Z0.500
G0 X17.414 Y-35.753 Z0.500
G0 X17.414 Y-35.753 Z0.300
G1 X17.414 Y-35.753 Z-0.200 F100.000
G3 X16.299 Y-35.944 Z-0.200 I6.978 J-44.154 K0.000 F150.000
G2 X17.032 Y-36.792 Z-0.200 I-0.222 J-0.933 K0.000 F150.000
G3 X17.328 Y-38.567 Z-0.200 I53.746 J8.052 K0.000 F150.000
G1 X17.341 Y-38.564 Z-0.200 F150.000
G2 X17.013 Y-36.646 Z-0.200 I89.064 J16.192 K0.000 F150.000
G2 X17.414 Y-35.753 Z-0.200 I0.897 J0.134 K0.000 F150.000
G0 Z0.500
G0 X17.152 Y-35.878 Z0.500
G0 X17.152 Y-35.878 Z0.300
G1 X17.152 Y-35.878 Z-0.200 F100.000
G3 X16.580 Y-35.976 Z-0.200 I5.006 J-30.902 K0.000 F150.000
G2 X16.951 Y-36.323 Z-0.200 I-0.243 J-0.632 K0.000 F150.000
G2 X17.152 Y-35.878 Z-0.200 I0.894 J-0.136 K0.000 F150.000
G0 Z0.500
G0 X16.992 Y-35.986 Z0.500
G0 X16.992 Y-35.986 Z0.300
G1 X16.992 Y-35.986 Z-0.200 F100.000
G3 X16.794 Y-36.020 Z-0.200 I1.741 J-10.667 K0.000 F150.000
G1 X16.916 Y-36.152 Z-0.200 F150.000
G2 X16.992 Y-35.986 Z-0.200 I0.348 J-0.058 K0.000 F150.000
G0 Z0.500
G0 X16.898 Y-36.052 Z0.500
G0 X16.898 Y-36.052 Z0.300
G1 X16.898 Y-36.052 Z-0.200 F100.000
G1 X16.893 Y-36.053 Z-0.200 F150.000
G1 X16.896 Y-36.056 Z-0.200 F150.000
G1 X16.898 Y-36.052 Z-0.200 F150.000
G0 Z0.500
G0 Z0.500
G0 X16.898 Y-36.052
G0 X19.450 Y-35.838
G0 X19.450 Y-35.838 Z0.300
G1 X19.450 Y-35.838 Z-0.200 F100.000
G3 X19.765 Y-38.943 Z-0.200 I89.278 J7.491 K0.000 F150.000
G3 X21.214 Y-38.839 Z-0.200 I0.388 J4.735 K0.000 F150.000
G3 X21.318 Y-38.801 Z-0.200 I-0.135 J0.526 K0.000 F150.000
G3 X21.201 Y-36.910 Z-0.200 I-32.003 J-1.033 K0.000 F150.000
G2 X21.310 Y-36.059 Z-0.200 I1.777 J0.203 K0.000 F150.000
G2 X21.647 Y-36.187 Z-0.200 I0.139 J-0.140 K0.000 F150.000
G2 X21.867 Y-37.472 Z-0.200 I-6.038 J-1.698 K0.000 F150.000
G1 X22.015 Y-38.731 Z-0.200 F150.000
G3 X23.564 Y-38.571 Z-0.200 I0.252 J5.124 K0.000 F150.000
G3 X23.288 Y-35.952 Z-0.200 I-21.633 J-0.952 K0.000 F150.000
G3 X22.705 Y-35.042 Z-0.200 I-1.200 J-0.128 K0.000 F150.000
G3 X21.279 Y-35.369 Z-0.200 I-0.267 J-2.112 K0.000 F150.000
G2 X21.124 Y-35.293 Z-0.200 I-0.055 J0.084 K0.000 F150.000
G3 X20.980 Y-33.987 Z-0.200 I-6.981 J-0.114 K0.000 F150.000
G3 X20.516 Y-33.973 Z-0.200 I-0.260 J-0.902 K0.000 F150.000
G3 X19.373 Y-34.303 Z-0.200 I0.064 J-2.366 K0.000 F150.000
G3 X19.349 Y-34.516 Z-0.200 I0.152 J-0.124 K0.000 F150.000
G3 X19.450 Y-35.838 Z-0.200 I89.379 J6.168 K0.000 F150.000
G0 Z0.500
G0 X19.523 Y-35.832 Z0.500
G0 X19.523 Y-35.832 Z0.300
G1 X19.523 Y-35.832 Z-0.200 F100.000
G3 X19.837 Y-38.863 Z-0.200 I62.902 J5.004 K0.000 F150.000
G3 X21.238 Y-38.747 Z-0.200 I0.382 J3.916 K0.000 F150.000
G3 X21.121 Y-36.909 Z-0.200 I-40.425 J-1.662 K0.000 F150.000
G2 X21.219 Y-36.060 Z-0.200 I2.268 J0.167 K0.000 F150.000
G2 X21.723 Y-36.161 Z-0.200 I0.236 J-0.130 K0.000 F150.000
G2 X21.947 Y-37.463 Z-0.200 I-6.104 J-1.721 K0.000 F150.000
G1 X22.086 Y-38.655 Z-0.200 F150.000
G3 X23.484 Y-38.511 Z-0.200 I0.200 J4.912 K0.000 F150.000
G3 X23.210 Y-35.970 Z-0.200 I-23.282 J-1.223 K0.000 F150.000
G3 X22.678 Y-35.118 Z-0.200 I-1.135 J-0.117 K0.000 F150.000
G3 X21.323 Y-35.435 Z-0.200 I-0.234 J-2.052 K0.000 F150.000
G2 X21.045 Y-35.300 Z-0.200 I-0.099 J0.151 K0.000 F150.000
G3 X20.914 Y-34.049 Z-0.200 I-8.419 J-0.251 K0.000 F150.000
G3 X19.423 Y-34.366 Z-0.200 I-0.144 J-2.991 K0.000 F150.000
G3 X19.523 Y-35.832 Z-0.200 I63.002 J3.537 K0.000 F150.000
G0 Z0.500
G0 X19.604 Y-35.826 Z0.500
G0 X19.604 Y-35.826 Z0.300
G1 X19.604 Y-35.826 Z-0.200 F100.000
G3 X19.910 Y-38.783 Z-0.200 I67.929 J5.520 K0.000 F150.000
G3 X21.157 Y-38.688 Z-0.200 I0.303 J4.276 K0.000 F150.000
G3 X21.041 Y-36.907 Z-0.200 I-67.460 J-3.530 K0.000 F150.000
G2 X21.144 Y-36.032 Z-0.200 I2.336 J0.167 K0.000 F150.000
G2 X21.798 Y-36.136 Z-0.200 I0.311 J-0.156 K0.000 F150.000
G2 X22.026 Y-37.453 Z-0.200 I-6.171 J-1.745 K0.000 F150.000
G1 X22.158 Y-38.580 Z-0.200 F150.000
G3 X23.402 Y-38.437 Z-0.200 I0.111 J4.510 K0.000 F150.000
G3 X23.043 Y-35.676 Z-0.200 I-15.135 J-0.560 K0.000 F150.000
G3 X22.617 Y-35.185 Z-0.200 I-0.696 J-0.175 K0.000 F150.000
G3 X21.367 Y-35.502 Z-0.200 I-0.157 J-2.003 K0.000 F150.000
G2 X20.965 Y-35.307 Z-0.200 I-0.142 J0.217 K0.000 F150.000
G3 X20.846 Y-34.121 Z-0.200 I-9.923 J-0.399 K0.000 F150.000
G3 X19.504 Y-34.410 Z-0.200 I-0.027 J-3.133 K0.000 F150.000
G3 X19.604 Y-35.826 Z-0.200 I68.030 J4.104 K0.000 F150.000
G0 Z0.500
G0 X19.685 Y-35.819 Z0.500
G0 X19.685 Y-35.819 Z0.300
G1 X19.685 Y-35.819 Z-0.200 F100.000
G3 X19.982 Y-38.702 Z-0.200 I70.534 J5.802 K0.000 F150.000
G3 X21.075 Y-38.625 Z-0.200 I0.251 J4.218 K0.000 F150.000
G2 X20.965 Y-36.723 Z-0.200 I49.914 J3.840 K0.000 F150.000
G2 X21.125 Y-35.907 Z-0.200 I1.362 J0.157 K0.000 F150.000
G2 X21.898 Y-36.183 Z-0.200 I0.328 J-0.303 K0.000 F150.000
G2 X22.106 Y-37.444 Z-0.200 I-7.846 J-1.938 K0.000 F150.000
G1 X22.230 Y-38.504 Z-0.200 F150.000
G3 X23.318 Y-38.365 Z-0.200 I0.015 J4.231 K0.000 F150.000
G3 X22.969 Y-35.706 Z-0.200 I-15.082 J-0.628 K0.000 F150.000
G3 X22.605 Y-35.264 Z-0.200 I-0.646 J-0.162 K0.000 F150.000
G3 X21.410 Y-35.569 Z-0.200 I-0.146 J-1.922 K0.000 F150.000
G2 X20.885 Y-35.313 Z-0.200 I-0.186 J0.284 K0.000 F150.000
G3 X20.776 Y-34.198 Z-0.200 I-8.914 J-0.308 K0.000 F150.000
G3 X19.586 Y-34.455 Z-0.200 I0.091 J-3.303 K0.000 F150.000
G3 X19.685 Y-35.819 Z-0.200 I70.633 J4.438 K0.000 F150.000
G0 Z0.500
G0 X19.769 Y-35.812 Z0.500
G0 X19.769 Y-35.812 Z0.300
G1 X19.769 Y-35.812 Z-0.200 F100.000
G3 X20.054 Y-38.622 Z-0.200 I84.605 J7.162 K0.000 F150.000
G3 X20.992 Y-38.561 Z-0.200 I0.183 J4.404 K0.000 F150.000
G2 X20.917 Y-36.330 Z-0.200 I12.331 J1.531 K0.000 F150.000
G2 X21.348 Y-35.692 Z-0.200 I0.610 J0.052 K0.000 F150.000
G1 X21.348 Y-35.691 Z-0.200 F150.000
G2 X21.975 Y-36.162 Z-0.200 I0.097 J-0.524 K0.000 F150.000
G2 X22.185 Y-37.435 Z-0.200 I-7.918 J-1.959 K0.000 F150.000
G1 X22.301 Y-38.425 Z-0.200 F150.000
G3 X23.235 Y-38.322 Z-0.200 I-0.166 J5.811 K0.000 F150.000
G3 X22.894 Y-35.737 Z-0.200 I-15.005 J-0.663 K0.000 F150.000
G3 X22.593 Y-35.344 Z-0.200 I-0.732 J-0.250 K0.000 F150.000
G3 X21.454 Y-35.636 Z-0.200 I-0.134 J-1.840 K0.000 F150.000
G2 X20.806 Y-35.320 Z-0.200 I-0.230 J0.351 K0.000 F150.000
G3 X20.709 Y-34.280 Z-0.200 I-12.970 J-0.682 K0.000 F150.000
G3 X19.669 Y-34.505 Z-0.200 I0.186 J-3.369 K0.000 F150.000
G3 X19.769 Y-35.812 Z-0.200 I84.705 J5.855 K0.000 F150.000
G0 Z0.500
G0 X19.850 Y-35.805 Z0.500
G0 X19.850 Y-35.805 Z0.300
G1 X19.850 Y-35.805 Z-0.200 F100.000
G3 X20.127 Y-38.542 Z-0.200 I89.259 J7.645 K0.000 F150.000
G3 X20.908 Y-38.493 Z-0.200 I0.071 J5.196 K0.000 F150.000
G2 X20.838 Y-36.317 Z-0.200 I11.753 J1.467 K0.000 F150.000
G2 X21.064 Y-35.749 Z-0.200 I0.763 J0.026 K0.000 F150.000
G2 X20.726 Y-35.327 Z-0.200 I0.139 J0.457 K0.000 F150.000
G3 X20.639 Y-34.364 Z-0.200 I-13.260 J-0.709 K0.000 F150.000
G3 X19.754 Y-34.581 Z-0.200 I0.071 J-2.199 K0.000 F150.000
G3 X19.850 Y-35.805 Z-0.200 I89.356 J6.421 K0.000 F150.000
G0 Z0.500
G0 X19.934 Y-35.798 Z0.500
G0 X19.934 Y-35.798 Z0.300
G1 X19.934 Y-35.798 Z-0.200 F100.000
G3 X20.218 Y-38.461 Z-0.200 I81.071 J7.308 K0.000 F150.000
G1 X20.556 Y-38.450 Z-0.200 F150.000
G1 X20.824 Y-38.422 Z-0.200 F150.000
G2 X20.759 Y-36.305 Z-0.200 I11.142 J1.400 K0.000 F150.000
G2 X20.925 Y-35.780 Z-0.200 I0.960 J-0.015 K0.000 F150.000
G2 X20.646 Y-35.333 Z-0.200 I0.295 J0.494 K0.000 F150.000
G3 X20.568 Y-34.451 Z-0.200 I-24.668 J-1.741 K0.000 F150.000
G3 X19.836 Y-34.616 Z-0.200 I0.298 J-3.023 K0.000 F150.000
G3 X19.934 Y-35.798 Z-0.200 I81.169 J6.127 K0.000 F150.000
G0 Z0.500
G0 X20.014 Y-35.790 Z0.500
G0 X20.014 Y-35.790 Z0.300
G1 X20.014 Y-35.790 Z-0.200 F100.000
G3 X20.271 Y-38.379 Z-0.200 I118.983 J10.529 K0.000 F150.000
G3 X20.739 Y-38.351 Z-0.200 I0.017 J3.531 K0.000 F150.000
G2 X20.680 Y-36.292 Z-0.200 I8.223 J1.265 K0.000 F150.000
G2 X20.822 Y-35.800 Z-0.200 I0.931 J-0.002 K0.000 F150.000
G2 X20.566 Y-35.340 Z-0.200 I0.365 J0.504 K0.000 F150.000
G3 X20.497 Y-34.543 Z-0.200 I-22.268 J-1.540 K0.000 F150.000
G3 X19.920 Y-34.679 Z-0.200 I0.029 J-1.419 K0.000 F150.000
G3 X20.014 Y-35.790 Z-0.200 I119.076 J9.417 K0.000 F150.000
G0 Z0.500
G0 X20.093 Y-35.783 Z0.500
G0 X20.093 Y-35.783 Z0.300
G1 X20.093 Y-35.783 Z-0.200 F100.000
G3 X20.343 Y-38.297 Z-0.200 I119.131 J10.577 K0.000 F150.000
G3 X20.654 Y-38.279 Z-0.200 I0.020 J2.343 K0.000 F150.000
G2 X20.601 Y-36.279 Z-0.200 I7.459 J1.196 K0.000 F150.000
G2 X20.721 Y-35.818 Z-0.200 I0.945 J0.001 K0.000 F150.000
G2 X20.487 Y-35.347 Z-0.200 I0.469 J0.527 K0.000 F150.000
G3 X20.426 Y-34.636 Z-0.200 I-19.868 J-1.339 K0.000 F150.000
G3 X20.004 Y-34.727 Z-0.200 I0.327 J-2.522 K0.000 F150.000
G3 X20.093 Y-35.783 Z-0.200 I119.220 J9.521 K0.000 F150.000
G0 Z0.500
G0 X20.253 Y-35.769 Z0.500
G0 X20.253 Y-35.769 Z0.300
G1 X20.253 Y-35.769 Z-0.200 F100.000
G3 X20.453 Y-37.793 Z-0.200 I112.043 J10.081 K0.000 F150.000
G2 X20.530 Y-35.851 Z-0.200 I4.562 J0.793 K0.000 F150.000
G2 X20.282 Y-34.822 Z-0.200 I1.494 J0.904 K0.000 F150.000
G1 X20.174 Y-34.847 Z-0.200 F150.000
G3 X20.253 Y-35.769 Z-0.200 I112.122 J9.159 K0.000 F150.000
G0 Z0.500
G0 X20.332 Y-35.762 Z0.500
G0 X20.332 Y-35.762 Z0.300
G1 X20.332 Y-35.762 Z-0.200 F100.000
G3 X20.373 Y-36.187 Z-0.200 I30.256 J2.715 K0.000 F150.000
G2 X20.443 Y-35.862 Z-0.200 I1.480 J-0.144 K0.000 F150.000
G2 X20.322 Y-35.647 Z-0.200 I0.265 J0.289 K0.000 F150.000
G3 X20.332 Y-35.762 Z-0.200 I30.266 J2.600 K0.000 F150.000
G0 Z0.500
G0 X20.173 Y-35.776 Z0.500
G0 X20.173 Y-35.776 Z0.300
G1 X20.173 Y-35.776 Z-0.200 F100.000
G3 X20.415 Y-38.214 Z-0.200 I120.416 J10.738 K0.000 F150.000
G3 X20.568 Y-38.207 Z-0.200 I0.022 J1.150 K0.000 F150.000
G2 X20.560 Y-36.042 Z-0.200 I6.758 J1.107 K0.000 F150.000
G2 X20.623 Y-35.831 Z-0.200 I0.913 J-0.157 K0.000 F150.000
G2 X20.407 Y-35.353 Z-0.200 I0.547 J0.534 K0.000 F150.000
G1 X20.355 Y-34.728 Z-0.200 F150.000
G3 X20.089 Y-34.786 Z-0.200 I0.342 J-2.226 K0.000 F150.000
G3 X20.173 Y-35.776 Z-0.200 I120.500 J9.747 K0.000 F150.000
G0 Z0.500
G0 X21.615 Y-35.627 Z0.500
G0 X21.615 Y-35.627 Z0.300
G1 X21.615 Y-35.627 Z-0.200 F100.000
G2 X22.126 Y-36.457 Z-0.200 I-0.418 J-0.830 K0.000 F150.000
G2 X22.391 Y-38.343 Z-0.200 I-28.123 J-4.917 K0.000 F150.000
G1 X22.447 Y-38.340 Z-0.200 F150.000
G3 X23.151 Y-38.256 Z-0.200 I-0.462 J6.898 K0.000 F150.000
G3 X22.820 Y-35.767 Z-0.200 I-14.903 J-0.716 K0.000 F150.000
G3 X22.495 Y-35.419 Z-0.200 I-0.476 J-0.118 K0.000 F150.000
G3 X21.615 Y-35.627 Z-0.200 I-0.027 J-1.859 K0.000 F150.000
G0 Z0.500
G0 X21.774 Y-35.626 Z0.500
G0 X21.774 Y-35.626 Z0.300
G1 X21.774 Y-35.626 Z-0.200 F100.000
G2 X22.184 Y-36.338 Z-0.200 I-0.531 J-0.780 K0.000 F150.000
G2 X22.443 Y-38.260 Z-0.200 I-16.490 J-3.200 K0.000 F150.000
G3 X23.066 Y-38.188 Z-0.200 I-0.410 J6.327 K0.000 F150.000
G3 X22.819 Y-36.059 Z-0.200 I-23.614 J-1.652 K0.000 F150.000
G3 X22.532 Y-35.501 Z-0.200 I-0.803 J-0.061 K0.000 F150.000
G3 X21.774 Y-35.626 Z-0.200 I-0.021 J-2.229 K0.000 F150.000
G0 Z0.500
G0 X21.958 Y-35.650 Z0.500
G0 X21.958 Y-35.650 Z0.300
G1 X21.958 Y-35.650 Z-0.200 F100.000
G2 X22.330 Y-36.701 Z-0.200 I-1.660 J-1.178 K0.000 F150.000
G2 X22.513 Y-38.175 Z-0.200 I-47.322 J-6.645 K0.000 F150.000
G3 X22.980 Y-38.120 Z-0.200 I-0.388 J5.351 K0.000 F150.000
G3 X22.741 Y-36.076 Z-0.200 I-23.300 J-1.685 K0.000 F150.000
G3 X22.495 Y-35.579 Z-0.200 I-0.642 J-0.008 K0.000 F150.000
G3 X21.958 Y-35.650 Z-0.200 I0.055 J-2.486 K0.000 F150.000
G0 Z0.500
G0 X22.102 Y-35.701 Z0.500
G0 X22.102 Y-35.701 Z0.300
G1 X22.102 Y-35.701 Z-0.200 F100.000
G2 X22.409 Y-36.691 Z-0.200 I-2.024 J-1.170 K0.000 F150.000
G2 X22.584 Y-38.088 Z-0.200 I-44.917 J-6.325 K0.000 F150.000
G3 X22.894 Y-38.052 Z-0.200 I-0.297 J3.902 K0.000 F150.000
G3 X22.597 Y-35.859 Z-0.200 I-10.407 J-0.296 K0.000 F150.000
G3 X22.469 Y-35.661 Z-0.200 I-0.419 J-0.130 K0.000 F150.000
G3 X22.102 Y-35.701 Z-0.200 I0.075 J-2.376 K0.000 F150.000
G0 Z0.500
G0 X22.239 Y-35.761 Z0.500
G0 X22.239 Y-35.761 Z0.300
G1 X22.239 Y-35.761 Z-0.200 F100.000
G2 X22.488 Y-36.680 Z-0.200 I-2.897 J-1.278 K0.000 F150.000
G2 X22.654 Y-38.000 Z-0.200 I-42.469 J-6.000 K0.000 F150.000
G3 X22.808 Y-37.983 Z-0.200 I-0.131 J1.939 K0.000 F150.000
G3 X22.522 Y-35.890 Z-0.200 I-10.155 J-0.322 K0.000 F150.000
G3 X22.437 Y-35.743 Z-0.200 I-0.386 J-0.125 K0.000 F150.000
G3 X22.239 Y-35.761 Z-0.200 I0.168 J-2.960 K0.000 F150.000
G0 Z0.500
G0 X22.364 Y-35.829 Z0.500
G0 X22.364 Y-35.829 Z0.300
G1 X22.364 Y-35.829 Z-0.200 F100.000
G2 X22.662 Y-37.379 Z-0.200 I-5.744 J-1.908 K0.000 F150.000
G1 X22.716 Y-37.840 Z-0.200 F150.000
G3 X22.448 Y-35.920 Z-0.200 I-9.658 J-0.371 K0.000 F150.000
G1 X22.396 Y-35.826 Z-0.200 F150.000
G1 X22.364 Y-35.829 Z-0.200 F150.000
G0 Z0.500
G0 Z0.500
G0 X22.364 Y-35.829
G0 X23.906 Y-36.116
G0 X23.906 Y-36.116 Z0.300
G1 X23.906 Y-36.116 Z-0.200 F100.000
G3 X23.883 Y-36.322 Z-0.200 I1.427 J-0.266 K0.000 F150.000
G3 X24.064 Y-37.792 Z-0.200 I2.721 J-0.412 K0.000 F150.000
G3 X24.865 Y-38.490 Z-0.200 I1.331 J0.719 K0.000 F150.000
G3 X26.439 Y-38.536 Z-0.200 I0.970 J6.279 K0.000 F150.000
G3 X27.536 Y-38.221 Z-0.200 I0.118 J1.655 K0.000 F150.000
G3 X27.547 Y-37.956 Z-0.200 I-0.155 J0.139 K0.000 F150.000
G3 X27.187 Y-37.395 Z-0.200 I-1.108 J-0.316 K0.000 F150.000
G3 X26.907 Y-37.370 Z-0.200 I-0.167 J-0.284 K0.000 F150.000
G2 X26.155 Y-37.620 Z-0.200 I-0.978 J1.682 K0.000 F150.000
G2 X25.666 Y-37.320 Z-0.200 I-0.030 J0.500 K0.000 F150.000
G2 X26.008 Y-37.085 Z-0.200 I0.302 J-0.072 K0.000 F150.000
G3 X27.075 Y-36.802 Z-0.200 I-0.210 J2.948 K0.000 F150.000
G3 X27.530 Y-35.502 Z-0.200 I-0.482 J0.898 K0.000 F150.000
G3 X26.690 Y-34.882 Z-0.200 I-0.897 J-0.335 K0.000 F150.000
G3 X24.431 Y-35.244 Z-0.200 I-0.615 J-3.390 K0.000 F150.000
G3 X23.906 Y-36.116 Z-0.200 I0.903 J-1.137 K0.000 F150.000
G0 Z0.500
G0 X23.985 Y-36.131 Z0.500
G0 X23.985 Y-36.131 Z0.300
G1 X23.985 Y-36.131 Z-0.200 F100.000
G3 X23.962 Y-36.331 Z-0.200 I1.351 J-0.252 K0.000 F150.000
G3 X24.134 Y-37.754 Z-0.200 I2.637 J-0.404 K0.000 F150.000
G3 X24.883 Y-38.412 Z-0.200 I1.270 J0.689 K0.000 F150.000
G3 X26.434 Y-38.456 Z-0.200 I0.952 J6.220 K0.000 F150.000
G3 X27.476 Y-38.167 Z-0.200 I0.122 J1.580 K0.000 F150.000
G3 X27.473 Y-37.986 Z-0.200 I-0.094 J0.088 K0.000 F150.000
G3 X27.144 Y-37.463 Z-0.200 I-1.047 J-0.294 K0.000 F150.000
G3 X26.931 Y-37.446 Z-0.200 I-0.125 J-0.222 K0.000 F150.000
G2 X26.150 Y-37.700 Z-0.200 I-0.982 J1.696 K0.000 F150.000
G2 X25.586 Y-37.324 Z-0.200 I-0.030 J0.565 K0.000 F150.000
G2 X25.894 Y-37.024 Z-0.200 I0.295 J0.005 K0.000 F150.000
G3 X27.217 Y-36.612 Z-0.200 I-0.113 J2.695 K0.000 F150.000
G3 X27.126 Y-35.112 Z-0.200 I-0.701 J0.710 K0.000 F150.000
G3 X26.679 Y-34.961 Z-0.200 I-0.647 J-1.178 K0.000 F150.000
G3 X24.480 Y-35.308 Z-0.200 I-0.604 J-3.319 K0.000 F150.000
G3 X23.985 Y-36.131 Z-0.200 I0.856 J-1.075 K0.000 F150.000
G0 Z0.500
G0 X24.064 Y-36.145 Z0.500
G0 X24.064 Y-36.145 Z0.300
G1 X24.064 Y-36.145 Z-0.200 F100.000
G3 X24.042 Y-36.339 Z-0.200 I1.275 J-0.239 K0.000 F150.000
G3 X24.205 Y-37.716 Z-0.200 I2.553 J-0.396 K0.000 F150.000
G3 X24.902 Y-38.335 Z-0.200 I1.210 J0.662 K0.000 F150.000
G3 X26.428 Y-38.377 Z-0.200 I0.933 J6.163 K0.000 F150.000
G3 X27.374 Y-38.146 Z-0.200 I0.118 J1.572 K0.000 F150.000
G3 X27.399 Y-38.017 Z-0.200 I-0.018 J0.071 K0.000 F150.000
G3 X27.101 Y-37.531 Z-0.200 I-0.998 J-0.278 K0.000 F150.000
G3 X26.955 Y-37.523 Z-0.200 I-0.082 J-0.161 K0.000 F150.000
G1 X26.721 Y-37.622 Z-0.200 F150.000
G1 X26.721 Y-37.622 Z-0.200 F150.000
G2 X25.751 Y-37.663 Z-0.200 I-0.518 J0.760 K0.000 F150.000
G2 X25.532 Y-37.148 Z-0.200 I0.181 J0.381 K0.000 F150.000
G2 X26.128 Y-36.906 Z-0.200 I0.542 J-0.479 K0.000 F150.000
G3 X27.168 Y-36.548 Z-0.200 I-0.067 J1.886 K0.000 F150.000
G3 X27.082 Y-35.180 Z-0.200 I-0.653 J0.646 K0.000 F150.000
G3 X26.667 Y-35.041 Z-0.200 I-0.602 J-1.106 K0.000 F150.000
G3 X24.529 Y-35.371 Z-0.200 I-0.592 J-3.250 K0.000 F150.000
G3 X24.064 Y-36.145 Z-0.200 I0.809 J-1.014 K0.000 F150.000
G0 Z0.500
G0 X24.142 Y-36.160 Z0.500
G0 X24.142 Y-36.160 Z0.300
G1 X24.142 Y-36.160 Z-0.200 F100.000
G3 X24.122 Y-36.348 Z-0.200 I1.198 J-0.226 K0.000 F150.000
G3 X24.276 Y-37.678 Z-0.200 I2.470 J-0.388 K0.000 F150.000
G3 X24.920 Y-38.257 Z-0.200 I1.154 J0.637 K0.000 F150.000
G3 X26.423 Y-38.297 Z-0.200 I0.915 J6.107 K0.000 F150.000
G3 X27.334 Y-38.075 Z-0.200 I0.125 J1.473 K0.000 F150.000
G3 X27.050 Y-37.595 Z-0.200 I-0.862 J-0.187 K0.000 F150.000
G3 X26.752 Y-37.695 Z-0.200 I-0.006 J-0.473 K0.000 F150.000
G1 X26.752 Y-37.695 Z-0.200 F150.000
G2 X25.815 Y-37.789 Z-0.200 I-0.560 J0.864 K0.000 F150.000
G2 X25.455 Y-37.124 Z-0.200 I0.152 J0.512 K0.000 F150.000
G2 X26.115 Y-36.827 Z-0.200 I0.613 J-0.482 K0.000 F150.000
G3 X26.955 Y-36.594 Z-0.200 I-0.128 J2.092 K0.000 F150.000
G3 X27.299 Y-35.572 Z-0.200 I-0.367 J0.693 K0.000 F150.000
G3 X26.656 Y-35.120 Z-0.200 I-0.673 J-0.273 K0.000 F150.000
G3 X24.579 Y-35.434 Z-0.200 I-0.581 J-3.182 K0.000 F150.000
G3 X24.142 Y-36.160 Z-0.200 I0.762 J-0.952 K0.000 F150.000
G0 Z0.500
G0 X24.221 Y-36.175 Z0.500
G0 X24.221 Y-36.175 Z0.300
G1 X24.221 Y-36.175 Z-0.200 F100.000
G3 X24.201 Y-36.357 Z-0.200 I1.122 J-0.213 K0.000 F150.000
G3 X24.346 Y-37.640 Z-0.200 I2.386 J-0.380 K0.000 F150.000
G3 X24.938 Y-38.179 Z-0.200 I1.102 J0.617 K0.000 F150.000
G3 X26.417 Y-38.217 Z-0.200 I0.896 J6.052 K0.000 F150.000
G3 X27.114 Y-38.108 Z-0.200 I-0.054 J2.619 K0.000 F150.000
G1 X27.233 Y-38.041 Z-0.200 F150.000
G3 X27.018 Y-37.673 Z-0.200 I-1.113 J-0.403 K0.000 F150.000
G3 X26.783 Y-37.769 Z-0.200 I0.130 J-0.653 K0.000 F150.000
G1 X26.783 Y-37.769 Z-0.200 F150.000
G2 X25.777 Y-37.859 Z-0.200 I-0.591 J0.930 K0.000 F150.000
G2 X25.372 Y-37.115 Z-0.200 I0.193 J0.587 K0.000 F150.000
G2 X25.668 Y-36.843 Z-0.200 I0.468 J-0.213 K0.000 F150.000
G2 X25.675 Y-35.433 Z-0.200 I0.158 J0.705 K0.000 F150.000
G2 X26.112 Y-36.721 Z-0.200 I0.048 J-0.702 K0.000 F150.000
G1 X26.059 Y-36.754 Z-0.200 F150.000
G3 X26.915 Y-36.525 Z-0.200 I-0.225 J2.547 K0.000 F150.000
G3 X27.222 Y-35.595 Z-0.200 I-0.329 J0.624 K0.000 F150.000
G3 X26.644 Y-35.199 Z-0.200 I-0.598 J-0.253 K0.000 F150.000
G3 X24.628 Y-35.498 Z-0.200 I-0.569 J-3.116 K0.000 F150.000
G3 X24.221 Y-36.175 Z-0.200 I0.715 J-0.891 K0.000 F150.000
G0 Z0.500
G0 X24.300 Y-36.190 Z0.500
G0 X24.300 Y-36.190 Z0.300
G1 X24.300 Y-36.190 Z-0.200 F100.000
G3 X24.281 Y-36.366 Z-0.200 I1.046 J-0.200 K0.000 F150.000
G3 X24.417 Y-37.602 Z-0.200 I2.303 J-0.372 K0.000 F150.000
G3 X25.039 Y-38.117 Z-0.200 I0.904 J0.459 K0.000 F150.000
G3 X26.412 Y-38.137 Z-0.200 I0.793 J7.213 K0.000 F150.000
G3 X27.080 Y-38.035 Z-0.200 I-0.055 J2.596 K0.000 F150.000
G3 X27.099 Y-37.948 Z-0.200 I0.007 J0.044 K0.000 F150.000
G1 X26.992 Y-37.768 Z-0.200 F150.000
G1 X26.815 Y-37.843 Z-0.200 F150.000
G1 X26.815 Y-37.843 Z-0.200 F150.000
G2 X25.738 Y-37.929 Z-0.200 I-0.622 J0.997 K0.000 F150.000
G2 X25.394 Y-36.931 Z-0.200 I0.207 J0.630 K0.000 F150.000
G1 X25.480 Y-36.858 Z-0.200 F150.000
G2 X25.657 Y-35.355 Z-0.200 I0.343 J0.722 K0.000 F150.000
G2 X26.319 Y-36.624 Z-0.200 I0.075 J-0.768 K0.000 F150.000
G3 X27.129 Y-36.226 Z-0.200 I-0.020 J1.064 K0.000 F150.000
G3 X26.949 Y-35.381 Z-0.200 I-0.573 J0.319 K0.000 F150.000
G3 X26.633 Y-35.279 Z-0.200 I-0.465 J-0.895 K0.000 F150.000
G3 X24.677 Y-35.561 Z-0.200 I-0.558 J-3.051 K0.000 F150.000
G3 X24.300 Y-36.190 Z-0.200 I0.668 J-0.829 K0.000 F150.000
G0 Z0.500
G0 X24.387 Y-36.207 Z0.500
G0 X24.387 Y-36.207 Z0.300
G1 X24.387 Y-36.207 Z-0.200 F100.000
G3 X24.488 Y-37.564 Z-0.200 I2.531 J-0.494 K0.000 F150.000
G3 X25.134 Y-38.049 Z-0.200 I0.790 J0.380 K0.000 F150.000
G3 X25.932 Y-38.077 Z-0.200 I0.628 J6.502 K0.000 F150.000
G2 X25.213 Y-37.083 Z-0.200 I0.117 J0.841 K0.000 F150.000
G2 X25.338 Y-36.879 Z-0.200 I0.352 J-0.074 K0.000 F150.000
G2 X25.323 Y-35.403 Z-0.200 I0.505 J0.743 K0.000 F150.000
G3 X24.406 Y-36.116 Z-0.200 I0.023 J-0.975 K0.000 F150.000
G3 X24.387 Y-36.207 Z-0.200 I2.512 J-0.585 K0.000 F150.000
G0 Z0.500
G0 X24.450 Y-36.217 Z0.500
G0 X24.450 Y-36.217 Z0.300
G1 X24.450 Y-36.217 Z-0.200 F100.000
G3 X24.440 Y-36.384 Z-0.200 I0.813 J-0.132 K0.000 F150.000
G3 X24.558 Y-37.526 Z-0.200 I2.138 J-0.356 K0.000 F150.000
G3 X25.142 Y-37.969 Z-0.200 I0.718 J0.340 K0.000 F150.000
G3 X25.533 Y-37.995 Z-0.200 I0.461 J4.034 K0.000 F150.000
G2 X25.222 Y-36.891 Z-0.200 I0.350 J0.694 K0.000 F150.000
G2 X25.044 Y-35.555 Z-0.200 I0.635 J0.765 K0.000 F150.000
G3 X24.450 Y-36.217 Z-0.200 I0.220 J-0.794 K0.000 F150.000
G0 Z0.500
G0 X24.536 Y-36.234 Z0.500
G0 X24.536 Y-36.234 Z0.300
G1 X24.536 Y-36.234 Z-0.200 F100.000
G3 X24.520 Y-36.393 Z-0.200 I0.804 J-0.159 K0.000 F150.000
G3 X24.629 Y-37.488 Z-0.200 I2.056 J-0.349 K0.000 F150.000
G3 X25.150 Y-37.890 Z-0.200 I0.646 J0.299 K0.000 F150.000
G1 X25.292 Y-37.900 Z-0.200 F150.000
G2 X25.125 Y-36.905 Z-0.200 I0.541 J0.602 K0.000 F150.000
G2 X24.858 Y-35.730 Z-0.200 I0.731 J0.784 K0.000 F150.000
G3 X24.536 Y-36.234 Z-0.200 I0.482 J-0.663 K0.000 F150.000
G0 Z0.500
G0 X24.641 Y-36.257 Z0.500
G0 X24.641 Y-36.257 Z0.300
G1 X24.641 Y-36.257 Z-0.200 F100.000
G3 X24.633 Y-37.282 Z-0.200 I2.442 J-0.531 K0.000 F150.000
G3 X25.106 Y-37.803 Z-0.200 I0.796 J0.247 K0.000 F150.000
G2 X25.030 Y-36.921 Z-0.200 I0.714 J0.506 K0.000 F150.000
G2 X24.708 Y-36.011 Z-0.200 I0.832 J0.806 K0.000 F150.000
G3 X24.641 Y-36.257 Z-0.200 I2.375 J-0.776 K0.000 F150.000
G0 Z0.500
G0 X24.677 Y-36.465 Z0.500
G0 X24.677 Y-36.465 Z0.300
G1 X24.677 Y-36.465 Z-0.200 F100.000
G3 X24.786 Y-37.436 Z-0.200 I1.697 J-0.301 K0.000 F150.000
G3 X24.906 Y-37.573 Z-0.200 I0.470 J0.291 K0.000 F150.000
G2 X24.936 Y-36.938 Z-0.200 I0.895 J0.276 K0.000 F150.000
G2 X24.677 Y-36.465 Z-0.200 I0.855 J0.775 K0.000 F150.000
G0 Z0.500
G0 X24.752 Y-36.825 Z0.500
G0 X24.752 Y-36.825 Z0.300
G1 X24.752 Y-36.825 Z-0.200 F100.000
G3 X24.790 Y-37.251 Z-0.200 I3.518 J0.102 K0.000 F150.000
G2 X24.843 Y-36.957 Z-0.200 I0.526 J0.058 K0.000 F150.000
G2 X24.752 Y-36.825 Z-0.200 I0.478 J0.425 K0.000 F150.000
G0 Z0.500
G0 X25.274 Y-36.488 Z0.500
G0 X25.274 Y-36.488 Z0.300
G1 X25.274 Y-36.488 Z-0.200 F100.000
G3 X25.491 Y-36.694 Z-0.200 I0.538 J0.348 K0.000 F150.000
G3 X26.066 Y-36.655 Z-0.200 I0.261 J0.403 K0.000 F150.000
G3 X25.693 Y-35.511 Z-0.200 I-0.344 J0.521 K0.000 F150.000
G3 X25.274 Y-36.488 Z-0.200 I0.119 J-0.629 K0.000 F150.000
G0 Z0.500
G0 X25.340 Y-36.445 Z0.500
G0 X25.340 Y-36.445 Z0.300
G1 X25.340 Y-36.445 Z-0.200 F100.000
G3 X25.540 Y-36.630 Z-0.200 I0.470 J0.305 K0.000 F150.000
G3 X26.020 Y-36.590 Z-0.200 I0.213 J0.339 K0.000 F150.000
G3 X25.711 Y-35.589 Z-0.200 I-0.299 J0.456 K0.000 F150.000
G3 X25.340 Y-36.445 Z-0.200 I0.100 J-0.551 K0.000 F150.000
G0 Z0.500
G0 X25.406 Y-36.402 Z0.500
G0 X25.406 Y-36.402 Z0.300
G1 X25.406 Y-36.402 Z-0.200 F100.000
G3 X25.588 Y-36.567 Z-0.200 I0.402 J0.262 K0.000 F150.000
G3 X26.066 Y-36.435 Z-0.200 I0.168 J0.324 K0.000 F150.000
G3 X25.728 Y-35.667 Z-0.200 I-0.324 J0.316 K0.000 F150.000
G3 X25.406 Y-36.402 Z-0.200 I0.080 J-0.473 K0.000 F150.000
G0 Z0.500
G0 X25.482 Y-36.355 Z0.500
G0 X25.482 Y-36.355 Z0.300
G1 X25.482 Y-36.355 Z-0.200 F100.000
G3 X25.636 Y-36.503 Z-0.200 I0.358 J0.220 K0.000 F150.000
G3 X26.068 Y-36.273 Z-0.200 I0.124 J0.288 K0.000 F150.000
G3 X25.629 Y-35.771 Z-0.200 I-0.309 J0.173 K0.000 F150.000
G3 X25.482 Y-36.355 Z-0.200 I0.212 J-0.364 K0.000 F150.000
G0 Z0.500
G0 X26.485 Y-36.510 Z0.500
G0 X26.485 Y-36.510 Z0.300
G1 X26.485 Y-36.510 Z-0.200 F100.000
G3 X27.058 Y-36.187 Z-0.200 I-0.114 J0.870 K0.000 F150.000
G3 X26.905 Y-35.449 Z-0.200 I-0.496 J0.282 K0.000 F150.000
G3 X26.622 Y-35.358 Z-0.200 I-0.421 J-0.828 K0.000 F150.000
G3 X26.061 Y-35.325 Z-0.200 I-0.457 J-2.990 K0.000 F150.000
G2 X26.485 Y-36.510 Z-0.200 I-0.336 J-0.789 K0.000 F150.000
G0 Z0.500
G0 X26.615 Y-36.385 Z0.500
G0 X26.615 Y-36.385 Z0.300
G1 X26.615 Y-36.385 Z-0.200 F100.000
G3 X27.028 Y-35.838 Z-0.200 I-0.034 J0.455 K0.000 F150.000
G3 X26.610 Y-35.438 Z-0.200 I-0.408 J-0.007 K0.000 F150.000
G1 X26.368 Y-35.420 Z-0.200 F150.000
G2 X26.615 Y-36.385 Z-0.200 I-0.648 J-0.680 K0.000 F150.000
G0 Z0.500
G0 X26.725 Y-36.261 Z0.500
G0 X26.725 Y-36.261 Z0.300
G1 X26.725 Y-36.261 Z-0.200 F100.000
G3 X26.948 Y-35.847 Z-0.200 I-0.098 J0.320 K0.000 F150.000
G3 X26.552 Y-35.514 Z-0.200 I-0.352 J-0.016 K0.000 F150.000
G2 X26.725 Y-36.261 Z-0.200 I-0.812 J-0.582 K0.000 F150.000
G0 Z0.500
G0 X26.806 Y-36.117 Z0.500
G0 X26.806 Y-36.117 Z0.300
G1 X26.806 Y-36.117 Z-0.200 F100.000
G3 X26.763 Y-35.646 Z-0.200 I-0.302 J0.210 K0.000 F150.000
G1 X26.718 Y-35.630 Z-0.200 F150.000
G2 X26.806 Y-36.117 Z-0.200 I-0.827 J-0.402 K0.000 F150.000
G0 Z0.500
G0 X26.959 Y-37.869 Z0.500
G0 X26.959 Y-37.869 Z0.300
G1 X26.959 Y-37.869 Z-0.200 F100.000
G1 X26.846 Y-37.917 Z-0.200 F150.000
G1 X26.846 Y-37.916 Z-0.200 F150.000
G2 X26.468 Y-38.052 Z-0.200 I-0.638 J1.186 K0.000 F150.000
G3 X27.020 Y-37.972 Z-0.200 I-0.112 J2.722 K0.000 F150.000
G1 X26.959 Y-37.869 Z-0.200 F150.000
G0 Z0.500
G0 Z0.500
G0 X26.959 Y-37.869
G0 X30.385 Y-37.701
G0 X30.385 Y-37.701 Z0.300
G1 X30.385 Y-37.701 Z-0.200 F100.000
G3 X30.426 Y-38.356 Z-0.200 I22.466 J1.103 K0.000 F150.000
G3 X31.539 Y-38.381 Z-0.200 I0.697 J6.233 K0.000 F150.000
G3 X32.200 Y-38.296 Z-0.200 I-0.079 J3.232 K0.000 F150.000
G1 X32.200 Y-35.557 Z-0.200 F150.000
G2 X32.300 Y-35.457 Z-0.200 I0.100 J0.000 K0.000 F150.000
G3 X33.115 Y-35.413 Z-0.200 I0.291 J2.188 K0.000 F150.000
G3 X33.266 Y-34.777 Z-0.200 I-1.185 J0.619 K0.000 F150.000
G3 X33.218 Y-33.913 Z-0.200 I-2.303 J0.305 K0.000 F150.000
G3 X29.893 Y-33.935 Z-0.200 I-1.391 J-42.106 K0.000 F150.000
G3 X29.411 Y-34.128 Z-0.200 I-0.079 J-0.501 K0.000 F150.000
G3 X29.391 Y-34.843 Z-0.200 I2.097 J-0.416 K0.000 F150.000
G1 X29.414 Y-35.416 Z-0.200 F150.000
G1 X30.287 Y-35.466 Z-0.200 F150.000
G2 X30.381 Y-35.566 Z-0.200 I-0.006 J-0.100 K0.000 F150.000
G3 X30.385 Y-37.701 Z-0.200 I22.470 J-1.032 K0.000 F150.000
G0 Z0.500
G0 X30.630 Y-37.692 Z0.500
G0 X30.630 Y-37.692 Z0.300
G1 X30.630 Y-37.692 Z-0.200 F100.000
G3 X30.648 Y-38.139 Z-0.200 I35.487 J1.208 K0.000 F150.000
G3 X31.528 Y-38.141 Z-0.200 I0.459 J8.687 K0.000 F150.000
G3 X31.960 Y-38.099 Z-0.200 I-0.061 J2.877 K0.000 F150.000
G1 X31.960 Y-35.557 Z-0.200 F150.000
G2 X32.300 Y-35.217 Z-0.200 I0.340 J0.000 K0.000 F150.000
G3 X32.959 Y-35.203 Z-0.200 I0.279 J2.466 K0.000 F150.000
G3 X33.019 Y-34.153 Z-0.200 I-2.451 J0.666 K0.000 F150.000
G3 X29.915 Y-34.174 Z-0.200 I-1.289 J-39.758 K0.000 F150.000
G3 X29.630 Y-34.232 Z-0.200 I-0.070 J-0.385 K0.000 F150.000
G3 X29.645 Y-35.189 Z-0.200 I4.880 J-0.400 K0.000 F150.000
G1 X30.301 Y-35.227 Z-0.200 F150.000
G2 X30.621 Y-35.566 Z-0.200 I-0.020 J-0.339 K0.000 F150.000
G3 X30.630 Y-37.692 Z-0.200 I35.496 J-0.918 K0.000 F150.000
G0 Z0.500
G0 X30.791 Y-37.688 Z0.500
G0 X30.791 Y-37.688 Z0.300
G1 X30.791 Y-37.688 Z-0.200 F100.000
G3 X30.800 Y-37.986 Z-0.200 I42.675 J1.247 K0.000 F150.000
G3 X31.521 Y-37.981 Z-0.200 I0.303 J8.758 K0.000 F150.000
G3 X31.800 Y-37.961 Z-0.200 I-0.182 J4.387 K0.000 F150.000
G1 X31.800 Y-35.557 Z-0.200 F150.000
G2 X32.300 Y-35.057 Z-0.200 I0.500 J0.000 K0.000 F150.000
G3 X32.827 Y-35.053 Z-0.200 I0.220 J6.737 K0.000 F150.000
G3 X32.878 Y-34.313 Z-0.200 I-3.480 J0.612 K0.000 F150.000
G3 X29.929 Y-34.333 Z-0.200 I-1.217 J-38.083 K0.000 F150.000
G3 X29.776 Y-34.353 Z-0.200 I0.067 J-1.106 K0.000 F150.000
G3 X29.799 Y-35.038 Z-0.200 I13.732 J0.122 K0.000 F150.000
G2 X30.499 Y-35.116 Z-0.200 I0.153 J-1.798 K0.000 F150.000
G2 X30.781 Y-35.566 Z-0.200 I-0.218 J-0.450 K0.000 F150.000
G3 X30.791 Y-37.688 Z-0.200 I42.684 J-0.875 K0.000 F150.000
G0 Z0.500
G0 X30.870 Y-37.685 Z0.500
G0 X30.870 Y-37.685 Z0.300
G1 X30.870 Y-37.685 Z-0.200 F100.000
G3 X30.877 Y-37.908 Z-0.200 I44.809 J1.251 K0.000 F150.000
G3 X31.518 Y-37.902 Z-0.200 I0.223 J9.077 K0.000 F150.000
G3 X31.720 Y-37.888 Z-0.200 I-0.112 J3.181 K0.000 F150.000
G1 X31.720 Y-35.557 Z-0.200 F150.000
G2 X32.300 Y-34.977 Z-0.200 I0.580 J0.000 K0.000 F150.000
G3 X32.759 Y-34.976 Z-0.200 I0.219 J5.870 K0.000 F150.000
G3 X32.798 Y-34.393 Z-0.200 I-3.327 J0.517 K0.000 F150.000
G3 X29.855 Y-34.422 Z-0.200 I-1.182 J-29.599 K0.000 F150.000
G3 X29.876 Y-34.962 Z-0.200 I19.860 J0.497 K0.000 F150.000
G2 X30.522 Y-35.038 Z-0.200 I0.118 J-1.765 K0.000 F150.000
G2 X30.861 Y-35.566 Z-0.200 I-0.240 J-0.528 K0.000 F150.000
G3 X30.870 Y-37.685 Z-0.200 I44.818 J-0.868 K0.000 F150.000
G0 Z0.500
G0 X30.950 Y-37.683 Z0.500
G0 X30.950 Y-37.683 Z0.300
G1 X30.950 Y-37.683 Z-0.200 F100.000
G3 X30.955 Y-37.830 Z-0.200 I44.920 J1.250 K0.000 F150.000
G3 X31.514 Y-37.822 Z-0.200 I0.148 J8.873 K0.000 F150.000
G1 X31.640 Y-37.814 Z-0.200 F150.000
G1 X31.640 Y-35.557 Z-0.200 F150.000
G2 X32.300 Y-34.897 Z-0.200 I0.660 J0.000 K0.000 F150.000
G1 X32.688 Y-34.897 Z-0.200 F150.000
G3 X32.716 Y-34.473 Z-0.200 I-2.436 J0.372 K0.000 F150.000
G3 X29.937 Y-34.493 Z-0.200 I-1.135 J-35.203 K0.000 F150.000
G2 X29.953 Y-34.886 Z-0.200 I-184.246 J-7.830 K0.000 F150.000
G2 X30.531 Y-34.955 Z-0.200 I0.082 J-1.767 K0.000 F150.000
G2 X30.941 Y-35.566 Z-0.200 I-0.250 J-0.611 K0.000 F150.000
G3 X30.950 Y-37.683 Z-0.200 I44.929 J-0.867 K0.000 F150.000
G0 Z0.500
G0 X31.030 Y-37.681 Z0.500
G0 X31.030 Y-37.681 Z0.300
G1 X31.030 Y-37.681 Z-0.200 F100.000
G3 X31.032 Y-37.751 Z-0.200 I46.504 J1.253 K0.000 F150.000
G3 X31.560 Y-37.739 Z-0.200 I0.111 J6.655 K0.000 F150.000
G1 X31.560 Y-35.557 Z-0.200 F150.000
G2 X32.300 Y-34.817 Z-0.200 I0.740 J0.000 K0.000 F150.000
G1 X32.617 Y-34.817 Z-0.200 F150.000
G3 X32.633 Y-34.553 Z-0.200 I-1.516 J0.225 K0.000 F150.000
G3 X30.019 Y-34.568 Z-0.200 I-1.088 J-39.596 K0.000 F150.000
G3 X30.030 Y-34.811 Z-0.200 I13.753 J0.478 K0.000 F150.000
G2 X30.904 Y-35.166 Z-0.200 I0.153 J-0.876 K0.000 F150.000
G2 X31.021 Y-35.566 Z-0.200 I-0.623 J-0.400 K0.000 F150.000
G3 X31.030 Y-37.681 Z-0.200 I46.512 J-0.862 K0.000 F150.000
G0 Z0.500
G0 X31.110 Y-37.671 Z0.500
G0 X31.110 Y-37.671 Z0.300
G1 X31.110 Y-37.671 Z-0.200 F100.000
G3 X31.480 Y-37.662 Z-0.200 I0.029 J6.967 K0.000 F150.000
G1 X31.480 Y-35.557 Z-0.200 F150.000
G2 X32.300 Y-34.737 Z-0.200 I0.820 J0.000 K0.000 F150.000
G1 X32.546 Y-34.737 Z-0.200 F150.000
G3 X32.551 Y-34.633 Z-0.200 I-0.596 J0.078 K0.000 F150.000
G3 X30.103 Y-34.644 Z-0.200 I-0.930 J-70.060 K0.000 F150.000
G1 X30.107 Y-34.735 Z-0.200 F150.000
G2 X31.101 Y-35.566 Z-0.200 I0.132 J-0.852 K0.000 F150.000
G3 X31.110 Y-37.671 Z-0.200 I57.697 J-0.823 K0.000 F150.000
G0 Z0.500
G0 X31.188 Y-37.591 Z0.500
G0 X31.188 Y-37.591 Z0.300
G1 X31.188 Y-37.591 Z-0.200 F100.000
G1 X31.400 Y-37.585 Z-0.200 F150.000
G1 X31.400 Y-35.557 Z-0.200 F150.000
G2 X32.040 Y-34.713 Z-0.200 I0.839 J0.028 K0.000 F150.000
G3 X30.561 Y-34.714 Z-0.200 I-0.687 J-106.263 K0.000 F150.000
G2 X31.181 Y-35.566 Z-0.200 I-0.271 J-0.849 K0.000 F150.000
G3 X31.188 Y-37.591 Z-0.200 I59.977 J-0.818 K0.000 F150.000
G0 Z0.500
G0 X31.266 Y-37.508 Z0.500
G0 X31.266 Y-37.508 Z0.300
G1 X31.266 Y-37.508 Z-0.200 F100.000
G1 X31.320 Y-37.507 Z-0.200 F150.000
G1 X31.320 Y-35.557 Z-0.200 F150.000
G2 X31.694 Y-34.793 Z-0.200 I0.947 J0.010 K0.000 F150.000
G2 X30.878 Y-34.793 Z-0.200 I-0.156 J900.214 K0.000 F150.000
G2 X31.261 Y-35.566 Z-0.200 I-0.582 J-0.770 K0.000 F150.000
G3 X31.266 Y-37.508 Z-0.200 I61.551 J-0.815 K0.000 F150.000
G0 Z0.500
G0 X30.705 Y-37.524 Z0.500
G0 X30.705 Y-37.524 Z0.300
G1 X30.705 Y-37.524 Z-0.200 F100.000
G3 X30.724 Y-38.063 Z-0.200 I38.020 J1.051 K0.000 F150.000
G3 X31.525 Y-38.061 Z-0.200 I0.386 J8.486 K0.000 F150.000
G3 X31.880 Y-38.031 Z-0.200 I-0.030 J2.428 K0.000 F150.000
G1 X31.880 Y-35.557 Z-0.200 F150.000
G2 X32.300 Y-35.137 Z-0.200 I0.420 J0.000 K0.000 F150.000
G3 X32.893 Y-35.131 Z-0.200 I0.220 J7.589 K0.000 F150.000
G3 X32.951 Y-34.233 Z-0.200 I-3.336 J0.665 K0.000 F150.000
G3 X29.922 Y-34.253 Z-0.200 I-1.254 J-38.957 K0.000 F150.000
G3 X29.700 Y-34.289 Z-0.200 I0.006 J-0.746 K0.000 F150.000
G3 X29.722 Y-35.113 Z-0.200 I6.257 J-0.248 K0.000 F150.000
G2 X30.474 Y-35.193 Z-0.200 I0.189 J-1.808 K0.000 F150.000
G2 X30.701 Y-35.566 Z-0.200 I-0.193 J-0.373 K0.000 F150.000
G3 X30.705 Y-37.524 Z-0.200 I38.024 J-0.906 K0.000 F150.000
G0 Z0.500
G0 X30.544 Y-37.529 Z0.500
G0 X30.544 Y-37.529 Z0.300
G1 X30.544 Y-37.529 Z-0.200 F100.000
G3 X30.573 Y-38.214 Z-0.200 I32.761 J1.033 K0.000 F150.000
G3 X31.532 Y-38.221 Z-0.200 I0.543 J8.259 K0.000 F150.000
G3 X32.040 Y-38.165 Z-0.200 I-0.052 J2.800 K0.000 F150.000
G1 X32.040 Y-35.557 Z-0.200 F150.000
G2 X32.300 Y-35.297 Z-0.200 I0.260 J0.000 K0.000 F150.000
G3 X33.023 Y-35.274 Z-0.200 I0.281 J2.587 K0.000 F150.000
G3 X33.085 Y-34.073 Z-0.200 I-3.021 J0.759 K0.000 F150.000
G3 X29.908 Y-34.094 Z-0.200 I-1.323 J-40.543 K0.000 F150.000
G3 X29.556 Y-34.198 Z-0.200 I-0.084 J-0.364 K0.000 F150.000
G3 X29.551 Y-34.836 Z-0.200 I2.276 J-0.337 K0.000 F150.000
G1 X29.568 Y-35.265 Z-0.200 F150.000
G1 X30.296 Y-35.307 Z-0.200 F150.000
G2 X30.541 Y-35.566 Z-0.200 I-0.015 J-0.260 K0.000 F150.000
G3 X30.544 Y-37.529 Z-0.200 I32.764 J-0.930 K0.000 F150.000
G0 Z0.500
G0 X30.464 Y-37.532 Z0.500
G0 X30.464 Y-37.532 Z0.300
G1 X30.464 Y-37.532 Z-0.200 F100.000
G2 X30.461 Y-35.566 Z-0.200 I30.453 J1.026 K0.000 F150.000
G3 X30.292 Y-35.387 Z-0.200 I-0.180 J0.000 K0.000 F150.000
G2 X29.491 Y-35.340 Z-0.200 I38659.152 J671599.827 K0.000 F150.000
G1 X29.471 Y-34.840 Z-0.200 F150.000
G2 X29.483 Y-34.163 Z-0.200 I2.161 J0.299 K0.000 F150.000
G2 X29.901 Y-34.014 Z-0.200 I0.335 J-0.280 K0.000 F150.000
G2 X33.152 Y-33.993 Z-0.200 I1.894 J-41.304 K0.000 F150.000
G2 X33.075 Y-35.342 Z-0.200 I-2.814 J-0.516 K0.000 F150.000
G2 X32.300 Y-35.377 Z-0.200 I-0.487 J2.186 K0.000 F150.000
G3 X32.120 Y-35.557 Z-0.200 I0.000 J-0.180 K0.000 F150.000
G1 X32.120 Y-38.231 Z-0.200 F150.000
G2 X31.535 Y-38.301 Z-0.200 I-0.648 J2.910 K0.000 F150.000
G2 X30.499 Y-38.287 Z-0.200 I-0.420 J7.080 K0.000 F150.000
G2 X30.464 Y-37.532 Z-0.200 I30.418 J1.781 K0.000 F150.000
G0 Z0.500
G0 X31.285 Y-35.257 Z0.500
G0 X31.285 Y-35.257 Z0.300
G1 X31.285 Y-35.257 Z-0.200 F100.000
G2 X31.502 Y-34.873 Z-0.200 I0.794 J-0.195 K0.000 F150.000
G2 X31.079 Y-34.873 Z-0.200 I-0.061 J466.146 K0.000 F150.000
G2 X31.285 Y-35.257 Z-0.200 I-0.534 J-0.533 K0.000 F150.000
G0 Z0.500
G0 X31.290 Y-35.040 Z0.500
G0 X31.290 Y-35.040 Z0.300
G1 X31.290 Y-35.040 Z-0.200 F100.000
G2 X31.338 Y-34.953 Z-0.200 I0.187 J-0.046 K0.000 F150.000
G1 X31.231 Y-34.953 Z-0.200 F150.000
G1 X31.290 Y-35.040 Z-0.200 F150.000
G0 Z0.500
G0 Z0.500
G0 X31.290 Y-35.040
G0 X33.691 Y-35.829
G0 X33.691 Y-35.829 Z0.300
G1 X33.691 Y-35.829 Z-0.200 F100.000
G3 X33.766 Y-37.719 Z-0.200 I3.064 J-0.824 K0.000 F150.000
G3 X35.112 Y-38.461 Z-0.200 I1.352 J0.860 K0.000 F150.000
G3 X36.020 Y-38.460 Z-0.200 I0.449 J6.340 K0.000 F150.000
G3 X37.604 Y-37.042 Z-0.200 I0.063 J1.523 K0.000 F150.000
G3 X37.435 Y-35.473 Z-0.200 I-2.612 J0.513 K0.000 F150.000
G3 X36.447 Y-34.867 Z-0.200 I-1.120 J-0.718 K0.000 F150.000
G3 X34.659 Y-34.894 Z-0.200 I-0.829 J-4.309 K0.000 F150.000
G3 X33.691 Y-35.829 Z-0.200 I0.411 J-1.393 K0.000 F150.000
G0 Z0.500
G0 X33.761 Y-35.852 Z0.500
G0 X33.761 Y-35.852 Z0.300
G1 X33.761 Y-35.852 Z-0.200 F100.000
G3 X33.697 Y-36.205 Z-0.200 I1.279 J-0.414 K0.000 F150.000
G3 X33.765 Y-37.490 Z-0.200 I3.543 J-0.458 K0.000 F150.000
G3 X34.814 Y-38.346 Z-0.200 I1.223 J0.429 K0.000 F150.000
G3 X36.014 Y-38.381 Z-0.200 I0.758 J5.407 K0.000 F150.000
G3 X37.524 Y-37.033 Z-0.200 I0.068 J1.444 K0.000 F150.000
G3 X37.366 Y-35.514 Z-0.200 I-2.541 J0.503 K0.000 F150.000
G3 X36.435 Y-34.946 Z-0.200 I-1.051 J-0.677 K0.000 F150.000
G3 X34.687 Y-34.969 Z-0.200 I-0.819 J-4.255 K0.000 F150.000
G3 X33.761 Y-35.852 Z-0.200 I0.353 J-1.298 K0.000 F150.000
G0 Z0.500
G0 X33.838 Y-35.877 Z0.500
G0 X33.838 Y-35.877 Z0.300
G1 X33.838 Y-35.877 Z-0.200 F100.000
G3 X33.777 Y-36.213 Z-0.200 I1.205 J-0.391 K0.000 F150.000
G3 X33.841 Y-37.466 Z-0.200 I3.475 J-0.450 K0.000 F150.000
G3 X34.829 Y-38.267 Z-0.200 I1.147 J0.404 K0.000 F150.000
G3 X36.007 Y-38.301 Z-0.200 I0.744 J5.333 K0.000 F150.000
G3 X37.445 Y-37.024 Z-0.200 I0.073 J1.365 K0.000 F150.000
G3 X37.297 Y-35.555 Z-0.200 I-2.473 J0.494 K0.000 F150.000
G3 X36.423 Y-35.025 Z-0.200 I-0.983 J-0.635 K0.000 F150.000
G3 X34.716 Y-35.043 Z-0.200 I-0.809 J-4.204 K0.000 F150.000
G3 X33.838 Y-35.877 Z-0.200 I0.327 J-1.224 K0.000 F150.000
G0 Z0.500
G0 X33.914 Y-35.902 Z0.500
G0 X33.914 Y-35.902 Z0.300
G1 X33.914 Y-35.902 Z-0.200 F100.000
G3 X33.857 Y-36.221 Z-0.200 I1.132 J-0.368 K0.000 F150.000
G3 X33.918 Y-37.441 Z-0.200 I3.409 J-0.441 K0.000 F150.000
G3 X34.910 Y-38.199 Z-0.200 I1.119 J0.438 K0.000 F150.000
G3 X36.001 Y-38.221 Z-0.200 I0.658 J5.476 K0.000 F150.000
G3 X37.365 Y-37.014 Z-0.200 I0.078 J1.286 K0.000 F150.000
G3 X37.228 Y-35.596 Z-0.200 I-2.406 J0.484 K0.000 F150.000
G3 X36.411 Y-35.105 Z-0.200 I-0.914 J-0.593 K0.000 F150.000
G3 X34.745 Y-35.118 Z-0.200 I-0.799 J-4.157 K0.000 F150.000
G3 X33.914 Y-35.902 Z-0.200 I0.301 J-1.151 K0.000 F150.000
G0 Z0.500
G0 X33.990 Y-35.927 Z0.500
G0 X33.990 Y-35.927 Z0.300
G1 X33.990 Y-35.927 Z-0.200 F100.000
G3 X33.936 Y-36.229 Z-0.200 I1.058 J-0.345 K0.000 F150.000
G3 X33.994 Y-37.417 Z-0.200 I3.344 J-0.433 K0.000 F150.000
G3 X34.988 Y-38.128 Z-0.200 I1.053 J0.421 K0.000 F150.000
G3 X35.994 Y-38.141 Z-0.200 I0.580 J5.802 K0.000 F150.000
G3 X37.285 Y-37.005 Z-0.200 I0.083 J1.207 K0.000 F150.000
G3 X37.160 Y-35.638 Z-0.200 I-2.342 J0.474 K0.000 F150.000
G3 X36.399 Y-35.184 Z-0.200 I-0.845 J-0.551 K0.000 F150.000
G3 X34.774 Y-35.193 Z-0.200 I-0.789 J-4.114 K0.000 F150.000
G3 X33.990 Y-35.927 Z-0.200 I0.274 J-1.079 K0.000 F150.000
G0 Z0.500
G0 X34.067 Y-35.951 Z0.500
G0 X34.067 Y-35.951 Z0.300
G1 X34.067 Y-35.951 Z-0.200 F100.000
G3 X34.016 Y-36.237 Z-0.200 I0.984 J-0.322 K0.000 F150.000
G3 X34.070 Y-37.393 Z-0.200 I3.281 J-0.425 K0.000 F150.000
G3 X34.997 Y-38.048 Z-0.200 I0.976 J0.397 K0.000 F150.000
G3 X35.988 Y-38.062 Z-0.200 I0.571 J5.722 K0.000 F150.000
G3 X37.206 Y-36.996 Z-0.200 I0.088 J1.128 K0.000 F150.000
G3 X37.091 Y-35.679 Z-0.200 I-2.281 J0.464 K0.000 F150.000
G3 X36.387 Y-35.263 Z-0.200 I-0.776 J-0.509 K0.000 F150.000
G3 X34.803 Y-35.268 Z-0.200 I-0.780 J-4.077 K0.000 F150.000
G3 X34.067 Y-35.951 Z-0.200 I0.248 J-1.006 K0.000 F150.000
G0 Z0.500
G0 X34.153 Y-35.982 Z0.500
G0 X34.153 Y-35.982 Z0.300
G1 X34.153 Y-35.982 Z-0.200 F100.000
G3 X34.118 Y-36.104 Z-0.200 I1.003 J-0.358 K0.000 F150.000
G3 X34.199 Y-37.507 Z-0.200 I2.692 J-0.547 K0.000 F150.000
G3 X35.109 Y-37.979 Z-0.200 I0.914 J0.651 K0.000 F150.000
G2 X34.776 Y-36.852 Z-0.200 I0.996 J0.907 K0.000 F150.000
G2 X34.974 Y-35.594 Z-0.200 I3.245 J0.133 K0.000 F150.000
G2 X35.276 Y-35.282 Z-0.200 I0.542 J-0.224 K0.000 F150.000
G3 X34.153 Y-35.982 Z-0.200 I-0.121 J-1.058 K0.000 F150.000
G0 Z0.500
G0 X34.225 Y-36.007 Z0.500
G0 X34.225 Y-36.007 Z0.300
G1 X34.225 Y-36.007 Z-0.200 F100.000
G3 X34.176 Y-36.254 Z-0.200 I0.884 J-0.304 K0.000 F150.000
G3 X34.223 Y-37.344 Z-0.200 I3.160 J-0.408 K0.000 F150.000
G3 X34.907 Y-37.874 Z-0.200 I0.806 J0.333 K0.000 F150.000
G2 X34.700 Y-36.712 Z-0.200 I1.627 J0.889 K0.000 F150.000
G2 X34.976 Y-35.433 Z-0.200 I2.498 J0.131 K0.000 F150.000
G2 X35.022 Y-35.380 Z-0.200 I0.231 J-0.155 K0.000 F150.000
G3 X34.225 Y-36.007 Z-0.200 I0.086 J-0.931 K0.000 F150.000
G0 Z0.500
G0 X34.294 Y-36.029 Z0.500
G0 X34.294 Y-36.029 Z0.300
G1 X34.294 Y-36.029 Z-0.200 F100.000
G3 X34.255 Y-36.262 Z-0.200 I0.741 J-0.241 K0.000 F150.000
G3 X34.299 Y-37.320 Z-0.200 I3.105 J-0.400 K0.000 F150.000
G3 X34.737 Y-37.736 Z-0.200 I0.574 J0.166 K0.000 F150.000
G2 X34.691 Y-36.012 Z-0.200 I3.359 J0.952 K0.000 F150.000
G2 X34.835 Y-35.517 Z-0.200 I1.592 J-0.193 K0.000 F150.000
G3 X34.294 Y-36.029 Z-0.200 I0.200 J-0.754 K0.000 F150.000
G0 Z0.500
G0 X34.369 Y-36.055 Z0.500
G0 X34.369 Y-36.055 Z0.300
G1 X34.369 Y-36.055 Z-0.200 F100.000
G3 X34.335 Y-36.270 Z-0.200 I0.621 J-0.208 K0.000 F150.000
G3 X34.376 Y-37.295 Z-0.200 I3.052 J-0.392 K0.000 F150.000
G3 X34.601 Y-37.583 Z-0.200 I0.416 J0.094 K0.000 F150.000
G2 X34.683 Y-35.684 Z-0.200 I4.670 J0.748 K0.000 F150.000
G3 X34.369 Y-36.055 Z-0.200 I0.307 J-0.579 K0.000 F150.000
G0 Z0.500
G0 X34.452 Y-36.083 Z0.500
G0 X34.452 Y-36.083 Z0.300
G1 X34.452 Y-36.083 Z-0.200 F100.000
G3 X34.415 Y-36.278 Z-0.200 I0.673 J-0.228 K0.000 F150.000
G3 X34.452 Y-37.271 Z-0.200 I3.005 J-0.384 K0.000 F150.000
G1 X34.471 Y-37.320 Z-0.200 F150.000
G2 X34.551 Y-35.892 Z-0.200 I5.632 J0.402 K0.000 F150.000
G3 X34.452 Y-36.083 Z-0.200 I0.574 J-0.419 K0.000 F150.000
G0 Z0.500
G0 X34.905 Y-36.166 Z0.500
G0 X34.905 Y-36.166 Z0.300
G1 X34.905 Y-36.166 Z-0.200 F100.000
G3 X34.861 Y-37.195 Z-0.200 I3.653 J-0.672 K0.000 F150.000
G3 X35.309 Y-38.007 Z-0.200 I0.836 J-0.068 K0.000 F150.000
G3 X36.023 Y-37.803 Z-0.200 I0.223 J0.571 K0.000 F150.000
G3 X36.252 Y-35.796 Z-0.200 I-2.071 J1.253 K0.000 F150.000
G3 X35.047 Y-35.626 Z-0.200 I-0.631 J-0.118 K0.000 F150.000
G3 X34.905 Y-36.166 Z-0.200 I3.511 J-1.212 K0.000 F150.000
G0 Z0.500
G0 X35.064 Y-36.193 Z0.500
G0 X35.064 Y-36.193 Z0.300
G1 X35.064 Y-36.193 Z-0.200 F100.000
G3 X35.015 Y-37.050 Z-0.200 I3.801 J-0.649 K0.000 F150.000
G3 X35.365 Y-37.857 Z-0.200 I0.799 J-0.133 K0.000 F150.000
G3 X35.905 Y-37.694 Z-0.200 I0.167 J0.423 K0.000 F150.000
G3 X36.060 Y-35.750 Z-0.200 I-2.082 J1.145 K0.000 F150.000
G3 X35.167 Y-35.752 Z-0.200 I-0.446 J-0.149 K0.000 F150.000
G3 X35.064 Y-36.193 Z-0.200 I3.698 J-1.091 K0.000 F150.000
G0 Z0.500
G0 X35.143 Y-36.207 Z0.500
G0 X35.143 Y-36.207 Z0.300
G1 X35.143 Y-36.207 Z-0.200 F100.000
G3 X35.095 Y-37.050 Z-0.200 I3.769 J-0.639 K0.000 F150.000
G3 X35.393 Y-37.782 Z-0.200 I0.724 J-0.132 K0.000 F150.000
G3 X35.846 Y-37.640 Z-0.200 I0.139 J0.350 K0.000 F150.000
G3 X36.023 Y-35.866 Z-0.200 I-1.938 J1.088 K0.000 F150.000
G3 X35.240 Y-35.784 Z-0.200 I-0.401 J-0.050 K0.000 F150.000
G3 X35.143 Y-36.207 Z-0.200 I3.672 J-1.062 K0.000 F150.000
G0 Z0.500
G0 X35.223 Y-36.220 Z0.500
G0 X35.223 Y-36.220 Z0.300
G1 X35.223 Y-36.220 Z-0.200 F100.000
G3 X35.175 Y-37.050 Z-0.200 I3.744 J-0.630 K0.000 F150.000
G3 X35.379 Y-37.684 Z-0.200 I0.800 J-0.093 K0.000 F150.000
G3 X35.788 Y-37.586 Z-0.200 I0.156 J0.248 K0.000 F150.000
G3 X35.914 Y-35.815 Z-0.200 I-1.998 J1.033 K0.000 F150.000
G3 X35.313 Y-35.816 Z-0.200 I-0.300 J-0.084 K0.000 F150.000
G3 X35.223 Y-36.220 Z-0.200 I3.653 J-1.034 K0.000 F150.000
G0 Z0.500
G0 X35.293 Y-36.234 Z0.500
G0 X35.293 Y-36.234 Z0.300
G1 X35.293 Y-36.234 Z-0.200 F100.000
G3 X35.255 Y-37.050 Z-0.200 I2.787 J-0.538 K0.000 F150.000
G3 X35.426 Y-37.619 Z-0.200 I0.725 J-0.093 K0.000 F150.000
G3 X35.729 Y-37.532 Z-0.200 I0.110 J0.187 K0.000 F150.000
G3 X35.870 Y-35.913 Z-0.200 I-1.864 J0.978 K0.000 F150.000
G3 X35.425 Y-35.767 Z-0.200 I-0.251 J-0.013 K0.000 F150.000
G3 X35.293 Y-36.234 Z-0.200 I2.654 J-1.004 K0.000 F150.000
G0 Z0.500
G0 X34.980 Y-36.175 Z0.500
G0 X34.980 Y-36.175 Z0.300
G1 X34.980 Y-36.175 Z-0.200 F100.000
G3 X34.935 Y-37.050 Z-0.200 I3.248 J-0.605 K0.000 F150.000
G3 X35.337 Y-37.932 Z-0.200 I0.875 J-0.134 K0.000 F150.000
G3 X35.964 Y-37.749 Z-0.200 I0.195 J0.497 K0.000 F150.000
G3 X36.133 Y-35.717 Z-0.200 I-2.127 J1.200 K0.000 F150.000
G3 X35.121 Y-35.658 Z-0.200 I-0.519 J-0.180 K0.000 F150.000
G3 X34.980 Y-36.175 Z-0.200 I3.108 J-1.122 K0.000 F150.000
G0 Z0.500
G0 X35.987 Y-35.302 Z0.500
G0 X35.987 Y-35.302 Z0.300
G1 X35.987 Y-35.302 Z-0.200 F100.000
G2 X36.386 Y-35.988 Z-0.200 I-0.599 J-0.808 K0.000 F150.000
G2 X36.082 Y-37.857 Z-0.200 I-2.412 J-0.566 K0.000 F150.000
G2 X35.945 Y-37.984 Z-0.200 I-0.543 J0.448 K0.000 F150.000
G3 X37.126 Y-36.987 Z-0.200 I0.119 J1.057 K0.000 F150.000
G3 X37.022 Y-35.720 Z-0.200 I-2.224 J0.454 K0.000 F150.000
G3 X36.375 Y-35.342 Z-0.200 I-0.707 J-0.467 K0.000 F150.000
G1 X35.987 Y-35.302 Z-0.200 F150.000
G0 Z0.500
G0 X36.216 Y-35.406 Z0.500
G0 X36.216 Y-35.406 Z0.300
G1 X36.216 Y-35.406 Z-0.200 F100.000
G2 X36.510 Y-36.772 Z-0.200 I-1.686 J-1.077 K0.000 F150.000
G2 X36.163 Y-37.882 Z-0.200 I-1.765 J-0.057 K0.000 F150.000
G3 X37.047 Y-36.977 Z-0.200 I-0.041 J0.924 K0.000 F150.000
G3 X36.953 Y-35.761 Z-0.200 I-2.172 J0.445 K0.000 F150.000
G3 X36.216 Y-35.406 Z-0.200 I-0.727 J-0.564 K0.000 F150.000
G0 Z0.500
G0 X36.382 Y-35.506 Z0.500
G0 X36.382 Y-35.506 Z0.300
G1 X36.382 Y-35.506 Z-0.200 F100.000
G2 X36.331 Y-37.776 Z-0.200 I-2.574 J-1.078 K0.000 F150.000
G3 X36.967 Y-36.968 Z-0.200 I-0.198 J0.810 K0.000 F150.000
G3 X36.882 Y-35.800 Z-0.200 I-2.100 J0.435 K0.000 F150.000
G3 X36.382 Y-35.506 Z-0.200 I-0.553 J-0.369 K0.000 F150.000
G0 Z0.500
G0 X36.528 Y-35.627 Z0.500
G0 X36.528 Y-35.627 Z0.300
G1 X36.528 Y-35.627 Z-0.200 F100.000
G2 X36.490 Y-37.620 Z-0.200 I-2.888 J-0.942 K0.000 F150.000
G3 X36.887 Y-36.959 Z-0.200 I-0.361 J0.667 K0.000 F150.000
G3 X36.811 Y-35.837 Z-0.200 I-2.020 J0.425 K0.000 F150.000
G3 X36.528 Y-35.627 Z-0.200 I-0.387 J-0.226 K0.000 F150.000
G0 Z0.500
G0 X36.669 Y-35.793 Z0.500
G0 X36.669 Y-35.793 Z0.300
G1 X36.669 Y-35.793 Z-0.200 F100.000
G2 X36.656 Y-37.387 Z-0.200 I-3.310 J-0.769 K0.000 F150.000
G3 X36.833 Y-36.539 Z-0.200 I-1.190 J0.690 K0.000 F150.000
G3 X36.739 Y-35.875 Z-0.200 I-1.592 J0.115 K0.000 F150.000
G3 X36.669 Y-35.793 Z-0.200 I-0.183 J-0.086 K0.000 F150.000
G0 Z0.500
G0 Z0.500
G0 X36.669 Y-35.793
G0 X38.201 Y-35.903
G0 X38.201 Y-35.903 Z0.300
G1 X38.201 Y-35.903 Z-0.200 F100.000
G3 X38.196 Y-36.074 Z-0.200 I1.852 J-0.133 K0.000 F150.000
G3 X38.034 Y-38.487 Z-0.200 I14.705 J-2.202 K0.000 F150.000
G3 X38.130 Y-38.556 Z-0.200 I0.069 J-0.005 K0.000 F150.000
G3 X39.635 Y-38.621 Z-0.200 I1.077 J7.413 K0.000 F150.000
G2 X39.896 Y-36.106 Z-0.200 I32.266 J-2.071 K0.000 F150.000
G2 X40.238 Y-35.992 Z-0.200 I0.195 J-0.015 K0.000 F150.000
G2 X40.318 Y-37.146 Z-0.200 I-2.742 J-0.771 K0.000 F150.000
G3 X40.238 Y-38.636 Z-0.200 I28.913 J-2.309 K0.000 F150.000
G3 X40.498 Y-38.800 Z-0.200 I0.213 J0.050 K0.000 F150.000
G3 X41.831 Y-38.855 Z-0.200 I0.859 J4.626 K0.000 F150.000
G3 X41.955 Y-35.775 Z-0.200 I-18.104 J2.271 K0.000 F150.000
G3 X41.753 Y-35.399 Z-0.200 I-0.445 J0.003 K0.000 F150.000
G3 X41.006 Y-35.198 Z-0.200 I-0.611 J-0.784 K0.000 F150.000
G3 X40.100 Y-35.344 Z-0.200 I-0.060 J-2.501 K0.000 F150.000
G3 X39.120 Y-35.103 Z-0.200 I-0.856 J-1.365 K0.000 F150.000
G3 X38.396 Y-35.196 Z-0.200 I-0.181 J-1.458 K0.000 F150.000
G3 X38.201 Y-35.903 Z-0.200 I1.656 J-0.839 K0.000 F150.000
G0 Z0.500
G0 X38.280 Y-35.909 Z0.500
G0 X38.280 Y-35.909 Z0.300
G1 X38.280 Y-35.909 Z-0.200 F100.000
G3 X38.276 Y-36.083 Z-0.200 I1.826 J-0.135 K0.000 F150.000
G3 X38.113 Y-38.470 Z-0.200 I14.891 J-2.216 K0.000 F150.000
G3 X39.563 Y-38.541 Z-0.200 I1.027 J6.111 K0.000 F150.000
G3 X39.785 Y-36.178 Z-0.200 I-214.823 J21.375 K0.000 F150.000
G2 X40.212 Y-35.866 Z-0.200 I0.335 J-0.010 K0.000 F150.000
G2 X40.385 Y-36.198 Z-0.200 I-0.258 J-0.345 K0.000 F150.000
G2 X40.320 Y-38.473 Z-0.200 I-20.952 J-0.536 K0.000 F150.000
G3 X40.338 Y-38.673 Z-0.200 I0.252 J-0.078 K0.000 F150.000
G3 X41.759 Y-38.778 Z-0.200 I0.985 J3.678 K0.000 F150.000
G3 X41.875 Y-35.787 Z-0.200 I-17.963 J2.194 K0.000 F150.000
G3 X41.703 Y-35.462 Z-0.200 I-0.369 J0.012 K0.000 F150.000
G3 X41.006 Y-35.278 Z-0.200 I-0.564 J-0.724 K0.000 F150.000
G3 X40.324 Y-35.368 Z-0.200 I-0.102 J-1.848 K0.000 F150.000
G1 X40.324 Y-35.368 Z-0.200 F150.000
G2 X39.781 Y-35.274 Z-0.200 I-0.207 J0.421 K0.000 F150.000
G3 X38.453 Y-35.257 Z-0.200 I-0.699 J-2.633 K0.000 F150.000
G3 X38.280 Y-35.909 Z-0.200 I1.654 J-0.787 K0.000 F150.000
G0 Z0.500
G0 X38.544 Y-35.943 Z0.500
G0 X38.544 Y-35.943 Z0.300
G1 X38.544 Y-35.943 Z-0.200 F100.000
G3 X38.343 Y-38.263 Z-0.200 I26.609 J-3.477 K0.000 F150.000
G3 X39.346 Y-38.299 Z-0.200 I0.734 J6.500 K0.000 F150.000
G2 X39.580 Y-36.032 Z-0.200 I24.483 J-1.381 K0.000 F150.000
G2 X39.970 Y-35.629 Z-0.200 I0.551 J-0.143 K0.000 F150.000
G2 X39.660 Y-35.485 Z-0.200 I0.850 J2.231 K0.000 F150.000
G3 X38.609 Y-35.473 Z-0.200 I-0.553 J-2.452 K0.000 F150.000
G3 X38.544 Y-35.943 Z-0.200 I26.543 J-3.947 K0.000 F150.000
G0 Z0.500
G0 X38.699 Y-35.962 Z0.500
G0 X38.699 Y-35.962 Z0.300
G1 X38.699 Y-35.962 Z-0.200 F100.000
G3 X38.506 Y-38.119 Z-0.200 I31.239 J-3.890 K0.000 F150.000
G3 X39.201 Y-38.137 Z-0.200 I0.675 J12.143 K0.000 F150.000
G2 X39.427 Y-35.983 Z-0.200 I21.248 J-1.142 K0.000 F150.000
G2 X39.645 Y-35.659 Z-0.200 I0.598 J-0.167 K0.000 F150.000
G3 X39.106 Y-35.583 Z-0.200 I-0.401 J-0.893 K0.000 F150.000
G3 X38.746 Y-35.603 Z-0.200 I-0.047 J-2.505 K0.000 F150.000
G3 X38.699 Y-35.962 Z-0.200 I31.192 J-4.250 K0.000 F150.000
G0 Z0.500
G0 X38.778 Y-35.972 Z0.500
G0 X38.778 Y-35.972 Z0.300
G1 X38.778 Y-35.972 Z-0.200 F100.000
G3 X38.589 Y-38.044 Z-0.200 I33.100 J-4.060 K0.000 F150.000
G3 X39.129 Y-38.057 Z-0.200 I0.550 J11.528 K0.000 F150.000
G2 X39.351 Y-35.959 Z-0.200 I19.894 J-1.048 K0.000 F150.000
G2 X39.496 Y-35.694 Z-0.200 I1.059 J-0.408 K0.000 F150.000
G3 X38.815 Y-35.677 Z-0.200 I-0.406 J-2.680 K0.000 F150.000
G3 X38.778 Y-35.972 Z-0.200 I33.063 J-4.354 K0.000 F150.000
G0 Z0.500
G0 X38.856 Y-35.981 Z0.500
G0 X38.856 Y-35.981 Z0.300
G1 X38.856 Y-35.981 Z-0.200 F100.000
G3 X38.673 Y-37.967 Z-0.200 I35.697 J-4.292 K0.000 F150.000
G3 X39.056 Y-37.976 Z-0.200 I0.416 J9.834 K0.000 F150.000
G2 X39.275 Y-35.934 Z-0.200 I18.672 J-0.966 K0.000 F150.000
G1 X39.358 Y-35.760 Z-0.200 F150.000
G3 X38.884 Y-35.752 Z-0.200 I-0.270 J-1.926 K0.000 F150.000
G3 X38.856 Y-35.981 Z-0.200 I35.669 J-4.521 K0.000 F150.000
G0 Z0.500
G0 X38.933 Y-35.991 Z0.500
G0 X38.933 Y-35.991 Z0.300
G1 X38.933 Y-35.991 Z-0.200 F100.000
G3 X38.758 Y-37.890 Z-0.200 I30.192 J-3.741 K0.000 F150.000
G3 X38.984 Y-37.896 Z-0.200 I0.259 J5.810 K0.000 F150.000
G2 X39.199 Y-35.910 Z-0.200 I17.556 J-0.895 K0.000 F150.000
G1 X39.236 Y-35.833 Z-0.200 F150.000
G3 X38.953 Y-35.827 Z-0.200 I-0.165 J-1.248 K0.000 F150.000
G3 X38.933 Y-35.991 Z-0.200 I30.171 J-3.904 K0.000 F150.000
G0 Z0.500
G0 X39.012 Y-36.000 Z0.500
G0 X39.012 Y-36.000 Z0.300
G1 X39.012 Y-36.000 Z-0.200 F100.000
G3 X38.843 Y-37.812 Z-0.200 I43.083 J-4.929 K0.000 F150.000
G1 X38.912 Y-37.814 Z-0.200 F150.000
G2 X39.116 Y-35.905 Z-0.200 I18.154 J-0.980 K0.000 F150.000
G3 X39.023 Y-35.904 Z-0.200 I-0.053 J-0.647 K0.000 F150.000
G3 X39.012 Y-36.000 Z-0.200 I43.071 J-5.025 K0.000 F150.000
G0 Z0.500
G0 X38.617 Y-35.946 Z0.500
G0 X38.617 Y-35.946 Z0.300
G1 X38.617 Y-35.946 Z-0.200 F100.000
G3 X38.443 Y-38.194 Z-0.200 I18.858 J-2.589 K0.000 F150.000
G3 X39.273 Y-38.218 Z-0.200 I0.666 J8.629 K0.000 F150.000
G2 X39.504 Y-36.008 Z-0.200 I22.763 J-1.252 K0.000 F150.000
G2 X39.778 Y-35.643 Z-0.200 I0.698 J-0.239 K0.000 F150.000
G3 X39.457 Y-35.526 Z-0.200 I-0.350 J-0.466 K0.000 F150.000
G3 X38.679 Y-35.529 Z-0.200 I-0.380 J-3.022 K0.000 F150.000
G3 X38.617 Y-35.946 Z-0.200 I18.796 J-3.006 K0.000 F150.000
G0 Z0.500
G0 X38.474 Y-35.925 Z0.500
G0 X38.474 Y-35.925 Z0.300
G1 X38.474 Y-35.925 Z-0.200 F100.000
G3 X38.263 Y-38.333 Z-0.200 I21.144 J-3.068 K0.000 F150.000
G3 X39.418 Y-38.379 Z-0.200 I0.837 J6.346 K0.000 F150.000
G2 X39.656 Y-36.057 Z-0.200 I26.471 J-1.535 K0.000 F150.000
G2 X40.449 Y-35.878 Z-0.200 I0.434 J-0.078 K0.000 F150.000
G2 X40.558 Y-37.160 Z-0.200 I-2.842 J-0.888 K0.000 F150.000
G3 X40.476 Y-38.548 Z-0.200 I87.467 J-5.823 K0.000 F150.000
G3 X41.616 Y-38.623 Z-0.200 I0.816 J3.694 K0.000 F150.000
G3 X41.716 Y-35.810 Z-0.200 I-17.813 J2.042 K0.000 F150.000
G3 X41.340 Y-35.455 Z-0.200 I-0.429 J-0.077 K0.000 F150.000
G3 X40.207 Y-35.576 Z-0.200 I-0.349 J-2.107 K0.000 F150.000
G2 X39.710 Y-35.418 Z-0.200 I-0.063 J0.665 K0.000 F150.000
G3 X38.559 Y-35.390 Z-0.200 I-0.641 J-2.697 K0.000 F150.000
G3 X38.474 Y-35.925 Z-0.200 I21.059 J-3.603 K0.000 F150.000
G0 Z0.500
G0 X38.370 Y-35.906 Z0.500
G0 X38.370 Y-35.906 Z0.300
G1 X38.370 Y-35.906 Z-0.200 F100.000
G3 X38.276 Y-36.893 Z-0.200 I5.796 J-1.050 K0.000 F150.000
G3 X38.188 Y-38.403 Z-0.200 I10.974 J-1.401 K0.000 F150.000
G3 X39.490 Y-38.460 Z-0.200 I0.946 J6.639 K0.000 F150.000
G2 X39.732 Y-36.081 Z-0.200 I41.441 J-3.005 K0.000 F150.000
G2 X40.294 Y-35.824 Z-0.200 I0.369 J-0.062 K0.000 F150.000
G2 X40.491 Y-36.493 Z-0.200 I-0.675 J-0.563 K0.000 F150.000
G2 X40.398 Y-38.609 Z-0.200 I-3936.365 J172.959 K0.000 F150.000
G3 X41.688 Y-38.701 Z-0.200 I0.908 J3.663 K0.000 F150.000
G3 X41.796 Y-35.798 Z-0.200 I-17.862 J2.118 K0.000 F150.000
G3 X41.654 Y-35.525 Z-0.200 I-0.293 J0.021 K0.000 F150.000
G3 X40.864 Y-35.361 Z-0.200 I-0.613 J-0.967 K0.000 F150.000
G3 X40.199 Y-35.496 Z-0.200 I-0.014 J-1.638 K0.000 F150.000
G2 X39.746 Y-35.346 Z-0.200 I-0.059 J0.583 K0.000 F150.000
G3 X38.507 Y-35.322 Z-0.200 I-0.671 J-2.666 K0.000 F150.000
G3 X38.370 Y-35.906 Z-0.200 I5.659 J-1.633 K0.000 F150.000
G0 Z0.500
G0 X40.287 Y-35.637 Z0.500
G0 X40.287 Y-35.637 Z0.300
G1 X40.287 Y-35.637 Z-0.200 F100.000
G2 X40.624 Y-36.176 Z-0.200 I-0.272 J-0.545 K0.000 F150.000
G2 X40.562 Y-38.432 Z-0.200 I-20.471 J-0.568 K0.000 F150.000
G3 X40.629 Y-38.500 Z-0.200 I0.039 J-0.029 K0.000 F150.000
G3 X41.545 Y-38.546 Z-0.200 I0.664 J4.047 K0.000 F150.000
G3 X41.607 Y-35.701 Z-0.200 I-15.376 J1.760 K0.000 F150.000
G3 X41.006 Y-35.518 Z-0.200 I-0.474 J-0.478 K0.000 F150.000
G3 X40.287 Y-35.637 Z-0.200 I-0.112 J-1.555 K0.000 F150.000
G0 Z0.500
G0 X40.461 Y-35.661 Z0.500
G0 X40.461 Y-35.661 Z0.300
G1 X40.461 Y-35.661 Z-0.200 F100.000
G2 X40.731 Y-36.489 Z-0.200 I-0.808 J-0.723 K0.000 F150.000
G2 X40.643 Y-38.421 Z-0.200 I-54.952 J1.535 K0.000 F150.000
G3 X41.473 Y-38.469 Z-0.200 I0.642 J3.908 K0.000 F150.000
G3 X41.535 Y-35.743 Z-0.200 I-15.883 J1.723 K0.000 F150.000
G3 X41.006 Y-35.598 Z-0.200 I-0.405 J-0.439 K0.000 F150.000
G3 X40.461 Y-35.661 Z-0.200 I-0.103 J-1.503 K0.000 F150.000
G0 Z0.500
G0 X40.608 Y-35.707 Z0.500
G0 X40.608 Y-35.707 Z0.300
G1 X40.608 Y-35.707 Z-0.200 F100.000
G2 X40.811 Y-36.488 Z-0.200 I-1.033 J-0.686 K0.000 F150.000
G2 X40.734 Y-38.354 Z-0.200 I-151.157 J5.348 K0.000 F150.000
G3 X41.402 Y-38.392 Z-0.200 I0.547 J3.779 K0.000 F150.000
G3 X41.455 Y-35.778 Z-0.200 I-16.091 J1.637 K0.000 F150.000
G3 X40.714 Y-35.693 Z-0.200 I-0.473 J-0.854 K0.000 F150.000
G1 X40.608 Y-35.707 Z-0.200 F150.000
G0 Z0.500
G0 X40.753 Y-35.771 Z0.500
G0 X40.753 Y-35.771 Z0.300
G1 X40.753 Y-35.771 Z-0.200 F100.000
G2 X40.858 Y-37.485 Z-0.200 I-3.719 J-1.088 K0.000 F150.000
G3 X40.821 Y-38.285 Z-0.200 I5.320 J-0.651 K0.000 F150.000
G3 X41.331 Y-38.311 Z-0.200 I0.426 J3.287 K0.000 F150.000
G3 X41.392 Y-35.833 Z-0.200 I-17.910 J1.684 K0.000 F150.000
G3 X40.753 Y-35.771 Z-0.200 I-0.398 J-0.781 K0.000 F150.000
G0 Z0.500
G0 X40.871 Y-35.842 Z0.500
G0 X40.871 Y-35.842 Z0.300
G1 X40.871 Y-35.842 Z-0.200 F100.000
G2 X40.919 Y-37.807 Z-0.200 I-5.659 J-1.121 K0.000 F150.000
G3 X40.895 Y-38.213 Z-0.200 I140.831 J-8.527 K0.000 F150.000
G3 X41.259 Y-38.231 Z-0.200 I0.316 J2.648 K0.000 F150.000
G3 X41.319 Y-35.881 Z-0.200 I-19.457 J1.675 K0.000 F150.000
G3 X41.201 Y-35.843 Z-0.200 I-0.100 J-0.107 K0.000 F150.000
G3 X40.871 Y-35.842 Z-0.200 I-0.171 J-2.054 K0.000 F150.000
G0 Z0.500
G0 X40.977 Y-35.919 Z0.500
G0 X40.977 Y-35.919 Z0.300
G1 X40.977 Y-35.919 Z-0.200 F100.000
G2 X40.999 Y-37.811 Z-0.200 I-6.269 J-1.018 K0.000 F150.000
G1 X40.980 Y-38.140 Z-0.200 F150.000
G3 X41.189 Y-38.125 Z-0.200 I0.090 J0.225 K0.000 F150.000
G1 X41.199 Y-38.002 Z-0.200 F150.000
G3 X41.242 Y-35.928 Z-0.200 I-22.378 J1.495 K0.000 F150.000
G3 X40.977 Y-35.919 Z-0.200 I-0.201 J-2.077 K0.000 F150.000
G0 Z0.500
G0 X41.079 Y-36.000 Z0.500
G0 X41.079 Y-36.000 Z0.300
G1 X41.079 Y-36.000 Z-0.200 F100.000
G2 X41.064 Y-38.066 Z-0.200 I-8.328 J-0.975 K0.000 F150.000
G3 X41.120 Y-37.996 Z-0.200 I0.028 J0.035 K0.000 F150.000
G1 X41.124 Y-37.933 Z-0.200 F150.000
G3 X41.166 Y-36.002 Z-0.200 I-24.750 J1.499 K0.000 F150.000
G1 X41.079 Y-36.000 Z-0.200 F150.000
G0 Z0.500
G0 Z0.500
G0 X41.079 Y-36.000
G0 X42.565 Y-36.569
G0 X42.565 Y-36.569 Z0.300
G1 X42.565 Y-36.569 Z-0.200 F100.000
G3 X42.518 Y-38.399 Z-0.200 I2.568 J-0.982 K0.000 F150.000
G3 X42.942 Y-38.878 Z-0.200 I0.916 J0.384 K0.000 F150.000
G3 X44.847 Y-39.361 Z-0.200 I1.672 J2.597 K0.000 F150.000
G3 X45.716 Y-39.288 Z-0.200 I0.198 J2.845 K0.000 F150.000
G3 X45.767 Y-38.974 Z-0.200 I-0.271 J0.204 K0.000 F150.000
G3 X45.528 Y-38.342 Z-0.200 I-1.380 J-0.160 K0.000 F150.000
G3 X45.131 Y-38.368 Z-0.200 I-0.145 J-0.832 K0.000 F150.000
G2 X44.517 Y-38.474 Z-0.200 I-0.857 J3.140 K0.000 F150.000
G2 X44.108 Y-38.041 Z-0.200 I0.000 J0.409 K0.000 F150.000
G2 X44.375 Y-37.881 Z-0.200 I0.272 J-0.150 K0.000 F150.000
G3 X45.703 Y-37.719 Z-0.200 I-0.508 J9.690 K0.000 F150.000
G3 X46.230 Y-37.097 Z-0.200 I-0.291 J0.781 K0.000 F150.000
G3 X45.675 Y-35.871 Z-0.200 I-0.882 J0.339 K0.000 F150.000
G3 X43.214 Y-35.794 Z-0.200 I-1.320 J-2.815 K0.000 F150.000
G3 X42.666 Y-36.336 Z-0.200 I0.553 J-1.106 K0.000 F150.000
G3 X42.565 Y-36.569 Z-0.200 I2.466 J-1.215 K0.000 F150.000
G0 Z0.500
G0 X42.640 Y-36.597 Z0.500
G0 X42.640 Y-36.597 Z0.300
G1 X42.640 Y-36.597 Z-0.200 F100.000
G3 X42.591 Y-38.367 Z-0.200 I2.492 J-0.954 K0.000 F150.000
G3 X42.983 Y-38.809 Z-0.200 I0.842 J0.352 K0.000 F150.000
G3 X44.846 Y-39.281 Z-0.200 I1.631 J2.528 K0.000 F150.000
G3 X45.665 Y-39.219 Z-0.200 I0.155 J3.414 K0.000 F150.000
G3 X45.687 Y-38.984 Z-0.200 I-0.188 J0.137 K0.000 F150.000
G3 X45.485 Y-38.412 Z-0.200 I-1.463 J-0.193 K0.000 F150.000
G3 X44.747 Y-38.529 Z-0.200 I-0.090 J-1.812 K0.000 F150.000
G2 X44.030 Y-38.028 Z-0.200 I-0.195 J0.486 K0.000 F150.000
G2 X44.570 Y-37.778 Z-0.200 I0.441 J-0.245 K0.000 F150.000
G3 X45.674 Y-37.644 Z-0.200 I-0.178 J6.107 K0.000 F150.000
G3 X46.153 Y-37.074 Z-0.200 I-0.262 J0.707 K0.000 F150.000
G3 X45.641 Y-35.943 Z-0.200 I-0.807 J0.316 K0.000 F150.000
G3 X43.251 Y-35.865 Z-0.200 I-1.286 J-2.743 K0.000 F150.000
G3 X42.738 Y-36.372 Z-0.200 I0.517 J-1.035 K0.000 F150.000
G3 X42.640 Y-36.597 Z-0.200 I2.394 J-1.179 K0.000 F150.000
G0 Z0.500
G0 X42.715 Y-36.626 Z0.500
G0 X42.715 Y-36.626 Z0.300
G1 X42.715 Y-36.626 Z-0.200 F100.000
G3 X42.665 Y-38.336 Z-0.200 I2.417 J-0.926 K0.000 F150.000
G3 X43.024 Y-38.741 Z-0.200 I0.768 J0.319 K0.000 F150.000
G3 X44.845 Y-39.201 Z-0.200 I1.590 J2.459 K0.000 F150.000
G3 X45.611 Y-39.149 Z-0.200 I0.140 J3.603 K0.000 F150.000
G3 X45.444 Y-38.487 Z-0.200 I-1.474 J-0.020 K0.000 F150.000
G3 X44.495 Y-38.633 Z-0.200 I2.545 J-19.751 K0.000 F150.000
G2 X44.020 Y-37.878 Z-0.200 I-0.014 J0.518 K0.000 F150.000
G2 X44.725 Y-37.688 Z-0.200 I0.579 J-0.743 K0.000 F150.000
G3 X45.760 Y-37.516 Z-0.200 I0.153 J2.285 K0.000 F150.000
G3 X45.779 Y-36.115 Z-0.200 I-0.488 J0.707 K0.000 F150.000
G3 X43.596 Y-35.817 Z-0.200 I-1.491 J-2.776 K0.000 F150.000
G3 X42.810 Y-36.409 Z-0.200 I0.253 J-1.155 K0.000 F150.000
G3 X42.715 Y-36.626 Z-0.200 I2.322 J-1.143 K0.000 F150.000
G0 Z0.500
G0 X42.790 Y-36.655 Z0.500
G0 X42.790 Y-36.655 Z0.300
G1 X42.790 Y-36.655 Z-0.200 F100.000
G3 X42.739 Y-38.304 Z-0.200 I2.342 J-0.898 K0.000 F150.000
G3 X43.066 Y-38.672 Z-0.200 I0.693 J0.286 K0.000 F150.000
G3 X44.844 Y-39.121 Z-0.200 I1.549 J2.390 K0.000 F150.000
G3 X45.529 Y-39.081 Z-0.200 I0.031 J5.407 K0.000 F150.000
G3 X45.387 Y-38.569 Z-0.200 I-1.137 J-0.041 K0.000 F150.000
G2 X44.382 Y-38.698 Z-0.200 I-0.890 J2.963 K0.000 F150.000
G2 X43.872 Y-38.000 Z-0.200 I0.131 J0.631 K0.000 F150.000
G2 X44.560 Y-37.618 Z-0.200 I0.595 J-0.261 K0.000 F150.000
G3 X45.617 Y-37.495 Z-0.200 I-0.180 J6.128 K0.000 F150.000
G3 X45.999 Y-37.028 Z-0.200 I-0.204 J0.558 K0.000 F150.000
G3 X45.572 Y-36.088 Z-0.200 I-0.657 J0.268 K0.000 F150.000
G3 X43.324 Y-36.009 Z-0.200 I-1.217 J-2.599 K0.000 F150.000
G3 X42.882 Y-36.445 Z-0.200 I0.445 J-0.893 K0.000 F150.000
G3 X42.790 Y-36.655 Z-0.200 I2.251 J-1.108 K0.000 F150.000
G0 Z0.500
G0 X42.865 Y-36.684 Z0.500
G0 X42.865 Y-36.684 Z0.300
G1 X42.865 Y-36.684 Z-0.200 F100.000
G3 X42.813 Y-38.272 Z-0.200 I2.268 J-0.870 K0.000 F150.000
G3 X43.107 Y-38.603 Z-0.200 I0.618 J0.253 K0.000 F150.000
G3 X44.843 Y-39.041 Z-0.200 I1.509 J2.322 K0.000 F150.000
G3 X45.447 Y-39.011 Z-0.200 I0.024 J5.516 K0.000 F150.000
G3 X45.345 Y-38.656 Z-0.200 I-1.312 J-0.185 K0.000 F150.000
G2 X44.473 Y-38.791 Z-0.200 I-1.014 J3.670 K0.000 F150.000
G2 X43.793 Y-37.986 Z-0.200 I0.060 J0.740 K0.000 F150.000
G2 X44.208 Y-37.591 Z-0.200 I0.526 J-0.137 K0.000 F150.000
G2 X43.864 Y-36.688 Z-0.200 I0.220 J0.601 K0.000 F150.000
G2 X44.518 Y-36.127 Z-0.200 I0.646 J-0.091 K0.000 F150.000
G2 X44.702 Y-37.529 Z-0.200 I-0.132 J-0.730 K0.000 F150.000
G3 X45.679 Y-37.377 Z-0.200 I0.162 J2.184 K0.000 F150.000
G3 X45.684 Y-36.245 Z-0.200 I-0.404 J0.568 K0.000 F150.000
G3 X43.360 Y-36.080 Z-0.200 I-1.347 J-2.535 K0.000 F150.000
G3 X42.954 Y-36.481 Z-0.200 I0.409 J-0.822 K0.000 F150.000
G3 X42.865 Y-36.684 Z-0.200 I2.179 J-1.073 K0.000 F150.000
G0 Z0.500
G0 X42.940 Y-36.712 Z0.500
G0 X42.940 Y-36.712 Z0.300
G1 X42.940 Y-36.712 Z-0.200 F100.000
G3 X42.887 Y-38.240 Z-0.200 I2.193 J-0.842 K0.000 F150.000
G3 X43.148 Y-38.535 Z-0.200 I0.542 J0.219 K0.000 F150.000
G3 X44.842 Y-38.961 Z-0.200 I1.468 J2.253 K0.000 F150.000
G3 X45.347 Y-38.940 Z-0.200 I0.034 J5.210 K0.000 F150.000
G3 X45.295 Y-38.746 Z-0.200 I-0.760 J-0.103 K0.000 F150.000
G2 X44.462 Y-38.870 Z-0.200 I-0.915 J3.277 K0.000 F150.000
G2 X43.785 Y-37.790 Z-0.200 I0.027 J0.769 K0.000 F150.000
G2 X44.010 Y-37.583 Z-0.200 I0.535 J-0.356 K0.000 F150.000
G2 X43.789 Y-36.659 Z-0.200 I0.446 J0.595 K0.000 F150.000
G2 X44.582 Y-36.054 Z-0.200 I0.708 J-0.105 K0.000 F150.000
G2 X44.949 Y-37.433 Z-0.200 I-0.190 J-0.789 K0.000 F150.000
G3 X45.638 Y-37.308 Z-0.200 I0.098 J1.417 K0.000 F150.000
G3 X45.637 Y-36.310 Z-0.200 I-0.361 J0.499 K0.000 F150.000
G3 X43.397 Y-36.152 Z-0.200 I-1.300 J-2.477 K0.000 F150.000
G3 X43.026 Y-36.517 Z-0.200 I0.373 J-0.751 K0.000 F150.000
G3 X42.940 Y-36.712 Z-0.200 I2.108 J-1.037 K0.000 F150.000
G0 Z0.500
G0 X43.017 Y-36.743 Z0.500
G0 X43.017 Y-36.743 Z0.300
G1 X43.017 Y-36.743 Z-0.200 F100.000
G3 X43.025 Y-38.327 Z-0.200 I1.926 J-0.781 K0.000 F150.000
G3 X43.629 Y-38.697 Z-0.200 I1.110 J1.137 K0.000 F150.000
G3 X44.097 Y-38.843 Z-0.200 I0.758 J1.598 K0.000 F150.000
G2 X43.710 Y-37.759 Z-0.200 I0.362 J0.740 K0.000 F150.000
G2 X43.884 Y-37.576 Z-0.200 I0.462 J-0.265 K0.000 F150.000
G2 X43.714 Y-36.630 Z-0.200 I0.573 J0.591 K0.000 F150.000
G2 X44.129 Y-36.065 Z-0.200 I0.853 J-0.191 K0.000 F150.000
G3 X43.169 Y-36.441 Z-0.200 I-0.105 J-1.146 K0.000 F150.000
G3 X43.017 Y-36.743 Z-0.200 I1.774 J-1.084 K0.000 F150.000
G0 Z0.500
G0 X43.090 Y-36.771 Z0.500
G0 X43.090 Y-36.771 Z0.300
G1 X43.090 Y-36.771 Z-0.200 F100.000
G3 X43.034 Y-38.177 Z-0.200 I2.046 J-0.785 K0.000 F150.000
G3 X43.231 Y-38.397 Z-0.200 I0.389 J0.149 K0.000 F150.000
G3 X43.765 Y-38.661 Z-0.200 I1.232 J1.825 K0.000 F150.000
G2 X43.771 Y-37.562 Z-0.200 I0.546 J0.546 K0.000 F150.000
G2 X43.716 Y-36.414 Z-0.200 I0.794 J0.614 K0.000 F150.000
G2 X43.872 Y-36.172 Z-0.200 I0.607 J-0.218 K0.000 F150.000
G3 X43.169 Y-36.589 Z-0.200 I0.024 J-0.840 K0.000 F150.000
G3 X43.090 Y-36.771 Z-0.200 I1.967 J-0.967 K0.000 F150.000
G0 Z0.500
G0 X43.165 Y-36.800 Z0.500
G0 X43.165 Y-36.800 Z0.300
G1 X43.165 Y-36.800 Z-0.200 F100.000
G3 X43.108 Y-38.145 Z-0.200 I1.973 J-0.757 K0.000 F150.000
G3 X43.552 Y-38.476 Z-0.200 I0.659 J0.422 K0.000 F150.000
G2 X43.666 Y-37.557 Z-0.200 I0.735 J0.376 K0.000 F150.000
G2 X43.691 Y-36.295 Z-0.200 I0.932 J0.613 K0.000 F150.000
G3 X43.241 Y-36.625 Z-0.200 I0.142 J-0.664 K0.000 F150.000
G3 X43.165 Y-36.800 Z-0.200 I1.897 J-0.932 K0.000 F150.000
G0 Z0.500
G0 X43.240 Y-36.829 Z0.500
G0 X43.240 Y-36.829 Z0.300
G1 X43.240 Y-36.829 Z-0.200 F100.000
G3 X43.182 Y-38.113 Z-0.200 I1.901 J-0.729 K0.000 F150.000
G3 X43.407 Y-38.309 Z-0.200 I0.376 J0.206 K0.000 F150.000
G2 X43.561 Y-37.568 Z-0.200 I0.838 J0.212 K0.000 F150.000
G2 X43.530 Y-36.447 Z-0.200 I1.015 J0.589 K0.000 F150.000
G3 X43.313 Y-36.662 Z-0.200 I0.232 J-0.452 K0.000 F150.000
G3 X43.240 Y-36.829 Z-0.200 I1.828 J-0.897 K0.000 F150.000
G0 Z0.500
G0 X43.321 Y-36.862 Z0.500
G0 X43.321 Y-36.862 Z0.300
G1 X43.321 Y-36.862 Z-0.200 F100.000
G3 X43.256 Y-38.082 Z-0.200 I1.763 J-0.706 K0.000 F150.000
G3 X43.320 Y-38.162 Z-0.200 I0.130 J0.038 K0.000 F150.000
G2 X43.456 Y-37.549 Z-0.200 I1.040 J0.091 K0.000 F150.000
G2 X43.337 Y-36.824 Z-0.200 I0.950 J0.528 K0.000 F150.000
G3 X43.321 Y-36.862 Z-0.200 I1.748 J-0.744 K0.000 F150.000
G0 Z0.500
G0 X43.287 Y-37.318 Z0.500
G0 X43.287 Y-37.318 Z0.300
G1 X43.287 Y-37.318 Z-0.200 F100.000
G3 X43.277 Y-37.780 Z-0.200 I1.551 J-0.264 K0.000 F150.000
G2 X43.372 Y-37.562 Z-0.200 I0.403 J-0.046 K0.000 F150.000
G2 X43.287 Y-37.318 Z-0.200 I0.705 J0.384 K0.000 F150.000
G0 Z0.500
G0 X43.315 Y-37.559 Z0.500
G0 X43.315 Y-37.559 Z0.300
G1 X43.315 Y-37.559 Z-0.200 F100.000
G1 X43.315 Y-37.560 Z-0.200 F150.000
G3 X43.315 Y-37.559 Z-0.200 I-0.000 J0.000 K0.000 F150.000
G0 Z0.500
G0 X43.930 Y-37.245 Z0.500
G0 X43.930 Y-37.245 Z0.300
G1 X43.930 Y-37.245 Z-0.200 F100.000
G3 X44.231 Y-37.515 Z-0.200 I0.500 J0.256 K0.000 F150.000
G3 X44.508 Y-36.206 Z-0.200 I0.133 J0.656 K0.000 F150.000
G3 X43.938 Y-36.717 Z-0.200 I0.004 J-0.578 K0.000 F150.000
G3 X43.930 Y-37.245 Z-0.200 I0.492 J-0.272 K0.000 F150.000
G0 Z0.500
G0 X44.001 Y-37.209 Z0.500
G0 X44.001 Y-37.209 Z0.300
G1 X44.001 Y-37.209 Z-0.200 F100.000
G3 X44.257 Y-37.439 Z-0.200 I0.430 J0.220 K0.000 F150.000
G3 X44.498 Y-36.286 Z-0.200 I0.106 J0.580 K0.000 F150.000
G3 X44.013 Y-36.746 Z-0.200 I0.018 J-0.505 K0.000 F150.000
G3 X44.001 Y-37.209 Z-0.200 I0.418 J-0.243 K0.000 F150.000
G0 Z0.500
G0 X44.074 Y-37.173 Z0.500
G0 X44.074 Y-37.173 Z0.300
G1 X44.074 Y-37.173 Z-0.200 F100.000
G3 X44.202 Y-37.327 Z-0.200 I0.381 J0.187 K0.000 F150.000
G3 X44.680 Y-37.257 Z-0.200 I0.193 J0.351 K0.000 F150.000
G3 X44.416 Y-36.371 Z-0.200 I-0.276 J0.400 K0.000 F150.000
G3 X44.087 Y-36.774 Z-0.200 I0.128 J-0.439 K0.000 F150.000
G3 X44.074 Y-37.173 Z-0.200 I0.367 J-0.212 K0.000 F150.000
G0 Z0.500
G0 X44.145 Y-37.138 Z0.500
G0 X44.145 Y-37.138 Z0.300
G1 X44.145 Y-37.138 Z-0.200 F100.000
G3 X44.250 Y-37.263 Z-0.200 I0.308 J0.152 K0.000 F150.000
G3 X44.721 Y-37.083 Z-0.200 I0.144 J0.331 K0.000 F150.000
G3 X44.438 Y-36.448 Z-0.200 I-0.306 J0.245 K0.000 F150.000
G3 X44.162 Y-36.803 Z-0.200 I0.109 J-0.370 K0.000 F150.000
G3 X44.145 Y-37.138 Z-0.200 I0.291 J-0.182 K0.000 F150.000
G0 Z0.500
G0 X45.123 Y-37.337 Z0.500
G0 X45.123 Y-37.337 Z0.300
G1 X45.123 Y-37.337 Z-0.200 F100.000
G3 X45.713 Y-37.099 Z-0.200 I0.117 J0.561 K0.000 F150.000
G3 X45.716 Y-36.481 Z-0.200 I-0.421 J0.312 K0.000 F150.000
G3 X44.957 Y-36.143 Z-0.200 I-0.902 J-1.008 K0.000 F150.000
G2 X45.123 Y-37.337 Z-0.200 I-0.598 J-0.692 K0.000 F150.000
G0 Z0.500
G0 X45.267 Y-37.244 Z0.500
G0 X45.267 Y-37.244 Z0.300
G1 X45.267 Y-37.244 Z-0.200 F100.000
G3 X45.692 Y-36.935 Z-0.200 I0.061 J0.363 K0.000 F150.000
G3 X45.435 Y-36.378 Z-0.200 I-0.361 J0.172 K0.000 F150.000
G3 X45.194 Y-36.289 Z-0.200 I-0.439 J-0.824 K0.000 F150.000
G2 X45.267 Y-37.244 Z-0.200 I-0.861 J-0.546 K0.000 F150.000
G0 Z0.500
G0 X45.389 Y-37.145 Z0.500
G0 X45.389 Y-37.145 Z0.300
G1 X45.389 Y-37.145 Z-0.200 F100.000
G3 X45.615 Y-36.912 Z-0.200 I-0.012 J0.238 K0.000 F150.000
G3 X45.401 Y-36.450 Z-0.200 I-0.288 J0.147 K0.000 F150.000
G1 X45.360 Y-36.433 Z-0.200 F150.000
G2 X45.389 Y-37.145 Z-0.200 I-1.080 J-0.400 K0.000 F150.000
G0 Z0.500
G0 X45.497 Y-36.990 Z0.500
G0 X45.497 Y-36.990 Z0.300
G1 X45.497 Y-36.990 Z-0.200 F100.000
G3 X45.483 Y-36.598 Z-0.200 I-0.185 J0.189 K0.000 F150.000
G2 X45.497 Y-36.990 Z-0.200 I-0.899 J-0.230 K0.000 F150.000
G0 Z0.500
G0 X45.236 Y-38.835 Z0.500
G0 X45.236 Y-38.835 Z0.300
G1 X45.236 Y-38.835 Z-0.200 F100.000
G3 X45.220 Y-38.840 Z-0.200 I-0.003 J-0.019 K0.000 F150.000
G1 X45.056 Y-38.874 Z-0.200 F150.000
G3 X45.248 Y-38.867 Z-0.200 I-0.000 J2.702 K0.000 F150.000
G3 X45.236 Y-38.835 Z-0.200 I-0.015 J0.012 K0.000 F150.000
G0 Z0.500
G0 Z0.500
G0 X45.236 Y-38.835
G0 X46.066 Y-40.323
G0 X46.066 Y-40.323 Z0.300
G1 X46.066 Y-40.323 Z-0.200 F100.000
G3 X45.413 Y-40.744 Z-0.200 I2.937 J-5.264 K0.000 F150.000
G1 X45.343 Y-40.760 Z-0.200 F150.000
G3 X34.033 Y-39.442 Z-0.200 I-18.643 J-110.744 K0.000 F150.000
G3 X22.489 Y-39.911 Z-0.200 I-3.148 J-64.799 K0.000 F150.000
G2 X16.906 Y-40.612 Z-0.200 I-21.651 J149.789 K0.000 F150.000
G2 X16.115 Y-40.451 Z-0.200 I-0.227 J0.909 K0.000 F150.000
G3 X13.894 Y-39.794 Z-0.200 I-2.285 J-3.640 K0.000 F150.000
G3 X10.489 Y-43.879 Z-0.200 I0.241 J-3.663 K0.000 F150.000
G3 X11.239 Y-45.702 Z-0.200 I4.705 J0.870 K0.000 F150.000
G1 X11.250 Y-45.763 Z-0.200 F150.000
G3 X10.506 Y-58.583 Z-0.200 I77.210 J-10.911 K0.000 F150.000
G3 X11.176 Y-65.975 Z-0.200 I80.924 J3.604 K0.000 F150.000
G2 X10.916 Y-67.060 Z-0.200 I-1.287 J-0.265 K0.000 F150.000
G3 X11.186 Y-70.899 Z-0.200 I2.930 J-1.722 K0.000 F150.000
G3 X14.166 Y-72.378 Z-0.200 I2.907 J2.116 K0.000 F150.000
G3 X16.338 Y-71.579 Z-0.200 I-0.547 J4.836 K0.000 F150.000
G2 X17.309 Y-71.595 Z-0.200 I0.441 J-2.681 K0.000 F150.000
G3 X28.987 Y-72.809 Z-0.200 I18.542 J121.655 K0.000 F150.000
G3 X40.921 Y-72.103 Z-0.200 I1.825 J70.440 K0.000 F150.000
G3 X45.317 Y-71.397 Z-0.200 I-9.971 J76.089 K0.000 F150.000
G1 X45.391 Y-71.412 Z-0.200 F150.000
G3 X47.693 Y-72.364 Z-0.200 I2.657 J3.168 K0.000 F150.000
G3 X51.140 Y-70.407 Z-0.200 I0.119 J3.805 K0.000 F150.000
G3 X50.825 Y-66.637 Z-0.200 I-3.335 J1.620 K0.000 F150.000
G2 X50.615 Y-65.890 Z-0.200 I0.723 J0.607 K0.000 F150.000
G3 X51.430 Y-59.466 Z-0.200 I-109.180 J17.121 K0.000 F150.000
G3 X51.472 Y-53.767 Z-0.200 I-34.560 J3.104 K0.000 F150.000
G3 X50.683 Y-46.840 Z-0.200 I-101.332 J-8.035 K0.000 F150.000
G2 X50.622 Y-45.958 Z-0.200 I3.056 J0.655 K0.000 F150.000
G2 X51.117 Y-45.061 Z-0.200 I3.780 J-1.500 K0.000 F150.000
G3 X51.033 Y-41.572 Z-0.200 I-3.313 J1.667 K0.000 F150.000
G3 X46.753 Y-39.995 Z-0.200 I-3.173 J-2.016 K0.000 F150.000
G3 X46.066 Y-40.323 Z-0.200 I2.250 J-5.592 K0.000 F150.000
G0 Z0.500
G0 X46.225 Y-40.598 Z0.500
G0 X46.225 Y-40.598 Z0.300
G1 X46.225 Y-40.598 Z-0.200 F100.000
G3 X45.592 Y-41.010 Z-0.200 I3.613 J-6.241 K0.000 F150.000
G2 X45.295 Y-41.077 Z-0.200 I-0.234 J0.348 K0.000 F150.000
G3 X34.016 Y-39.761 Z-0.200 I-18.596 J-110.438 K0.000 F150.000
G3 X22.526 Y-40.229 Z-0.200 I-3.130 J-64.481 K0.000 F150.000
G2 X16.929 Y-40.932 Z-0.200 I-21.502 J148.640 K0.000 F150.000
G2 X16.141 Y-40.850 Z-0.200 I-0.261 J1.323 K0.000 F150.000
G3 X13.902 Y-40.114 Z-0.200 I-2.343 J-3.357 K0.000 F150.000
G3 X10.804 Y-43.823 Z-0.200 I0.235 J-3.345 K0.000 F150.000
G3 X11.520 Y-45.548 Z-0.200 I4.411 J0.818 K0.000 F150.000
G2 X11.567 Y-45.805 Z-0.200 I-0.368 J-0.202 K0.000 F150.000
G3 X10.826 Y-58.572 Z-0.200 I76.897 J-10.869 K0.000 F150.000
G3 X11.493 Y-65.929 Z-0.200 I80.569 J3.589 K0.000 F150.000
G2 X11.199 Y-67.209 Z-0.200 I-1.618 J-0.302 K0.000 F150.000
G3 X11.444 Y-70.707 Z-0.200 I2.649 J-1.573 K0.000 F150.000
G3 X14.147 Y-72.058 Z-0.200 I2.651 J1.926 K0.000 F150.000
G3 X16.230 Y-71.278 Z-0.200 I-0.582 J4.724 K0.000 F150.000
G2 X17.662 Y-71.316 Z-0.200 I0.622 J-3.534 K0.000 F150.000
G3 X29.000 Y-72.489 Z-0.200 I17.872 J117.365 K0.000 F150.000
G3 X40.877 Y-71.786 Z-0.200 I1.812 J70.123 K0.000 F150.000
G3 X45.258 Y-71.082 Z-0.200 I-9.931 J75.799 K0.000 F150.000
G2 X45.570 Y-71.147 Z-0.200 I0.077 J-0.413 K0.000 F150.000
G3 X47.707 Y-72.043 Z-0.200 I2.482 J2.922 K0.000 F150.000
G3 X51.020 Y-69.860 Z-0.200 I0.131 J3.407 K0.000 F150.000
G3 X50.547 Y-66.796 Z-0.200 I-3.239 J1.069 K0.000 F150.000
G2 X50.298 Y-65.844 Z-0.200 I1.018 J0.775 K0.000 F150.000
G3 X51.111 Y-59.441 Z-0.200 I-108.915 J17.082 K0.000 F150.000
G3 X51.153 Y-53.788 Z-0.200 I-34.264 J3.080 K0.000 F150.000
G3 X50.366 Y-46.884 Z-0.200 I-101.038 J-8.016 K0.000 F150.000
G2 X50.324 Y-45.842 Z-0.200 I2.947 J0.641 K0.000 F150.000
G2 X50.832 Y-44.914 Z-0.200 I4.098 J-1.641 K0.000 F150.000
G3 X50.757 Y-41.735 Z-0.200 I-3.076 J1.518 K0.000 F150.000
G3 X46.542 Y-40.425 Z-0.200 I-2.867 J-1.789 K0.000 F150.000
G3 X46.225 Y-40.598 Z-0.200 I3.295 J-6.414 K0.000 F150.000
G0 Z0.500
G0 X46.265 Y-40.667 Z0.500
G0 X46.265 Y-40.667 Z0.300
G1 X46.265 Y-40.667 Z-0.200 F100.000
G3 X45.637 Y-41.076 Z-0.200 I3.574 J-6.177 K0.000 F150.000
G2 X45.284 Y-41.156 Z-0.200 I-0.279 J0.415 K0.000 F150.000
G3 X34.011 Y-39.841 Z-0.200 I-18.584 J-110.361 K0.000 F150.000
G3 X22.535 Y-40.308 Z-0.200 I-3.126 J-64.401 K0.000 F150.000
G2 X16.935 Y-41.011 Z-0.200 I-21.466 J148.363 K0.000 F150.000
G2 X16.097 Y-40.917 Z-0.200 I-0.268 J1.385 K0.000 F150.000
G3 X13.904 Y-40.195 Z-0.200 I-2.299 J-3.289 K0.000 F150.000
G3 X10.883 Y-43.809 Z-0.200 I0.234 J-3.265 K0.000 F150.000
G3 X11.590 Y-45.510 Z-0.200 I4.337 J0.805 K0.000 F150.000
G2 X11.647 Y-45.815 Z-0.200 I-0.439 J-0.240 K0.000 F150.000
G3 X10.906 Y-58.569 Z-0.200 I76.819 J-10.859 K0.000 F150.000
G3 X11.572 Y-65.918 Z-0.200 I80.481 J3.585 K0.000 F150.000
G2 X11.270 Y-67.246 Z-0.200 I-1.700 J-0.312 K0.000 F150.000
G3 X11.508 Y-70.660 Z-0.200 I2.579 J-1.536 K0.000 F150.000
G3 X14.143 Y-71.978 Z-0.200 I2.587 J1.879 K0.000 F150.000
G3 X16.204 Y-71.202 Z-0.200 I-0.591 J4.696 K0.000 F150.000
G2 X17.673 Y-71.237 Z-0.200 I0.652 J-3.589 K0.000 F150.000
G3 X29.003 Y-72.409 Z-0.200 I17.862 J117.293 K0.000 F150.000
G3 X40.866 Y-71.707 Z-0.200 I1.809 J70.044 K0.000 F150.000
G3 X45.244 Y-71.004 Z-0.200 I-9.921 J75.727 K0.000 F150.000
G2 X45.614 Y-71.081 Z-0.200 I0.092 J-0.492 K0.000 F150.000
G3 X47.711 Y-71.963 Z-0.200 I2.438 J2.861 K0.000 F150.000
G3 X50.944 Y-69.835 Z-0.200 I0.127 J3.326 K0.000 F150.000
G3 X50.478 Y-66.835 Z-0.200 I-3.166 J1.044 K0.000 F150.000
G2 X50.219 Y-65.833 Z-0.200 I1.089 J0.816 K0.000 F150.000
G3 X51.031 Y-59.435 Z-0.200 I-108.849 J17.072 K0.000 F150.000
G3 X51.073 Y-53.794 Z-0.200 I-34.190 J3.073 K0.000 F150.000
G3 X50.287 Y-46.895 Z-0.200 I-100.964 J-8.012 K0.000 F150.000
G2 X50.249 Y-45.813 Z-0.200 I2.969 J0.644 K0.000 F150.000
G2 X50.761 Y-44.877 Z-0.200 I4.174 J-1.674 K0.000 F150.000
G3 X50.688 Y-41.775 Z-0.200 I-3.004 J1.481 K0.000 F150.000
G3 X46.577 Y-40.497 Z-0.200 I-2.798 J-1.749 K0.000 F150.000
G3 X46.265 Y-40.667 Z-0.200 I3.262 J-6.348 K0.000 F150.000
G0 Z0.500
G0 X46.305 Y-40.737 Z0.500
G0 X46.305 Y-40.737 Z0.300
G1 X46.305 Y-40.737 Z-0.200 F100.000
G3 X45.681 Y-41.143 Z-0.200 I3.536 J-6.114 K0.000 F150.000
G2 X45.272 Y-41.235 Z-0.200 I-0.324 J0.481 K0.000 F150.000
G3 X34.007 Y-39.921 Z-0.200 I-18.572 J-110.285 K0.000 F150.000
G3 X22.545 Y-40.388 Z-0.200 I-3.122 J-64.321 K0.000 F150.000
G2 X16.941 Y-41.091 Z-0.200 I-21.430 J148.090 K0.000 F150.000
G2 X15.867 Y-40.863 Z-0.200 I-0.305 J1.202 K0.000 F150.000
G3 X13.906 Y-40.275 Z-0.200 I-2.036 J-3.226 K0.000 F150.000
G3 X10.962 Y-43.795 Z-0.200 I0.232 J-3.186 K0.000 F150.000
G3 X11.660 Y-45.471 Z-0.200 I4.263 J0.792 K0.000 F150.000
G2 X11.726 Y-45.826 Z-0.200 I-0.509 J-0.278 K0.000 F150.000
G3 X10.986 Y-58.566 Z-0.200 I76.740 J-10.848 K0.000 F150.000
G3 X11.651 Y-65.907 Z-0.200 I80.392 J3.581 K0.000 F150.000
G2 X11.341 Y-67.283 Z-0.200 I-1.781 J-0.322 K0.000 F150.000
G3 X11.572 Y-70.612 Z-0.200 I2.509 J-1.498 K0.000 F150.000
G3 X14.138 Y-71.898 Z-0.200 I2.524 J1.831 K0.000 F150.000
G3 X16.177 Y-71.127 Z-0.200 I-0.600 J4.668 K0.000 F150.000
G2 X17.684 Y-71.157 Z-0.200 I0.681 J-3.647 K0.000 F150.000
G3 X29.006 Y-72.329 Z-0.200 I17.852 J117.221 K0.000 F150.000
G3 X40.855 Y-71.628 Z-0.200 I1.806 J69.964 K0.000 F150.000
G3 X45.229 Y-70.925 Z-0.200 I-9.911 J75.655 K0.000 F150.000
G2 X45.659 Y-71.014 Z-0.200 I0.106 J-0.570 K0.000 F150.000
G3 X47.714 Y-71.883 Z-0.200 I2.394 J2.800 K0.000 F150.000
G3 X50.868 Y-69.810 Z-0.200 I0.124 J3.246 K0.000 F150.000
G3 X50.408 Y-66.875 Z-0.200 I-3.092 J1.019 K0.000 F150.000
G2 X50.140 Y-65.821 Z-0.200 I1.160 J0.856 K0.000 F150.000
G3 X50.951 Y-59.428 Z-0.200 I-108.783 J17.062 K0.000 F150.000
G3 X50.993 Y-53.799 Z-0.200 I-34.116 J3.067 K0.000 F150.000
G3 X50.207 Y-46.906 Z-0.200 I-100.891 J-8.007 K0.000 F150.000
