(Exported by FreeCAD)
(Post Processor: grbl_post)
(Output Time:2023-04-16 14:40:27.255017)
(Begin preamble)
G17 G90
G21
(Begin operation: G54)
(Path: G54)
G54
G0 Z5.000
(Finish operation: G54)
(Begin operation: ballend-012mm001)
(Path: ballend-012mm001)
(ballend-012mm001)
(Begin toolchange)
( M6 T5 )
M3 S10000
(Finish operation: ballend-012mm001)
(Begin operation: ENGRAVE 0.12MM)
(Path: ENGRAVE 0.12MM)
(ENGRAVE 0.12MM)
G0 Z0.300
G0 X16.341 Y-1.341
G0 Z0.200
G1 X16.341 Y-1.341 Z-0.200 F150.000
G3 X16.263 Y-1.277 Z-0.200 I-0.374 J-0.379 K0.000 F250.000
G2 X16.246 Y-2.172 Z-0.200 I-0.324 J-0.442 K0.000 F250.000
G3 X16.341 Y-1.341 Z-0.200 I-0.279 J0.453 K0.000 F250.000
G0 Z0.300
G0 X16.243 Y-1.263 Z0.300
G0 X16.243 Y-1.263 Z0.200
G1 X16.243 Y-1.263 Z-0.200 F150.000
G3 X15.532 Y-2.040 Z-0.200 I-0.286 J-0.452 K0.000 F250.000
G3 X15.804 Y-2.225 Z-0.200 I0.343 J0.214 K0.000 F250.000
G2 X16.123 Y-1.210 Z-0.200 I0.171 J0.504 K0.000 F250.000
G1 X16.243 Y-1.263 Z-0.200 F250.000
G0 Z0.300
G0 X16.227 Y-2.185 Z0.300
G0 X16.227 Y-2.185 Z0.200
G1 X16.227 Y-2.185 Z-0.200 F150.000
G2 X15.849 Y-2.233 Z-0.200 I-0.253 J0.479 K0.000 F250.000
G3 X16.183 Y-2.216 Z-0.200 I0.143 J0.471 K0.000 F250.000
G1 X16.227 Y-2.185 Z-0.200 F250.000
G0 Z0.300
G0 Z0.300
G0 X16.227 Y-2.185
G0 X16.845 Y-1.992
G0 X16.845 Y-1.992 Z0.200
G1 X16.845 Y-1.992 Z-0.200 F150.000
G3 X17.141 Y-2.234 Z-0.200 I0.331 J0.103 K0.000 F250.000
G2 X16.830 Y-1.804 Z-0.200 I0.093 J0.394 K0.000 F250.000
G1 X16.830 Y-1.195 Z-0.200 F250.000
G1 X16.818 Y-1.195 Z-0.200 F250.000
G3 X16.832 Y-1.931 Z-0.200 I3.396 J-0.301 K0.000 F250.000
G3 X16.845 Y-1.992 Z-0.200 I0.344 J0.042 K0.000 F250.000
G0 Z0.300
G0 X17.162 Y-2.238 Z0.300
G0 X17.162 Y-2.238 Z0.200
G1 X17.162 Y-2.238 Z-0.200 F150.000
G3 X17.483 Y-2.198 Z-0.200 I0.114 J0.393 K0.000 F250.000
G3 X17.691 Y-1.797 Z-0.200 I-0.232 J0.375 K0.000 F250.000
G1 X17.691 Y-1.195 Z-0.200 F250.000
G1 X17.679 Y-1.195 Z-0.200 F250.000
G2 X17.661 Y-1.948 Z-0.200 I-3.044 J-0.306 K0.000 F250.000
G2 X17.162 Y-2.238 Z-0.200 I-0.400 J0.115 K0.000 F250.000
G0 Z0.300
G0 Z0.300
G0 X17.162 Y-2.238
G0 X18.372 Y-2.243
G0 X18.372 Y-2.243 Z0.200
G1 X18.372 Y-2.243 Z-0.200 F150.000
G1 X18.384 Y-2.243 Z-0.200 F250.000
G1 X18.384 Y-1.260 Z-0.200 F250.000
G2 X18.444 Y-1.200 Z-0.200 I0.060 J-0.000 K0.000 F250.000
G1 X18.792 Y-1.200 Z-0.200 F250.000
G1 X18.792 Y-1.195 Z-0.200 F250.000
G1 X17.964 Y-1.195 Z-0.200 F250.000
G1 X17.964 Y-1.200 Z-0.200 F250.000
G1 X18.312 Y-1.200 Z-0.200 F250.000
G2 X18.372 Y-1.260 Z-0.200 I-0.000 J-0.060 K0.000 F250.000
G1 X18.372 Y-2.243 Z-0.200 F250.000
G0 Z0.300
G0 Z0.300
G0 X18.372 Y-2.243
G0 X30.066 Y-3.627
G0 X30.066 Y-3.627 Z0.200
G1 X30.066 Y-3.627 Z-0.200 F150.000
G3 X30.101 Y-3.821 Z-0.200 I0.334 J-0.040 K0.000 F250.000
G3 X30.525 Y-3.943 Z-0.200 I0.281 J0.181 K0.000 F250.000
G2 X30.247 Y-3.379 Z-0.200 I-0.138 J0.283 K0.000 F250.000
G2 X30.687 Y-3.814 Z-0.200 I0.154 J-0.284 K0.000 F250.000
G2 X30.757 Y-3.878 Z-0.200 I0.015 J-0.054 K0.000 F250.000
G2 X30.557 Y-4.359 Z-0.200 I-0.508 J-0.072 K0.000 F250.000
G2 X30.118 Y-4.247 Z-0.200 I-0.165 J0.270 K0.000 F250.000
G3 X30.586 Y-4.359 Z-0.200 I0.278 J0.127 K0.000 F250.000
G3 X30.600 Y-3.395 Z-0.200 I-0.565 J0.490 K0.000 F250.000
G3 X30.066 Y-3.627 Z-0.200 I-0.200 J-0.271 K0.000 F250.000
G0 Z0.300
G0 Z0.300
G0 X30.066 Y-3.627
G0 X31.000 Y-3.351
G0 X31.000 Y-3.351 Z0.200
G1 X31.000 Y-3.351 Z-0.200 F150.000
G1 X31.424 Y-4.399 Z-0.200 F250.000
G1 X31.495 Y-4.399 Z-0.200 F250.000
G1 X31.919 Y-3.351 Z-0.200 F250.000
G1 X31.904 Y-3.351 Z-0.200 F250.000
G1 X31.515 Y-4.331 Z-0.200 F250.000
G2 X31.403 Y-4.331 Z-0.200 I-0.056 J0.022 K0.000 F250.000
G1 X31.015 Y-3.351 Z-0.200 F250.000
G1 X31.000 Y-3.351 Z-0.200 F250.000
G0 Z0.300
G0 Z0.300
G0 X31.000 Y-3.351
G0 X44.239 Y-2.243
G0 X44.239 Y-2.243 Z0.200
G1 X44.239 Y-2.243 Z-0.200 F150.000
G1 X44.251 Y-2.243 Z-0.200 F250.000
G1 X44.251 Y-1.195 Z-0.200 F250.000
G1 X44.239 Y-1.195 Z-0.200 F250.000
G1 X44.239 Y-2.243 Z-0.200 F250.000
G0 Z0.300
G0 Z0.300
G0 X44.239 Y-2.243
G0 X44.657
G0 X44.657 Z0.200
G1 X44.657 Y-2.243 Z-0.200 F150.000
G1 X44.669 Y-2.243 Z-0.200 F250.000
G1 X44.669 Y-1.317 Z-0.200 F250.000
G2 X44.777 Y-1.281 Z-0.200 I0.060 J-0.000 K0.000 F250.000
G1 X45.481 Y-2.243 Z-0.200 F250.000
G1 X45.544 Y-2.243 Z-0.200 F250.000
G1 X45.544 Y-1.195 Z-0.200 F250.000
G1 X45.532 Y-1.195 Z-0.200 F250.000
G1 X45.532 Y-2.117 Z-0.200 F250.000
G2 X45.423 Y-2.153 Z-0.200 I-0.060 J-0.000 K0.000 F250.000
G1 X44.719 Y-1.195 Z-0.200 F250.000
G1 X44.657 Y-1.195 Z-0.200 F250.000
G1 X44.657 Y-2.243 Z-0.200 F250.000
G0 Z0.300
G0 X45.487 Y-2.201 Z0.300
G0 X45.487 Y-2.201 Z0.200
G1 X45.487 Y-2.201 Z-0.200 F150.000
G3 X45.514 Y-2.213 Z-0.200 I0.018 J0.004 K0.000 F250.000
G1 X45.514 Y-2.190 Z-0.200 F250.000
G1 X45.487 Y-2.201 Z-0.200 F250.000
G0 Z0.300
G0 X44.711 Y-1.234 Z0.300
G0 X44.711 Y-1.234 Z0.200
G1 X44.711 Y-1.234 Z-0.200 F150.000
G3 X44.687 Y-1.225 Z-0.200 I-0.016 J-0.004 K0.000 F250.000
G1 X44.687 Y-1.244 Z-0.200 F250.000
G1 X44.711 Y-1.234 Z-0.200 F250.000
G0 Z0.300
G0 Z0.300
(Finish operation: ENGRAVE 0.12MM)
(Begin operation: ballend-015mm003)
(Path: ballend-015mm003)
(ballend-015mm003)
(Begin toolchange)
( M6 T4 )
M3 S10000
(Finish operation: ballend-015mm003)
(Begin operation: ENGRAVE 0.15MM)
(Path: ENGRAVE 0.15MM)
(ENGRAVE 0.15MM)
G0 Z0.300
G0 X27.290 Y-1.346
G0 Z0.200
G1 X27.290 Y-1.346 Z-0.200 F150.000
G1 X27.247 Y-1.346 Z-0.200 F250.000
G2 X27.225 Y-1.674 Z-0.200 I-0.407 J-0.138 K0.000 F250.000
G2 X26.895 Y-1.696 Z-0.200 I-0.191 J0.387 K0.000 F250.000
G1 X26.895 Y-1.740 Z-0.200 F250.000
G2 X27.225 Y-1.762 Z-0.200 I0.138 J-0.409 K0.000 F250.000
G2 X27.247 Y-2.092 Z-0.200 I-0.387 J-0.191 K0.000 F250.000
G1 X27.290 Y-2.092 Z-0.200 F250.000
G2 X27.312 Y-1.762 Z-0.200 I0.409 J0.138 K0.000 F250.000
G2 X27.641 Y-1.740 Z-0.200 I0.191 J-0.385 K0.000 F250.000
G1 X27.641 Y-1.696 Z-0.200 F250.000
G2 X27.312 Y-1.674 Z-0.200 I-0.138 J0.407 K0.000 F250.000
G2 X27.290 Y-1.346 Z-0.200 I0.385 J0.191 K0.000 F250.000
G0 Z0.300
G0 X27.272 Y-1.710 Z0.300
G0 X27.272 Y-1.710 Z0.200
G1 X27.272 Y-1.710 Z-0.200 F150.000
G3 X27.266 Y-1.726 Z-0.200 I-0.003 J-0.008 K0.000 F250.000
G3 X27.272 Y-1.710 Z-0.200 I0.003 J0.008 K0.000 F250.000
G0 Z0.300
G0 Z0.300
G0 X27.272 Y-1.710
G0 X27.709 Y-1.059
G0 X27.709 Y-1.059 Z0.200
G1 X27.709 Y-1.059 Z-0.200 F150.000
G3 X26.697 Y-2.276 Z-0.200 I-0.444 J-0.660 K0.000 F250.000
G3 X27.822 Y-2.287 Z-0.200 I0.569 J0.557 K0.000 F250.000
G3 X27.833 Y-1.162 Z-0.200 I-0.557 J0.568 K0.000 F250.000
G3 X27.709 Y-1.059 Z-0.200 I-0.568 J-0.557 K0.000 F250.000
G0 Z0.300
G0 X27.726 Y-1.034 Z0.300
G0 X27.726 Y-1.034 Z0.200
G1 X27.726 Y-1.034 Z-0.200 F150.000
G3 X26.460 Y-1.902 Z-0.200 I-0.461 J-0.685 K0.000 F250.000
G3 X27.553 Y-2.492 Z-0.200 I0.804 J0.183 K0.000 F250.000
G3 X28.088 Y-1.787 Z-0.200 I-0.292 J0.778 K0.000 F250.000
G2 X28.161 Y-1.733 Z-0.200 I0.072 J-0.021 K0.000 F250.000
G1 X30.276 Y-1.733 Z-0.200 F250.000
G2 X30.384 Y-1.961 Z-0.200 I-0.086 J-0.180 K0.000 F250.000
G3 X31.588 Y-2.429 Z-0.200 I0.786 J0.239 K0.000 F250.000
G1 X31.588 Y-2.382 Z-0.200 F250.000
G2 X30.619 Y-1.147 Z-0.200 I-0.424 J0.664 K0.000 F250.000
G2 X31.588 Y-1.056 Z-0.200 I0.539 J-0.536 K0.000 F250.000
G1 X31.588 Y-1.011 Z-0.200 F250.000
G3 X30.351 Y-1.645 Z-0.200 I-0.419 J-0.706 K0.000 F250.000
G2 X30.277 Y-1.705 Z-0.200 I-0.074 J0.015 K0.000 F250.000
G1 X28.162 Y-1.705 Z-0.200 F250.000
G2 X28.060 Y-1.495 Z-0.200 I0.076 J0.167 K0.000 F250.000
G3 X27.726 Y-1.034 Z-0.200 I-0.795 J-0.224 K0.000 F250.000
G0 Z0.300
G0 X28.096 Y-1.715 Z0.300
G0 X28.096 Y-1.715 Z0.200
G1 X28.096 Y-1.715 Z-0.200 F150.000
G1 X28.096 Y-1.722 Z-0.200 F250.000
G1 X28.100 Y-1.717 Z-0.200 F250.000
G1 X28.096 Y-1.715 Z-0.200 F250.000
G0 Z0.300
G0 Z0.300
G0 X28.096 Y-1.715
G0 X34.353
G0 X34.353 Z0.200
G1 X34.353 Y-1.715 Z-0.200 F150.000
G1 X34.353 Y-1.744 Z-0.200 F250.000
G1 X35.208 Y-1.744 Z-0.200 F250.000
G1 X35.208 Y-1.694 Z-0.200 F250.000
G1 X34.353 Y-1.694 Z-0.200 F250.000
G1 X34.353 Y-1.715 Z-0.200 F250.000
G0 Z0.300
G0 Z0.300
G0 X34.353 Y-1.715
G0 X33.913 Y-1.650
G0 X33.913 Y-1.650 Z0.200
G1 X33.913 Y-1.650 Z-0.200 F150.000
G2 X33.841 Y-1.705 Z-0.200 I-0.072 J0.021 K0.000 F250.000
G1 X31.654 Y-1.705 Z-0.200 F250.000
G2 X31.517 Y-1.490 Z-0.200 I0.090 J0.209 K0.000 F250.000
G3 X30.788 Y-1.869 Z-0.200 I-0.344 J-0.229 K0.000 F250.000
G3 X31.583 Y-1.783 Z-0.200 I0.386 J0.152 K0.000 F250.000
G2 X31.654 Y-1.733 Z-0.200 I0.071 J-0.024 K0.000 F250.000
G1 X33.840 Y-1.733 Z-0.200 F250.000
G2 X33.912 Y-1.787 Z-0.200 I0.000 J-0.075 K0.000 F250.000
G3 X35.046 Y-2.484 Z-0.200 I0.824 J0.070 K0.000 F250.000
G3 X34.448 Y-0.946 Z-0.200 I-0.310 J0.765 K0.000 F250.000
G3 X33.913 Y-1.650 Z-0.200 I0.293 J-0.778 K0.000 F250.000
G0 Z0.300
G0 X33.944 Y-1.653 Z0.300
G0 X33.944 Y-1.653 Z0.200
G1 X33.944 Y-1.653 Z-0.200 F150.000
G3 X34.729 Y-2.515 Z-0.200 I0.793 J-0.066 K0.000 F250.000
G3 X34.751 Y-0.924 Z-0.200 I0.008 J0.796 K0.000 F250.000
G3 X33.944 Y-1.653 Z-0.200 I-0.013 J-0.796 K0.000 F250.000
G0 Z0.300
G0 X31.559 Y-1.720 Z0.300
G0 X31.559 Y-1.720 Z0.200
G1 X31.559 Y-1.720 Z-0.200 F150.000
G3 X31.529 Y-1.680 Z-0.200 I-0.043 J-0.001 K0.000 F250.000
G3 X30.820 Y-1.719 Z-0.200 I-0.353 J-0.041 K0.000 F250.000
G3 X31.397 Y-1.992 Z-0.200 I0.353 J0.001 K0.000 F250.000
G3 X31.526 Y-1.764 Z-0.200 I-0.257 J0.297 K0.000 F250.000
G3 X31.559 Y-1.720 Z-0.200 I-0.010 J0.042 K0.000 F250.000
G0 Z0.300
G0 X31.470 Y-1.721 Z0.300
G0 X31.470 Y-1.721 Z0.200
G1 X31.470 Y-1.721 Z-0.200 F150.000
G3 X30.901 Y-1.615 Z-0.200 I-0.295 J-0.002 K0.000 F250.000
G3 X31.356 Y-1.946 Z-0.200 I0.273 J-0.104 K0.000 F250.000
G3 X31.470 Y-1.744 Z-0.200 I-0.228 J0.260 K0.000 F250.000
G3 X31.470 Y-1.721 Z-0.200 I-0.294 J0.021 K0.000 F250.000
G0 Z0.300
G0 X31.287 Y-1.719 Z0.300
G0 X31.287 Y-1.719 Z0.200
G1 X31.287 Y-1.719 Z-0.200 F150.000
G3 X31.197 Y-1.612 Z-0.200 I-0.108 J0.001 K0.000 F250.000
G3 X31.137 Y-1.820 Z-0.200 I-0.023 J-0.106 K0.000 F250.000
G1 X31.170 Y-1.826 Z-0.200 F250.000
G3 X31.287 Y-1.719 Z-0.200 I0.008 J0.108 K0.000 F250.000
G0 Z0.300
G0 X31.222 Y-1.719 Z0.300
G0 X31.222 Y-1.719 Z0.200
G1 X31.222 Y-1.719 Z-0.200 F150.000
G3 X31.208 Y-1.686 Z-0.200 I-0.047 J0.000 K0.000 F250.000
G3 X31.138 Y-1.749 Z-0.200 I-0.034 J-0.032 K0.000 F250.000
G3 X31.170 Y-1.765 Z-0.200 I0.036 J0.029 K0.000 F250.000
G3 X31.222 Y-1.719 Z-0.200 I0.005 J0.046 K0.000 F250.000
G0 Z0.300
G0 X31.178 Y-1.712 Z0.300
G0 X31.178 Y-1.712 Z0.200
G1 X31.178 Y-1.712 Z-0.200 F150.000
G3 X31.166 Y-1.722 Z-0.200 I-0.005 J-0.006 K0.000 F250.000
G1 X31.173 Y-1.727 Z-0.200 F250.000
G3 X31.178 Y-1.712 Z-0.200 I0.001 J0.008 K0.000 F250.000
G0 Z0.300
G0 X31.216 Y-1.554 Z0.300
G0 X31.216 Y-1.554 Z0.200
G1 X31.216 Y-1.554 Z-0.200 F150.000
G3 X31.114 Y-1.877 Z-0.200 I-0.042 J-0.164 K0.000 F250.000
G1 X31.171 Y-1.888 Z-0.200 F250.000
G3 X31.216 Y-1.554 Z-0.200 I0.011 J0.168 K0.000 F250.000
G0 Z0.300
G0 X31.235 Y-1.496 Z0.300
G0 X31.235 Y-1.496 Z0.200
G1 X31.235 Y-1.496 Z-0.200 F150.000
G3 X31.091 Y-1.933 Z-0.200 I-0.062 J-0.222 K0.000 F250.000
G1 X31.171 Y-1.949 Z-0.200 F250.000
G3 X31.235 Y-1.496 Z-0.200 I0.012 J0.229 K0.000 F250.000
G0 Z0.300
G0 Z0.300
(Finish operation: ENGRAVE 0.15MM)
(Begin operation: ballend-020mm001)
(Path: ballend-020mm001)
(ballend-020mm001)
(Begin toolchange)
( M6 T3 )
M3 S10000
(Finish operation: ballend-020mm001)
(Begin operation: ENGRAVE 0.20MM)
(Path: ENGRAVE 0.20MM)
(ENGRAVE 0.20MM)
G0 Z0.300
G0 X9.046 Y-24.259
G0 Z0.200
G1 X9.046 Y-24.259 Z-0.200 F150.000
G1 X8.934 Y-24.259 Z-0.200 F250.000
G1 X8.934 Y-24.904 Z-0.200 F250.000
G2 X8.834 Y-25.004 Z-0.200 I-0.100 J-0.000 K0.000 F250.000
G1 X8.509 Y-25.004 Z-0.200 F250.000
G1 X8.509 Y-25.079 Z-0.200 F250.000
G1 X8.834 Y-25.079 Z-0.200 F250.000
G2 X8.934 Y-25.179 Z-0.200 I0.000 J-0.100 K0.000 F250.000
G1 X8.934 Y-26.885 Z-0.200 F250.000
G1 X9.046 Y-26.885 Z-0.200 F250.000
G1 X9.046 Y-25.179 Z-0.200 F250.000
G2 X9.146 Y-25.079 Z-0.200 I0.100 J0.000 K0.000 F250.000
G1 X9.525 Y-25.079 Z-0.200 F250.000
G1 X9.525 Y-25.004 Z-0.200 F250.000
G1 X9.146 Y-25.004 Z-0.200 F250.000
G2 X9.046 Y-24.904 Z-0.200 I-0.000 J0.100 K0.000 F250.000
G1 X9.046 Y-24.259 Z-0.200 F250.000
G0 Z0.300
G0 X8.995 Y-24.961 Z0.300
G0 X8.995 Y-24.961 Z0.200
G1 X8.995 Y-24.961 Z-0.200 F150.000
G2 X8.936 Y-25.032 Z-0.200 I-0.065 J-0.006 K0.000 F250.000
G2 X8.984 Y-25.121 Z-0.200 I-0.020 J-0.069 K0.000 F250.000
G2 X9.044 Y-25.051 Z-0.200 I0.065 J0.006 K0.000 F250.000
G2 X8.995 Y-24.961 Z-0.200 I0.020 J0.069 K0.000 F250.000
G0 Z0.300
G0 Z0.300
G0 X8.995 Y-24.961
G0 X10.032 Y-25.476
G0 X10.032 Y-25.476 Z0.200
G1 X10.032 Y-25.476 Z-0.200 F150.000
G3 X9.938 Y-25.943 Z-0.200 I0.830 J-0.412 K0.000 F250.000
G3 X11.366 Y-26.791 Z-0.200 I0.931 J-0.059 K0.000 F250.000
G3 X11.163 Y-25.011 Z-0.200 I-0.584 J0.835 K0.000 F250.000
G3 X10.032 Y-25.476 Z-0.200 I-0.300 J-0.876 K0.000 F250.000
G0 Z0.300
G0 X10.089 Y-25.503 Z0.300
G0 X10.089 Y-25.503 Z0.200
G1 X10.089 Y-25.503 Z-0.200 F150.000
G3 X10.230 Y-26.606 Z-0.200 I0.917 J-0.443 K0.000 F250.000
G2 X10.247 Y-25.268 Z-0.200 I0.827 J0.659 K0.000 F250.000
G3 X10.089 Y-25.503 Z-0.200 I0.760 J-0.678 K0.000 F250.000
G0 Z0.300
G0 X10.144 Y-25.530 Z0.300
G0 X10.144 Y-25.530 Z0.200
G1 X10.144 Y-25.530 Z-0.200 F150.000
G3 X10.499 Y-26.755 Z-0.200 I0.862 J-0.414 K0.000 F250.000
G3 X11.689 Y-25.955 Z-0.200 I0.369 J0.736 K0.000 F250.000
G3 X10.475 Y-25.148 Z-0.200 I-0.820 J0.083 K0.000 F250.000
G3 X10.144 Y-25.530 Z-0.200 I0.531 J-0.795 K0.000 F250.000
G0 Z0.300
G0 X11.496 Y-25.271 Z0.300
G0 X11.496 Y-25.271 Z0.200
G1 X11.496 Y-25.271 Z-0.200 F150.000
G2 X11.493 Y-26.620 Z-0.200 I-0.809 J-0.673 K0.000 F250.000
G3 X11.496 Y-25.271 Z-0.200 I-0.757 J0.676 K0.000 F250.000
G0 Z0.300
G0 Z0.300
G0 X11.496 Y-25.271
G0 X12.414
G0 X12.414 Z0.200
G1 X12.414 Y-25.271 Z-0.200 F150.000
G1 X12.414 Y-26.885 Z-0.200 F250.000
G1 X12.526 Y-26.885 Z-0.200 F250.000
G1 X12.527 Y-25.775 Z-0.200 F250.000
G2 X13.912 Y-25.567 Z-0.200 I0.706 J0.015 K0.000 F250.000
G1 X13.937 Y-25.782 Z-0.200 F250.000
G1 X13.937 Y-26.885 Z-0.200 F250.000
G1 X14.050 Y-26.885 Z-0.200 F250.000
G1 X14.050 Y-25.780 Z-0.200 F250.000
G3 X12.700 Y-25.295 Z-0.200 I-0.737 J0.069 K0.000 F250.000
G2 X12.526 Y-25.228 Z-0.200 I-0.074 J0.067 K0.000 F250.000
G1 X12.526 Y-25.004 Z-0.200 F250.000
G1 X12.414 Y-25.004 Z-0.200 F250.000
G1 X12.414 Y-25.271 Z-0.200 F250.000
G0 Z0.300
G0 X12.494 Y-25.340 Z0.300
G0 X12.494 Y-25.340 Z0.200
G1 X12.494 Y-25.340 Z-0.200 F150.000
G1 X12.494 Y-25.512 Z-0.200 F250.000
G1 X12.549 Y-25.389 Z-0.200 F250.000
G1 X12.494 Y-25.340 Z-0.200 F250.000
G0 Z0.300
G0 Z0.300
G0 X12.494 Y-25.340
G0 X14.650 Y-25.778
G0 X14.650 Y-25.778 Z0.200
G1 X14.650 Y-25.778 Z-0.200 F150.000
G3 X16.139 Y-26.761 Z-0.200 I0.942 J-0.192 K0.000 F250.000
G3 X16.373 Y-26.486 Z-0.200 I-0.357 J0.542 K0.000 F250.000
G1 X16.256 Y-26.486 Z-0.200 F250.000
G2 X14.774 Y-26.022 Z-0.200 I-0.671 J0.457 K0.000 F250.000
G1 X14.862 Y-25.970 Z-0.200 F250.000
G1 X16.506 Y-25.970 Z-0.200 F250.000
G3 X14.658 Y-25.745 Z-0.200 I-0.930 J0.066 K0.000 F250.000
G3 X14.650 Y-25.778 Z-0.200 I0.935 J-0.225 K0.000 F250.000
G0 Z0.300
G0 X14.766 Y-25.778 Z0.300
G0 X14.766 Y-25.778 Z0.200
G1 X14.766 Y-25.778 Z-0.200 F150.000
G3 X14.866 Y-25.878 Z-0.200 I0.100 J-0.000 K0.000 F250.000
G1 X16.281 Y-25.878 Z-0.200 F250.000
G1 X16.367 Y-25.830 Z-0.200 F250.000
G3 X14.771 Y-25.747 Z-0.200 I-0.801 J-0.014 K0.000 F250.000
G3 X14.766 Y-25.778 Z-0.200 I0.095 J-0.031 K0.000 F250.000
G0 Z0.300
G0 X14.727 Y-25.878 Z0.300
G0 X14.727 Y-25.878 Z0.200
G1 X14.727 Y-25.878 Z-0.200 F150.000
G3 X14.725 Y-25.967 Z-0.200 I0.212 J-0.049 K0.000 F250.000
G3 X14.727 Y-25.878 Z-0.200 I-0.012 J0.045 K0.000 F250.000
G0 Z0.300
G0 X16.411 Y-25.890 Z0.300
G0 X16.411 Y-25.890 Z0.200
G1 X16.411 Y-25.890 Z-0.200 F150.000
G1 X16.418 Y-25.890 Z-0.200 F250.000
G1 X16.417 Y-25.883 Z-0.200 F250.000
G1 X16.411 Y-25.890 Z-0.200 F250.000
G0 Z0.300
G0 Z0.300
G0 X16.411 Y-25.890
G0 X45.694
G0 X45.694 Z0.200
G1 X45.694 Y-25.890 Z-0.200 F150.000
G1 X45.694 Y-26.885 Z-0.200 F250.000
G1 X45.806 Y-26.885 Z-0.200 F250.000
G1 X45.806 Y-24.171 Z-0.200 F250.000
G1 X45.694 Y-24.171 Z-0.200 F250.000
G1 X45.694 Y-25.890 Z-0.200 F250.000
G0 Z0.300
G0 X45.744 Z0.300
G0 X45.744 Z0.200
G1 X45.744 Y-25.890 Z-0.200 F150.000
G1 X45.744 Y-26.835 Z-0.200 F250.000
G1 X45.756 Y-26.835 Z-0.200 F250.000
G1 X45.756 Y-24.221 Z-0.200 F250.000
G1 X45.744 Y-24.221 Z-0.200 F250.000
G1 X45.744 Y-25.890 Z-0.200 F250.000
G0 Z0.300
G0 Z0.300
G0 X45.744 Y-25.890
G0 X46.407 Y-25.920
G0 X46.407 Y-25.920 Z0.200
G1 X46.407 Y-25.920 Z-0.200 F150.000
G3 X47.917 Y-26.761 Z-0.200 I0.965 J-0.044 K0.000 F250.000
G3 X48.147 Y-26.486 Z-0.200 I-0.358 J0.535 K0.000 F250.000
G3 X47.982 Y-26.559 Z-0.200 I-0.058 J-0.093 K0.000 F250.000
G2 X46.551 Y-26.022 Z-0.200 I-0.617 J0.530 K0.000 F250.000
G1 X46.638 Y-25.970 Z-0.200 F250.000
G1 X48.283 Y-25.970 Z-0.200 F250.000
G3 X46.446 Y-25.688 Z-0.200 I-0.929 J0.073 K0.000 F250.000
G3 X46.407 Y-25.920 Z-0.200 I0.926 J-0.275 K0.000 F250.000
G0 Z0.300
G0 X46.499 Y-25.924 Z0.300
G0 X46.499 Y-25.924 Z0.200
G1 X46.499 Y-25.924 Z-0.200 F150.000
G3 X46.502 Y-25.966 Z-0.200 I0.188 J-0.008 K0.000 F250.000
G3 X46.506 Y-25.881 Z-0.200 I-0.011 J0.043 K0.000 F250.000
G3 X46.499 Y-25.924 Z-0.200 I0.181 J-0.051 K0.000 F250.000
G0 Z0.300
G0 X46.572 Y-25.849 Z0.300
G0 X46.572 Y-25.849 Z0.200
G1 X46.572 Y-25.849 Z-0.200 F150.000
G3 X46.643 Y-25.878 Z-0.200 I0.070 J0.071 K0.000 F250.000
G1 X48.058 Y-25.878 Z-0.200 F250.000
G1 X48.144 Y-25.830 Z-0.200 F250.000
G3 X46.548 Y-25.747 Z-0.200 I-0.801 J-0.014 K0.000 F250.000
G3 X46.572 Y-25.849 Z-0.200 I0.095 J-0.031 K0.000 F250.000
G0 Z0.300
G0 X48.188 Y-25.890 Z0.300
G0 X48.188 Y-25.890 Z0.200
G1 X48.188 Y-25.890 Z-0.200 F150.000
G1 X48.195 Y-25.890 Z-0.200 F250.000
G1 X48.194 Y-25.883 Z-0.200 F250.000
G1 X48.188 Y-25.890 Z-0.200 F250.000
G0 Z0.300
G0 Z0.300
G0 X48.188 Y-25.890
G0 X48.900 Y-25.611
G0 X48.900 Y-25.611 Z0.200
G1 X48.900 Y-25.611 Z-0.200 F150.000
G1 X49.400 Y-26.885 Z-0.200 F250.000
G1 X49.630 Y-26.885 Z-0.200 F250.000
G1 X50.363 Y-25.004 Z-0.200 F250.000
G1 X50.238 Y-25.004 Z-0.200 F250.000
G1 X49.608 Y-26.687 Z-0.200 F250.000
G2 X49.421 Y-26.687 Z-0.200 I-0.094 J0.035 K0.000 F250.000
G1 X48.788 Y-25.004 Z-0.200 F250.000
G1 X48.663 Y-25.004 Z-0.200 F250.000
G1 X48.900 Y-25.611 Z-0.200 F250.000
G0 Z0.300
G0 X48.947 Y-25.592 Z0.300
G0 X48.947 Y-25.592 Z0.200
G1 X48.947 Y-25.592 Z-0.200 F150.000
G1 X49.168 Y-26.157 Z-0.200 F250.000
G1 X48.753 Y-25.054 Z-0.200 F250.000
G1 X48.736 Y-25.054 Z-0.200 F250.000
G1 X48.947 Y-25.592 Z-0.200 F250.000
G0 Z0.300
G0 X49.933 Y-25.961 Z0.300
G0 X49.933 Y-25.961 Z0.200
G1 X49.933 Y-25.961 Z-0.200 F150.000
G1 X49.858 Y-26.162 Z-0.200 F250.000
G1 X50.290 Y-25.054 Z-0.200 F250.000
G1 X50.273 Y-25.054 Z-0.200 F250.000
G1 X49.933 Y-25.961 Z-0.200 F250.000
G0 Z0.300
G0 X49.639 Y-26.723 Z0.300
G0 X49.639 Y-26.723 Z0.200
G1 X49.639 Y-26.723 Z-0.200 F150.000
G2 X49.387 Y-26.716 Z-0.200 I-0.125 J0.058 K0.000 F250.000
G1 X49.434 Y-26.835 Z-0.200 F250.000
G1 X49.596 Y-26.835 Z-0.200 F250.000
G1 X49.639 Y-26.723 Z-0.200 F250.000
G0 Z0.300
G0 Z0.300
G0 X49.639 Y-26.723
G0 X50.780 Y-26.303
G0 X50.780 Y-26.303 Z0.200
G1 X50.780 Y-26.303 Z-0.200 F150.000
G3 X52.228 Y-26.761 Z-0.200 I0.902 J0.333 K0.000 F250.000
G3 X52.463 Y-26.486 Z-0.200 I-0.357 J0.541 K0.000 F250.000
G3 X52.294 Y-26.559 Z-0.200 I-0.059 J-0.094 K0.000 F250.000
G2 X50.866 Y-26.017 Z-0.200 I-0.617 J0.528 K0.000 F250.000
G1 X50.951 Y-25.970 Z-0.200 F250.000
G1 X52.595 Y-25.970 Z-0.200 F250.000
G3 X50.748 Y-25.743 Z-0.200 I-0.930 J0.066 K0.000 F250.000
G3 X50.780 Y-26.303 Z-0.200 I0.935 J-0.227 K0.000 F250.000
G0 Z0.300
G0 X50.814 Y-25.966 Z0.300
G0 X50.814 Y-25.966 Z0.200
G1 X50.814 Y-25.966 Z-0.200 F150.000
G1 X50.850 Y-25.924 Z-0.200 F250.000
G2 X50.817 Y-25.879 Z-0.200 I0.014 J0.046 K0.000 F250.000
G3 X50.814 Y-25.966 Z-0.200 I0.207 J-0.048 K0.000 F250.000
G0 Z0.300
G0 X50.895 Y-25.858 Z0.300
G0 X50.895 Y-25.858 Z0.200
G1 X50.895 Y-25.858 Z-0.200 F150.000
G3 X50.955 Y-25.878 Z-0.200 I0.060 J0.080 K0.000 F250.000
G1 X52.370 Y-25.878 Z-0.200 F250.000
G1 X52.456 Y-25.830 Z-0.200 F250.000
G3 X50.860 Y-25.747 Z-0.200 I-0.801 J-0.014 K0.000 F250.000
G3 X50.895 Y-25.858 Z-0.200 I0.095 J-0.031 K0.000 F250.000
G0 Z0.300
G0 X52.500 Y-25.890 Z0.300
G0 X52.500 Y-25.890 Z0.200
G1 X52.500 Y-25.890 Z-0.200 F150.000
G1 X52.508 Y-25.890 Z-0.200 F250.000
G1 X52.507 Y-25.882 Z-0.200 F250.000
G1 X52.500 Y-25.890 Z-0.200 F250.000
G0 Z0.300
G0 Z0.300
G0 X52.500 Y-25.890
G0 X53.178
G0 X53.178 Z0.200
G1 X53.178 Y-25.890 Z-0.200 F150.000
G1 X53.178 Y-26.885 Z-0.200 F250.000
G1 X53.291 Y-26.885 Z-0.200 F250.000
G1 X53.291 Y-24.171 Z-0.200 F250.000
G1 X53.178 Y-24.171 Z-0.200 F250.000
G1 X53.178 Y-25.890 Z-0.200 F250.000
G0 Z0.300
G0 X53.228 Z0.300
G0 X53.228 Z0.200
G1 X53.228 Y-25.890 Z-0.200 F150.000
G1 X53.228 Y-26.835 Z-0.200 F250.000
G1 X53.241 Y-26.835 Z-0.200 F250.000
G1 X53.241 Y-24.221 Z-0.200 F250.000
G1 X53.228 Y-24.221 Z-0.200 F250.000
G1 X53.228 Y-25.890 Z-0.200 F250.000
G0 Z0.300
G0 Z0.300
G0 X53.228 Y-25.890
G0 X39.503 Y-84.065
G0 X39.503 Y-84.065 Z0.200
G1 X39.503 Y-84.065 Z-0.200 F150.000
G3 X39.137 Y-84.043 Z-0.200 I-0.246 J-1.045 K0.000 F250.000
G1 X23.012 Y-85.893 Z-0.200 F250.000
G3 X22.098 Y-86.742 Z-0.200 I0.034 J-0.953 K0.000 F250.000
G1 X22.098 Y-95.175 Z-0.200 F250.000
G3 X22.672 Y-95.787 Z-0.200 I0.635 J0.020 K0.000 F250.000
G1 X22.991 Y-95.795 Z-0.200 F250.000
G1 X39.111 Y-93.947 Z-0.200 F250.000
G3 X40.023 Y-93.097 Z-0.200 I-0.034 J0.952 K0.000 F250.000
G1 X40.023 Y-84.665 Z-0.200 F250.000
G3 X39.528 Y-84.072 Z-0.200 I-0.618 J-0.012 K0.000 F250.000
G3 X39.503 Y-84.065 Z-0.200 I-0.271 J-1.038 K0.000 F250.000
G0 Z0.300
G0 X39.489 Y-84.114 Z0.300
G0 X39.489 Y-84.114 Z0.200
G1 X39.489 Y-84.114 Z-0.200 F150.000
G3 X39.217 Y-84.091 Z-0.200 I-0.196 J-0.685 K0.000 F250.000
G1 X39.200 Y-84.100 Z-0.200 F250.000
G1 X39.199 Y-84.091 Z-0.200 F250.000
G1 X39.120 Y-84.097 Z-0.200 F250.000
G1 X22.984 Y-85.956 Z-0.200 F250.000
G3 X22.159 Y-86.686 Z-0.200 I0.084 J-0.926 K0.000 F250.000
G1 X22.150 Y-95.155 Z-0.200 F250.000
G3 X22.197 Y-95.370 Z-0.200 I0.521 J0.001 K0.000 F250.000
G3 X22.992 Y-95.744 Z-0.200 I0.649 J0.347 K0.000 F250.000
G1 X39.131 Y-93.870 Z-0.200 F250.000
G3 X39.963 Y-93.129 Z-0.200 I-0.162 J1.019 K0.000 F250.000
G1 X39.973 Y-84.685 Z-0.200 F250.000
G3 X39.929 Y-84.478 Z-0.200 I-0.520 J-0.001 K0.000 F250.000
G3 X39.489 Y-84.114 Z-0.200 I-0.636 J-0.322 K0.000 F250.000
G0 Z0.300
G0 X39.768 Y-93.574 Z0.300
G0 X39.768 Y-93.574 Z0.200
G1 X39.768 Y-93.574 Z-0.200 F150.000
G1 X39.754 Y-93.588 Z-0.200 F250.000
G3 X39.768 Y-93.574 Z-0.200 I-0.024 J0.037 K0.000 F250.000
G0 Z0.300
G0 Z0.300
(Finish operation: ENGRAVE 0.20MM)
(Begin operation: ballend-025mm003)
(Path: ballend-025mm003)
(ballend-025mm003)
(Begin toolchange)
( M6 T6 )
M3 S10000
(Finish operation: ballend-025mm003)
(Begin operation: ENGRAVE 0.25MM)
(Path: ENGRAVE 0.25MM)
(ENGRAVE 0.25MM)
G0 Z0.300
G0 X13.971 Y-55.542
G0 Z0.200
G1 X13.971 Y-55.542 Z-0.200 F150.000
G1 X12.872 Y-55.542 Z-0.200 F250.000
G1 X12.872 Y-55.810 Z-0.200 F250.000
G1 X13.856 Y-55.810 Z-0.200 F250.000
G1 X13.971 Y-55.542 Z-0.200 F250.000
G0 Z0.300
G0 X13.819 Y-55.642 Z0.300
G0 X13.819 Y-55.642 Z0.200
G1 X13.819 Y-55.642 Z-0.200 F150.000
G1 X12.972 Y-55.642 Z-0.200 F250.000
G1 X12.972 Y-55.710 Z-0.200 F250.000
G1 X13.790 Y-55.710 Z-0.200 F250.000
G1 X13.819 Y-55.642 Z-0.200 F250.000
G0 Z0.300
G0 Z0.300
G0 X13.819 Y-55.642
G0 X15.065 Y-55.816
G0 X15.065 Y-55.816 Z0.200
G1 X15.065 Y-55.816 Z-0.200 F150.000
G1 X18.018 Y-55.816 Z-0.200 F250.000
G1 X17.898 Y-55.549 Z-0.200 F250.000
G2 X15.174 Y-55.549 Z-0.200 I-0.726 J2471779.530 K0.000 F250.000
G1 X15.065 Y-55.816 Z-0.200 F250.000
G0 Z0.300
G0 X15.214 Y-55.716 Z0.300
G0 X15.214 Y-55.716 Z0.200
G1 X15.214 Y-55.716 Z-0.200 F150.000
G1 X17.863 Y-55.716 Z-0.200 F250.000
G1 X17.833 Y-55.649 Z-0.200 F250.000
G2 X15.241 Y-55.649 Z-0.200 I-0.694 J2599633.770 K0.000 F250.000
G1 X15.214 Y-55.716 Z-0.200 F250.000
G0 Z0.300
G0 Z0.300
G0 X15.214 Y-55.716
G0 X19.198 Y-55.537
G0 X19.198 Y-55.537 Z0.200
G1 X19.198 Y-55.537 Z-0.200 F150.000
G1 X19.321 Y-55.803 Z-0.200 F250.000
G1 X22.088 Y-55.803 Z-0.200 F250.000
G1 X22.200 Y-55.537 Z-0.200 F250.000
G1 X19.198 Y-55.537 Z-0.200 F250.000
G0 Z0.300
G0 X19.355 Y-55.637 Z0.300
G0 X19.355 Y-55.637 Z0.200
G1 X19.355 Y-55.637 Z-0.200 F150.000
G1 X19.385 Y-55.703 Z-0.200 F250.000
G1 X22.021 Y-55.703 Z-0.200 F250.000
G1 X22.049 Y-55.637 Z-0.200 F250.000
G1 X19.355 Y-55.637 Z-0.200 F250.000
G0 Z0.300
G0 Z0.300
G0 X19.355 Y-55.637
G0 X23.389 Y-55.816
G0 X23.389 Y-55.816 Z0.200
G1 X23.389 Y-55.816 Z-0.200 F150.000
G1 X26.289 Y-55.816 Z-0.200 F250.000
G1 X26.169 Y-55.549 Z-0.200 F250.000
G2 X23.498 Y-55.549 Z-0.200 I-0.717 J2361192.879 K0.000 F250.000
G1 X23.389 Y-55.816 Z-0.200 F250.000
G0 Z0.300
G0 X23.538 Y-55.716 Z0.300
G0 X23.538 Y-55.716 Z0.200
G1 X23.538 Y-55.716 Z-0.200 F150.000
G1 X26.134 Y-55.716 Z-0.200 F250.000
G1 X26.104 Y-55.649 Z-0.200 F250.000
G2 X23.565 Y-55.649 Z-0.200 I-0.685 J2476414.255 K0.000 F250.000
G1 X23.538 Y-55.716 Z-0.200 F250.000
G0 Z0.300
G0 Z0.300
G0 X23.538 Y-55.716
G0 X27.486 Y-55.533
G0 X27.486 Y-55.533 Z0.200
G1 X27.486 Y-55.533 Z-0.200 F150.000
G1 X27.610 Y-55.799 Z-0.200 F250.000
G3 X30.358 Y-55.803 Z-0.200 I2.087 J500.266 K0.000 F250.000
G1 X30.472 Y-55.537 Z-0.200 F250.000
G2 X27.486 Y-55.533 Z-0.200 I-0.719 J630.604 K0.000 F250.000
G0 Z0.300
G0 X27.643 Y-55.633 Z0.300
G0 X27.643 Y-55.633 Z0.200
G1 X27.643 Y-55.633 Z-0.200 F150.000
G1 X27.674 Y-55.700 Z-0.200 F250.000
G3 X30.292 Y-55.703 Z-0.200 I1.990 J476.619 K0.000 F250.000
G1 X30.321 Y-55.637 Z-0.200 F250.000
G2 X27.643 Y-55.633 Z-0.200 I-0.643 J565.511 K0.000 F250.000
G0 Z0.300
G0 Z0.300
G0 X27.643 Y-55.633
G0 X31.080 Y-57.246
G0 X31.080 Y-57.246 Z0.200
G1 X31.080 Y-57.246 Z-0.200 F150.000
G1 X30.908 Y-57.614 Z-0.200 F250.000
G1 X30.908 Y-61.175 Z-0.200 F250.000
G1 X31.174 Y-61.175 Z-0.200 F250.000
G1 X31.174 Y-57.046 Z-0.200 F250.000
G1 X31.080 Y-57.246 Z-0.200 F250.000
G0 Z0.300
G0 X31.074 Y-57.494 Z0.300
G0 X31.074 Y-57.494 Z0.200
G1 X31.074 Y-57.494 Z-0.200 F150.000
G1 X31.008 Y-57.637 Z-0.200 F250.000
G1 X31.008 Y-61.075 Z-0.200 F250.000
G1 X31.074 Y-61.075 Z-0.200 F250.000
G1 X31.074 Y-57.494 Z-0.200 F250.000
G0 Z0.300
G0 Z0.300
G0 X31.074 Y-57.494
G0 X31.682 Y-55.816
G0 X31.682 Y-55.816 Z0.200
G1 X31.682 Y-55.816 Z-0.200 F150.000
G1 X34.534 Y-55.816 Z-0.200 F250.000
G1 X34.413 Y-55.549 Z-0.200 F250.000
G2 X31.792 Y-55.549 Z-0.200 I-0.700 J2287361.721 K0.000 F250.000
G1 X31.682 Y-55.816 Z-0.200 F250.000
G0 Z0.300
G0 X31.832 Y-55.716 Z0.300
G0 X31.832 Y-55.716 Z0.200
G1 X31.832 Y-55.716 Z-0.200 F150.000
G1 X34.379 Y-55.716 Z-0.200 F250.000
G1 X34.349 Y-55.649 Z-0.200 F250.000
G2 X31.859 Y-55.649 Z-0.200 I-0.668 J2395611.324 K0.000 F250.000
G1 X31.832 Y-55.716 Z-0.200 F250.000
G0 Z0.300
G0 Z0.300
G0 X31.832 Y-55.716
G0 X35.760 Y-55.537
G0 X35.760 Y-55.537 Z0.200
G1 X35.760 Y-55.537 Z-0.200 F150.000
G1 X35.884 Y-55.803 Z-0.200 F250.000
G1 X38.614 Y-55.803 Z-0.200 F250.000
G1 X38.726 Y-55.537 Z-0.200 F250.000
G1 X35.760 Y-55.537 Z-0.200 F250.000
G0 Z0.300
G0 X35.917 Y-55.637 Z0.300
G0 X35.917 Y-55.637 Z0.200
G1 X35.917 Y-55.637 Z-0.200 F150.000
G1 X35.948 Y-55.703 Z-0.200 F250.000
G1 X38.548 Y-55.703 Z-0.200 F250.000
G1 X38.576 Y-55.637 Z-0.200 F250.000
G1 X35.917 Y-55.637 Z-0.200 F250.000
G0 Z0.300
G0 Z0.300
G0 X35.917 Y-55.637
G0 X39.950 Y-55.816
G0 X39.950 Y-55.816 Z0.200
G1 X39.950 Y-55.816 Z-0.200 F150.000
G1 X42.842 Y-55.816 Z-0.200 F250.000
G1 X42.721 Y-55.549 Z-0.200 F250.000
G1 X40.060 Y-55.549 Z-0.200 F250.000
G1 X39.950 Y-55.816 Z-0.200 F250.000
G0 Z0.300
G0 X40.100 Y-55.716 Z0.300
G0 X40.100 Y-55.716 Z0.200
G1 X40.100 Y-55.716 Z-0.200 F150.000
G1 X42.687 Y-55.716 Z-0.200 F250.000
G1 X42.657 Y-55.649 Z-0.200 F250.000
G1 X40.127 Y-55.649 Z-0.200 F250.000
G1 X40.100 Y-55.716 Z-0.200 F250.000
G0 Z0.300
G0 Z0.300
G0 X40.100 Y-55.716
G0 X44.028 Y-55.537
G0 X44.028 Y-55.537 Z0.200
G1 X44.028 Y-55.537 Z-0.200 F150.000
G1 X44.152 Y-55.803 Z-0.200 F250.000
G1 X46.925 Y-55.803 Z-0.200 F250.000
G1 X47.038 Y-55.537 Z-0.200 F250.000
G1 X44.028 Y-55.537 Z-0.200 F250.000
G0 Z0.300
G0 X44.185 Y-55.637 Z0.300
G0 X44.185 Y-55.637 Z0.200
G1 X44.185 Y-55.637 Z-0.200 F150.000
G1 X44.216 Y-55.703 Z-0.200 F250.000
G1 X46.859 Y-55.703 Z-0.200 F250.000
G1 X46.887 Y-55.637 Z-0.200 F250.000
G1 X44.185 Y-55.637 Z-0.200 F250.000
G0 Z0.300
G0 Z0.300
G0 X44.185 Y-55.637
G0 X48.248 Y-55.803
G0 X48.248 Y-55.803 Z0.200
G1 X48.248 Y-55.803 Z-0.200 F150.000
G1 X49.138 Y-55.803 Z-0.200 F250.000
G1 X49.138 Y-55.537 Z-0.200 F250.000
G1 X48.363 Y-55.537 Z-0.200 F250.000
G1 X48.248 Y-55.803 Z-0.200 F250.000
G0 Z0.300
G0 X48.400 Y-55.703 Z0.300
G0 X48.400 Y-55.703 Z0.200
G1 X48.400 Y-55.703 Z-0.200 F150.000
G1 X49.038 Y-55.703 Z-0.200 F250.000
G1 X49.038 Y-55.637 Z-0.200 F250.000
G1 X48.429 Y-55.637 Z-0.200 F250.000
G1 X48.400 Y-55.703 Z-0.200 F250.000
G0 Z0.300
G0 Z0.300
G0 X48.400 Y-55.703
G0 X47.778 Y-55.577
G0 X47.778 Y-55.577 Z0.200
G1 X47.778 Y-55.577 Z-0.200 F150.000
G3 X47.575 Y-55.573 Z-0.200 I-0.103 J-0.033 K0.000 F250.000
G2 X46.254 Y-58.033 Z-0.200 I-17.242 J7.669 K0.000 F250.000
G2 X45.587 Y-58.650 Z-0.200 I-1.390 J0.832 K0.000 F250.000
G2 X45.237 Y-58.572 Z-0.200 I-0.102 J0.362 K0.000 F250.000
G2 X44.290 Y-57.334 Z-0.200 I2.022 J2.529 K0.000 F250.000
G3 X42.941 Y-54.376 Z-0.200 I-175.799 J-78.397 K0.000 F250.000
G3 X42.111 Y-53.089 Z-0.200 I-8.997 J-4.892 K0.000 F250.000
G3 X41.433 Y-52.548 Z-0.200 I-1.030 J-0.596 K0.000 F250.000
G3 X40.757 Y-52.893 Z-0.200 I0.010 J-0.855 K0.000 F250.000
G3 X40.000 Y-54.013 Z-0.200 I3.156 J-2.946 K0.000 F250.000
G2 X38.534 Y-57.063 Z-0.200 I-51.028 J22.665 K0.000 F250.000
G2 X37.461 Y-58.537 Z-0.200 I-4.103 J1.858 K0.000 F250.000
G2 X36.951 Y-58.545 Z-0.200 I-0.259 J0.281 K0.000 F250.000
G2 X35.998 Y-57.302 Z-0.200 I2.004 J2.522 K0.000 F250.000
G2 X35.150 Y-55.385 Z-0.200 I25.606 J12.479 K0.000 F250.000
G3 X33.617 Y-52.824 Z-0.200 I-8.510 J-3.356 K0.000 F250.000
G3 X33.042 Y-52.518 Z-0.200 I-0.598 J-0.430 K0.000 F250.000
G3 X32.464 Y-52.869 Z-0.200 I0.188 J-0.960 K0.000 F250.000
G3 X31.444 Y-54.516 Z-0.200 I4.865 J-4.153 K0.000 F250.000
G2 X30.888 Y-55.853 Z-0.200 I-131.790 J54.075 K0.000 F250.000
G2 X29.496 Y-58.297 Z-0.200 I-10.779 J4.518 K0.000 F250.000
G2 X29.036 Y-58.662 Z-0.200 I-0.913 J0.678 K0.000 F250.000
G2 X28.493 Y-58.439 Z-0.200 I-0.091 J0.551 K0.000 F250.000
G2 X27.162 Y-56.091 Z-0.200 I5.976 J4.938 K0.000 F250.000
G3 X25.353 Y-52.864 Z-0.200 I-10.193 J-3.594 K0.000 F250.000
G3 X24.777 Y-52.555 Z-0.200 I-0.605 J-0.438 K0.000 F250.000
G3 X23.995 Y-53.143 Z-0.200 I0.404 J-1.353 K0.000 F250.000
G3 X22.805 Y-55.390 Z-0.200 I9.147 J-6.284 K0.000 F250.000
G2 X21.412 Y-58.019 Z-0.200 I-15.211 J6.372 K0.000 F250.000
G2 X20.691 Y-58.648 Z-0.200 I-1.282 J0.741 K0.000 F250.000
G2 X19.978 Y-58.155 Z-0.200 I0.141 J0.965 K0.000 F250.000
G2 X18.599 Y-55.397 Z-0.200 I10.826 J7.140 K0.000 F250.000
G3 X17.272 Y-53.075 Z-0.200 I-10.013 J-4.182 K0.000 F250.000
G3 X16.594 Y-52.535 Z-0.200 I-1.025 J-0.590 K0.000 F250.000
G3 X16.214 Y-52.628 Z-0.200 I-0.063 J-0.560 K0.000 F250.000
G3 X15.160 Y-53.998 Z-0.200 I2.377 J-2.919 K0.000 F250.000
G3 X14.402 Y-55.666 Z-0.200 I15.003 J-7.831 K0.000 F250.000
G3 X14.570 Y-55.794 Z-0.200 I0.093 J-0.052 K0.000 F250.000
G2 X15.705 Y-53.480 Z-0.200 I17.536 J-7.173 K0.000 F250.000
G2 X16.345 Y-52.800 Z-0.200 I1.960 J-1.203 K0.000 F250.000
G2 X16.696 Y-52.801 Z-0.200 I0.175 J-0.238 K0.000 F250.000
G2 X17.358 Y-53.563 Z-0.200 I-1.834 J-2.262 K0.000 F250.000
G2 X18.674 Y-56.147 Z-0.200 I-11.079 J-7.267 K0.000 F250.000
G3 X19.809 Y-58.287 Z-0.200 I7.711 J2.718 K0.000 F250.000
G3 X20.622 Y-58.861 Z-0.200 I1.057 J0.634 K0.000 F250.000
G3 X21.376 Y-58.407 Z-0.200 I-0.122 J1.055 K0.000 F250.000
G3 X22.529 Y-56.505 Z-0.200 I-8.041 J6.177 K0.000 F250.000
G2 X23.832 Y-53.767 Z-0.200 I116.846 J-53.881 K0.000 F250.000
G2 X24.632 Y-52.828 Z-0.200 I2.308 J-1.157 K0.000 F250.000
G2 X24.987 Y-52.828 Z-0.200 I0.177 J-0.244 K0.000 F250.000
G2 X25.648 Y-53.591 Z-0.200 I-2.088 J-2.477 K0.000 F250.000
G2 X26.963 Y-56.172 Z-0.200 I-11.385 J-7.427 K0.000 F250.000
G3 X28.098 Y-58.315 Z-0.200 I8.391 J3.074 K0.000 F250.000
G3 X28.910 Y-58.888 Z-0.200 I1.057 J0.634 K0.000 F250.000
G3 X29.758 Y-58.320 Z-0.200 I-0.144 J1.131 K0.000 F250.000
G3 X31.402 Y-55.134 Z-0.200 I-10.847 J7.615 K0.000 F250.000
G2 X32.630 Y-53.008 Z-0.200 I6.910 J-2.574 K0.000 F250.000
G2 X33.015 Y-52.740 Z-0.200 I0.625 J-0.486 K0.000 F250.000
G2 X33.250 Y-52.790 Z-0.200 I0.059 J-0.297 K0.000 F250.000
G2 X33.911 Y-53.552 Z-0.200 I-2.045 J-2.444 K0.000 F250.000
G2 X35.226 Y-56.135 Z-0.200 I-11.443 J-7.453 K0.000 F250.000
G3 X36.362 Y-58.275 Z-0.200 I8.534 J3.154 K0.000 F250.000
G3 X37.175 Y-58.849 Z-0.200 I1.057 J0.634 K0.000 F250.000
G3 X37.983 Y-58.328 Z-0.200 I-0.133 J1.094 K0.000 F250.000
G3 X39.082 Y-56.494 Z-0.200 I-8.554 J6.372 K0.000 F250.000
G2 X39.433 Y-55.748 Z-0.200 I21.146 J-9.493 K0.000 F250.000
G2 X40.545 Y-53.496 Z-0.200 I20.008 J-8.480 K0.000 F250.000
G2 X41.185 Y-52.816 Z-0.200 I1.960 J-1.203 K0.000 F250.000
G2 X41.537 Y-52.815 Z-0.200 I0.176 J-0.245 K0.000 F250.000
G2 X42.198 Y-53.579 Z-0.200 I-1.998 J-2.399 K0.000 F250.000
G2 X43.516 Y-56.160 Z-0.200 I-11.295 J-7.391 K0.000 F250.000
G3 X44.649 Y-58.302 Z-0.200 I7.849 J2.780 K0.000 F250.000
G3 X45.466 Y-58.877 Z-0.200 I1.056 J0.634 K0.000 F250.000
G3 X46.260 Y-58.369 Z-0.200 I-0.092 J1.019 K0.000 F250.000
G3 X47.371 Y-56.521 Z-0.200 I-8.438 J6.330 K0.000 F250.000
G3 X47.778 Y-55.577 Z-0.200 I-3.689 J2.151 K0.000 F250.000
G0 Z0.300
G0 X47.676 Y-55.609 Z0.300
G0 X47.676 Y-55.609 Z0.200
G1 X47.676 Y-55.609 Z-0.200 F150.000
G2 X46.332 Y-58.095 Z-0.200 I-16.631 J7.383 K0.000 F250.000
G2 X45.611 Y-58.748 Z-0.200 I-1.440 J0.867 K0.000 F250.000
G2 X45.178 Y-58.652 Z-0.200 I-0.124 J0.466 K0.000 F250.000
G2 X44.201 Y-57.379 Z-0.200 I2.092 J2.617 K0.000 F250.000
G2 X43.105 Y-54.947 Z-0.200 I1149.031 J519.295 K0.000 F250.000
G3 X44.302 Y-57.598 Z-0.200 I39.089 J16.051 K0.000 F250.000
G3 X45.188 Y-58.675 Z-0.200 I2.755 J1.364 K0.000 F250.000
G3 X45.690 Y-58.734 Z-0.200 I0.299 J0.382 K0.000 F250.000
G3 X46.595 Y-57.735 Z-0.200 I-1.569 J2.330 K0.000 F250.000
G3 X47.676 Y-55.609 Z-0.200 I-14.024 J8.468 K0.000 F250.000
G0 Z0.300
G0 X43.100 Y-54.937 Z0.300
G0 X43.100 Y-54.937 Z0.200
G1 X43.100 Y-54.937 Z-0.200 F150.000
G3 X41.833 Y-52.921 Z-0.200 I-7.490 J-3.300 K0.000 F250.000
G3 X41.339 Y-52.644 Z-0.200 I-0.537 J-0.380 K0.000 F250.000
G3 X40.625 Y-53.194 Z-0.200 I0.401 J-1.261 K0.000 F250.000
G3 X40.090 Y-54.059 Z-0.200 I4.216 J-3.207 K0.000 F250.000
G2 X38.623 Y-57.108 Z-0.200 I-51.103 J22.702 K0.000 F250.000
G2 X37.514 Y-58.622 Z-0.200 I-4.161 J1.884 K0.000 F250.000
G2 X36.892 Y-58.626 Z-0.200 I-0.313 J0.369 K0.000 F250.000
G2 X35.909 Y-57.347 Z-0.200 I2.072 J2.611 K0.000 F250.000
G2 X35.058 Y-55.426 Z-0.200 I25.662 J12.508 K0.000 F250.000
G3 X33.544 Y-52.894 Z-0.200 I-8.425 J-3.319 K0.000 F250.000
G3 X33.051 Y-52.619 Z-0.200 I-0.531 J-0.372 K0.000 F250.000
G3 X32.534 Y-52.941 Z-0.200 I0.178 J-0.861 K0.000 F250.000
G3 X31.535 Y-54.559 Z-0.200 I4.802 J-4.085 K0.000 F250.000
G2 X30.979 Y-55.893 Z-0.200 I-136.407 J55.988 K0.000 F250.000
G2 X29.571 Y-58.363 Z-0.200 I-10.858 J4.552 K0.000 F250.000
G2 X29.060 Y-58.760 Z-0.200 I-0.967 J0.720 K0.000 F250.000
G2 X28.638 Y-58.672 Z-0.200 I-0.124 J0.463 K0.000 F250.000
G2 X27.648 Y-57.391 Z-0.200 I2.038 J2.600 K0.000 F250.000
G2 X26.794 Y-55.463 Z-0.200 I24.666 J12.071 K0.000 F250.000
G3 X25.280 Y-52.933 Z-0.200 I-8.439 J-3.332 K0.000 F250.000
G3 X24.787 Y-52.656 Z-0.200 I-0.537 J-0.380 K0.000 F250.000
G3 X24.073 Y-53.205 Z-0.200 I0.404 J-1.263 K0.000 F250.000
G3 X22.896 Y-55.430 Z-0.200 I9.095 J-6.235 K0.000 F250.000
G2 X21.372 Y-58.230 Z-0.200 I-13.774 J5.684 K0.000 F250.000
G2 X20.652 Y-58.749 Z-0.200 I-0.932 J0.534 K0.000 F250.000
G2 X19.897 Y-58.213 Z-0.200 I0.218 J1.107 K0.000 F250.000
G2 X18.508 Y-55.438 Z-0.200 I10.899 J7.193 K0.000 F250.000
G3 X17.194 Y-53.138 Z-0.200 I-9.924 J-4.142 K0.000 F250.000
G3 X16.575 Y-52.634 Z-0.200 I-0.946 J-0.530 K0.000 F250.000
G3 X16.270 Y-52.712 Z-0.200 I-0.044 J-0.463 K0.000 F250.000
G3 X15.250 Y-54.043 Z-0.200 I2.322 J-2.837 K0.000 F250.000
G3 X14.500 Y-55.691 Z-0.200 I14.820 J-7.740 K0.000 F250.000
G1 X14.496 Y-55.720 Z-0.200 F250.000
G3 X14.629 Y-55.406 Z-0.200 I-0.551 J0.418 K0.000 F250.000
G2 X15.627 Y-53.418 Z-0.200 I11.766 J-4.662 K0.000 F250.000
G2 X16.247 Y-52.745 Z-0.200 I2.120 J-1.330 K0.000 F250.000
G2 X16.761 Y-52.725 Z-0.200 I0.269 J-0.306 K0.000 F250.000
G2 X17.444 Y-53.511 Z-0.200 I-1.904 J-2.343 K0.000 F250.000
G2 X18.766 Y-56.108 Z-0.200 I-11.158 J-7.317 K0.000 F250.000
G3 X19.887 Y-58.224 Z-0.200 I7.620 J2.680 K0.000 F250.000
G3 X20.630 Y-58.761 Z-0.200 I0.985 J0.582 K0.000 F250.000
G3 X21.299 Y-58.343 Z-0.200 I-0.138 J0.965 K0.000 F250.000
G3 X22.307 Y-56.703 Z-0.200 I-6.562 J5.166 K0.000 F250.000
G3 X23.746 Y-53.714 Z-0.200 I-473.517 J229.797 K0.000 F250.000
G2 X24.533 Y-52.772 Z-0.200 I2.491 J-1.282 K0.000 F250.000
G2 X25.052 Y-52.752 Z-0.200 I0.272 J-0.311 K0.000 F250.000
G2 X25.733 Y-53.538 Z-0.200 I-2.167 J-2.563 K0.000 F250.000
G2 X27.055 Y-56.133 Z-0.200 I-11.465 J-7.477 K0.000 F250.000
G3 X28.176 Y-58.252 Z-0.200 I8.308 J3.040 K0.000 F250.000
G3 X28.918 Y-58.788 Z-0.200 I0.985 J0.582 K0.000 F250.000
G3 X29.680 Y-58.257 Z-0.200 I-0.157 J1.039 K0.000 F250.000
G3 X31.311 Y-55.093 Z-0.200 I-10.800 J7.568 K0.000 F250.000
G2 X32.565 Y-52.933 Z-0.200 I6.945 J-2.587 K0.000 F250.000
G2 X33.090 Y-52.632 Z-0.200 I0.609 J-0.455 K0.000 F250.000
G2 X33.537 Y-52.908 Z-0.200 I-0.086 J-0.638 K0.000 F250.000
G2 X35.318 Y-56.095 Z-0.200 I-8.862 J-7.046 K0.000 F250.000
G3 X36.440 Y-58.213 Z-0.200 I8.452 J3.121 K0.000 F250.000
G3 X37.183 Y-58.749 Z-0.200 I0.985 J0.581 K0.000 F250.000
G3 X37.906 Y-58.264 Z-0.200 I-0.148 J1.002 K0.000 F250.000
G3 X38.993 Y-56.448 Z-0.200 I-8.484 J6.312 K0.000 F250.000
G2 X39.342 Y-55.710 Z-0.200 I14.263 J-6.296 K0.000 F250.000
G2 X40.467 Y-53.433 Z-0.200 I16.463 J-6.719 K0.000 F250.000
G2 X41.087 Y-52.760 Z-0.200 I2.120 J-1.330 K0.000 F250.000
G2 X41.602 Y-52.740 Z-0.200 I0.270 J-0.313 K0.000 F250.000
G2 X42.283 Y-53.526 Z-0.200 I-2.077 J-2.487 K0.000 F250.000
G2 X43.100 Y-54.937 Z-0.200 I-8.483 J-5.851 K0.000 F250.000
G0 Z0.300
G0 Z0.300
G0 X43.100 Y-54.937
G0 X31.174 Y-53.770
G0 X31.174 Y-53.770 Z0.200
G1 X31.174 Y-53.770 Z-0.200 F150.000
G1 X31.174 Y-50.242 Z-0.200 F250.000
G1 X30.908 Y-50.242 Z-0.200 F250.000
G1 X30.908 Y-54.402 Z-0.200 F250.000
G1 X31.174 Y-53.770 Z-0.200 F250.000
G0 Z0.300
G0 X31.074 Y-53.750 Z0.300
G0 X31.074 Y-53.750 Z0.200
G1 X31.074 Y-53.750 Z-0.200 F150.000
G1 X31.074 Y-50.342 Z-0.200 F250.000
G1 X31.008 Y-50.342 Z-0.200 F250.000
G1 X31.008 Y-53.908 Z-0.200 F250.000
G1 X31.074 Y-53.750 Z-0.200 F250.000
G0 Z0.300
G0 Z0.300
G0 X31.074 Y-53.750
G0 X32.457 Y-85.779
G0 X32.457 Y-85.779 Z0.200
G1 X32.457 Y-85.779 Z-0.200 F150.000
G3 X29.911 Y-85.998 Z-0.200 I2.423 J-42.954 K0.000 F250.000
G3 X28.604 Y-86.229 Z-0.200 I-0.010 J-3.768 K0.000 F250.000
G3 X28.458 Y-86.504 Z-0.200 I0.189 J-0.276 K0.000 F250.000
G3 X28.505 Y-89.800 Z-0.200 I24.426 J-1.300 K0.000 F250.000
G2 X28.405 Y-93.805 Z-0.200 I-27.907 J-1.305 K0.000 F250.000
G3 X28.442 Y-94.214 Z-0.200 I0.753 J-0.137 K0.000 F250.000
G3 X28.795 Y-94.245 Z-0.200 I0.219 J0.467 K0.000 F250.000
G3 X32.006 Y-93.798 Z-0.200 I-1.520 J22.675 K0.000 F250.000
G3 X32.552 Y-93.206 Z-0.200 I-0.078 J0.620 K0.000 F250.000
G3 X32.656 Y-91.807 Z-0.200 I-4.838 J1.066 K0.000 F250.000
G1 X32.615 Y-91.020 Z-0.200 F250.000
G2 X32.572 Y-89.716 Z-0.200 I26.187 J1.528 K0.000 F250.000
G3 X31.888 Y-89.497 Z-0.200 I-0.564 J-0.588 K0.000 F250.000
G3 X30.819 Y-89.642 Z-0.200 I0.046 J-4.343 K0.000 F250.000
G3 X30.650 Y-90.030 Z-0.200 I0.249 J-0.339 K0.000 F250.000
G3 X31.135 Y-90.129 Z-0.200 I0.365 J0.551 K0.000 F250.000
G1 X31.318 Y-90.112 Z-0.200 F250.000
G1 X31.318 Y-90.112 Z-0.200 F250.000
G2 X31.713 Y-90.341 Z-0.200 I0.107 J-0.270 K0.000 F250.000
G2 X31.745 Y-91.887 Z-0.200 I-5.777 J-0.893 K0.000 F250.000
G2 X31.619 Y-93.475 Z-0.200 I-12.656 J0.198 K0.000 F250.000
G2 X31.176 Y-93.782 Z-0.200 I-0.526 J0.286 K0.000 F250.000
G2 X29.581 Y-93.971 Z-0.200 I-9.267 J71.310 K0.000 F250.000
G2 X29.432 Y-93.636 Z-0.200 I0.067 J0.231 K0.000 F250.000
G3 X29.574 Y-90.224 Z-0.200 I-26.510 J2.809 K0.000 F250.000
G2 X29.456 Y-86.768 Z-0.200 I79.346 J4.442 K0.000 F250.000
G2 X29.531 Y-86.381 Z-0.200 I0.527 J0.099 K0.000 F250.000
G2 X31.368 Y-86.099 Z-0.200 I1.858 J-5.992 K0.000 F250.000
G2 X31.478 Y-86.380 Z-0.200 I-0.112 J-0.206 K0.000 F250.000
G3 X31.418 Y-87.001 Z-0.200 I10.205 J-1.303 K0.000 F250.000
G3 X32.457 Y-86.890 Z-0.200 I0.305 J2.064 K0.000 F250.000
G3 X32.529 Y-85.847 Z-0.200 I-7.862 J1.068 K0.000 F250.000
G3 X32.457 Y-85.779 Z-0.200 I-0.126 J-0.060 K0.000 F250.000
G0 Z0.300
G0 X32.430 Y-85.879 Z0.300
G0 X32.430 Y-85.879 Z0.200
G1 X32.430 Y-85.879 Z-0.200 F150.000
G3 X29.921 Y-86.098 Z-0.200 I2.551 J-43.780 K0.000 F250.000
G3 X28.618 Y-86.345 Z-0.200 I-0.065 J-3.222 K0.000 F250.000
G3 X28.515 Y-87.074 Z-0.200 I1.758 J-0.621 K0.000 F250.000
G3 X28.634 Y-91.105 Z-0.200 I1822.433 J51.909 K0.000 F250.000
G2 X28.505 Y-93.807 Z-0.200 I-71.618 J2.069 K0.000 F250.000
G3 X28.534 Y-94.150 Z-0.200 I0.422 J-0.136 K0.000 F250.000
G3 X29.584 Y-94.069 Z-0.200 I0.007 J6.755 K0.000 F250.000
G2 X29.333 Y-93.628 Z-0.200 I0.032 J0.310 K0.000 F250.000
G3 X29.474 Y-90.225 Z-0.200 I-26.424 J2.801 K0.000 F250.000
G2 X29.356 Y-86.765 Z-0.200 I78.854 J4.423 K0.000 F250.000
G2 X29.472 Y-86.300 Z-0.200 I0.583 J0.102 K0.000 F250.000
G2 X31.386 Y-86.001 Z-0.200 I1.887 J-5.802 K0.000 F250.000
G2 X31.566 Y-86.469 Z-0.200 I-0.165 J-0.332 K0.000 F250.000
G3 X31.525 Y-86.912 Z-0.200 I18.977 J-1.981 K0.000 F250.000
G3 X32.365 Y-86.828 Z-0.200 I0.198 J2.251 K0.000 F250.000
G3 X32.430 Y-85.879 Z-0.200 I-6.669 J0.936 K0.000 F250.000
G0 Z0.300
G0 X32.333 Y-85.981 Z0.300
G0 X32.333 Y-85.981 Z0.200
G1 X32.333 Y-85.981 Z-0.200 F150.000
G3 X31.584 Y-86.015 Z-0.200 I0.026 J-8.818 K0.000 F250.000
G2 X31.651 Y-86.625 Z-0.200 I-0.685 J-0.383 K0.000 F250.000
G1 X31.634 Y-86.816 Z-0.200 F250.000
G3 X32.275 Y-86.739 Z-0.200 I0.121 J1.695 K0.000 F250.000
G3 X32.333 Y-85.981 Z-0.200 I-11.369 J1.250 K0.000 F250.000
G0 Z0.300
G0 X32.228 Y-86.083 Z0.300
G0 X32.228 Y-86.083 Z0.200
G1 X32.228 Y-86.083 Z-0.200 F150.000
G3 X31.753 Y-86.103 Z-0.200 I0.020 J-6.143 K0.000 F250.000
G2 X31.743 Y-86.718 Z-0.200 I-1.718 J-0.281 K0.000 F250.000
G3 X32.183 Y-86.658 Z-0.200 I0.045 J1.312 K0.000 F250.000
G3 X32.228 Y-86.083 Z-0.200 I-12.264 J1.256 K0.000 F250.000
G0 Z0.300
G0 X32.122 Y-86.186 Z0.300
G0 X32.122 Y-86.186 Z0.200
G1 X32.122 Y-86.186 Z-0.200 F150.000
G1 X31.870 Y-86.195 Z-0.200 F250.000
G2 X31.853 Y-86.613 Z-0.200 I-1.348 J-0.155 K0.000 F250.000
G3 X32.090 Y-86.585 Z-0.200 I-0.026 J1.262 K0.000 F250.000
G3 X32.122 Y-86.186 Z-0.200 I-12.018 J1.172 K0.000 F250.000
G0 Z0.300
G0 X32.015 Y-86.290 Z0.300
G0 X32.015 Y-86.290 Z0.200
G1 X32.015 Y-86.290 Z-0.200 F150.000
G1 X31.986 Y-86.291 Z-0.200 F250.000
G2 X31.965 Y-86.504 Z-0.200 I-1.579 J0.045 K0.000 F250.000
G1 X31.997 Y-86.499 Z-0.200 F250.000
G3 X32.015 Y-86.290 Z-0.200 I-6.439 J0.652 K0.000 F250.000
G0 Z0.300
G0 X29.391 Y-86.249 Z0.300
G0 X29.391 Y-86.249 Z0.200
G1 X29.391 Y-86.249 Z-0.200 F150.000
G3 X28.694 Y-86.412 Z-0.200 I-0.030 J-1.440 K0.000 F250.000
G3 X28.617 Y-87.562 Z-0.200 I3.499 J-0.812 K0.000 F250.000
G2 X28.732 Y-91.552 Z-0.200 I-83.785 J-4.405 K0.000 F250.000
G2 X28.605 Y-93.809 Z-0.200 I-132.870 J6.357 K0.000 F250.000
G3 X28.607 Y-94.052 Z-0.200 I3.683 J-0.093 K0.000 F250.000
G3 X29.300 Y-94.000 Z-0.200 I-0.190 J7.095 K0.000 F250.000
G2 X29.246 Y-93.461 Z-0.200 I0.692 J0.342 K0.000 F250.000
G3 X29.374 Y-90.227 Z-0.200 I-23.814 J2.564 K0.000 F250.000
G2 X29.256 Y-86.762 Z-0.200 I78.379 J4.405 K0.000 F250.000
G2 X29.391 Y-86.249 Z-0.200 I0.650 J0.104 K0.000 F250.000
G0 Z0.300
G0 X29.194 Y-86.375 Z0.300
G0 X29.194 Y-86.375 Z0.200
G1 X29.194 Y-86.375 Z-0.200 F150.000
G3 X28.779 Y-86.478 Z-0.200 I0.074 J-1.180 K0.000 F250.000
G3 X28.717 Y-87.561 Z-0.200 I3.592 J-0.747 K0.000 F250.000
G2 X28.832 Y-91.554 Z-0.200 I-83.771 J-4.404 K0.000 F250.000
G2 X28.705 Y-93.811 Z-0.200 I-131.179 J6.260 K0.000 F250.000
G3 X28.704 Y-93.949 Z-0.200 I2.090 J-0.077 K0.000 F250.000
G3 X29.143 Y-93.915 Z-0.200 I-0.254 J6.061 K0.000 F250.000
G2 X29.244 Y-92.269 Z-0.200 I10.760 J0.170 K0.000 F250.000
G3 X29.194 Y-88.021 Z-0.200 I-39.452 J1.665 K0.000 F250.000
G2 X29.172 Y-86.468 Z-0.200 I9.702 J0.915 K0.000 F250.000
G1 X29.194 Y-86.375 Z-0.200 F250.000
G0 Z0.300
G0 X29.068 Y-86.500 Z0.300
G0 X29.068 Y-86.500 Z0.200
G1 X29.068 Y-86.500 Z-0.200 F150.000
G3 X28.861 Y-86.553 Z-0.200 I0.049 J-0.624 K0.000 F250.000
G3 X28.879 Y-89.287 Z-0.200 I17.288 J-1.251 K0.000 F250.000
G2 X28.804 Y-93.843 Z-0.200 I-28.829 J-1.806 K0.000 F250.000
G1 X29.028 Y-93.824 Z-0.200 F250.000
G3 X29.094 Y-88.026 Z-0.200 I-35.389 J3.304 K0.000 F250.000
G2 X29.068 Y-86.500 Z-0.200 I10.642 J0.948 K0.000 F250.000
G0 Z0.300
G0 X28.960 Y-86.625 Z0.300
G0 X28.960 Y-86.625 Z0.200
G1 X28.960 Y-86.625 Z-0.200 F150.000
G1 X28.945 Y-86.628 Z-0.200 F250.000
G3 X29.029 Y-90.429 Z-0.200 I35.362 J-1.124 K0.000 F250.000
G2 X28.907 Y-93.734 Z-0.200 I-26.143 J-0.692 K0.000 F250.000
G1 X28.927 Y-93.732 Z-0.200 F250.000
G3 X29.007 Y-88.266 Z-0.200 I-31.792 J3.195 K0.000 F250.000
G1 X28.995 Y-88.030 Z-0.200 F250.000
G2 X28.960 Y-86.625 Z-0.200 I16.866 J1.122 K0.000 F250.000
G0 Z0.300
G0 X30.872 Y-89.729 Z0.300
G0 X30.872 Y-89.729 Z0.200
G1 X30.872 Y-89.729 Z-0.200 F150.000
G3 X30.756 Y-89.990 Z-0.200 I0.153 J-0.225 K0.000 F250.000
G3 X31.308 Y-90.012 Z-0.200 I0.328 J1.291 K0.000 F250.000
G1 X31.308 Y-90.012 Z-0.200 F250.000
G2 X31.811 Y-90.322 Z-0.200 I0.132 J-0.349 K0.000 F250.000
G2 X31.844 Y-91.891 Z-0.200 I-5.899 J-0.911 K0.000 F250.000
G2 X31.709 Y-93.521 Z-0.200 I-11.809 J0.164 K0.000 F250.000
G2 X31.379 Y-93.824 Z-0.200 I-0.603 J0.324 K0.000 F250.000
G3 X32.308 Y-93.549 Z-0.200 I-0.117 J2.102 K0.000 F250.000
G3 X32.548 Y-92.579 Z-0.200 I-1.829 J0.965 K0.000 F250.000
G3 X32.515 Y-91.025 Z-0.200 I-12.191 J0.524 K0.000 F250.000
G2 X32.473 Y-89.770 Z-0.200 I25.642 J1.502 K0.000 F250.000
G3 X31.897 Y-89.597 Z-0.200 I-0.461 J-0.491 K0.000 F250.000
G3 X30.872 Y-89.729 Z-0.200 I0.122 J-4.979 K0.000 F250.000
G0 Z0.300
G0 X30.921 Y-89.825 Z0.300
G0 X30.921 Y-89.825 Z0.200
G1 X30.921 Y-89.825 Z-0.200 F150.000
G3 X30.862 Y-89.915 Z-0.200 I0.360 J-0.301 K0.000 F250.000
G3 X31.299 Y-89.913 Z-0.200 I0.212 J1.368 K0.000 F250.000
G1 X31.299 Y-89.913 Z-0.200 F250.000
G2 X31.863 Y-90.188 Z-0.200 I0.148 J-0.413 K0.000 F250.000
G2 X31.952 Y-91.587 Z-0.200 I-3.580 J-0.931 K0.000 F250.000
G2 X31.837 Y-93.450 Z-0.200 I-18.094 J0.184 K0.000 F250.000
G2 X31.746 Y-93.653 Z-0.200 I-0.530 J0.117 K0.000 F250.000
G3 X32.287 Y-93.405 Z-0.200 I0.028 J0.654 K0.000 F250.000
G3 X32.456 Y-91.814 Z-0.200 I-3.890 J1.219 K0.000 F250.000
G1 X32.416 Y-91.031 Z-0.200 F250.000
G2 X32.357 Y-89.813 Z-0.200 I366.881 J18.272 K0.000 F250.000
G3 X31.906 Y-89.696 Z-0.200 I-0.333 J-0.359 K0.000 F250.000
G3 X30.921 Y-89.825 Z-0.200 I-0.036 J-3.570 K0.000 F250.000
G0 Z0.300
G0 X31.624 Y-89.827 Z0.300
G0 X31.624 Y-89.827 Z0.200
G1 X31.624 Y-89.827 Z-0.200 F150.000
G1 X31.667 Y-89.835 Z-0.200 F250.000
G2 X32.064 Y-90.646 Z-0.200 I-0.559 J-0.775 K0.000 F250.000
G2 X31.922 Y-93.510 Z-0.200 I-21.511 J-0.374 K0.000 F250.000
G3 X32.195 Y-93.365 Z-0.200 I-0.046 J0.417 K0.000 F250.000
G3 X32.357 Y-91.817 Z-0.200 I-3.821 J1.180 K0.000 F250.000
G1 X32.316 Y-91.036 Z-0.200 F250.000
G2 X32.275 Y-89.879 Z-0.200 I24.676 J1.455 K0.000 F250.000
G3 X31.915 Y-89.796 Z-0.200 I-0.256 J-0.287 K0.000 F250.000
G1 X31.624 Y-89.827 Z-0.200 F250.000
G0 Z0.300
G0 X31.905 Y-89.898 Z0.300
G0 X31.905 Y-89.898 Z0.200
G1 X31.905 Y-89.898 Z-0.200 F150.000
G2 X32.164 Y-90.901 Z-0.200 I-1.333 J-0.880 K0.000 F250.000
G2 X32.055 Y-93.356 Z-0.200 I-25.893 J-0.078 K0.000 F250.000
G3 X32.162 Y-93.116 Z-0.200 I-0.160 J0.215 K0.000 F250.000
G3 X32.257 Y-91.820 Z-0.200 I-4.473 J0.978 K0.000 F250.000
G1 X32.216 Y-91.042 Z-0.200 F250.000
G2 X32.176 Y-89.934 Z-0.200 I24.281 J1.437 K0.000 F250.000
G3 X31.905 Y-89.898 Z-0.200 I-0.169 J-0.226 K0.000 F250.000
G0 Z0.300
G0 Z0.300
G0 X31.905 Y-89.898
G0 X26.977 Y-89.947
G0 X26.977 Y-89.947 Z0.200
G1 X26.977 Y-89.947 Z-0.200 F150.000
G2 X26.970 Y-86.436 Z-0.200 I219.981 J2.195 K0.000 F250.000
G3 X26.069 Y-86.682 Z-0.200 I-0.286 J-0.723 K0.000 F250.000
G3 X26.057 Y-90.695 Z-0.200 I124.281 J-2.387 K0.000 F250.000
G2 X25.857 Y-90.837 Z-0.200 I-0.207 J0.080 K0.000 F250.000
G2 X24.168 Y-91.101 Z-0.200 I-3.836 J19.020 K0.000 F250.000
G2 X23.951 Y-90.771 Z-0.200 I0.128 J0.321 K0.000 F250.000
G2 X24.014 Y-89.360 Z-0.200 I5.356 J0.470 K0.000 F250.000
G3 X23.978 Y-86.902 Z-0.200 I-31.531 J0.774 K0.000 F250.000
G3 X23.059 Y-87.051 Z-0.200 I-0.382 J-0.553 K0.000 F250.000
G3 X23.088 Y-91.397 Z-0.200 I239.730 J-0.580 K0.000 F250.000
G3 X23.816 Y-91.569 Z-0.200 I0.642 J1.091 K0.000 F250.000
G3 X25.436 Y-91.330 Z-0.200 I0.038 J5.348 K0.000 F250.000
G2 X25.916 Y-91.278 Z-0.200 I0.328 J-0.790 K0.000 F250.000
G2 X26.168 Y-91.871 Z-0.200 I-0.651 J-0.626 K0.000 F250.000
G2 X25.901 Y-94.098 Z-0.200 I-6.118 J-0.397 K0.000 F250.000
G2 X25.444 Y-94.225 Z-0.200 I-0.471 J0.806 K0.000 F250.000
G2 X24.244 Y-94.379 Z-0.200 I-1.114 J3.933 K0.000 F250.000
G2 X23.935 Y-94.239 Z-0.200 I-0.051 J0.299 K0.000 F250.000
G2 X23.916 Y-93.373 Z-0.200 I4.644 J0.535 K0.000 F250.000
G3 X23.605 Y-93.247 Z-0.200 I-0.246 J-0.162 K0.000 F250.000
G3 X23.147 Y-93.548 Z-0.200 I-0.100 J-0.346 K0.000 F250.000
G3 X23.124 Y-94.885 Z-0.200 I2.772 J-0.717 K0.000 F250.000
G3 X23.481 Y-94.941 Z-0.200 I0.222 J0.249 K0.000 F250.000
G2 X25.222 Y-94.747 Z-0.200 I13.533 J-113.673 K0.000 F250.000
G3 X26.424 Y-94.441 Z-0.200 I-0.247 J3.478 K0.000 F250.000
G3 X26.928 Y-93.675 Z-0.200 I-0.361 J0.787 K0.000 F250.000
G3 X26.992 Y-91.119 Z-0.200 I-9.718 J1.521 K0.000 F250.000
G2 X26.977 Y-89.947 Z-0.200 I219.966 J3.367 K0.000 F250.000
G0 Z0.300
G0 X26.768 Y-89.951 Z0.300
G0 X26.768 Y-89.951 Z0.200
G1 X26.768 Y-89.951 Z-0.200 F150.000
G2 X26.770 Y-86.588 Z-0.200 I85.775 J1.633 K0.000 F250.000
G3 X26.267 Y-86.743 Z-0.200 I-0.083 J-0.627 K0.000 F250.000
G3 X26.257 Y-90.695 Z-0.200 I154.675 J-2.349 K0.000 F250.000
G2 X25.893 Y-91.034 Z-0.200 I-0.405 J0.071 K0.000 F250.000
G2 X24.176 Y-91.301 Z-0.200 I-3.830 J18.979 K0.000 F250.000
G2 X23.754 Y-90.803 Z-0.200 I0.075 J0.492 K0.000 F250.000
G2 X23.814 Y-89.350 Z-0.200 I5.498 J0.500 K0.000 F250.000
G3 X23.788 Y-87.007 Z-0.200 I-59.430 J0.522 K0.000 F250.000
G3 X23.259 Y-87.126 Z-0.200 I-0.164 J-0.502 K0.000 F250.000
G3 X23.265 Y-88.707 Z-0.200 I656.996 J1.566 K0.000 F250.000
G3 X23.282 Y-91.291 Z-0.200 I137.947 J-0.375 K0.000 F250.000
G3 X24.606 Y-91.300 Z-0.200 I0.680 J2.824 K0.000 F250.000
G2 X25.828 Y-91.063 Z-0.200 I2.519 J-9.750 K0.000 F250.000
G2 X26.178 Y-91.257 Z-0.200 I0.011 J-0.392 K0.000 F250.000
G2 X26.375 Y-92.667 Z-0.200 I-2.219 J-1.029 K0.000 F250.000
G2 X26.071 Y-94.203 Z-0.200 I-5.264 J0.243 K0.000 F250.000
G2 X25.480 Y-94.422 Z-0.200 I-0.611 J0.742 K0.000 F250.000
G2 X24.206 Y-94.575 Z-0.200 I-1.120 J3.934 K0.000 F250.000
G2 X23.701 Y-93.994 Z-0.200 I-0.021 J0.492 K0.000 F250.000
G3 X23.717 Y-93.455 Z-0.200 I-24.648 J1.011 K0.000 F250.000
G3 X23.344 Y-93.585 Z-0.200 I-0.120 J-0.254 K0.000 F250.000
G3 X23.300 Y-94.748 Z-0.200 I2.612 J-0.682 K0.000 F250.000
G3 X25.888 Y-94.417 Z-0.200 I-2.944 J33.321 K0.000 F250.000
G3 X26.604 Y-94.042 Z-0.200 I-0.165 J1.188 K0.000 F250.000
G3 X26.820 Y-91.701 Z-0.200 I-5.803 J1.714 K0.000 F250.000
G2 X26.768 Y-89.951 Z-0.200 I85.723 J3.383 K0.000 F250.000
G0 Z0.300
G0 X26.677 Y-89.952 Z0.300
G0 X26.677 Y-89.952 Z0.200
G1 X26.677 Y-89.952 Z-0.200 F150.000
G2 X26.671 Y-86.685 Z-0.200 I209.448 J2.050 K0.000 F250.000
G3 X26.365 Y-86.789 Z-0.200 I-0.020 J-0.441 K0.000 F250.000
G3 X26.357 Y-90.695 Z-0.200 I170.230 J-2.314 K0.000 F250.000
G2 X26.128 Y-91.055 Z-0.200 I-0.332 J-0.041 K0.000 F250.000
G2 X26.467 Y-91.855 Z-0.200 I-0.900 J-0.853 K0.000 F250.000
G2 X26.172 Y-94.227 Z-0.200 I-6.310 J-0.420 K0.000 F250.000
G3 X26.636 Y-93.608 Z-0.200 I-0.154 J0.598 K0.000 F250.000
G3 X26.692 Y-91.124 Z-0.200 I-9.499 J1.458 K0.000 F250.000
G2 X26.677 Y-89.952 Z-0.200 I209.433 J3.223 K0.000 F250.000
G0 Z0.300
G0 X26.571 Y-89.953 Z0.300
G0 X26.571 Y-89.953 Z0.200
G1 X26.571 Y-89.953 Z-0.200 F150.000
G2 X26.571 Y-86.804 Z-0.200 I101.633 J1.584 K0.000 F250.000
G1 X26.464 Y-86.842 Z-0.200 F250.000
G3 X26.457 Y-90.695 Z-0.200 I236.745 J-2.353 K0.000 F250.000
G2 X26.281 Y-91.079 Z-0.200 I-0.398 J-0.049 K0.000 F250.000
G2 X26.567 Y-91.849 Z-0.200 I-1.055 J-0.830 K0.000 F250.000
G2 X26.355 Y-94.009 Z-0.200 I-7.070 J-0.395 K0.000 F250.000
G3 X26.478 Y-93.820 Z-0.200 I-0.159 J0.238 K0.000 F250.000
G3 X26.604 Y-91.405 Z-0.200 I-7.216 J1.588 K0.000 F250.000
G2 X26.571 Y-89.953 Z-0.200 I101.600 J3.036 K0.000 F250.000
G0 Z0.300
G0 X26.877 Y-89.950 Z0.300
G0 X26.877 Y-89.950 Z0.200
G1 X26.877 Y-89.950 Z-0.200 F150.000
G2 X26.870 Y-86.510 Z-0.200 I216.860 J2.154 K0.000 F250.000
G3 X26.167 Y-86.733 Z-0.200 I-0.211 J-0.553 K0.000 F250.000
G3 X26.157 Y-90.695 Z-0.200 I152.681 J-2.357 K0.000 F250.000
G2 X25.875 Y-90.935 Z-0.200 I-0.305 J0.073 K0.000 F250.000
G2 X24.172 Y-91.201 Z-0.200 I-3.832 J18.996 K0.000 F250.000
G2 X23.852 Y-90.787 Z-0.200 I0.085 J0.397 K0.000 F250.000
G2 X23.914 Y-89.355 Z-0.200 I5.426 J0.485 K0.000 F250.000
G3 X23.874 Y-86.937 Z-0.200 I-28.644 J0.744 K0.000 F250.000
G3 X23.159 Y-87.084 Z-0.200 I-0.258 J-0.560 K0.000 F250.000
G3 X23.184 Y-91.344 Z-0.200 I316.747 J-0.251 K0.000 F250.000
G3 X24.326 Y-91.451 Z-0.200 I0.770 J2.075 K0.000 F250.000
G2 X25.898 Y-91.170 Z-0.200 I2.752 J-10.848 K0.000 F250.000
G2 X26.088 Y-91.300 Z-0.200 I-0.022 J-0.236 K0.000 F250.000
G2 X26.287 Y-92.453 Z-0.200 I-1.944 J-0.929 K0.000 F250.000
G2 X25.986 Y-94.150 Z-0.200 I-6.105 J0.207 K0.000 F250.000
G2 X25.462 Y-94.323 Z-0.200 I-0.535 J0.739 K0.000 F250.000
G2 X24.225 Y-94.477 Z-0.200 I-1.116 J3.926 K0.000 F250.000
G2 X23.801 Y-93.996 Z-0.200 I-0.036 J0.395 K0.000 F250.000
G3 X23.817 Y-93.403 Z-0.200 I-18.603 J0.813 K0.000 F250.000
G3 X23.304 Y-93.428 Z-0.200 I-0.235 J-0.458 K0.000 F250.000
G3 X23.246 Y-93.566 Z-0.200 I0.254 J-0.188 K0.000 F250.000
G3 X23.217 Y-94.845 Z-0.200 I2.691 J-0.700 K0.000 F250.000
G3 X23.475 Y-94.841 Z-0.200 I0.103 J1.507 K0.000 F250.000
G2 X25.207 Y-94.648 Z-0.200 I13.248 J-111.088 K0.000 F250.000
G3 X26.375 Y-94.353 Z-0.200 I-0.232 J3.376 K0.000 F250.000
G3 X26.831 Y-93.653 Z-0.200 I-0.315 J0.703 K0.000 F250.000
G3 X26.892 Y-91.121 Z-0.200 I-9.644 J1.500 K0.000 F250.000
G2 X26.877 Y-89.950 Z-0.200 I216.845 J3.324 K0.000 F250.000
G0 Z0.300
G0 X26.489 Y-90.963 Z0.300
G0 X26.489 Y-90.963 Z0.200
G1 X26.489 Y-90.963 Z-0.200 F150.000
G1 X26.416 Y-91.089 Z-0.200 F250.000
G2 X26.495 Y-91.223 Z-0.200 I-0.213 J-0.216 K0.000 F250.000
G2 X26.489 Y-90.963 Z-0.200 I8.483 J0.340 K0.000 F250.000
G0 Z0.300
G0 X23.871 Y-91.270 Z0.300
G0 X23.871 Y-91.270 Z0.200
G1 X23.871 Y-91.270 Z-0.200 F150.000
G2 X23.633 Y-90.431 Z-0.200 I0.905 J0.711 K0.000 F250.000
G2 X23.714 Y-89.345 Z-0.200 I10.417 J-0.232 K0.000 F250.000
G3 X23.691 Y-87.089 Z-0.200 I-71.474 J0.417 K0.000 F250.000
G3 X23.359 Y-87.168 Z-0.200 I-0.102 J-0.305 K0.000 F250.000
G3 X23.380 Y-91.216 Z-0.200 I606.667 J1.131 K0.000 F250.000
G3 X23.871 Y-91.270 Z-0.200 I0.421 J1.575 K0.000 F250.000
G0 Z0.300
G0 X23.663 Y-91.162 Z0.300
G0 X23.663 Y-91.162 Z0.200
G1 X23.663 Y-91.162 Z-0.200 F150.000
G2 X23.577 Y-89.684 Z-0.200 I2.712 J0.898 K0.000 F250.000
G3 X23.602 Y-87.567 Z-0.200 I-30.801 J1.416 K0.000 F250.000
G3 X23.573 Y-87.185 Z-0.200 I-1.118 J0.107 K0.000 F250.000
G1 X23.459 Y-87.218 Z-0.200 F250.000
G3 X23.479 Y-91.141 Z-0.200 I746.865 J1.734 K0.000 F250.000
G3 X23.663 Y-91.162 Z-0.200 I0.180 J0.784 K0.000 F250.000
G0 Z0.300
G0 X23.585 Y-93.545 Z0.300
G0 X23.585 Y-93.545 Z0.200
G1 X23.585 Y-93.545 Z-0.200 F150.000
G3 X23.455 Y-93.571 Z-0.200 I-0.009 J-0.285 K0.000 F250.000
G3 X23.443 Y-93.603 Z-0.200 I0.058 J-0.041 K0.000 F250.000
G3 X23.362 Y-94.426 Z-0.200 I3.210 J-0.732 K0.000 F250.000
G1 X23.388 Y-94.645 Z-0.200 F250.000
G3 X23.907 Y-94.594 Z-0.200 I-0.289 J5.557 K0.000 F250.000
G2 X23.601 Y-93.991 Z-0.200 I0.265 J0.514 K0.000 F250.000
G3 X23.615 Y-93.547 Z-0.200 I-61.842 J2.230 K0.000 F250.000
G3 X23.585 Y-93.545 Z-0.200 I-0.040 J-0.283 K0.000 F250.000
G0 Z0.300
G0 X23.503 Y-93.915 Z0.300
G0 X23.503 Y-93.915 Z0.200
G1 X23.503 Y-93.915 Z-0.200 F150.000
G3 X23.476 Y-94.540 Z-0.200 I1.514 J-0.378 K0.000 F250.000
G3 X23.665 Y-94.523 Z-0.200 I-0.312 J4.559 K0.000 F250.000
G2 X23.503 Y-93.915 Z-0.200 I0.603 J0.487 K0.000 F250.000
G0 Z0.300
G0 Z0.300
G0 X23.503 Y-93.915
G0 X34.131 Y-93.569
G0 X34.131 Y-93.569 Z0.200
G1 X34.131 Y-93.569 Z-0.200 F150.000
G3 X35.129 Y-93.433 Z-0.200 I0.066 J3.241 K0.000 F250.000
G3 X35.081 Y-89.898 Z-0.200 I-9816.211 J-131.512 K0.000 F250.000
G2 X35.043 Y-86.686 Z-0.200 I65.671 J2.394 K0.000 F250.000
G2 X35.297 Y-86.728 Z-0.200 I0.120 J-0.063 K0.000 F250.000
G3 X37.127 Y-90.954 Z-0.200 I53.527 J20.663 K0.000 F250.000
G2 X38.020 Y-92.640 Z-0.200 I-25.380 J-14.522 K0.000 F250.000
G2 X38.152 Y-93.026 Z-0.200 I-4.366 J-1.716 K0.000 F250.000
G1 X38.175 Y-93.060 Z-0.200 F250.000
G3 X39.079 Y-92.941 Z-0.200 I0.259 J1.517 K0.000 F250.000
G3 X39.193 Y-92.162 Z-0.200 I-1.947 J0.683 K0.000 F250.000
G3 X39.123 Y-89.695 Z-0.200 I-38.436 J0.150 K0.000 F250.000
G2 X39.102 Y-85.047 Z-0.200 I39.967 J2.506 K0.000 F250.000
G2 X39.116 Y-84.873 Z-0.200 I10.169 J-0.766 K0.000 F250.000
G3 X38.126 Y-85.015 Z-0.200 I0.020 J-3.661 K0.000 F250.000
G3 X38.140 Y-91.627 Z-0.200 I223.425 J-2.813 K0.000 F250.000
G2 X37.847 Y-91.583 Z-0.200 I-0.141 J0.060 K0.000 F250.000
G2 X35.444 Y-86.008 Z-0.200 I66.741 J32.078 K0.000 F250.000
G3 X35.122 Y-85.385 Z-0.200 I-3.045 J-1.176 K0.000 F250.000
G3 X34.072 Y-85.517 Z-0.200 I-0.252 J-2.236 K0.000 F250.000
G3 X33.945 Y-90.010 Z-0.200 I20.152 J-2.816 K0.000 F250.000
G2 X34.131 Y-93.569 Z-0.200 I-73.111 J-5.603 K0.000 F250.000
G0 Z0.300
G0 X34.246 Y-93.471 Z0.300
G0 X34.246 Y-93.471 Z0.200
G1 X34.246 Y-93.471 Z-0.200 F150.000
G3 X35.028 Y-93.364 Z-0.200 I-0.223 J4.572 K0.000 F250.000
G2 X35.018 Y-92.582 Z-0.200 I566.864 J8.029 K0.000 F250.000
G2 X34.948 Y-86.655 Z-0.200 I223.409 J5.601 K0.000 F250.000
G2 X35.403 Y-86.726 Z-0.200 I0.216 J-0.111 K0.000 F250.000
G3 X37.215 Y-90.908 Z-0.200 I53.577 J20.730 K0.000 F250.000
G2 X38.114 Y-92.606 Z-0.200 I-24.858 J-14.235 K0.000 F250.000
G2 X38.237 Y-92.962 Z-0.200 I-4.049 J-1.603 K0.000 F250.000
G3 X39.002 Y-92.870 Z-0.200 I0.197 J1.580 K0.000 F250.000
G3 X39.093 Y-92.158 Z-0.200 I-2.192 J0.641 K0.000 F250.000
G3 X39.023 Y-89.700 Z-0.200 I-38.356 J0.146 K0.000 F250.000
G2 X39.002 Y-85.039 Z-0.200 I40.051 J2.511 K0.000 F250.000
G1 X39.007 Y-84.981 Z-0.200 F250.000
G3 X38.220 Y-85.082 Z-0.200 I-0.079 J-2.509 K0.000 F250.000
G3 X38.239 Y-91.642 Z-0.200 I383.636 J-2.141 K0.000 F250.000
G2 X37.760 Y-91.631 Z-0.200 I-0.238 J0.072 K0.000 F250.000
G2 X35.352 Y-86.047 Z-0.200 I66.756 J32.096 K0.000 F250.000
G3 X35.068 Y-85.482 Z-0.200 I-3.239 J-1.274 K0.000 F250.000
G3 X34.162 Y-85.584 Z-0.200 I-0.147 J-2.762 K0.000 F250.000
G3 X34.045 Y-90.004 Z-0.200 I20.187 J-2.745 K0.000 F250.000
G2 X34.246 Y-93.471 Z-0.200 I-365.676 J-22.876 K0.000 F250.000
G0 Z0.300
G0 X34.321 Y-93.366 Z0.300
G0 X34.321 Y-93.366 Z0.200
G1 X34.321 Y-93.366 Z-0.200 F150.000
G3 X34.927 Y-93.286 Z-0.200 I-0.343 J4.909 K0.000 F250.000
G2 X34.853 Y-86.624 Z-0.200 I191.667 J5.471 K0.000 F250.000
G2 X35.497 Y-86.690 Z-0.200 I0.311 J-0.140 K0.000 F250.000
G3 X35.984 Y-87.904 Z-0.200 I31.207 J11.825 K0.000 F250.000
G3 X35.044 Y-85.637 Z-0.200 I-87.221 J-34.842 K0.000 F250.000
G3 X34.941 Y-85.575 Z-0.200 I-0.072 J-0.002 K0.000 F250.000
G3 X34.250 Y-85.662 Z-0.200 I0.031 J-3.032 K0.000 F250.000
G3 X34.145 Y-89.998 Z-0.200 I20.280 J-2.661 K0.000 F250.000
G2 X34.321 Y-93.366 Z-0.200 I-65.910 J-5.135 K0.000 F250.000
G0 Z0.300
G0 X34.418 Y-93.258 Z0.300
G0 X34.418 Y-93.258 Z0.200
G1 X34.418 Y-93.258 Z-0.200 F150.000
G3 X34.826 Y-93.203 Z-0.200 I-0.418 J4.640 K0.000 F250.000
G3 X34.781 Y-89.902 Z-0.200 I-6470.357 J-86.046 K0.000 F250.000
G1 X34.781 Y-89.902 Z-0.200 F250.000
G2 X34.735 Y-86.702 Z-0.200 I227.762 J4.884 K0.000 F250.000
G2 X35.245 Y-86.318 Z-0.200 I0.416 J-0.023 K0.000 F250.000
G3 X34.942 Y-85.675 Z-0.200 I-2.019 J-0.558 K0.000 F250.000
G3 X34.338 Y-85.744 Z-0.200 I0.040 J-3.035 K0.000 F250.000
G3 X34.245 Y-89.992 Z-0.200 I21.670 J-2.600 K0.000 F250.000
G2 X34.418 Y-93.258 Z-0.200 I-65.995 J-5.140 K0.000 F250.000
G0 Z0.300
G0 X34.515 Y-93.147 Z0.300
G0 X34.515 Y-93.147 Z0.200
G1 X34.515 Y-93.147 Z-0.200 F150.000
G3 X34.725 Y-93.119 Z-0.200 I-0.371 J3.566 K0.000 F250.000
G2 X34.636 Y-86.694 Z-0.200 I6954.543 J100.010 K0.000 F250.000
G2 X35.092 Y-86.206 Z-0.200 I0.526 J-0.035 K0.000 F250.000
G3 X34.893 Y-85.778 Z-0.200 I-5.307 J-2.215 K0.000 F250.000
G3 X34.428 Y-85.828 Z-0.200 I0.086 J-3.030 K0.000 F250.000
G3 X34.345 Y-89.986 Z-0.200 I21.678 J-2.512 K0.000 F250.000
G2 X34.515 Y-93.147 Z-0.200 I-66.541 J-5.174 K0.000 F250.000
G0 Z0.300
G0 X34.612 Y-93.034 Z0.300
G0 X34.612 Y-93.034 Z0.200
G1 X34.612 Y-93.034 Z-0.200 F150.000
G1 X34.624 Y-93.032 Z-0.200 F250.000
G1 X34.618 Y-92.587 Z-0.200 F250.000
G1 X34.618 Y-92.587 Z-0.200 F250.000
G2 X34.536 Y-86.687 Z-0.200 I1157.029 J19.048 K0.000 F250.000
G2 X34.957 Y-86.145 Z-0.200 I0.602 J-0.033 K0.000 F250.000
G3 X34.833 Y-85.882 Z-0.200 I-4.679 J-2.061 K0.000 F250.000
G3 X34.517 Y-85.914 Z-0.200 I0.067 J-2.292 K0.000 F250.000
G3 X34.445 Y-89.980 Z-0.200 I21.720 J-2.420 K0.000 F250.000
G2 X34.612 Y-93.034 Z-0.200 I-67.421 J-5.229 K0.000 F250.000
G0 Z0.300
G0 X37.864 Y-91.886 Z0.300
G0 X37.864 Y-91.886 Z0.200
G1 X37.864 Y-91.886 Z-0.200 F150.000
G2 X38.311 Y-92.864 Z-0.200 I-3.728 J-2.297 K0.000 F250.000
G3 X38.928 Y-92.791 Z-0.200 I0.066 J2.103 K0.000 F250.000
G3 X38.994 Y-91.164 Z-0.200 I-7.453 J1.117 K0.000 F250.000
G2 X38.898 Y-85.089 Z-0.200 I51.408 J3.850 K0.000 F250.000
G3 X38.318 Y-85.158 Z-0.200 I0.205 J-4.230 K0.000 F250.000
G3 X38.339 Y-91.650 Z-0.200 I397.979 J-1.952 K0.000 F250.000
G2 X37.864 Y-91.886 Z-0.200 I-0.315 J0.037 K0.000 F250.000
G0 Z0.300
G0 X38.053 Y-92.026 Z0.300
G0 X38.053 Y-92.026 Z0.200
G1 X38.053 Y-92.026 Z-0.200 F150.000
G2 X38.382 Y-92.765 Z-0.200 I-3.211 J-1.874 K0.000 F250.000
G3 X38.840 Y-92.710 Z-0.200 I-0.007 J2.000 K0.000 F250.000
G3 X38.847 Y-90.147 Z-0.200 I-10.912 J1.313 K0.000 F250.000
G1 X38.823 Y-89.709 Z-0.200 F250.000
G2 X38.790 Y-85.198 Z-0.200 I42.796 J2.570 K0.000 F250.000
G3 X38.417 Y-85.238 Z-0.200 I0.296 J-4.566 K0.000 F250.000
G3 X38.443 Y-91.611 Z-0.200 I328.343 J-1.814 K0.000 F250.000
G2 X38.053 Y-92.026 Z-0.200 I-0.420 J0.004 K0.000 F250.000
G0 Z0.300
G0 X38.203 Y-92.093 Z0.300
G0 X38.203 Y-92.093 Z0.200
G1 X38.203 Y-92.093 Z-0.200 F150.000
G2 X38.451 Y-92.660 Z-0.200 I-2.792 J-1.562 K0.000 F250.000
G3 X38.750 Y-92.624 Z-0.200 I-0.007 J1.306 K0.000 F250.000
G3 X38.724 Y-89.714 Z-0.200 I-18.439 J1.287 K0.000 F250.000
G2 X38.683 Y-85.308 Z-0.200 I50.437 J2.666 K0.000 F250.000
G3 X38.515 Y-85.327 Z-0.200 I0.145 J-2.051 K0.000 F250.000
G3 X38.543 Y-91.617 Z-0.200 I340.895 J-1.639 K0.000 F250.000
G2 X38.203 Y-92.093 Z-0.200 I-0.517 J0.010 K0.000 F250.000
G0 Z0.300
G0 X38.333 Y-92.136 Z0.300
G0 X38.333 Y-92.136 Z0.200
G1 X38.333 Y-92.136 Z-0.200 F150.000
G2 X38.520 Y-92.556 Z-0.200 I-2.083 J-1.181 K0.000 F250.000
G3 X38.659 Y-92.539 Z-0.200 I-0.006 J0.607 K0.000 F250.000
G3 X38.629 Y-89.815 Z-0.200 I-18.463 J1.157 K0.000 F250.000
G2 X38.634 Y-91.705 Z-0.200 I-17.369 J-0.995 K0.000 F250.000
G2 X38.333 Y-92.136 Z-0.200 I-0.524 J0.046 K0.000 F250.000
G0 Z0.300
G0 X38.460 Y-92.172 Z0.300
G0 X38.460 Y-92.172 Z0.200
G1 X38.460 Y-92.172 Z-0.200 F150.000
G1 X38.573 Y-92.413 Z-0.200 F250.000
G3 X38.593 Y-92.032 Z-0.200 I-2.653 J0.331 K0.000 F250.000
G2 X38.460 Y-92.172 Z-0.200 I-0.270 J0.124 K0.000 F250.000
G0 Z0.300
G0 X34.561 Y-86.331 Z0.300
G0 X34.561 Y-86.331 Z0.200
G1 X34.561 Y-86.331 Z-0.200 F150.000
G2 X34.824 Y-86.093 Z-0.200 I0.423 J-0.203 K0.000 F250.000
G3 X34.688 Y-85.992 Z-0.200 I-0.089 J0.023 K0.000 F250.000
G1 X34.606 Y-86.003 Z-0.200 F250.000
G1 X34.561 Y-86.331 Z-0.200 F250.000
G0 Z0.300
G0 X34.650 Y-86.137 Z0.300
G0 X34.650 Y-86.137 Z0.200
G1 X34.650 Y-86.137 Z-0.200 F150.000
G2 X34.742 Y-86.066 Z-0.200 I0.155 J-0.105 K0.000 F250.000
G3 X34.650 Y-86.137 Z-0.200 I-0.037 J-0.047 K0.000 F250.000
G0 Z0.300
G0 Z0.300
G0 X34.650 Y-86.137
G0 X34.418 Y-84.102
G0 X34.418 Y-84.102 Z0.200
G1 X34.418 Y-84.102 Z-0.200 F150.000
G1 X22.399 Y-85.476 Z-0.200 F250.000
G3 X21.608 Y-86.186 Z-0.200 I0.074 J-0.879 K0.000 F250.000
G1 X21.606 Y-95.646 Z-0.200 F250.000
G1 X21.631 Y-95.810 Z-0.200 F250.000
G3 X22.561 Y-96.335 Z-0.200 I0.789 J0.310 K0.000 F250.000
G1 X39.668 Y-94.372 Z-0.200 F250.000
G3 X40.520 Y-93.497 Z-0.200 I-0.230 J1.077 K0.000 F250.000
G1 X40.525 Y-84.144 Z-0.200 F250.000
G1 X40.507 Y-84.041 Z-0.200 F250.000
G3 X39.727 Y-83.505 Z-0.200 I-0.813 J-0.346 K0.000 F250.000
G1 X39.725 Y-83.512 Z-0.200 F250.000
G3 X39.627 Y-83.506 Z-0.200 I-0.057 J-0.116 K0.000 F250.000
G1 X34.418 Y-84.102 Z-0.200 F250.000
G0 Z0.300
G0 X34.406 Y-84.002 Z0.300
G0 X34.406 Y-84.002 Z0.200
G1 X34.406 Y-84.002 Z-0.200 F150.000
G1 X22.388 Y-85.376 Z-0.200 F250.000
G3 X21.511 Y-86.161 Z-0.200 I0.089 J-0.982 K0.000 F250.000
G1 X21.506 Y-95.646 Z-0.200 F250.000
G3 X21.554 Y-95.892 Z-0.200 I0.731 J0.015 K0.000 F250.000
G3 X22.558 Y-96.435 Z-0.200 I0.866 J0.402 K0.000 F250.000
G1 X39.679 Y-94.471 Z-0.200 F250.000
G3 X40.620 Y-93.508 Z-0.200 I-0.240 J1.175 K0.000 F250.000
G1 X40.625 Y-84.144 Z-0.200 F250.000
G1 X40.604 Y-84.021 Z-0.200 F250.000
G3 X39.746 Y-83.406 Z-0.200 I-0.939 J-0.404 K0.000 F250.000
G1 X39.744 Y-83.415 Z-0.200 F250.000
G3 X39.621 Y-83.406 Z-0.200 I-0.076 J-0.206 K0.000 F250.000
G1 X34.406 Y-84.002 Z-0.200 F250.000
G0 Z0.300
G0 X34.401 Y-83.952 Z0.300
G0 X34.401 Y-83.952 Z0.200
G1 X34.401 Y-83.952 Z-0.200 F150.000
G1 X22.452 Y-85.319 Z-0.200 F250.000
G3 X21.489 Y-86.061 Z-0.200 I0.090 J-1.112 K0.000 F250.000
G3 X21.457 Y-87.110 Z-0.200 I3.654 J-0.638 K0.000 F250.000
G2 X21.232 Y-87.335 Z-0.200 I-0.225 J-0.000 K0.000 F250.000
G1 X0.225 Y-87.335 Z-0.200 F250.000
G1 X0.225 Y-87.385 Z-0.200 F250.000
G1 X21.232 Y-87.385 Z-0.200 F250.000
G2 X21.457 Y-87.610 Z-0.200 I0.000 J-0.225 K0.000 F250.000
G2 X21.421 Y-88.052 Z-0.200 I-0.771 J-0.160 K0.000 F250.000
G2 X21.457 Y-88.200 Z-0.200 I-1.209 J-0.370 K0.000 F250.000
G1 X21.457 Y-88.698 Z-0.200 F250.000
G2 X21.232 Y-88.923 Z-0.200 I-0.225 J-0.000 K0.000 F250.000
G1 X0.225 Y-88.923 Z-0.200 F250.000
G1 X0.225 Y-88.972 Z-0.200 F250.000
G1 X21.232 Y-88.972 Z-0.200 F250.000
G2 X21.457 Y-89.197 Z-0.200 I0.000 J-0.225 K0.000 F250.000
G2 X21.421 Y-89.639 Z-0.200 I-0.771 J-0.160 K0.000 F250.000
G2 X21.457 Y-89.787 Z-0.200 I-1.209 J-0.370 K0.000 F250.000
G1 X21.457 Y-90.285 Z-0.200 F250.000
G2 X21.232 Y-90.510 Z-0.200 I-0.225 J-0.000 K0.000 F250.000
G1 X0.225 Y-90.510 Z-0.200 F250.000
G1 X0.225 Y-90.560 Z-0.200 F250.000
G1 X21.232 Y-90.560 Z-0.200 F250.000
G2 X21.457 Y-90.785 Z-0.200 I0.000 J-0.225 K0.000 F250.000
G2 X21.421 Y-91.227 Z-0.200 I-0.771 J-0.160 K0.000 F250.000
G2 X21.457 Y-91.375 Z-0.200 I-1.209 J-0.370 K0.000 F250.000
G1 X21.457 Y-91.873 Z-0.200 F250.000
G2 X21.232 Y-92.098 Z-0.200 I-0.225 J-0.000 K0.000 F250.000
G1 X0.225 Y-92.098 Z-0.200 F250.000
G1 X0.225 Y-92.147 Z-0.200 F250.000
G1 X21.232 Y-92.147 Z-0.200 F250.000
G2 X21.457 Y-92.372 Z-0.200 I0.000 J-0.225 K0.000 F250.000
G2 X21.421 Y-92.814 Z-0.200 I-0.771 J-0.160 K0.000 F250.000
G2 X21.457 Y-92.962 Z-0.200 I-1.209 J-0.370 K0.000 F250.000
G1 X21.457 Y-95.807 Z-0.200 F250.000
G3 X22.274 Y-96.504 Z-0.200 I0.729 J0.028 K0.000 F250.000
G3 X22.391 Y-96.496 Z-0.200 I-0.007 J1.053 K0.000 F250.000
G1 X39.671 Y-94.519 Z-0.200 F250.000
G3 X40.635 Y-93.775 Z-0.200 I-0.090 J1.114 K0.000 F250.000
G3 X40.667 Y-92.962 Z-0.200 I-2.838 J0.520 K0.000 F250.000
G2 X40.721 Y-92.825 Z-0.200 I0.134 J0.027 K0.000 F250.000
G2 X40.667 Y-92.372 Z-0.200 I0.528 J0.292 K0.000 F250.000
G2 X40.892 Y-92.147 Z-0.200 I0.225 J0.000 K0.000 F250.000
G1 X61.775 Y-92.147 Z-0.200 F250.000
G1 X61.775 Y-92.098 Z-0.200 F250.000
G1 X40.892 Y-92.098 Z-0.200 F250.000
G2 X40.667 Y-91.873 Z-0.200 I-0.000 J0.225 K0.000 F250.000
G1 X40.667 Y-91.375 Z-0.200 F250.000
G2 X40.721 Y-91.237 Z-0.200 I0.134 J0.027 K0.000 F250.000
G2 X40.667 Y-90.785 Z-0.200 I0.528 J0.292 K0.000 F250.000
G2 X40.892 Y-90.560 Z-0.200 I0.225 J0.000 K0.000 F250.000
G1 X61.775 Y-90.560 Z-0.200 F250.000
G1 X61.775 Y-90.510 Z-0.200 F250.000
G1 X40.892 Y-90.510 Z-0.200 F250.000
G2 X40.667 Y-90.285 Z-0.200 I-0.000 J0.225 K0.000 F250.000
G1 X40.667 Y-89.787 Z-0.200 F250.000
G2 X40.721 Y-89.650 Z-0.200 I0.134 J0.027 K0.000 F250.000
G2 X40.667 Y-89.197 Z-0.200 I0.528 J0.292 K0.000 F250.000
G2 X40.892 Y-88.972 Z-0.200 I0.225 J0.000 K0.000 F250.000
G1 X61.775 Y-88.972 Z-0.200 F250.000
G1 X61.775 Y-88.923 Z-0.200 F250.000
G1 X40.892 Y-88.923 Z-0.200 F250.000
G2 X40.667 Y-88.698 Z-0.200 I-0.000 J0.225 K0.000 F250.000
G1 X40.667 Y-88.200 Z-0.200 F250.000
G2 X40.721 Y-88.062 Z-0.200 I0.134 J0.027 K0.000 F250.000
G2 X40.667 Y-87.610 Z-0.200 I0.528 J0.292 K0.000 F250.000
G2 X40.892 Y-87.385 Z-0.200 I0.225 J0.000 K0.000 F250.000
G1 X61.775 Y-87.385 Z-0.200 F250.000
G1 X61.775 Y-87.335 Z-0.200 F250.000
G1 X40.892 Y-87.335 Z-0.200 F250.000
G2 X40.667 Y-87.110 Z-0.200 I-0.000 J0.225 K0.000 F250.000
G1 X40.667 Y-84.030 Z-0.200 F250.000
G3 X40.129 Y-83.372 Z-0.200 I-0.675 J-0.002 K0.000 F250.000
G3 X39.730 Y-83.342 Z-0.200 I-0.279 J-1.054 K0.000 F250.000
G1 X34.401 Y-83.952 Z-0.200 F250.000
G0 Z0.300
G0 X34.389 Y-83.853 Z0.300
G0 X34.389 Y-83.853 Z0.200
G1 X34.389 Y-83.853 Z-0.200 F150.000
G1 X22.435 Y-85.221 Z-0.200 F250.000
G3 X21.392 Y-86.034 Z-0.200 I0.106 J-1.211 K0.000 F250.000
G3 X21.357 Y-87.110 Z-0.200 I3.749 J-0.662 K0.000 F250.000
G2 X21.232 Y-87.235 Z-0.200 I-0.125 J0.000 K0.000 F250.000
G1 X0.125 Y-87.235 Z-0.200 F250.000
G1 X0.125 Y-87.485 Z-0.200 F250.000
G1 X21.232 Y-87.485 Z-0.200 F250.000
G2 X21.357 Y-87.610 Z-0.200 I-0.000 J-0.125 K0.000 F250.000
G1 X21.357 Y-87.930 Z-0.200 F250.000
G2 X21.232 Y-88.055 Z-0.200 I-0.125 J0.000 K0.000 F250.000
G1 X0.125 Y-88.055 Z-0.200 F250.000
G1 X0.125 Y-88.075 Z-0.200 F250.000
G1 X21.232 Y-88.075 Z-0.200 F250.000
G2 X21.357 Y-88.200 Z-0.200 I-0.000 J-0.125 K0.000 F250.000
G1 X21.357 Y-88.698 Z-0.200 F250.000
G2 X21.232 Y-88.823 Z-0.200 I-0.125 J0.000 K0.000 F250.000
G1 X0.125 Y-88.823 Z-0.200 F250.000
G1 X0.125 Y-89.072 Z-0.200 F250.000
G1 X21.232 Y-89.072 Z-0.200 F250.000
G2 X21.357 Y-89.197 Z-0.200 I-0.000 J-0.125 K0.000 F250.000
G1 X21.357 Y-89.518 Z-0.200 F250.000
G2 X21.232 Y-89.643 Z-0.200 I-0.125 J0.000 K0.000 F250.000
G1 X0.125 Y-89.643 Z-0.200 F250.000
G1 X0.125 Y-89.662 Z-0.200 F250.000
G1 X21.232 Y-89.662 Z-0.200 F250.000
G2 X21.357 Y-89.787 Z-0.200 I-0.000 J-0.125 K0.000 F250.000
G1 X21.357 Y-90.285 Z-0.200 F250.000
G2 X21.232 Y-90.410 Z-0.200 I-0.125 J0.000 K0.000 F250.000
G1 X0.125 Y-90.410 Z-0.200 F250.000
G1 X0.125 Y-90.660 Z-0.200 F250.000
G1 X21.232 Y-90.660 Z-0.200 F250.000
G2 X21.357 Y-90.785 Z-0.200 I-0.000 J-0.125 K0.000 F250.000
G1 X21.357 Y-91.105 Z-0.200 F250.000
G2 X21.232 Y-91.230 Z-0.200 I-0.125 J0.000 K0.000 F250.000
G1 X0.125 Y-91.230 Z-0.200 F250.000
G1 X0.125 Y-91.250 Z-0.200 F250.000
G1 X21.232 Y-91.250 Z-0.200 F250.000
G2 X21.357 Y-91.375 Z-0.200 I-0.000 J-0.125 K0.000 F250.000
G1 X21.357 Y-91.873 Z-0.200 F250.000
G2 X21.232 Y-91.998 Z-0.200 I-0.125 J0.000 K0.000 F250.000
G1 X0.125 Y-91.998 Z-0.200 F250.000
G1 X0.125 Y-92.247 Z-0.200 F250.000
G1 X21.232 Y-92.247 Z-0.200 F250.000
G2 X21.357 Y-92.372 Z-0.200 I-0.000 J-0.125 K0.000 F250.000
G1 X21.357 Y-92.693 Z-0.200 F250.000
G2 X21.232 Y-92.818 Z-0.200 I-0.125 J0.000 K0.000 F250.000
G1 X0.125 Y-92.818 Z-0.200 F250.000
G1 X0.125 Y-92.837 Z-0.200 F250.000
G1 X21.232 Y-92.837 Z-0.200 F250.000
G2 X21.357 Y-92.962 Z-0.200 I-0.000 J-0.125 K0.000 F250.000
G1 X21.357 Y-95.811 Z-0.200 F250.000
G3 X22.270 Y-96.604 Z-0.200 I0.828 J0.030 K0.000 F250.000
G3 X22.401 Y-96.596 Z-0.200 I-0.005 J1.180 K0.000 F250.000
G1 X39.688 Y-94.618 Z-0.200 F250.000
G3 X40.732 Y-93.803 Z-0.200 I-0.107 J1.213 K0.000 F250.000
G3 X40.767 Y-92.962 Z-0.200 I-2.934 J0.544 K0.000 F250.000
G2 X40.892 Y-92.837 Z-0.200 I0.125 J-0.000 K0.000 F250.000
G1 X61.875 Y-92.837 Z-0.200 F250.000
G1 X61.875 Y-92.818 Z-0.200 F250.000
G1 X40.892 Y-92.818 Z-0.200 F250.000
G2 X40.767 Y-92.693 Z-0.200 I0.000 J0.125 K0.000 F250.000
G1 X40.767 Y-92.372 Z-0.200 F250.000
G2 X40.892 Y-92.247 Z-0.200 I0.125 J-0.000 K0.000 F250.000
G1 X61.875 Y-92.247 Z-0.200 F250.000
G1 X61.875 Y-91.998 Z-0.200 F250.000
G1 X40.892 Y-91.998 Z-0.200 F250.000
G2 X40.767 Y-91.873 Z-0.200 I0.000 J0.125 K0.000 F250.000
G1 X40.767 Y-91.375 Z-0.200 F250.000
G2 X40.892 Y-91.250 Z-0.200 I0.125 J-0.000 K0.000 F250.000
G1 X61.875 Y-91.250 Z-0.200 F250.000
G1 X61.875 Y-91.230 Z-0.200 F250.000
G1 X40.892 Y-91.230 Z-0.200 F250.000
G2 X40.767 Y-91.105 Z-0.200 I0.000 J0.125 K0.000 F250.000
G1 X40.767 Y-90.785 Z-0.200 F250.000
G2 X40.892 Y-90.660 Z-0.200 I0.125 J-0.000 K0.000 F250.000
G1 X61.875 Y-90.660 Z-0.200 F250.000
G1 X61.875 Y-90.410 Z-0.200 F250.000
G1 X40.892 Y-90.410 Z-0.200 F250.000
G2 X40.767 Y-90.285 Z-0.200 I0.000 J0.125 K0.000 F250.000
G1 X40.767 Y-89.787 Z-0.200 F250.000
G2 X40.892 Y-89.662 Z-0.200 I0.125 J-0.000 K0.000 F250.000
G1 X61.875 Y-89.662 Z-0.200 F250.000
G1 X61.875 Y-89.643 Z-0.200 F250.000
G1 X40.892 Y-89.643 Z-0.200 F250.000
G2 X40.767 Y-89.518 Z-0.200 I0.000 J0.125 K0.000 F250.000
G1 X40.767 Y-89.197 Z-0.200 F250.000
G2 X40.892 Y-89.072 Z-0.200 I0.125 J-0.000 K0.000 F250.000
G1 X61.875 Y-89.072 Z-0.200 F250.000
G1 X61.875 Y-88.823 Z-0.200 F250.000
G1 X40.892 Y-88.823 Z-0.200 F250.000
G2 X40.767 Y-88.698 Z-0.200 I0.000 J0.125 K0.000 F250.000
G1 X40.767 Y-88.200 Z-0.200 F250.000
G2 X40.892 Y-88.075 Z-0.200 I0.125 J-0.000 K0.000 F250.000
G1 X61.875 Y-88.075 Z-0.200 F250.000
G1 X61.875 Y-88.055 Z-0.200 F250.000
G1 X40.892 Y-88.055 Z-0.200 F250.000
G2 X40.767 Y-87.930 Z-0.200 I0.000 J0.125 K0.000 F250.000
G1 X40.767 Y-87.610 Z-0.200 F250.000
G2 X40.892 Y-87.485 Z-0.200 I0.125 J-0.000 K0.000 F250.000
G1 X61.875 Y-87.485 Z-0.200 F250.000
G1 X61.875 Y-87.235 Z-0.200 F250.000
G1 X40.892 Y-87.235 Z-0.200 F250.000
G2 X40.767 Y-87.110 Z-0.200 I0.000 J0.125 K0.000 F250.000
G1 X40.767 Y-84.027 Z-0.200 F250.000
G3 X40.154 Y-83.274 Z-0.200 I-0.775 J-0.005 K0.000 F250.000
G3 X39.720 Y-83.243 Z-0.200 I-0.301 J-1.144 K0.000 F250.000
G1 X34.389 Y-83.853 Z-0.200 F250.000
G0 Z0.300
G0 X40.086 Y-83.430 Z0.300
G0 X40.086 Y-83.430 Z0.200
G1 X40.086 Y-83.430 Z-0.200 F150.000
G2 X40.556 Y-83.797 Z-0.200 I-0.318 J-0.892 K0.000 F250.000
G3 X40.086 Y-83.430 Z-0.200 I-0.563 J-0.235 K0.000 F250.000
G0 Z0.300
G0 X40.686 Y-87.296 Z0.300
G0 X40.686 Y-87.296 Z0.200
G1 X40.686 Y-87.296 Z-0.200 F150.000
G1 X40.685 Y-87.424 Z-0.200 F250.000
G2 X40.752 Y-87.360 Z-0.200 I0.089 J-0.026 K0.000 F250.000
G2 X40.686 Y-87.296 Z-0.200 I0.022 J0.090 K0.000 F250.000
G0 Z0.300
G0 X40.685 Y-88.882 Z0.300
G0 X40.685 Y-88.882 Z0.200
G1 X40.685 Y-88.882 Z-0.200 F150.000
G1 X40.684 Y-89.012 Z-0.200 F250.000
G2 X40.752 Y-88.947 Z-0.200 I0.090 J-0.026 K0.000 F250.000
G2 X40.685 Y-88.882 Z-0.200 I0.023 J0.091 K0.000 F250.000
G0 Z0.300
G0 X40.684 Y-90.469 Z0.300
G0 X40.684 Y-90.469 Z0.200
G1 X40.684 Y-90.469 Z-0.200 F150.000
G1 X40.683 Y-90.601 Z-0.200 F250.000
G2 X40.752 Y-90.535 Z-0.200 I0.091 J-0.026 K0.000 F250.000
G2 X40.684 Y-90.469 Z-0.200 I0.023 J0.092 K0.000 F250.000
G0 Z0.300
G0 X40.683 Y-92.055 Z0.300
G0 X40.683 Y-92.055 Z0.200
G1 X40.683 Y-92.055 Z-0.200 F150.000
G1 X40.683 Y-92.189 Z-0.200 F250.000
G2 X40.752 Y-92.122 Z-0.200 I0.093 J-0.027 K0.000 F250.000
G2 X40.683 Y-92.055 Z-0.200 I0.023 J0.094 K0.000 F250.000
G0 Z0.300
G0 X21.957 Y-96.383 Z0.300
G0 X21.957 Y-96.383 Z0.200
G1 X21.957 Y-96.383 Z-0.200 F150.000
G2 X21.583 Y-96.074 Z-0.200 I0.296 J0.740 K0.000 F250.000
G3 X21.957 Y-96.383 Z-0.200 I0.520 J0.249 K0.000 F250.000
G0 Z0.300
G0 X21.446 Y-92.194 Z0.300
G0 X21.446 Y-92.194 Z0.200
G1 X21.446 Y-92.194 Z-0.200 F150.000
G1 X21.446 Y-92.051 Z-0.200 F250.000
G2 X21.372 Y-92.122 Z-0.200 I-0.099 J0.028 K0.000 F250.000
G2 X21.446 Y-92.194 Z-0.200 I-0.025 J-0.100 K0.000 F250.000
G0 Z0.300
G0 X21.447 Y-90.608 Z0.300
G0 X21.447 Y-90.608 Z0.200
G1 X21.447 Y-90.608 Z-0.200 F150.000
G1 X21.447 Y-90.462 Z-0.200 F250.000
G2 X21.372 Y-90.535 Z-0.200 I-0.101 J0.029 K0.000 F250.000
G2 X21.447 Y-90.608 Z-0.200 I-0.025 J-0.102 K0.000 F250.000
G0 Z0.300
G0 X21.448 Y-89.021 Z0.300
G0 X21.448 Y-89.021 Z0.200
G1 X21.448 Y-89.021 Z-0.200 F150.000
G1 X21.448 Y-88.873 Z-0.200 F250.000
G2 X21.372 Y-88.947 Z-0.200 I-0.102 J0.029 K0.000 F250.000
G2 X21.448 Y-89.021 Z-0.200 I-0.026 J-0.103 K0.000 F250.000
G0 Z0.300
G0 X21.449 Y-87.435 Z0.300
G0 X21.449 Y-87.435 Z0.200
G1 X21.449 Y-87.435 Z-0.200 F150.000
G1 X21.450 Y-87.285 Z-0.200 F250.000
G2 X21.372 Y-87.360 Z-0.200 I-0.104 J0.030 K0.000 F250.000
G2 X21.449 Y-87.435 Z-0.200 I-0.026 J-0.104 K0.000 F250.000
G0 Z0.300
G0 Z0.300
(Finish operation: ENGRAVE 0.25MM)
(Begin postamble)
M5
G17 G90
M2
