(Exported by FreeCAD)
(Post Processor: grbl_post)
(Output Time:2023-04-16 15:44:44.574882)
(Begin preamble)
G17 G90
G21
(Begin operation: G54)
(Path: G54)
G54
G0 Z5.000
(Finish operation: G54)
(Begin operation: endmill-0_6mm001)
(Path: endmill-0_6mm001)
(endmill-0_6mm001)
(Begin toolchange)
( M6 T5 )
M3 S10000
(Finish operation: endmill-0_6mm001)
(Begin operation: ENGRAVE 0.6MM)
(Path: ENGRAVE 0.6MM)
(ENGRAVE 0.6MM)
G0 Z1.000
G0 X18.482 Y-34.946
G0 Z0.500
G1 X18.482 Y-34.946 Z-0.200 F100.000
G3 X18.470 Y-34.908 Z-0.200 I-2.814 J-0.851 K0.000 F150.000
G3 X15.133 Y-35.492 Z-0.200 I4.633 J-36.283 K0.000 F150.000
G3 X15.244 Y-36.612 Z-0.200 I3.311 J-0.238 K0.000 F150.000
G2 X16.133 Y-36.593 Z-0.200 I0.487 J-1.929 K0.000 F150.000
G2 X16.378 Y-37.015 Z-0.200 I-0.236 J-0.419 K0.000 F150.000
G3 X16.760 Y-39.288 Z-0.200 I70.417 J10.675 K0.000 F150.000
G3 X17.466 Y-39.234 Z-0.200 I0.087 J3.434 K0.000 F150.000
G3 X18.088 Y-39.065 Z-0.200 I-0.301 J2.344 K0.000 F150.000
G3 X17.688 Y-36.562 Z-0.200 I-130.173 J-19.519 K0.000 F150.000
G2 X18.114 Y-36.159 Z-0.200 I0.446 J-0.045 K0.000 F150.000
G3 X18.597 Y-36.048 Z-0.200 I-0.834 J4.739 K0.000 F150.000
G3 X18.482 Y-34.946 Z-0.200 I-2.929 J0.251 K0.000 F150.000
G0 Z1.000
G0 X18.289 Y-35.173 Z1.000
G0 X18.289 Y-35.173 Z0.500
G1 X18.289 Y-35.173 Z-0.200 F100.000
G3 X15.371 Y-35.673 Z-0.200 I8.041 J-55.732 K0.000 F150.000
G3 X15.425 Y-36.354 Z-0.200 I5.042 J0.057 K0.000 F150.000
G2 X16.285 Y-36.399 Z-0.200 I0.361 J-1.356 K0.000 F150.000
G2 X16.596 Y-36.844 Z-0.200 I-0.224 J-0.487 K0.000 F150.000
G3 X16.959 Y-39.046 Z-0.200 I61.614 J9.017 K0.000 F150.000
G3 X17.834 Y-38.885 Z-0.200 I-0.053 J2.751 K0.000 F150.000
G2 X17.450 Y-36.592 Z-0.200 I355.021 J60.629 K0.000 F150.000
G2 X17.759 Y-36.035 Z-0.200 I0.536 J0.067 K0.000 F150.000
G2 X18.362 Y-35.861 Z-0.200 I0.921 J-2.069 K0.000 F150.000
G3 X18.289 Y-35.173 Z-0.200 I-2.816 J0.049 K0.000 F150.000
G0 Z1.000
G0 X18.094 Y-35.444 Z1.000
G0 X18.094 Y-35.444 Z0.500
G1 X18.094 Y-35.444 Z-0.200 F100.000
G3 X15.619 Y-35.868 Z-0.200 I8.822 J-58.914 K0.000 F150.000
G3 X15.635 Y-36.095 Z-0.200 I3.160 J0.111 K0.000 F150.000
G2 X16.740 Y-36.509 Z-0.200 I0.234 J-1.055 K0.000 F150.000
G1 X16.832 Y-36.816 Z-0.200 F150.000
G3 X17.157 Y-38.789 Z-0.200 I91.057 J13.973 K0.000 F150.000
G3 X17.567 Y-38.718 Z-0.200 I-0.133 J1.981 K0.000 F150.000
G2 X17.212 Y-36.622 Z-0.200 I118.842 J21.240 K0.000 F150.000
G2 X17.885 Y-35.724 Z-0.200 I0.836 J0.074 K0.000 F150.000
G2 X18.113 Y-35.668 Z-0.200 I0.797 J-2.744 K0.000 F150.000
G3 X18.094 Y-35.444 Z-0.200 I-0.966 J0.030 K0.000 F150.000
G0 Z1.000
G0 X17.259 Y-35.820 Z1.000
G0 X17.259 Y-35.820 Z0.500
G1 X17.259 Y-35.820 Z-0.200 F100.000
G3 X16.468 Y-35.955 Z-0.200 I6.911 J-42.755 K0.000 F150.000
G2 X16.976 Y-36.464 Z-0.200 I-0.380 J-0.886 K0.000 F150.000
G2 X17.259 Y-35.820 Z-0.200 I0.906 J-0.014 K0.000 F150.000
G0 Z1.000
G0 X16.936 Y-36.025 Z1.000
G0 X16.936 Y-36.025 Z0.500
G1 X16.936 Y-36.025 Z-0.200 F100.000
G1 X16.853 Y-36.040 Z-0.200 F150.000
G1 X16.900 Y-36.090 Z-0.200 F150.000
G1 X16.936 Y-36.025 Z-0.200 F150.000
G0 Z1.000
G0 Z1.000
G0 X16.936 Y-36.025
G0 X19.643 Y-35.805
G0 X19.643 Y-35.805 Z0.500
G1 X19.643 Y-35.805 Z-0.200 F100.000
G3 X19.946 Y-38.742 Z-0.200 I69.063 J5.627 K0.000 F150.000
G3 X21.117 Y-38.656 Z-0.200 I0.279 J4.210 K0.000 F150.000
G3 X21.001 Y-36.906 Z-0.200 I-79.487 J-4.380 K0.000 F150.000
G2 X21.107 Y-36.018 Z-0.200 I2.370 J0.167 K0.000 F150.000
G2 X21.836 Y-36.123 Z-0.200 I0.348 J-0.170 K0.000 F150.000
G2 X22.066 Y-37.449 Z-0.200 I-6.204 J-1.757 K0.000 F150.000
G1 X22.194 Y-38.542 Z-0.200 F150.000
G3 X23.361 Y-38.419 Z-0.200 I0.032 J5.277 K0.000 F150.000
G3 X23.006 Y-35.691 Z-0.200 I-15.121 J-0.578 K0.000 F150.000
G3 X22.611 Y-35.225 Z-0.200 I-0.668 J-0.166 K0.000 F150.000
G3 X21.389 Y-35.536 Z-0.200 I-0.151 J-1.962 K0.000 F150.000
G2 X20.925 Y-35.310 Z-0.200 I-0.164 J0.251 K0.000 F150.000
G3 X20.812 Y-34.159 Z-0.200 I-10.419 J-0.445 K0.000 F150.000
G3 X19.545 Y-34.432 Z-0.200 I0.025 J-3.192 K0.000 F150.000
G3 X19.643 Y-35.805 Z-0.200 I69.161 J4.255 K0.000 F150.000
G0 Z1.000
G0 X19.888 Y-35.784 Z1.000
G0 X19.888 Y-35.784 Z0.500
G1 X19.888 Y-35.784 Z-0.200 F100.000
G3 X20.163 Y-38.502 Z-0.200 I88.939 J7.610 K0.000 F150.000
G3 X20.866 Y-38.458 Z-0.200 I0.047 J4.980 K0.000 F150.000
G2 X20.799 Y-36.311 Z-0.200 I11.451 J1.434 K0.000 F150.000
G2 X20.985 Y-35.763 Z-0.200 I0.903 J-0.001 K0.000 F150.000
G2 X20.686 Y-35.330 Z-0.200 I0.216 J0.469 K0.000 F150.000
G3 X20.604 Y-34.407 Z-0.200 I-25.800 J-1.835 K0.000 F150.000
G3 X19.794 Y-34.588 Z-0.200 I0.276 J-3.134 K0.000 F150.000
G3 X19.888 Y-35.784 Z-0.200 I89.033 J6.415 K0.000 F150.000
G0 Z1.000
G0 X20.132 Y-35.762 Z1.000
G0 X20.132 Y-35.762 Z0.500
G1 X20.132 Y-35.762 Z-0.200 F100.000
G3 X20.379 Y-38.256 Z-0.200 I119.631 J10.626 K0.000 F150.000
G3 X20.611 Y-38.243 Z-0.200 I0.021 J1.747 K0.000 F150.000
G2 X20.599 Y-36.051 Z-0.200 I6.831 J1.133 K0.000 F150.000
G2 X20.673 Y-35.823 Z-0.200 I0.678 J-0.094 K0.000 F150.000
G2 X20.447 Y-35.350 Z-0.200 I0.502 J0.530 K0.000 F150.000
G3 X20.390 Y-34.682 Z-0.200 I-18.669 J-1.239 K0.000 F150.000
G3 X20.046 Y-34.756 Z-0.200 I0.376 J-2.589 K0.000 F150.000
G3 X20.132 Y-35.762 Z-0.200 I119.716 J9.619 K0.000 F150.000
G0 Z1.000
G0 X20.381 Y-35.845 Z1.000
G0 X20.381 Y-35.845 Z0.500
G1 X20.381 Y-35.845 Z-0.200 F100.000
G1 X20.387 Y-35.907 Z-0.200 F150.000
G3 X20.381 Y-35.845 Z-0.200 I-0.025 J0.029 K0.000 F150.000
G0 Z1.000
G0 X21.694 Y-35.623 Z1.000
G0 X21.694 Y-35.623 Z0.500
G1 X21.694 Y-35.623 Z-0.200 F100.000
G2 X22.145 Y-36.346 Z-0.200 I-0.453 J-0.784 K0.000 F150.000
G2 X22.407 Y-38.302 Z-0.200 I-16.713 J-3.241 K0.000 F150.000
G3 X23.109 Y-38.223 Z-0.200 I-0.341 J6.161 K0.000 F150.000
G3 X22.858 Y-36.050 Z-0.200 I-23.788 J-1.638 K0.000 F150.000
G3 X22.549 Y-35.462 Z-0.200 I-0.848 J-0.071 K0.000 F150.000
G3 X21.694 Y-35.623 Z-0.200 I-0.071 J-1.975 K0.000 F150.000
G0 Z1.000
G0 X22.174 Y-35.729 Z1.000
G0 X22.174 Y-35.729 Z0.500
G1 X22.174 Y-35.729 Z-0.200 F100.000
G2 X22.449 Y-36.685 Z-0.200 I-2.318 J-1.184 K0.000 F150.000
G2 X22.619 Y-38.044 Z-0.200 I-43.693 J-6.163 K0.000 F150.000
G3 X22.851 Y-38.018 Z-0.200 I-0.214 J2.920 K0.000 F150.000
G3 X22.559 Y-35.875 Z-0.200 I-10.280 J-0.309 K0.000 F150.000
G3 X22.454 Y-35.701 Z-0.200 I-0.359 J-0.100 K0.000 F150.000
G3 X22.174 Y-35.729 Z-0.200 I0.159 J-3.046 K0.000 F150.000
G0 Z1.000
G0 Z1.000
G0 X22.174 Y-35.729
G0 X24.108 Y-36.130
G0 X24.108 Y-36.130 Z0.500
G1 X24.108 Y-36.130 Z-0.200 F100.000
G3 X24.082 Y-36.344 Z-0.200 I1.232 J-0.255 K0.000 F150.000
G3 X24.240 Y-37.697 Z-0.200 I2.511 J-0.392 K0.000 F150.000
G3 X24.911 Y-38.296 Z-0.200 I1.181 J0.648 K0.000 F150.000
G3 X26.425 Y-38.337 Z-0.200 I0.924 J6.134 K0.000 F150.000
G3 X27.351 Y-38.113 Z-0.200 I0.120 J1.528 K0.000 F150.000
G3 X27.362 Y-38.032 Z-0.200 I-0.009 J0.042 K0.000 F150.000
G3 X27.079 Y-37.565 Z-0.200 I-0.983 J-0.276 K0.000 F150.000
G3 X26.967 Y-37.561 Z-0.200 I-0.060 J-0.131 K0.000 F150.000
G1 X26.737 Y-37.659 Z-0.200 F150.000
G1 X26.737 Y-37.659 Z-0.200 F150.000
G2 X25.834 Y-37.754 Z-0.200 I-0.544 J0.831 K0.000 F150.000
G2 X25.492 Y-37.140 Z-0.200 I0.133 J0.477 K0.000 F150.000
G2 X26.121 Y-36.867 Z-0.200 I0.578 J-0.469 K0.000 F150.000
G3 X27.144 Y-36.517 Z-0.200 I-0.061 J1.846 K0.000 F150.000
G3 X27.060 Y-35.213 Z-0.200 I-0.629 J0.614 K0.000 F150.000
G3 X26.662 Y-35.080 Z-0.200 I-0.579 J-1.070 K0.000 F150.000
G3 X24.554 Y-35.403 Z-0.200 I-0.587 J-3.216 K0.000 F150.000
G3 X24.108 Y-36.130 Z-0.200 I0.785 J-0.983 K0.000 F150.000
G0 Z1.000
G0 X24.344 Y-36.189 Z1.000
G0 X24.344 Y-36.189 Z0.500
G1 X24.344 Y-36.189 Z-0.200 F100.000
G3 X24.307 Y-36.660 Z-0.200 I1.409 J-0.349 K0.000 F150.000
G3 X24.452 Y-37.583 Z-0.200 I1.662 J-0.211 K0.000 F150.000
G3 X25.045 Y-38.077 Z-0.200 I0.871 J0.442 K0.000 F150.000
G3 X26.409 Y-38.097 Z-0.200 I0.787 J7.179 K0.000 F150.000
G3 X27.076 Y-37.991 Z-0.200 I0.116 J1.422 K0.000 F150.000
G3 X26.975 Y-37.818 Z-0.200 I-1.002 J-0.468 K0.000 F150.000
G1 X26.830 Y-37.880 Z-0.200 F150.000
G1 X26.830 Y-37.880 Z-0.200 F150.000
G2 X25.616 Y-37.908 Z-0.200 I-0.630 J0.977 K0.000 F150.000
G2 X25.348 Y-36.922 Z-0.200 I0.307 J0.613 K0.000 F150.000
G1 X25.408 Y-36.869 Z-0.200 F150.000
G2 X25.641 Y-35.317 Z-0.200 I0.419 J0.731 K0.000 F150.000
G3 X24.537 Y-35.746 Z-0.200 I-0.032 J-1.555 K0.000 F150.000
G3 X24.344 Y-36.189 Z-0.200 I1.217 J-0.792 K0.000 F150.000
G0 Z1.000
G0 X24.574 Y-36.250 Z1.000
G0 X24.574 Y-36.250 Z0.500
G1 X24.574 Y-36.250 Z-0.200 F100.000
G3 X24.547 Y-36.662 Z-0.200 I1.036 J-0.275 K0.000 F150.000
G3 X24.664 Y-37.469 Z-0.200 I1.786 J-0.152 K0.000 F150.000
G3 X25.154 Y-37.850 Z-0.200 I0.610 J0.279 K0.000 F150.000
G1 X25.198 Y-37.853 Z-0.200 F150.000
G2 X25.078 Y-36.914 Z-0.200 I0.619 J0.556 K0.000 F150.000
G2 X24.779 Y-35.849 Z-0.200 I0.771 J0.791 K0.000 F150.000
G3 X24.574 Y-36.250 Z-0.200 I0.831 J-0.677 K0.000 F150.000
G0 Z1.000
G0 X24.699 Y-36.622 Z1.000
G0 X24.699 Y-36.622 Z0.500
G1 X24.699 Y-36.622 Z-0.200 F100.000
G3 X24.810 Y-37.419 Z-0.200 I1.543 J-0.191 K0.000 F150.000
G1 X24.858 Y-37.477 Z-0.200 F150.000
G2 X24.901 Y-36.945 Z-0.200 I0.818 J0.202 K0.000 F150.000
G2 X24.699 Y-36.622 Z-0.200 I0.801 J0.723 K0.000 F150.000
G0 Z1.000
G0 X25.260 Y-36.379 Z1.000
G0 X25.260 Y-36.379 Z0.500
G1 X25.260 Y-36.379 Z-0.200 F100.000
G3 X25.515 Y-36.662 Z-0.200 I0.551 J0.239 K0.000 F150.000
G3 X26.043 Y-36.622 Z-0.200 I0.237 J0.371 K0.000 F150.000
G3 X25.702 Y-35.550 Z-0.200 I-0.321 J0.488 K0.000 F150.000
G3 X25.260 Y-36.379 Z-0.200 I0.109 J-0.590 K0.000 F150.000
G0 Z1.000
G0 X25.654 Y-35.316 Z1.000
G0 X25.654 Y-35.316 Z0.500
G1 X25.654 Y-35.316 Z-0.200 F100.000
G2 X26.410 Y-36.566 Z-0.200 I0.081 J-0.804 K0.000 F150.000
G3 X27.094 Y-36.206 Z-0.200 I-0.066 J0.957 K0.000 F150.000
G3 X26.927 Y-35.415 Z-0.200 I-0.535 J0.300 K0.000 F150.000
G3 X26.627 Y-35.318 Z-0.200 I-0.443 J-0.861 K0.000 F150.000
G3 X25.654 Y-35.316 Z-0.200 I-0.496 J-3.529 K0.000 F150.000
G0 Z1.000
G0 X26.637 Y-35.566 Z1.000
G0 X26.637 Y-35.566 Z0.500
G1 X26.637 Y-35.566 Z-0.200 F100.000
G2 X26.769 Y-36.189 Z-0.200 I-0.875 J-0.511 K0.000 F150.000
G3 X26.778 Y-35.609 Z-0.200 I-0.234 J0.294 K0.000 F150.000
G3 X26.637 Y-35.566 Z-0.200 I-0.249 J-0.574 K0.000 F150.000
G0 Z1.000
G0 Z1.000
G0 X26.637 Y-35.566
G0 X29.607 Y-35.227
G0 X29.607 Y-35.227 Z0.500
G1 X29.607 Y-35.227 Z-0.200 F100.000
G1 X30.299 Y-35.267 Z-0.200 F150.000
G2 X30.581 Y-35.566 Z-0.200 I-0.017 J-0.300 K0.000 F150.000
G3 X30.610 Y-38.177 Z-0.200 I34.583 J-0.922 K0.000 F150.000
G3 X31.530 Y-38.181 Z-0.200 I0.503 J8.414 K0.000 F150.000
G3 X32.000 Y-38.132 Z-0.200 I-0.052 J2.777 K0.000 F150.000
G1 X32.000 Y-35.557 Z-0.200 F150.000
G2 X32.300 Y-35.257 Z-0.200 I0.300 J0.000 K0.000 F150.000
G3 X32.993 Y-35.236 Z-0.200 I0.284 J2.130 K0.000 F150.000
G3 X33.052 Y-34.113 Z-0.200 I-2.454 J0.693 K0.000 F150.000
G3 X29.911 Y-34.134 Z-0.200 I-1.306 J-40.151 K0.000 F150.000
G3 X29.592 Y-34.214 Z-0.200 I-0.082 J-0.348 K0.000 F150.000
G3 X29.607 Y-35.227 Z-0.200 I4.833 J-0.439 K0.000 F150.000
G0 Z1.000
G0 X29.838 Y-35.000 Z1.000
G0 X29.838 Y-35.000 Z0.500
G1 X29.838 Y-35.000 Z-0.200 F100.000
G2 X30.505 Y-35.075 Z-0.200 I0.133 J-1.823 K0.000 F150.000
G2 X30.821 Y-35.566 Z-0.200 I-0.224 J-0.491 K0.000 F150.000
G3 X30.839 Y-37.948 Z-0.200 I44.059 J-0.870 K0.000 F150.000
G3 X31.520 Y-37.941 Z-0.200 I0.255 J9.319 K0.000 F150.000
G3 X31.760 Y-37.924 Z-0.200 I-0.147 J3.784 K0.000 F150.000
G1 X31.760 Y-35.557 Z-0.200 F150.000
G2 X32.300 Y-35.017 Z-0.200 I0.540 J-0.000 K0.000 F150.000
G3 X32.793 Y-35.015 Z-0.200 I0.219 J6.303 K0.000 F150.000
G3 X32.840 Y-34.353 Z-0.200 I-3.511 J0.581 K0.000 F150.000
G3 X29.933 Y-34.373 Z-0.200 I-1.198 J-37.624 K0.000 F150.000
G3 X29.815 Y-34.387 Z-0.200 I0.039 J-0.847 K0.000 F150.000
G3 X29.838 Y-35.000 Z-0.200 I16.502 J0.295 K0.000 F150.000
G0 Z1.000
G0 X30.068 Y-34.773 Z1.000
G0 X30.068 Y-34.773 Z0.500
G1 X30.068 Y-34.773 Z-0.200 F100.000
G2 X30.938 Y-35.145 Z-0.200 I0.133 J-0.892 K0.000 F150.000
G2 X31.061 Y-35.566 Z-0.200 I-0.656 J-0.421 K0.000 F150.000
G3 X31.071 Y-37.711 Z-0.200 I48.840 J-0.855 K0.000 F150.000
G3 X31.520 Y-37.701 Z-0.200 I0.096 J5.896 K0.000 F150.000
G1 X31.520 Y-35.557 Z-0.200 F150.000
G2 X32.300 Y-34.777 Z-0.200 I0.780 J0.000 K0.000 F150.000
G1 X32.582 Y-34.777 Z-0.200 F150.000
G3 X32.592 Y-34.593 Z-0.200 I-1.056 J0.151 K0.000 F150.000
G3 X30.061 Y-34.605 Z-0.200 I-1.063 J-43.603 K0.000 F150.000
G1 X30.068 Y-34.773 Z-0.200 F150.000
G0 Z1.000
G0 X30.977 Y-34.833 Z1.000
G0 X30.977 Y-34.833 Z0.500
G1 X30.977 Y-34.833 Z-0.200 F100.000
G2 X31.293 Y-35.459 Z-0.200 I-0.618 J-0.705 K0.000 F150.000
G2 X31.586 Y-34.833 Z-0.200 I0.929 J-0.053 K0.000 F150.000
G2 X30.977 Y-34.833 Z-0.200 I-0.102 J671.497 K0.000 F150.000
G0 Z1.000
G0 Z1.000
G0 X30.977 Y-34.833
G0 X33.886 Y-35.860
G0 X33.886 Y-35.860 Z0.500
G1 X33.886 Y-35.860 Z-0.200 F100.000
G3 X33.817 Y-36.217 Z-0.200 I1.159 J-0.409 K0.000 F150.000
G3 X33.880 Y-37.453 Z-0.200 I3.442 J-0.445 K0.000 F150.000
G3 X34.836 Y-38.228 Z-0.200 I1.108 J0.391 K0.000 F150.000
G3 X36.004 Y-38.261 Z-0.200 I0.737 J5.296 K0.000 F150.000
G3 X37.405 Y-37.019 Z-0.200 I0.076 J1.326 K0.000 F150.000
G3 X37.263 Y-35.576 Z-0.200 I-2.439 J0.489 K0.000 F150.000
G3 X36.515 Y-35.085 Z-0.200 I-0.911 J-0.573 K0.000 F150.000
G3 X34.731 Y-35.081 Z-0.200 I-0.902 J-4.156 K0.000 F150.000
G3 X33.886 Y-35.860 Z-0.200 I0.314 J-1.188 K0.000 F150.000
G0 Z1.000
G0 X34.113 Y-35.941 Z1.000
G0 X34.113 Y-35.941 Z0.500
G1 X34.113 Y-35.941 Z-0.200 F100.000
G3 X34.056 Y-36.241 Z-0.200 I0.940 J-0.334 K0.000 F150.000
G3 X34.109 Y-37.380 Z-0.200 I3.250 J-0.421 K0.000 F150.000
G3 X35.001 Y-38.009 Z-0.200 I0.938 J0.384 K0.000 F150.000
G3 X35.267 Y-38.029 Z-0.200 I0.394 J3.388 K0.000 F150.000
G2 X34.821 Y-37.196 Z-0.200 I0.429 J0.766 K0.000 F150.000
G2 X35.011 Y-35.610 Z-0.200 I3.733 J0.358 K0.000 F150.000
G2 X35.658 Y-35.242 Z-0.200 I0.576 J-0.260 K0.000 F150.000
G3 X34.818 Y-35.305 Z-0.200 I-0.274 J-1.983 K0.000 F150.000
G3 X34.113 Y-35.941 Z-0.200 I0.235 J-0.969 K0.000 F150.000
G0 Z1.000
G0 X34.337 Y-36.021 Z1.000
G0 X34.337 Y-36.021 Z0.500
G1 X34.337 Y-36.021 Z-0.200 F100.000
G3 X34.295 Y-36.266 Z-0.200 I0.667 J-0.240 K0.000 F150.000
G3 X34.338 Y-37.307 Z-0.200 I3.078 J-0.396 K0.000 F150.000
G3 X34.663 Y-37.658 Z-0.200 I0.483 J0.123 K0.000 F150.000
G2 X34.756 Y-35.597 Z-0.200 I4.281 J0.840 K0.000 F150.000
G3 X34.337 Y-36.021 Z-0.200 I0.248 J-0.664 K0.000 F150.000
G0 Z1.000
G0 X34.494 Y-36.056 Z1.000
G0 X34.494 Y-36.056 Z0.500
G1 X34.494 Y-36.056 Z-0.200 F100.000
G3 X34.430 Y-36.732 Z-0.200 I1.811 J-0.513 K0.000 F150.000
G2 X34.494 Y-36.056 Z-0.200 I6.016 J-0.229 K0.000 F150.000
G0 Z1.000
G0 X35.110 Y-36.166 Z1.000
G0 X35.110 Y-36.166 Z0.500
G1 X35.110 Y-36.166 Z-0.200 F100.000
G3 X35.055 Y-37.050 Z-0.200 I3.778 J-0.678 K0.000 F150.000
G3 X35.379 Y-37.819 Z-0.200 I0.761 J-0.132 K0.000 F150.000
G3 X35.876 Y-37.667 Z-0.200 I0.153 J0.386 K0.000 F150.000
G3 X36.024 Y-35.766 Z-0.200 I-2.060 J1.117 K0.000 F150.000
G3 X35.204 Y-35.768 Z-0.200 I-0.410 J-0.133 K0.000 F150.000
G3 X35.110 Y-36.166 Z-0.200 I3.684 J-1.076 K0.000 F150.000
G0 Z1.000
G0 X35.756 Y-35.245 Z1.000
G0 X35.756 Y-35.245 Z0.500
G1 X35.756 Y-35.245 Z-0.200 F100.000
G2 X36.347 Y-35.993 Z-0.200 I-0.262 J-0.815 K0.000 F150.000
G2 X36.052 Y-37.830 Z-0.200 I-2.380 J-0.560 K0.000 F150.000
G2 X35.787 Y-38.033 Z-0.200 I-0.525 J0.413 K0.000 F150.000
G3 X36.785 Y-37.769 Z-0.200 I0.148 J1.463 K0.000 F150.000
G3 X37.166 Y-36.991 Z-0.200 I-0.737 J0.843 K0.000 F150.000
G3 X37.056 Y-35.700 Z-0.200 I-2.252 J0.459 K0.000 F150.000
G3 X36.470 Y-35.321 Z-0.200 I-0.703 J-0.446 K0.000 F150.000
G3 X35.756 Y-35.245 Z-0.200 I-0.782 J-3.928 K0.000 F150.000
G0 Z1.000
G0 X36.460 Y-35.567 Z1.000
G0 X36.460 Y-35.567 Z0.500
G1 X36.460 Y-35.567 Z-0.200 F100.000
G2 X36.414 Y-37.704 Z-0.200 I-2.738 J-1.009 K0.000 F150.000
G3 X36.927 Y-36.964 Z-0.200 I-0.295 J0.753 K0.000 F150.000
G3 X36.847 Y-35.819 Z-0.200 I-2.060 J0.430 K0.000 F150.000
G3 X36.460 Y-35.567 Z-0.200 I-0.469 J-0.298 K0.000 F150.000
G0 Z1.000
G0 X36.734 Y-35.950 Z1.000
G0 X36.734 Y-35.950 Z0.500
G1 X36.734 Y-35.950 Z-0.200 F100.000
G2 X36.740 Y-37.136 Z-0.200 I-3.464 J-0.609 K0.000 F150.000
G3 X36.734 Y-35.950 Z-0.200 I-2.569 J0.581 K0.000 F150.000
G0 Z1.000
G0 Z1.000
G0 X36.734 Y-35.950
G0 X38.378 Y-36.187
G0 X38.378 Y-36.187 Z0.500
G1 X38.378 Y-36.187 Z-0.200 F100.000
G3 X38.279 Y-37.321 Z-0.200 I10.037 J-1.448 K0.000 F150.000
G3 X38.225 Y-38.367 Z-0.200 I7.936 J-0.932 K0.000 F150.000
G3 X39.454 Y-38.420 Z-0.200 I0.891 J6.468 K0.000 F150.000
G2 X39.694 Y-36.069 Z-0.200 I39.188 J-2.806 K0.000 F150.000
G2 X40.316 Y-35.790 Z-0.200 I0.407 J-0.075 K0.000 F150.000
G2 X40.531 Y-36.492 Z-0.200 I-0.690 J-0.596 K0.000 F150.000
G2 X40.437 Y-38.580 Z-0.200 I-192.552 J7.674 K0.000 F150.000
G3 X41.652 Y-38.662 Z-0.200 I0.864 J3.748 K0.000 F150.000
G3 X41.756 Y-35.804 Z-0.200 I-17.830 J2.080 K0.000 F150.000
G3 X41.347 Y-35.416 Z-0.200 I-0.470 J-0.085 K0.000 F150.000
G3 X40.203 Y-35.536 Z-0.200 I-0.357 J-2.114 K0.000 F150.000
G2 X39.728 Y-35.382 Z-0.200 I-0.061 J0.624 K0.000 F150.000
G3 X38.533 Y-35.356 Z-0.200 I-0.658 J-2.690 K0.000 F150.000
G3 X38.378 Y-36.187 Z-0.200 I9.881 J-2.280 K0.000 F150.000
G0 Z1.000
G0 X38.629 Y-36.217 Z1.000
G0 X38.629 Y-36.217 Z0.500
G1 X38.629 Y-36.217 Z-0.200 F100.000
G3 X38.465 Y-38.156 Z-0.200 I30.299 J-3.542 K0.000 F150.000
G3 X39.237 Y-38.178 Z-0.200 I0.627 J8.370 K0.000 F150.000
G2 X39.465 Y-35.995 Z-0.200 I21.983 J-1.195 K0.000 F150.000
G2 X39.712 Y-35.651 Z-0.200 I0.648 J-0.203 K0.000 F150.000
G3 X39.107 Y-35.543 Z-0.200 I-0.461 J-0.837 K0.000 F150.000
G3 X38.712 Y-35.565 Z-0.200 I-0.047 J-2.752 K0.000 F150.000
G3 X38.629 Y-36.217 Z-0.200 I30.216 J-4.193 K0.000 F150.000
G0 Z1.000
G0 X38.865 Y-36.243 Z1.000
G0 X38.865 Y-36.243 Z0.500
G1 X38.865 Y-36.243 Z-0.200 F100.000
G3 X38.715 Y-37.929 Z-0.200 I37.278 J-4.169 K0.000 F150.000
G3 X39.020 Y-37.936 Z-0.200 I0.337 J7.823 K0.000 F150.000
G2 X39.237 Y-35.922 Z-0.200 I18.102 J-0.929 K0.000 F150.000
G1 X39.297 Y-35.796 Z-0.200 F150.000
G3 X38.919 Y-35.790 Z-0.200 I-0.218 J-1.588 K0.000 F150.000
G3 X38.865 Y-36.243 Z-0.200 I37.224 J-4.623 K0.000 F150.000
G0 Z1.000
G0 X39.011 Y-36.260 Z1.000
G0 X39.011 Y-36.260 Z0.500
G1 X39.011 Y-36.260 Z-0.200 F100.000
G3 X38.875 Y-37.783 Z-0.200 I33.928 J-3.805 K0.000 F150.000
G1 X38.885 Y-37.783 Z-0.200 F150.000
G2 X39.076 Y-35.934 Z-0.200 I22.486 J-1.385 K0.000 F150.000
G1 X39.049 Y-35.934 Z-0.200 F150.000
G3 X39.011 Y-36.260 Z-0.200 I33.890 J-4.130 K0.000 F150.000
G0 Z1.000
G0 X40.531 Y-35.680 Z1.000
G0 X40.531 Y-35.680 Z0.500
G1 X40.531 Y-35.680 Z-0.200 F100.000
G2 X40.771 Y-36.488 Z-0.200 I-0.890 J-0.705 K0.000 F150.000
G2 X40.685 Y-38.387 Z-0.200 I-36.479 J0.713 K0.000 F150.000
G3 X41.437 Y-38.430 Z-0.200 I0.599 J3.853 K0.000 F150.000
G3 X41.499 Y-35.764 Z-0.200 I-16.216 J1.707 K0.000 F150.000
G3 X41.005 Y-35.638 Z-0.200 I-0.370 J-0.421 K0.000 F150.000
G3 X40.531 Y-35.680 Z-0.200 I-0.064 J-1.977 K0.000 F150.000
G0 Z1.000
G0 X40.924 Y-35.880 Z1.000
G0 X40.924 Y-35.880 Z0.500
G1 X40.924 Y-35.880 Z-0.200 F100.000
G2 X40.959 Y-37.809 Z-0.200 I-5.924 J-1.072 K0.000 F150.000
G3 X40.937 Y-38.176 Z-0.200 I127.251 J-7.722 K0.000 F150.000
G3 X41.223 Y-38.191 Z-0.200 I0.247 J2.063 K0.000 F150.000
G3 X41.258 Y-35.889 Z-0.200 I-16.026 J1.395 K0.000 F150.000
G3 X40.924 Y-35.880 Z-0.200 I-0.234 J-2.492 K0.000 F150.000
G0 Z1.000
G0 X41.114 Y-36.031 Z1.000
G0 X41.114 Y-36.031 Z0.500
G1 X41.114 Y-36.031 Z-0.200 F100.000
G2 X41.137 Y-36.191 Z-0.200 I-0.872 J-0.204 K0.000 F150.000
G1 X41.136 Y-36.031 Z-0.200 F150.000
G1 X41.114 Y-36.031 Z-0.200 F150.000
G0 Z1.000
G0 Z1.000
G0 X41.114 Y-36.031
G0 X42.749 Y-36.650
G0 X42.749 Y-36.650 Z0.500
G1 X42.749 Y-36.650 Z-0.200 F100.000
G3 X42.702 Y-38.320 Z-0.200 I2.383 J-0.903 K0.000 F150.000
G3 X43.045 Y-38.706 Z-0.200 I0.730 J0.302 K0.000 F150.000
G3 X44.844 Y-39.161 Z-0.200 I1.570 J2.425 K0.000 F150.000
G3 X45.570 Y-39.116 Z-0.200 I0.071 J4.709 K0.000 F150.000
G3 X45.420 Y-38.528 Z-0.200 I-1.434 J-0.053 K0.000 F150.000
G3 X44.489 Y-38.672 Z-0.200 I5.870 J-40.937 K0.000 F150.000
G2 X43.911 Y-38.007 Z-0.200 I0.044 J0.622 K0.000 F150.000
G2 X44.562 Y-37.658 Z-0.200 I0.556 J-0.256 K0.000 F150.000
G3 X45.631 Y-37.532 Z-0.200 I-0.179 J6.119 K0.000 F150.000
G3 X46.038 Y-37.039 Z-0.200 I-0.219 J0.595 K0.000 F150.000
G3 X45.589 Y-36.052 Z-0.200 I-0.694 J0.280 K0.000 F150.000
G3 X43.306 Y-35.973 Z-0.200 I-1.234 J-2.635 K0.000 F150.000
G3 X42.846 Y-36.427 Z-0.200 I0.463 J-0.929 K0.000 F150.000
G3 X42.749 Y-36.650 Z-0.200 I2.286 J-1.126 K0.000 F150.000
G0 Z1.000
G0 X42.975 Y-36.740 Z1.000
G0 X42.975 Y-36.740 Z0.500
G1 X42.975 Y-36.740 Z-0.200 F100.000
G3 X42.993 Y-38.351 Z-0.200 I1.964 J-0.784 K0.000 F150.000
G3 X43.613 Y-38.733 Z-0.200 I1.135 J1.146 K0.000 F150.000
G3 X45.239 Y-38.907 Z-0.200 I1.150 J3.062 K0.000 F150.000
G1 X45.298 Y-38.903 Z-0.200 F150.000
G3 X45.269 Y-38.791 Z-0.200 I-0.441 J-0.052 K0.000 F150.000
G2 X44.457 Y-38.910 Z-0.200 I-0.869 J3.097 K0.000 F150.000
G2 X43.745 Y-37.779 Z-0.200 I0.034 J0.811 K0.000 F150.000
G2 X43.942 Y-37.582 Z-0.200 I0.507 J-0.309 K0.000 F150.000
G2 X43.752 Y-36.645 Z-0.200 I0.520 J0.594 K0.000 F150.000
G2 X44.321 Y-36.025 Z-0.200 I0.777 J-0.142 K0.000 F150.000
G3 X43.138 Y-36.416 Z-0.200 I-0.190 J-1.410 K0.000 F150.000
G3 X42.975 Y-36.740 Z-0.200 I1.801 J-1.108 K0.000 F150.000
G0 Z1.000
G0 X43.199 Y-36.824 Z1.000
G0 X43.199 Y-36.824 Z0.500
G1 X43.199 Y-36.824 Z-0.200 F100.000
G3 X43.145 Y-38.129 Z-0.200 I1.941 J-0.733 K0.000 F150.000
G3 X43.476 Y-38.390 Z-0.200 I0.514 J0.311 K0.000 F150.000
G2 X43.616 Y-37.558 Z-0.200 I0.779 J0.297 K0.000 F150.000
G2 X43.604 Y-36.372 Z-0.200 I0.963 J0.603 K0.000 F150.000
G3 X43.277 Y-36.644 Z-0.200 I0.174 J-0.542 K0.000 F150.000
G3 X43.199 Y-36.824 Z-0.200 I1.862 J-0.914 K0.000 F150.000
G0 Z1.000
G0 X43.308 Y-37.516 Z1.000
G0 X43.308 Y-37.516 Z0.500
G1 X43.308 Y-37.516 Z-0.200 F100.000
G3 X43.307 Y-37.589 Z-0.200 I0.301 J-0.040 K0.000 F150.000
G3 X43.308 Y-37.516 Z-0.200 I-0.084 J0.038 K0.000 F150.000
G0 Z1.000
G0 X43.957 Y-37.211 Z1.000
G0 X43.957 Y-37.211 Z0.500
G1 X43.957 Y-37.211 Z-0.200 F100.000
G3 X44.244 Y-37.477 Z-0.200 I0.473 J0.222 K0.000 F150.000
G3 X44.503 Y-36.246 Z-0.200 I0.120 J0.618 K0.000 F150.000
G3 X43.976 Y-36.731 Z-0.200 I0.011 J-0.541 K0.000 F150.000
G3 X43.957 Y-37.211 Z-0.200 I0.455 J-0.258 K0.000 F150.000
G0 Z1.000
G0 X45.043 Y-37.385 Z1.000
G0 X45.043 Y-37.385 Z0.500
G1 X45.043 Y-37.385 Z-0.200 F100.000
G3 X45.671 Y-37.235 Z-0.200 I0.120 J0.888 K0.000 F150.000
G3 X45.765 Y-36.476 Z-0.200 I-0.444 J0.440 K0.000 F150.000
G3 X45.315 Y-36.197 Z-0.200 I-0.751 J-0.710 K0.000 F150.000
G3 X44.749 Y-36.061 Z-0.200 I-0.972 J-2.809 K0.000 F150.000
G2 X45.043 Y-37.385 Z-0.200 I-0.365 J-0.776 K0.000 F150.000
G0 Z1.000
G0 X45.447 Y-37.087 Z1.000
G0 X45.447 Y-37.087 Z0.500
G1 X45.447 Y-37.087 Z-0.200 F100.000
G3 X45.569 Y-36.618 Z-0.200 I-0.257 J0.317 K0.000 F150.000
G3 X45.421 Y-36.506 Z-0.200 I-0.390 J-0.361 K0.000 F150.000
G2 X45.447 Y-37.087 Z-0.200 I-1.120 J-0.341 K0.000 F150.000
G0 Z1.000
G0 Z1.000
G0 X45.447 Y-37.087
G0 X46.755 Y-40.210
G0 X46.755 Y-40.210 Z0.500
G1 X46.755 Y-40.210 Z-0.200 F100.000
G3 X45.525 Y-40.910 Z-0.200 I2.266 J-5.411 K0.000 F150.000
G2 X45.313 Y-40.958 Z-0.200 I-0.167 J0.249 K0.000 F150.000
G3 X34.022 Y-39.642 Z-0.200 I-18.613 J-110.553 K0.000 F150.000
G3 X22.512 Y-40.110 Z-0.200 I-3.137 J-64.600 K0.000 F150.000
G2 X16.920 Y-40.812 Z-0.200 I-21.557 J149.063 K0.000 F150.000
G2 X16.012 Y-40.623 Z-0.200 I-0.246 J1.096 K0.000 F150.000
G3 X13.899 Y-39.994 Z-0.200 I-2.214 J-3.577 K0.000 F150.000
G3 X10.686 Y-43.844 Z-0.200 I0.238 J-3.464 K0.000 F150.000
G3 X11.414 Y-45.606 Z-0.200 I4.521 J0.837 K0.000 F150.000
G1 X11.449 Y-45.789 Z-0.200 F150.000
G3 X10.706 Y-58.576 Z-0.200 I77.014 J-10.885 K0.000 F150.000
G3 X11.374 Y-65.947 Z-0.200 I80.702 J3.595 K0.000 F150.000
G2 X11.093 Y-67.153 Z-0.200 I-1.495 J-0.288 K0.000 F150.000
G3 X11.347 Y-70.779 Z-0.200 I2.754 J-1.629 K0.000 F150.000
G3 X14.155 Y-72.178 Z-0.200 I2.747 J1.998 K0.000 F150.000
G3 X16.271 Y-71.391 Z-0.200 I-0.569 J4.766 K0.000 F150.000
G2 X17.646 Y-71.435 Z-0.200 I0.578 J-3.457 K0.000 F150.000
G3 X28.995 Y-72.609 Z-0.200 I17.888 J117.473 K0.000 F150.000
G3 X40.894 Y-71.905 Z-0.200 I1.817 J70.242 K0.000 F150.000
G3 X45.280 Y-71.200 Z-0.200 I-9.946 J75.908 K0.000 F150.000
G2 X45.503 Y-71.246 Z-0.200 I0.055 J-0.295 K0.000 F150.000
G3 X47.702 Y-72.163 Z-0.200 I2.548 J3.014 K0.000 F150.000
G3 X51.134 Y-69.897 Z-0.200 I0.135 J3.528 K0.000 F150.000
G3 X50.651 Y-66.736 Z-0.200 I-3.348 J1.106 K0.000 F150.000
G2 X50.417 Y-65.861 Z-0.200 I0.910 J0.713 K0.000 F150.000
G3 X51.231 Y-59.450 Z-0.200 I-109.014 J17.097 K0.000 F150.000
G3 X51.272 Y-53.780 Z-0.200 I-34.375 J3.089 K0.000 F150.000
G3 X50.485 Y-46.868 Z-0.200 I-101.148 J-8.023 K0.000 F150.000
G2 X50.436 Y-45.885 Z-0.200 I2.941 J0.640 K0.000 F150.000
G2 X50.939 Y-44.969 Z-0.200 I3.982 J-1.590 K0.000 F150.000
G3 X50.861 Y-41.674 Z-0.200 I-3.184 J1.573 K0.000 F150.000
G3 X46.816 Y-40.185 Z-0.200 I-3.001 J-1.914 K0.000 F150.000
G3 X46.755 Y-40.210 Z-0.200 I2.205 J-5.436 K0.000 F150.000
G0 Z1.000
G0 X46.834 Y-40.440 Z1.000
G0 X46.834 Y-40.440 Z0.500
G1 X46.834 Y-40.440 Z-0.200 F100.000
G3 X46.595 Y-40.533 Z-0.200 I1.056 J-3.084 K0.000 F150.000
G3 X45.659 Y-41.110 Z-0.200 I3.246 J-6.314 K0.000 F150.000
G2 X45.278 Y-41.196 Z-0.200 I-0.301 J0.448 K0.000 F150.000
G3 X34.009 Y-39.881 Z-0.200 I-18.578 J-110.323 K0.000 F150.000
G3 X22.540 Y-40.348 Z-0.200 I-3.124 J-64.361 K0.000 F150.000
G2 X16.938 Y-41.051 Z-0.200 I-21.448 J148.226 K0.000 F150.000
G2 X15.888 Y-40.828 Z-0.200 I-0.301 J1.166 K0.000 F150.000
G3 X13.905 Y-40.235 Z-0.200 I-2.090 J-3.373 K0.000 F150.000
G3 X10.923 Y-43.802 Z-0.200 I0.233 J-3.225 K0.000 F150.000
G3 X11.625 Y-45.491 Z-0.200 I4.300 J0.798 K0.000 F150.000
G2 X11.686 Y-45.821 Z-0.200 I-0.474 J-0.259 K0.000 F150.000
G3 X10.946 Y-58.568 Z-0.200 I76.779 J-10.853 K0.000 F150.000
G3 X11.612 Y-65.912 Z-0.200 I80.436 J3.583 K0.000 F150.000
G2 X11.306 Y-67.264 Z-0.200 I-1.740 J-0.317 K0.000 F150.000
G3 X11.540 Y-70.636 Z-0.200 I2.544 J-1.517 K0.000 F150.000
G3 X14.140 Y-71.938 Z-0.200 I2.556 J1.855 K0.000 F150.000
G3 X16.190 Y-71.165 Z-0.200 I-0.596 J4.682 K0.000 F150.000
G2 X17.678 Y-71.197 Z-0.200 I0.666 J-3.618 K0.000 F150.000
G3 X29.004 Y-72.369 Z-0.200 I17.857 J117.257 K0.000 F150.000
G3 X40.860 Y-71.668 Z-0.200 I1.808 J70.004 K0.000 F150.000
G3 X45.236 Y-70.964 Z-0.200 I-9.916 J75.691 K0.000 F150.000
G2 X45.637 Y-71.047 Z-0.200 I0.099 J-0.531 K0.000 F150.000
G3 X47.712 Y-71.923 Z-0.200 I2.416 J2.830 K0.000 F150.000
G3 X50.906 Y-69.822 Z-0.200 I0.126 J3.286 K0.000 F150.000
G3 X50.443 Y-66.855 Z-0.200 I-3.129 J1.032 K0.000 F150.000
G2 X50.179 Y-65.827 Z-0.200 I1.125 J0.836 K0.000 F150.000
G3 X50.991 Y-59.432 Z-0.200 I-108.816 J17.067 K0.000 F150.000
G3 X51.033 Y-53.796 Z-0.200 I-34.153 J3.070 K0.000 F150.000
G3 X50.247 Y-46.900 Z-0.200 I-100.928 J-8.009 K0.000 F150.000
G2 X50.212 Y-45.798 Z-0.200 I2.983 J0.646 K0.000 F150.000
G2 X50.725 Y-44.859 Z-0.200 I4.211 J-1.690 K0.000 F150.000
G3 X50.653 Y-41.796 Z-0.200 I-2.968 J1.463 K0.000 F150.000
G3 X46.834 Y-40.440 Z-0.200 I-2.764 J-1.729 K0.000 F150.000
G0 Z1.000
G0 X46.915 Y-40.674 Z1.000
G0 X46.915 Y-40.674 Z0.500
G1 X46.915 Y-40.674 Z-0.200 F100.000
G3 X46.226 Y-41.017 Z-0.200 I0.985 J-2.837 K0.000 F150.000
G2 X45.572 Y-41.412 Z-0.200 I-1.571 J1.868 K0.000 F150.000
G1 X45.242 Y-41.433 Z-0.200 F150.000
G3 X33.996 Y-40.121 Z-0.200 I-18.543 J-110.093 K0.000 F150.000
G3 X22.568 Y-40.587 Z-0.200 I-3.111 J-64.122 K0.000 F150.000
G2 X16.955 Y-41.291 Z-0.200 I-21.344 J147.426 K0.000 F150.000
G2 X15.764 Y-41.034 Z-0.200 I-0.325 J1.384 K0.000 F150.000
G3 X13.911 Y-40.475 Z-0.200 I-1.967 J-3.169 K0.000 F150.000
G3 X11.160 Y-43.761 Z-0.200 I0.229 J-2.987 K0.000 F150.000
G3 X11.835 Y-45.375 Z-0.200 I4.078 J0.758 K0.000 F150.000
G2 X11.924 Y-45.852 Z-0.200 I-0.684 J-0.374 K0.000 F150.000
G3 X11.186 Y-58.559 Z-0.200 I76.545 J-10.822 K0.000 F150.000
G3 X11.870 Y-66.061 Z-0.200 I79.073 J3.421 K0.000 F150.000
G2 X11.519 Y-67.375 Z-0.200 I-1.982 J-0.174 K0.000 F150.000
G3 X11.733 Y-70.492 Z-0.200 I2.333 J-1.405 K0.000 F150.000
G3 X14.126 Y-71.698 Z-0.200 I2.364 J1.712 K0.000 F150.000
G3 X16.110 Y-70.939 Z-0.200 I-0.623 J4.598 K0.000 F150.000
G2 X17.391 Y-70.920 Z-0.200 I0.687 J-3.186 K0.000 F150.000
G3 X29.013 Y-72.129 Z-0.200 I18.474 J121.139 K0.000 F150.000
G3 X40.827 Y-71.430 Z-0.200 I1.799 J69.766 K0.000 F150.000
G3 X45.192 Y-70.729 Z-0.200 I-9.886 J75.474 K0.000 F150.000
G2 X45.771 Y-70.848 Z-0.200 I0.143 J-0.767 K0.000 F150.000
G3 X47.723 Y-71.682 Z-0.200 I2.285 J2.647 K0.000 F150.000
G3 X50.677 Y-69.747 Z-0.200 I0.116 J3.045 K0.000 F150.000
G3 X50.234 Y-66.974 Z-0.200 I-2.910 J0.957 K0.000 F150.000
G2 X49.942 Y-65.792 Z-0.200 I1.337 J0.958 K0.000 F150.000
G3 X50.752 Y-59.413 Z-0.200 I-108.618 J17.037 K0.000 F150.000
G3 X50.793 Y-53.812 Z-0.200 I-33.931 J3.052 K0.000 F150.000
G3 X50.009 Y-46.933 Z-0.200 I-100.707 J-7.996 K0.000 F150.000
G2 X49.989 Y-45.711 Z-0.200 I2.799 J0.659 K0.000 F150.000
G2 X50.512 Y-44.748 Z-0.200 I4.426 J-1.781 K0.000 F150.000
G3 X50.446 Y-41.918 Z-0.200 I-2.752 J1.352 K0.000 F150.000
G3 X46.915 Y-40.674 Z-0.200 I-2.546 J-1.593 K0.000 F150.000
G0 Z1.000
G0 X46.997 Y-40.893 Z1.000
G0 X46.997 Y-40.893 Z0.500
G1 X46.997 Y-40.893 Z-0.200 F100.000
G3 X46.003 Y-41.537 Z-0.200 I0.969 J-2.585 K0.000 F150.000
G2 X45.664 Y-41.785 Z-0.200 I-0.537 J0.377 K0.000 F150.000
G2 X44.710 Y-41.614 Z-0.200 I0.278 J4.296 K0.000 F150.000
G3 X35.305 Y-40.428 Z-0.200 I-20.684 J-126.140 K0.000 F150.000
G3 X27.180 Y-40.397 Z-0.200 I-4.325 J-68.858 K0.000 F150.000
G3 X22.943 Y-40.796 Z-0.200 I3.745 J-62.496 K0.000 F150.000
G3 X16.185 Y-41.707 Z-0.200 I475.999 J-3554.594 K0.000 F150.000
G3 X15.190 Y-40.981 Z-0.200 I-3.320 J-3.501 K0.000 F150.000
G3 X13.562 Y-40.835 Z-0.200 I-1.030 J-2.335 K0.000 F150.000
G3 X11.434 Y-43.615 Z-0.200 I0.597 J-2.662 K0.000 F150.000
G3 X12.252 Y-45.378 Z-0.200 I3.307 J0.463 K0.000 F150.000
G2 X12.209 Y-46.092 Z-0.200 I-2.046 J-0.233 K0.000 F150.000
G3 X11.472 Y-53.719 Z-0.200 I80.704 J-11.642 K0.000 F150.000
G3 X11.896 Y-63.914 Z-0.200 I66.142 J-2.357 K0.000 F150.000
G3 X12.233 Y-66.322 Z-0.200 I19.787 J1.546 K0.000 F150.000
G2 X12.174 Y-66.909 Z-0.200 I-0.560 J-0.240 K0.000 F150.000
G3 X11.551 Y-67.986 Z-0.200 I2.957 J-2.430 K0.000 F150.000
G3 X14.498 Y-71.406 Z-0.200 I2.568 J-0.767 K0.000 F150.000
G3 X16.119 Y-70.522 Z-0.200 I-0.697 J3.204 K0.000 F150.000
G2 X16.426 Y-70.494 Z-0.200 I0.173 J-0.199 K0.000 F150.000
G3 X24.000 Y-71.490 Z-0.200 I36.595 J248.982 K0.000 F150.000
G3 X33.828 Y-71.852 Z-0.200 I7.181 J61.367 K0.000 F150.000
G3 X45.182 Y-70.462 Z-0.200 I-7.190 J105.776 K0.000 F150.000
G2 X45.726 Y-70.411 Z-0.200 I0.438 J-1.766 K0.000 F150.000
G3 X47.537 Y-71.417 Z-0.200 I2.696 J2.723 K0.000 F150.000
G3 X50.441 Y-69.513 Z-0.200 I0.327 J2.668 K0.000 F150.000
G3 X49.611 Y-66.709 Z-0.200 I-2.699 J0.726 K0.000 F150.000
G1 X49.611 Y-66.709 Z-0.200 F150.000
G2 X49.530 Y-66.620 Z-0.200 I0.631 J0.654 K0.000 F150.000
G2 X49.636 Y-65.513 Z-0.200 I4.013 J0.176 K0.000 F150.000
G3 X50.577 Y-56.843 Z-0.200 I-54.633 J10.321 K0.000 F150.000
G3 X49.473 Y-45.643 Z-0.200 I-60.231 J-0.284 K0.000 F150.000
G2 X49.892 Y-45.149 Z-0.200 I4.612 J-3.477 K0.000 F150.000
G3 X47.844 Y-40.720 Z-0.200 I-2.045 J1.742 K0.000 F150.000
G3 X46.997 Y-40.893 Z-0.200 I0.122 J-2.758 K0.000 F150.000
G0 Z1.000
G0 X47.080 Y-41.117 Z1.000
G0 X47.080 Y-41.117 Z0.500
G1 X47.080 Y-41.117 Z-0.200 F100.000
G3 X46.156 Y-41.721 Z-0.200 I0.854 J-2.316 K0.000 F150.000
G2 X45.678 Y-42.025 Z-0.200 I-0.626 J0.458 K0.000 F150.000
G2 X44.662 Y-41.849 Z-0.200 I0.202 J4.187 K0.000 F150.000
G3 X35.280 Y-40.667 Z-0.200 I-20.660 J-126.104 K0.000 F150.000
G3 X27.190 Y-40.637 Z-0.200 I-4.299 J-68.730 K0.000 F150.000
G3 X22.967 Y-41.035 Z-0.200 I3.743 J-62.345 K0.000 F150.000
G3 X16.364 Y-41.927 Z-0.200 I58.784 J-460.031 K0.000 F150.000
G2 X16.042 Y-41.901 Z-0.200 I-0.140 J0.281 K0.000 F150.000
G3 X15.071 Y-41.189 Z-0.200 I-3.192 J-3.336 K0.000 F150.000
G3 X13.389 Y-41.127 Z-0.200 I-0.923 J-2.184 K0.000 F150.000
G3 X11.788 Y-42.775 Z-0.200 I0.741 J-2.320 K0.000 F150.000
G3 X11.737 Y-44.001 Z-0.200 I2.037 J-0.698 K0.000 F150.000
G3 X12.479 Y-45.293 Z-0.200 I4.675 J1.823 K0.000 F150.000
G2 X12.447 Y-46.120 Z-0.200 I-1.985 J-0.338 K0.000 F150.000
G3 X11.712 Y-53.730 Z-0.200 I80.537 J-11.620 K0.000 F150.000
G3 X12.135 Y-63.890 Z-0.200 I65.905 J-2.346 K0.000 F150.000
G3 X12.470 Y-66.284 Z-0.200 I19.618 J1.531 K0.000 F150.000
G2 X12.281 Y-67.169 Z-0.200 I-0.813 J-0.288 K0.000 F150.000
G3 X12.030 Y-70.038 Z-0.200 I1.778 J-1.600 K0.000 F150.000
G3 X13.612 Y-71.147 Z-0.200 I2.254 J1.532 K0.000 F150.000
G3 X15.492 Y-70.711 Z-0.200 I0.483 J2.188 K0.000 F150.000
G2 X16.122 Y-70.225 Z-0.200 I5.008 J-5.844 K0.000 F150.000
G2 X16.458 Y-70.256 Z-0.200 I0.027 J-1.570 K0.000 F150.000
G3 X24.027 Y-71.251 Z-0.200 I36.571 J248.811 K0.000 F150.000
G3 X34.149 Y-71.598 Z-0.200 I7.169 J61.324 K0.000 F150.000
G3 X44.536 Y-70.326 Z-0.200 I-7.850 J107.079 K0.000 F150.000
G2 X45.769 Y-70.155 Z-0.200 I1.881 J-9.049 K0.000 F150.000
G2 X46.481 Y-70.712 Z-0.200 I-2.086 J-3.397 K0.000 F150.000
G3 X48.118 Y-71.198 Z-0.200 I1.465 J1.936 K0.000 F150.000
G3 X50.278 Y-69.162 Z-0.200 I-0.320 J2.505 K0.000 F150.000
G3 X49.515 Y-66.956 Z-0.200 I-2.523 J0.362 K0.000 F150.000
G2 X49.287 Y-66.660 Z-0.200 I0.483 J0.609 K0.000 F150.000
G2 X49.358 Y-65.736 Z-0.200 I3.638 J0.182 K0.000 F150.000
G3 X50.109 Y-60.598 Z-0.200 I-154.380 J25.176 K0.000 F150.000
G3 X50.326 Y-55.125 Z-0.200 I-41.059 J4.368 K0.000 F150.000
G3 X49.220 Y-45.580 Z-0.200 I-63.976 J-2.575 K0.000 F150.000
G3 X50.108 Y-44.376 Z-0.200 I-4.580 J4.306 K0.000 F150.000
G3 X48.042 Y-40.967 Z-0.200 I-2.283 J0.947 K0.000 F150.000
G3 X47.080 Y-41.117 Z-0.200 I-0.108 J-2.466 K0.000 F150.000
G0 Z1.000
G0 X47.163 Y-41.343 Z1.000
G0 X47.163 Y-41.343 Z0.500
G1 X47.163 Y-41.343 Z-0.200 F100.000
G3 X46.309 Y-41.906 Z-0.200 I0.779 J-2.108 K0.000 F150.000
G2 X45.690 Y-42.265 Z-0.200 I-0.757 J0.593 K0.000 F150.000
G2 X44.615 Y-42.085 Z-0.200 I0.156 J4.224 K0.000 F150.000
G3 X35.255 Y-40.905 Z-0.200 I-20.636 J-126.071 K0.000 F150.000
G3 X27.200 Y-40.877 Z-0.200 I-4.272 J-68.604 K0.000 F150.000
G3 X22.992 Y-41.273 Z-0.200 I3.741 J-62.195 K0.000 F150.000
G3 X16.343 Y-42.172 Z-0.200 I72.771 J-563.632 K0.000 F150.000
G2 X15.892 Y-42.089 Z-0.200 I-0.164 J0.376 K0.000 F150.000
G3 X14.953 Y-41.398 Z-0.200 I-3.035 J-3.145 K0.000 F150.000
G3 X12.010 Y-42.868 Z-0.200 I-0.806 J-2.069 K0.000 F150.000
G3 X12.083 Y-44.242 Z-0.200 I1.683 J-0.599 K0.000 F150.000
G3 X12.705 Y-45.208 Z-0.200 I18.091 J10.971 K0.000 F150.000
G2 X12.685 Y-46.148 Z-0.200 I-2.123 J-0.425 K0.000 F150.000
G3 X11.952 Y-53.741 Z-0.200 I80.370 J-11.598 K0.000 F150.000
G3 X12.374 Y-63.867 Z-0.200 I65.668 J-2.335 K0.000 F150.000
G3 X12.707 Y-66.247 Z-0.200 I19.450 J1.516 K0.000 F150.000
G2 X12.473 Y-67.311 Z-0.200 I-1.031 J-0.332 K0.000 F150.000
G3 X12.237 Y-69.916 Z-0.200 I1.586 J-1.457 K0.000 F150.000
G3 X13.588 Y-70.896 Z-0.200 I2.071 J1.434 K0.000 F150.000
G3 X15.368 Y-70.505 Z-0.200 I0.505 J1.949 K0.000 F150.000
G2 X16.062 Y-69.984 Z-0.200 I2.243 J-2.263 K0.000 F150.000
G2 X16.491 Y-70.018 Z-0.200 I0.137 J-0.974 K0.000 F150.000
G3 X24.055 Y-71.013 Z-0.200 I36.548 J248.645 K0.000 F150.000
G3 X34.139 Y-71.359 Z-0.200 I7.142 J61.087 K0.000 F150.000
G3 X43.513 Y-70.259 Z-0.200 I-6.829 J98.768 K0.000 F150.000
G2 X45.650 Y-69.921 Z-0.200 I4.188 J-19.560 K0.000 F150.000
G2 X46.181 Y-70.154 Z-0.200 I0.063 J-0.578 K0.000 F150.000
G3 X48.121 Y-70.958 Z-0.200 I1.832 J1.679 K0.000 F150.000
G3 X50.044 Y-69.113 Z-0.200 I-0.327 J2.265 K0.000 F150.000
G3 X49.331 Y-67.111 Z-0.200 I-2.296 J0.311 K0.000 F150.000
G2 X49.053 Y-66.719 Z-0.200 I0.609 J0.727 K0.000 F150.000
G2 X49.121 Y-65.700 Z-0.200 I3.586 J0.272 K0.000 F150.000
G3 X49.871 Y-60.569 Z-0.200 I-154.313 J25.166 K0.000 F150.000
G3 X50.086 Y-55.126 Z-0.200 I-40.805 J4.339 K0.000 F150.000
G3 X48.971 Y-45.533 Z-0.200 I-65.552 J-2.759 K0.000 F150.000
G3 X49.817 Y-44.417 Z-0.200 I-60.504 J46.731 K0.000 F150.000
G3 X48.005 Y-41.204 Z-0.200 I-1.985 J0.998 K0.000 F150.000
G3 X47.163 Y-41.343 Z-0.200 I-0.063 J-2.246 K0.000 F150.000
G0 Z1.000
G0 X49.751 Y-45.681 Z1.000
G0 X49.751 Y-45.681 Z0.500
G1 X49.751 Y-45.681 Z-0.200 F100.000
G3 X49.735 Y-45.749 Z-0.200 I0.063 J-0.051 K0.000 F150.000
G1 X49.751 Y-45.681 Z-0.200 F150.000
G0 Z1.000
G0 Z1.000
G0 X49.751 Y-45.681
G0 X47.914 Y-74.901
G0 X47.914 Y-74.901 Z0.500
G1 X47.914 Y-74.901 Z-0.200 F100.000
G3 X47.176 Y-74.947 Z-0.200 I-0.186 J-2.952 K0.000 F150.000
G3 X47.052 Y-76.044 Z-0.200 I2.674 J-0.857 K0.000 F150.000
G3 X47.094 Y-79.439 Z-0.200 I41.419 J-1.185 K0.000 F150.000
G3 X47.326 Y-79.711 Z-0.200 I0.209 J-0.057 K0.000 F150.000
G3 X48.035 Y-79.697 Z-0.200 I0.263 J4.746 K0.000 F150.000
G3 X48.365 Y-79.620 Z-0.200 I0.075 J0.419 K0.000 F150.000
G2 X48.437 Y-78.626 Z-0.200 I3.794 J0.226 K0.000 F150.000
G2 X49.045 Y-78.439 Z-0.200 I0.365 J-0.102 K0.000 F150.000
G2 X51.194 Y-79.673 Z-0.200 I-17.469 J-32.880 K0.000 F150.000
G3 X52.836 Y-79.702 Z-0.200 I0.982 J9.186 K0.000 F150.000
G3 X53.033 Y-79.499 Z-0.200 I0.015 J0.182 K0.000 F150.000
G3 X53.126 Y-76.864 Z-0.200 I-15.211 J1.856 K0.000 F150.000
G3 X53.002 Y-74.945 Z-0.200 I-12.880 J0.137 K0.000 F150.000
G3 X51.953 Y-74.945 Z-0.200 I-0.522 J-3.280 K0.000 F150.000
G2 X51.872 Y-76.175 Z-0.200 I-18.915 J0.629 K0.000 F150.000
G2 X51.316 Y-76.387 Z-0.200 I-0.336 J0.046 K0.000 F150.000
G3 X48.441 Y-74.982 Z-0.200 I-99.163 J-199.259 K0.000 F150.000
G3 X47.914 Y-74.901 Z-0.200 I-0.712 J-2.871 K0.000 F150.000
G0 Z1.000
G0 X47.897 Y-75.152 Z1.000
G0 X47.897 Y-75.152 Z0.500
G1 X47.897 Y-75.152 Z-0.200 F100.000
G3 X47.355 Y-75.149 Z-0.200 I-0.300 J-4.352 K0.000 F150.000
G3 X47.289 Y-77.311 Z-0.200 I12.161 J-1.455 K0.000 F150.000
G3 X47.332 Y-79.407 Z-0.200 I15.918 J-0.722 K0.000 F150.000
G1 X47.344 Y-79.472 Z-0.200 F150.000
G3 X48.014 Y-79.458 Z-0.200 I0.248 J4.471 K0.000 F150.000
G3 X48.133 Y-79.444 Z-0.200 I-0.114 J1.428 K0.000 F150.000
G2 X48.294 Y-78.369 Z-0.200 I2.010 J0.249 K0.000 F150.000
G2 X49.232 Y-78.265 Z-0.200 I0.518 J-0.397 K0.000 F150.000
G2 X51.263 Y-79.436 Z-0.200 I-18.974 J-35.263 K0.000 F150.000
G3 X52.794 Y-79.465 Z-0.200 I0.937 J8.879 K0.000 F150.000
G3 X52.886 Y-76.870 Z-0.200 I-13.694 J1.785 K0.000 F150.000
G3 X52.790 Y-75.159 Z-0.200 I-19.429 J-0.227 K0.000 F150.000
G3 X52.165 Y-75.167 Z-0.200 I-0.280 J-2.493 K0.000 F150.000
G2 X52.050 Y-76.388 Z-0.200 I-3.763 J-0.259 K0.000 F150.000
G2 X51.155 Y-76.577 Z-0.200 I-0.535 J0.321 K0.000 F150.000
G3 X48.365 Y-75.210 Z-0.200 I-94.151 J-188.683 K0.000 F150.000
G3 X47.897 Y-75.152 Z-0.200 I-0.769 J-4.294 K0.000 F150.000
G0 Z1.000
G0 X47.884 Y-75.383 Z1.000
G0 X47.884 Y-75.383 Z0.500
G1 X47.884 Y-75.383 Z-0.200 F100.000
G3 X47.558 Y-75.386 Z-0.200 I-0.139 J-2.513 K0.000 F150.000
G3 X47.558 Y-79.238 Z-0.200 I58.907 J-1.930 K0.000 F150.000
G3 X47.897 Y-79.226 Z-0.200 I0.069 J2.989 K0.000 F150.000
G2 X48.134 Y-78.181 Z-0.200 I1.745 J0.153 K0.000 F150.000
G2 X49.344 Y-78.053 Z-0.200 I0.674 J-0.583 K0.000 F150.000
G2 X51.332 Y-79.198 Z-0.200 I-18.675 J-34.717 K0.000 F150.000
G3 X52.586 Y-79.234 Z-0.200 I1.182 J19.210 K0.000 F150.000
G3 X52.570 Y-75.385 Z-0.200 I-21.275 J1.838 K0.000 F150.000
G3 X52.394 Y-75.385 Z-0.200 I-0.090 J-2.068 K0.000 F150.000
G2 X52.268 Y-76.487 Z-0.200 I-2.659 J-0.255 K0.000 F150.000
G2 X51.052 Y-76.793 Z-0.200 I-0.752 J0.415 K0.000 F150.000
G3 X48.290 Y-75.439 Z-0.200 I-106.563 J-213.725 K0.000 F150.000
G3 X47.884 Y-75.383 Z-0.200 I-0.545 J-2.457 K0.000 F150.000
G0 Z1.000
G0 X47.892 Y-75.626 Z1.000
G0 X47.892 Y-75.626 Z0.500
G1 X47.892 Y-75.626 Z-0.200 F100.000
G3 X47.783 Y-75.636 Z-0.200 I0.035 J-1.006 K0.000 F150.000
G3 X47.773 Y-78.362 Z-0.200 I93.098 J-1.678 K0.000 F150.000
G2 X49.456 Y-77.840 Z-0.200 I1.026 J-0.335 K0.000 F150.000
G2 X51.401 Y-78.960 Z-0.200 I-18.377 J-34.174 K0.000 F150.000
G3 X52.366 Y-78.990 Z-0.200 I2.991 J81.374 K0.000 F150.000
G3 X52.400 Y-76.724 Z-0.200 I-18.423 J1.404 K0.000 F150.000
G2 X50.948 Y-77.010 Z-0.200 I-0.882 J0.648 K0.000 F150.000
G3 X48.215 Y-75.667 Z-0.200 I-123.930 J-248.767 K0.000 F150.000
G3 X47.892 Y-75.626 Z-0.200 I-0.287 J-0.965 K0.000 F150.000
G0 Z1.000
G0 X48.016 Y-75.872 Z1.000
G0 X48.016 Y-75.872 Z0.500
G1 X48.016 Y-75.872 Z-0.200 F100.000
G3 X48.010 Y-77.639 Z-0.200 I102.588 J-1.218 K0.000 F150.000
G2 X49.655 Y-77.674 Z-0.200 I0.797 J-1.187 K0.000 F150.000
G2 X51.470 Y-78.722 Z-0.200 I-22.766 J-41.533 K0.000 F150.000
G3 X52.144 Y-78.744 Z-0.200 I2.162 J56.749 K0.000 F150.000
G3 X52.169 Y-77.255 Z-0.200 I-15.743 J1.017 K0.000 F150.000
G2 X50.845 Y-77.226 Z-0.200 I-0.637 J1.206 K0.000 F150.000
G3 X48.063 Y-75.874 Z-0.200 I-32.328 J-62.970 K0.000 F150.000
G1 X48.016 Y-75.872 Z-0.200 F150.000
G0 Z1.000
G0 X48.251 Y-76.202 Z1.000
G0 X48.251 Y-76.202 Z0.500
G1 X48.251 Y-76.202 Z-0.200 F100.000
G3 X48.249 Y-77.242 Z-0.200 I130.996 J-0.771 K0.000 F150.000
G2 X49.681 Y-77.416 Z-0.200 I0.538 J-1.549 K0.000 F150.000
G2 X51.539 Y-78.484 Z-0.200 I-17.786 J-33.098 K0.000 F150.000
G1 X51.918 Y-78.496 Z-0.200 F150.000
G3 X51.933 Y-77.616 Z-0.200 I-14.610 J0.683 K0.000 F150.000
G2 X50.675 Y-77.411 Z-0.200 I-0.351 J1.808 K0.000 F150.000
G2 X48.251 Y-76.202 Z-0.200 I217.814 J439.708 K0.000 F150.000
G0 Z1.000
G0 X48.489 Y-76.582 Z1.000
G0 X48.489 Y-76.582 Z0.500
G1 X48.489 Y-76.582 Z-0.200 F100.000
G3 X48.489 Y-76.931 Z-0.200 I137.581 J-0.233 K0.000 F150.000
G2 X49.288 Y-76.987 Z-0.200 I0.302 J-1.432 K0.000 F150.000
G3 X48.489 Y-76.582 Z-0.200 I-22.145 J-42.747 K0.000 F150.000
G0 Z1.000
G0 X50.462 Y-77.575 Z1.000
G0 X50.462 Y-77.575 Z0.500
G1 X50.462 Y-77.575 Z-0.200 F100.000
G2 X51.608 Y-78.246 Z-0.200 I-54.560 J-94.430 K0.000 F150.000
G1 X51.687 Y-78.249 Z-0.200 F150.000
G1 X51.693 Y-77.896 Z-0.200 F150.000
G2 X50.462 Y-77.575 Z-0.200 I-0.012 J2.476 K0.000 F150.000
G0 Z1.000
G0 Z1.000
G0 X50.462 Y-77.575
G0 X46.024 Y-77.296
G0 X46.024 Y-77.296 Z0.500
G1 X46.024 Y-77.296 Z-0.200 F100.000
G3 X45.977 Y-76.633 Z-0.200 I-2.503 J0.157 K0.000 F150.000
G3 X44.693 Y-75.102 Z-0.200 I-2.279 J-0.609 K0.000 F150.000
G3 X42.422 Y-74.774 Z-0.200 I-1.865 J-4.880 K0.000 F150.000
G3 X39.575 Y-76.142 Z-0.200 I-0.127 J-3.383 K0.000 F150.000
G3 X40.436 Y-79.299 Z-0.200 I1.969 J-1.159 K0.000 F150.000
G3 X44.516 Y-79.441 Z-0.200 I2.181 J3.988 K0.000 F150.000
G3 X46.024 Y-77.296 Z-0.200 I-0.994 J2.302 K0.000 F150.000
G0 Z1.000
G0 X45.784 Y-77.281 Z1.000
G0 X45.784 Y-77.281 Z0.500
G1 X45.784 Y-77.281 Z-0.200 F100.000
G3 X45.742 Y-76.684 Z-0.200 I-2.262 J0.142 K0.000 F150.000
G3 X44.584 Y-75.317 Z-0.200 I-2.045 J-0.559 K0.000 F150.000
G3 X42.428 Y-75.014 Z-0.200 I-1.759 J-4.685 K0.000 F150.000
G3 X39.782 Y-76.264 Z-0.200 I-0.130 J-3.151 K0.000 F150.000
G3 X40.560 Y-79.093 Z-0.200 I1.763 J-1.036 K0.000 F150.000
G3 X44.414 Y-79.223 Z-0.200 I2.057 J3.787 K0.000 F150.000
G3 X45.784 Y-77.281 Z-0.200 I-0.892 J2.084 K0.000 F150.000
G0 Z1.000
G0 X45.544 Y-77.266 Z1.000
G0 X45.544 Y-77.266 Z0.500
G1 X45.544 Y-77.266 Z-0.200 F100.000
G3 X45.507 Y-76.735 Z-0.200 I-2.022 J0.126 K0.000 F150.000
G3 X44.476 Y-75.532 Z-0.200 I-1.810 J-0.509 K0.000 F150.000
G3 X42.434 Y-75.254 Z-0.200 I-1.653 J-4.493 K0.000 F150.000
G3 X39.988 Y-76.387 Z-0.200 I-0.132 J-2.921 K0.000 F150.000
G3 X40.684 Y-78.887 Z-0.200 I1.556 J-0.914 K0.000 F150.000
G3 X44.311 Y-79.006 Z-0.200 I1.933 J3.586 K0.000 F150.000
G3 X45.544 Y-77.266 Z-0.200 I-0.790 J1.866 K0.000 F150.000
G0 Z1.000
G0 X45.305 Y-77.251 Z1.000
G0 X45.305 Y-77.251 Z0.500
G1 X45.305 Y-77.251 Z-0.200 F100.000
G3 X45.272 Y-76.786 Z-0.200 I-1.766 J0.109 K0.000 F150.000
G3 X44.783 Y-76.035 Z-0.200 I-1.373 J-0.359 K0.000 F150.000
G2 X44.287 Y-78.746 Z-0.200 I-1.426 J-1.140 K0.000 F150.000
G3 X45.305 Y-77.251 Z-0.200 I-0.749 J1.603 K0.000 F150.000
G0 Z1.000
G0 X44.948 Y-77.234 Z1.000
G0 X44.948 Y-77.234 Z0.500
G1 X44.948 Y-77.234 Z-0.200 F100.000
G3 X44.852 Y-76.624 Z-0.200 I-1.512 J0.074 K0.000 F150.000
G3 X42.927 Y-75.598 Z-0.200 I-1.569 J-0.624 K0.000 F150.000
G3 X41.681 Y-78.001 Z-0.200 I0.181 J-1.618 K0.000 F150.000
G3 X44.917 Y-77.472 Z-0.200 I1.507 J0.942 K0.000 F150.000
G3 X44.948 Y-77.234 Z-0.200 I-1.482 J0.313 K0.000 F150.000
G0 Z1.000
G0 X44.708 Y-77.222 Z1.000
G0 X44.708 Y-77.222 Z0.500
G1 X44.708 Y-77.222 Z-0.200 F100.000
G3 X44.483 Y-76.425 Z-0.200 I-1.305 J0.063 K0.000 F150.000
G3 X42.779 Y-75.880 Z-0.200 I-1.226 J-0.896 K0.000 F150.000
G3 X41.807 Y-77.710 Z-0.200 I0.298 J-1.332 K0.000 F150.000
G3 X44.684 Y-77.414 Z-0.200 I1.388 J0.643 K0.000 F150.000
G3 X44.708 Y-77.222 Z-0.200 I-1.281 J0.255 K0.000 F150.000
G0 Z1.000
G0 X44.470 Y-77.209 Z1.000
G0 X44.470 Y-77.209 Z0.500
G1 X44.470 Y-77.209 Z-0.200 F100.000
G3 X44.357 Y-76.679 Z-0.200 I-1.032 J0.058 K0.000 F150.000
G3 X42.834 Y-76.113 Z-0.200 I-1.106 J-0.644 K0.000 F150.000
G3 X42.038 Y-77.645 Z-0.200 I0.240 J-1.098 K0.000 F150.000
G3 X44.416 Y-77.483 Z-0.200 I1.156 J0.571 K0.000 F150.000
G3 X44.470 Y-77.209 Z-0.200 I-0.979 J0.332 K0.000 F150.000
G0 Z1.000
G0 X43.372 Y-79.064 Z1.000
G0 X43.372 Y-79.064 Z0.500
G1 X43.372 Y-79.064 Z-0.200 F100.000
G2 X42.313 Y-75.547 Z-0.200 I-0.275 J1.835 K0.000 F150.000
G1 X42.439 Y-75.494 Z-0.200 F150.000
G3 X40.195 Y-76.510 Z-0.200 I-0.133 J-2.692 K0.000 F150.000
G3 X40.808 Y-78.681 Z-0.200 I1.350 J-0.791 K0.000 F150.000
G3 X43.372 Y-79.064 Z-0.200 I1.821 J3.416 K0.000 F150.000
G0 Z1.000
G0 X41.699 Y-78.775 Z1.000
G0 X41.699 Y-78.775 Z0.500
G1 X41.699 Y-78.775 Z-0.200 F100.000
G2 X41.491 Y-75.880 Z-0.200 I1.357 J1.553 K0.000 F150.000
G3 X40.272 Y-76.885 Z-0.200 I0.435 J-1.769 K0.000 F150.000
G3 X41.155 Y-78.591 Z-0.200 I1.363 J-0.376 K0.000 F150.000
G3 X41.699 Y-78.775 Z-0.200 I1.243 J2.788 K0.000 F150.000
G0 Z1.000
G0 X41.006 Y-78.234 Z1.000
G0 X41.006 Y-78.234 Z0.500
G1 X41.006 Y-78.234 Z-0.200 F100.000
G2 X40.880 Y-76.475 Z-0.200 I1.953 J1.024 K0.000 F150.000
G3 X40.734 Y-78.006 Z-0.200 I0.562 J-0.826 K0.000 F150.000
G3 X41.006 Y-78.234 Z-0.200 I0.890 J0.782 K0.000 F150.000
G0 Z1.000
G0 X40.611 Y-77.397 Z1.000
G0 X40.611 Y-77.397 Z0.500
G1 X40.611 Y-77.397 Z-0.200 F100.000
G2 X40.607 Y-77.157 Z-0.200 I1.722 J0.146 K0.000 F150.000
G3 X40.611 Y-77.397 Z-0.200 I0.482 J-0.113 K0.000 F150.000
G0 Z1.000
G0 Z1.000
G0 X40.611 Y-77.397
G0 X38.271 Y-77.424
G0 X38.271 Y-77.424 Z0.500
G1 X38.271 Y-77.424 Z-0.200 F100.000
G3 X38.266 Y-77.093 Z-0.200 I-55.184 J-0.634 K0.000 F150.000
G3 X38.186 Y-75.001 Z-0.200 I-15.997 J0.438 K0.000 F150.000
G3 X37.893 Y-74.936 Z-0.200 I-0.245 J-0.408 K0.000 F150.000
G3 X35.631 Y-74.979 Z-0.200 I-0.969 J-8.449 K0.000 F150.000
G3 X35.492 Y-76.546 Z-0.200 I4.410 J-1.182 K0.000 F150.000
G3 X35.572 Y-79.456 Z-0.200 I25.500 J-0.756 K0.000 F150.000
G3 X35.856 Y-79.698 Z-0.200 I0.239 J-0.007 K0.000 F150.000
G3 X38.122 Y-79.651 Z-0.200 I0.873 J12.654 K0.000 F150.000
G3 X38.262 Y-79.219 Z-0.200 I-0.302 J0.337 K0.000 F150.000
G3 X38.271 Y-77.424 Z-0.200 I-55.175 J1.160 K0.000 F150.000
G0 Z1.000
G0 X38.040 Y-77.432 Z1.000
G0 X38.040 Y-77.432 Z0.500
G1 X38.040 Y-77.432 Z-0.200 F100.000
G3 X38.026 Y-77.096 Z-0.200 I-19.615 J-0.666 K0.000 F150.000
G3 X37.971 Y-75.187 Z-0.200 I-27.202 J0.175 K0.000 F150.000
G3 X35.810 Y-75.210 Z-0.200 I-0.987 J-8.947 K0.000 F150.000
G3 X35.732 Y-76.546 Z-0.200 I8.393 J-1.162 K0.000 F150.000
G3 X35.808 Y-79.414 Z-0.200 I25.851 J-0.746 K0.000 F150.000
G3 X36.089 Y-79.471 Z-0.200 I0.196 J0.243 K0.000 F150.000
G3 X38.006 Y-79.433 Z-0.200 I0.757 J10.100 K0.000 F150.000
G3 X38.040 Y-77.432 Z-0.200 I-19.580 J1.335 K0.000 F150.000
G0 Z1.000
G0 X37.791 Y-77.435 Z1.000
G0 X37.791 Y-77.435 Z0.500
G1 X37.791 Y-77.435 Z-0.200 F100.000
G3 X37.786 Y-77.099 Z-0.200 I-54.803 J-0.624 K0.000 F150.000
G3 X37.748 Y-75.405 Z-0.200 I-44.447 J-0.141 K0.000 F150.000
G3 X36.022 Y-75.407 Z-0.200 I-0.845 J-11.432 K0.000 F150.000
G3 X36.028 Y-79.228 Z-0.200 I38.701 J-1.845 K0.000 F150.000
G3 X37.782 Y-79.204 Z-0.200 I0.639 J17.304 K0.000 F150.000
G3 X37.791 Y-77.435 Z-0.200 I-54.794 J1.145 K0.000 F150.000
G0 Z1.000
G0 X37.550 Y-77.437 Z1.000
G0 X37.550 Y-77.437 Z0.500
G1 X37.550 Y-77.437 Z-0.200 F100.000
G3 X37.546 Y-77.102 Z-0.200 I-62.573 J-0.636 K0.000 F150.000
G3 X37.518 Y-75.629 Z-0.200 I-57.038 J-0.347 K0.000 F150.000
G3 X36.242 Y-75.633 Z-0.200 I-0.604 J-11.522 K0.000 F150.000
G3 X36.255 Y-78.994 Z-0.200 I45.737 J-1.500 K0.000 F150.000
G3 X37.547 Y-78.990 Z-0.200 I0.563 J32.696 K0.000 F150.000
G3 X37.550 Y-77.437 Z-0.200 I-62.570 J0.918 K0.000 F150.000
G0 Z1.000
G0 X37.310 Y-77.440 Z1.000
G0 X37.310 Y-77.440 Z0.500
G1 X37.310 Y-77.440 Z-0.200 F100.000
G3 X37.306 Y-77.105 Z-0.200 I-69.044 J-0.679 K0.000 F150.000
G3 X37.285 Y-75.864 Z-0.200 I-82.546 J-0.771 K0.000 F150.000
G3 X36.468 Y-75.867 Z-0.200 I-0.381 J-7.378 K0.000 F150.000
G3 X36.484 Y-78.757 Z-0.200 I54.862 J-1.135 K0.000 F150.000
G3 X37.311 Y-78.756 Z-0.200 I0.317 J45.171 K0.000 F150.000
G3 X37.310 Y-77.440 Z-0.200 I-69.044 J0.636 K0.000 F150.000
G0 Z1.000
G0 X37.070 Y-77.442 Z1.000
G0 X37.070 Y-77.442 Z0.500
G1 X37.070 Y-77.442 Z-0.200 F100.000
G3 X37.066 Y-77.108 Z-0.200 I-72.859 J-0.705 K0.000 F150.000
G3 X37.050 Y-76.098 Z-0.200 I-158.611 J-1.950 K0.000 F150.000
G3 X36.699 Y-76.100 Z-0.200 I-0.156 J-3.173 K0.000 F150.000
G3 X36.717 Y-78.518 Z-0.200 I62.293 J-0.738 K0.000 F150.000
G3 X37.072 Y-78.518 Z-0.200 I0.133 J34.187 K0.000 F150.000
G3 X37.070 Y-77.442 Z-0.200 I-72.861 J0.371 K0.000 F150.000
G0 Z1.000
G0 X36.920 Y-77.443 Z1.000
G0 X36.920 Y-77.443 Z0.500
G1 X36.920 Y-77.443 Z-0.200 F100.000
G3 X36.916 Y-77.110 Z-0.200 I-81.376 J-0.749 K0.000 F150.000
G3 X36.903 Y-76.244 Z-0.200 I-135.942 J-1.640 K0.000 F150.000
G3 X36.846 Y-76.246 Z-0.200 I-0.013 J-0.513 K0.000 F150.000
G3 X36.864 Y-78.368 Z-0.200 I40.543 J-0.724 K0.000 F150.000
G3 X36.923 Y-78.368 Z-0.200 I0.021 J5.720 K0.000 F150.000
G3 X36.920 Y-77.443 Z-0.200 I-81.379 J0.176 K0.000 F150.000
G0 Z1.000
G0 Z1.000
G0 X36.920 Y-77.443
G0 X34.382 Y-77.426
G0 X34.382 Y-77.426 Z0.500
G1 X34.382 Y-77.426 Z-0.200 F100.000
G3 X34.343 Y-75.771 Z-0.200 I-27.026 J0.185 K0.000 F150.000
G3 X34.243 Y-74.954 Z-0.200 I-4.788 J-0.174 K0.000 F150.000
G3 X32.078 Y-74.944 Z-0.200 I-1.146 J-12.906 K0.000 F150.000
G3 X31.829 Y-75.329 Z-0.200 I0.081 J-0.326 K0.000 F150.000
G2 X31.763 Y-76.925 Z-0.200 I-9.061 J-0.428 K0.000 F150.000
G2 X30.997 Y-77.474 Z-0.200 I-0.650 J0.098 K0.000 F150.000
G2 X30.227 Y-77.169 Z-0.200 I-0.166 J0.705 K0.000 F150.000
G2 X30.116 Y-76.060 Z-0.200 I2.965 J0.856 K0.000 F150.000
G3 X30.061 Y-75.143 Z-0.200 I-2.495 J0.311 K0.000 F150.000
G3 X29.571 Y-74.914 Z-0.200 I-0.401 J-0.218 K0.000 F150.000
G3 X27.642 Y-74.955 Z-0.200 I-0.769 J-9.295 K0.000 F150.000
G3 X27.547 Y-75.079 Z-0.200 I-0.007 J-0.093 K0.000 F150.000
G3 X27.508 Y-79.524 Z-0.200 I59.914 J-2.740 K0.000 F150.000
G3 X28.031 Y-79.711 Z-0.200 I0.432 J0.386 K0.000 F150.000
G3 X30.071 Y-79.623 Z-0.200 I0.601 J9.838 K0.000 F150.000
G3 X30.114 Y-79.390 Z-0.200 I-0.203 J0.158 K0.000 F150.000
G2 X30.303 Y-78.511 Z-0.200 I1.193 J0.203 K0.000 F150.000
G2 X31.543 Y-78.451 Z-0.200 I0.654 J-0.687 K0.000 F150.000
G2 X31.819 Y-79.451 Z-0.200 I-0.980 J-0.808 K0.000 F150.000
G3 X31.843 Y-79.654 Z-0.200 I0.467 J-0.046 K0.000 F150.000
G3 X34.126 Y-79.675 Z-0.200 I1.244 J11.342 K0.000 F150.000
G3 X34.298 Y-79.382 Z-0.200 I-0.093 J0.251 K0.000 F150.000
G3 X34.382 Y-77.426 Z-0.200 I-26.942 J2.140 K0.000 F150.000
G0 Z1.000
G0 X34.156 Y-77.427 Z1.000
G0 X34.156 Y-77.427 Z0.500
G1 X34.156 Y-77.427 Z-0.200 F100.000
G3 X34.143 Y-76.865 Z-0.200 I-15.865 J-0.090 K0.000 F150.000
G3 X34.040 Y-75.175 Z-0.200 I-9.344 J0.279 K0.000 F150.000
G3 X32.102 Y-75.197 Z-0.200 I-0.859 J-9.971 K0.000 F150.000
G3 X32.038 Y-76.693 Z-0.200 I12.812 J-1.292 K0.000 F150.000
G2 X31.364 Y-77.676 Z-0.200 I-0.946 J-0.074 K0.000 F150.000
G2 X30.261 Y-77.556 Z-0.200 I-0.403 J1.420 K0.000 F150.000
G2 X29.883 Y-76.643 Z-0.200 I0.669 J0.811 K0.000 F150.000
G3 X29.844 Y-75.251 Z-0.200 I-9.012 J0.442 K0.000 F150.000
G3 X29.559 Y-75.154 Z-0.200 I-0.235 J-0.223 K0.000 F150.000
G3 X27.778 Y-75.177 Z-0.200 I-0.714 J-13.496 K0.000 F150.000
G3 X27.749 Y-79.411 Z-0.200 I69.257 J-2.580 K0.000 F150.000
G3 X28.039 Y-79.471 Z-0.200 I0.232 J0.390 K0.000 F150.000
G3 X29.872 Y-79.419 Z-0.200 I0.413 J18.005 K0.000 F150.000
G2 X30.099 Y-78.385 Z-0.200 I1.452 J0.224 K0.000 F150.000
G2 X31.846 Y-78.445 Z-0.200 I0.848 J-0.766 K0.000 F150.000
G2 X32.059 Y-79.439 Z-0.200 I-1.623 J-0.867 K0.000 F150.000
G3 X34.038 Y-79.448 Z-0.200 I1.042 J11.963 K0.000 F150.000
G3 X34.156 Y-77.427 Z-0.200 I-15.748 J1.931 K0.000 F150.000
G0 Z1.000
G0 X33.182 Y-77.421 Z1.000
G0 X33.182 Y-77.421 Z0.500
G1 X33.182 Y-77.421 Z-0.200 F100.000
G3 X33.159 Y-76.107 Z-0.200 I-26.958 J0.178 K0.000 F150.000
G3 X33.016 Y-76.106 Z-0.200 I-0.086 J-4.227 K0.000 F150.000
G2 X32.793 Y-77.614 Z-0.200 I-3.421 J-0.264 K0.000 F150.000
G1 X32.624 Y-77.895 Z-0.200 F150.000
G2 X32.915 Y-78.515 Z-0.200 I-1.379 J-1.025 K0.000 F150.000
G3 X33.153 Y-78.518 Z-0.200 I0.212 J7.159 K0.000 F150.000
G3 X33.182 Y-77.421 Z-0.200 I-26.929 J1.276 K0.000 F150.000
G0 Z1.000
G0 X33.422 Y-77.422 Z1.000
G0 X33.422 Y-77.422 Z0.500
G1 X33.422 Y-77.422 Z-0.200 F100.000
G3 X33.387 Y-75.870 Z-0.200 I-28.099 J0.143 K0.000 F150.000
G3 X32.778 Y-75.867 Z-0.200 I-0.386 J-14.127 K0.000 F150.000
G2 X32.602 Y-77.450 Z-0.200 I-4.143 J-0.343 K0.000 F150.000
G2 X32.325 Y-77.892 Z-0.200 I-1.336 J0.529 K0.000 F150.000
G2 X32.726 Y-78.752 Z-0.200 I-1.406 J-1.178 K0.000 F150.000
G3 X33.383 Y-78.759 Z-0.200 I0.529 J19.756 K0.000 F150.000
G3 X33.422 Y-77.422 Z-0.200 I-28.060 J1.480 K0.000 F150.000
G0 Z1.000
G0 X33.662 Y-77.423 Z1.000
G0 X33.662 Y-77.423 Z0.500
G1 X33.662 Y-77.423 Z-0.200 F100.000
G3 X33.625 Y-75.824 Z-0.200 I-28.596 J0.135 K0.000 F150.000
G1 X33.608 Y-75.634 Z-0.200 F150.000
G3 X32.539 Y-75.630 Z-0.200 I-0.613 J-22.184 K0.000 F150.000
G2 X32.433 Y-77.209 Z-0.200 I-5.689 J-0.410 K0.000 F150.000
G2 X31.973 Y-77.890 Z-0.200 I-1.214 J0.324 K0.000 F150.000
G2 X32.518 Y-78.987 Z-0.200 I-0.994 J-1.179 K0.000 F150.000
G3 X33.611 Y-78.997 Z-0.200 I0.785 J25.530 K0.000 F150.000
G3 X33.662 Y-77.423 Z-0.200 I-28.545 J1.709 K0.000 F150.000
G0 Z1.000
G0 X33.900 Y-77.425 Z1.000
G0 X33.900 Y-77.425 Z0.500
G1 X33.900 Y-77.425 Z-0.200 F100.000
G3 X33.864 Y-75.806 Z-0.200 I-28.885 J0.166 K0.000 F150.000
G1 X33.828 Y-75.403 Z-0.200 F150.000
G3 X32.307 Y-75.399 Z-0.200 I-0.814 J-18.375 K0.000 F150.000
G2 X32.227 Y-77.048 Z-0.200 I-8.429 J-0.421 K0.000 F150.000
G2 X31.530 Y-77.877 Z-0.200 I-1.069 J0.192 K0.000 F150.000
G2 X32.291 Y-79.216 Z-0.200 I-0.620 J-1.239 K0.000 F150.000
G3 X33.833 Y-79.231 Z-0.200 I0.953 J18.727 K0.000 F150.000
G3 X33.900 Y-77.425 Z-0.200 I-28.818 J1.973 K0.000 F150.000
G0 Z1.000
G0 X32.935 Y-77.839 Z1.000
G0 X32.935 Y-77.839 Z0.500
G1 X32.935 Y-77.839 Z-0.200 F100.000
G3 X32.932 Y-77.928 Z-0.200 I0.021 J-0.045 K0.000 F150.000
G1 X32.935 Y-77.839 Z-0.200 F150.000
G0 Z1.000
G0 X30.373 Y-77.879 Z1.000
G0 X30.373 Y-77.879 Z0.500
G1 X30.373 Y-77.879 Z-0.200 F100.000
G2 X29.643 Y-76.651 Z-0.200 I0.443 J1.094 K0.000 F150.000
G3 X29.625 Y-75.399 Z-0.200 I-111.921 J-1.020 K0.000 F150.000
G3 X28.005 Y-75.398 Z-0.200 I-0.821 J-23.303 K0.000 F150.000
G3 X27.988 Y-79.227 Z-0.200 I112.584 J-2.404 K0.000 F150.000
G3 X29.636 Y-79.200 Z-0.200 I0.284 J32.520 K0.000 F150.000
G2 X30.373 Y-77.879 Z-0.200 I1.303 J0.139 K0.000 F150.000
G0 Z1.000
G0 X29.915 Y-77.881 Z1.000
G0 X29.915 Y-77.881 Z0.500
G1 X29.915 Y-77.881 Z-0.200 F100.000
G2 X29.399 Y-76.533 Z-0.200 I1.040 J1.170 K0.000 F150.000
G3 X29.393 Y-75.630 Z-0.200 I-2575.156 J-17.315 K0.000 F150.000
G3 X28.238 Y-75.630 Z-0.200 I-0.570 J-30.687 K0.000 F150.000
G3 X28.228 Y-78.992 Z-0.200 I182.413 J-2.192 K0.000 F150.000
G3 X29.410 Y-78.969 Z-0.200 I-0.412 J53.179 K0.000 F150.000
G2 X29.915 Y-77.881 Z-0.200 I1.537 J-0.052 K0.000 F150.000
G0 Z1.000
G0 X29.575 Y-77.896 Z1.000
G0 X29.575 Y-77.896 Z0.500
G1 X29.575 Y-77.896 Z-0.200 F100.000
G2 X29.160 Y-76.536 Z-0.200 I1.486 J1.198 K0.000 F150.000
G3 X29.155 Y-75.866 Z-0.200 I-2131.445 J-14.328 K0.000 F150.000
G3 X28.474 Y-75.868 Z-0.200 I-0.296 J-23.039 K0.000 F150.000
G3 X28.468 Y-78.750 Z-0.200 I206.239 J-1.846 K0.000 F150.000
G3 X29.194 Y-78.735 Z-0.200 I-0.620 J47.565 K0.000 F150.000
G2 X29.575 Y-77.896 Z-0.200 I1.664 J-0.250 K0.000 F150.000
G0 Z1.000
G0 X29.274 Y-77.894 Z1.000
G0 X29.274 Y-77.894 Z0.500
G1 X29.274 Y-77.894 Z-0.200 F100.000
G2 X28.917 Y-76.380 Z-0.200 I2.107 J1.296 K0.000 F150.000
G1 X28.916 Y-76.105 Z-0.200 F150.000
G3 X28.711 Y-76.105 Z-0.200 I-0.113 J-6.943 K0.000 F150.000
G3 X28.708 Y-78.505 Z-0.200 I273.015 J-1.516 K0.000 F150.000
G3 X28.997 Y-78.500 Z-0.200 I-0.240 J18.902 K0.000 F150.000
G2 X29.274 Y-77.894 Z-0.200 I1.966 J-0.533 K0.000 F150.000
G0 Z1.000
G0 X28.993 Y-77.902 Z1.000
G0 X28.993 Y-77.902 Z0.500
G1 X28.993 Y-77.902 Z-0.200 F100.000
G3 X28.948 Y-77.823 Z-0.200 I-0.098 J-0.003 K0.000 F150.000
G1 X28.948 Y-77.988 Z-0.200 F150.000
G3 X28.993 Y-77.902 Z-0.200 I-0.054 J0.082 K0.000 F150.000
G0 Z1.000
G0 Z1.000
G0 X28.993 Y-77.902
G0 X26.586 Y-78.234
G0 X26.586 Y-78.234 Z0.500
G1 X26.586 Y-78.234 Z-0.200 F100.000
G3 X26.550 Y-78.071 Z-0.200 I-1.005 J-0.139 K0.000 F150.000
G3 X25.848 Y-77.360 Z-0.200 I-1.245 J-0.527 K0.000 F150.000
G2 X24.730 Y-76.721 Z-0.200 I3.559 J7.525 K0.000 F150.000
G2 X24.491 Y-75.957 Z-0.200 I0.241 J0.495 K0.000 F150.000
G2 X25.357 Y-75.658 Z-0.200 I0.599 J-0.332 K0.000 F150.000
G3 X26.033 Y-75.855 Z-0.200 I1.073 J2.424 K0.000 F150.000
G3 X26.080 Y-75.148 Z-0.200 I-0.538 J0.391 K0.000 F150.000
G3 X25.084 Y-74.832 Z-0.200 I-1.238 J-2.172 K0.000 F150.000
G3 X22.971 Y-74.835 Z-0.200 I-1.046 J-6.060 K0.000 F150.000
G3 X21.735 Y-75.513 Z-0.200 I0.227 J-1.880 K0.000 F150.000
G3 X22.043 Y-77.033 Z-0.200 I1.011 J-0.586 K0.000 F150.000
G3 X22.976 Y-77.689 Z-0.200 I13.945 J18.838 K0.000 F150.000
G2 X23.374 Y-78.307 Z-0.200 I-0.335 J-0.653 K0.000 F150.000
G2 X22.660 Y-78.809 Z-0.200 I-0.548 J0.022 K0.000 F150.000
G3 X21.514 Y-78.533 Z-0.200 I-6.691 J-25.263 K0.000 F150.000
G3 X21.443 Y-78.603 Z-0.200 I-0.004 J-0.067 K0.000 F150.000
G3 X21.446 Y-79.261 Z-0.200 I0.653 J-0.326 K0.000 F150.000
G3 X23.460 Y-79.855 Z-0.200 I1.971 J2.972 K0.000 F150.000
G3 X25.781 Y-79.473 Z-0.200 I0.315 J5.340 K0.000 F150.000
G3 X26.457 Y-78.884 Z-0.200 I-0.545 J1.308 K0.000 F150.000
G3 X26.586 Y-78.234 Z-0.200 I-0.876 J0.511 K0.000 F150.000
G0 Z1.000
G0 X26.348 Y-78.267 Z1.000
G0 X26.348 Y-78.267 Z0.500
G1 X26.348 Y-78.267 Z-0.200 F100.000
G3 X26.324 Y-78.156 Z-0.200 I-0.772 J-0.106 K0.000 F150.000
G3 X25.724 Y-77.565 Z-0.200 I-1.019 J-0.436 K0.000 F150.000
G2 X24.578 Y-76.906 Z-0.200 I3.491 J7.398 K0.000 F150.000
G2 X24.641 Y-75.486 Z-0.200 I0.406 J0.693 K0.000 F150.000
G2 X25.757 Y-75.539 Z-0.200 I0.503 J-1.185 K0.000 F150.000
G3 X25.899 Y-75.582 Z-0.200 I0.868 J2.607 K0.000 F150.000
G3 X25.907 Y-75.319 Z-0.200 I-0.415 J0.144 K0.000 F150.000
G3 X25.052 Y-75.070 Z-0.200 I-1.110 J-2.216 K0.000 F150.000
G3 X23.021 Y-75.070 Z-0.200 I-1.014 J-5.846 K0.000 F150.000
G3 X21.941 Y-75.638 Z-0.200 I0.194 J-1.680 K0.000 F150.000
G3 X22.197 Y-76.848 Z-0.200 I0.805 J-0.462 K0.000 F150.000
G3 X23.127 Y-77.503 Z-0.200 I14.892 J20.172 K0.000 F150.000
G2 X23.603 Y-78.424 Z-0.200 I-0.465 J-0.824 K0.000 F150.000
G2 X22.619 Y-79.045 Z-0.200 I-0.783 J0.150 K0.000 F150.000
G2 X21.648 Y-78.790 Z-0.200 I1.947 J9.375 K0.000 F150.000
G3 X21.653 Y-79.117 Z-0.200 I0.534 J-0.156 K0.000 F150.000
G3 X23.468 Y-79.615 Z-0.200 I1.787 J2.963 K0.000 F150.000
G3 X25.686 Y-79.253 Z-0.200 I0.309 J5.086 K0.000 F150.000
G3 X26.242 Y-78.777 Z-0.200 I-0.475 J1.119 K0.000 F150.000
G3 X26.348 Y-78.267 Z-0.200 I-0.666 J0.405 K0.000 F150.000
G0 Z1.000
G0 X26.111 Y-78.299 Z1.000
G0 X26.111 Y-78.299 Z0.500
G1 X26.111 Y-78.299 Z-0.200 F100.000
G3 X26.025 Y-78.086 Z-0.200 I-0.472 J-0.065 K0.000 F150.000
G3 X25.172 Y-77.534 Z-0.200 I-2.312 J-2.640 K0.000 F150.000
G1 X25.172 Y-77.534 Z-0.200 F150.000
G2 X24.078 Y-76.711 Z-0.200 I0.801 J2.203 K0.000 F150.000
G2 X24.561 Y-75.259 Z-0.200 I0.901 J0.507 K0.000 F150.000
G3 X22.530 Y-75.479 Z-0.200 I-0.613 J-3.822 K0.000 F150.000
G3 X22.083 Y-75.889 Z-0.200 I0.250 J-0.722 K0.000 F150.000
G3 X22.351 Y-76.664 Z-0.200 I0.697 J-0.192 K0.000 F150.000
G3 X23.278 Y-77.317 Z-0.200 I15.894 J21.581 K0.000 F150.000
G2 X23.708 Y-78.820 Z-0.200 I-0.536 J-0.966 K0.000 F150.000
G2 X22.755 Y-79.298 Z-0.200 I-0.864 J0.533 K0.000 F150.000
G3 X25.590 Y-79.032 Z-0.200 I0.940 J5.222 K0.000 F150.000
G3 X26.095 Y-78.502 Z-0.200 I-0.326 J0.816 K0.000 F150.000
G3 X26.111 Y-78.299 Z-0.200 I-0.456 J0.138 K0.000 F150.000
G0 Z1.000
G0 X25.869 Y-78.335 Z1.000
G0 X25.869 Y-78.335 Z0.500
G1 X25.869 Y-78.335 Z-0.200 F100.000
G3 X25.818 Y-78.209 Z-0.200 I-0.284 J-0.042 K0.000 F150.000
G3 X25.059 Y-77.746 Z-0.200 I-2.752 J-3.656 K0.000 F150.000
G1 X25.059 Y-77.746 Z-0.200 F150.000
G2 X23.875 Y-76.839 Z-0.200 I0.896 J2.396 K0.000 F150.000
G2 X23.965 Y-75.466 Z-0.200 I1.023 J0.622 K0.000 F150.000
G3 X22.547 Y-75.741 Z-0.200 I-0.172 J-2.907 K0.000 F150.000
G3 X22.293 Y-76.047 Z-0.200 I0.120 J-0.358 K0.000 F150.000
G3 X22.505 Y-76.479 Z-0.200 I0.534 J-0.006 K0.000 F150.000
G3 X23.430 Y-77.131 Z-0.200 I16.956 J23.074 K0.000 F150.000
G2 X23.920 Y-78.933 Z-0.200 I-0.681 J-1.153 K0.000 F150.000
G1 X23.779 Y-79.129 Z-0.200 F150.000
G3 X25.522 Y-78.798 Z-0.200 I0.125 J4.098 K0.000 F150.000
G3 X25.819 Y-78.543 Z-0.200 I-0.341 J0.698 K0.000 F150.000
G3 X25.869 Y-78.335 Z-0.200 I-0.233 J0.167 K0.000 F150.000
G0 Z1.000
G0 X25.631 Y-78.377 Z1.000
G0 X25.631 Y-78.377 Z0.500
G1 X25.631 Y-78.377 Z-0.200 F100.000
G3 X25.627 Y-78.365 Z-0.200 I-0.041 J-0.007 K0.000 F150.000
G3 X24.946 Y-77.957 Z-0.200 I-2.793 J-3.895 K0.000 F150.000
G1 X24.946 Y-77.957 Z-0.200 F150.000
G2 X24.014 Y-77.372 Z-0.200 I1.545 J3.492 K0.000 F150.000
G2 X24.220 Y-78.864 Z-0.200 I-1.170 J-0.923 K0.000 F150.000
G3 X25.397 Y-78.592 Z-0.200 I-0.195 J3.523 K0.000 F150.000
G3 X25.610 Y-78.421 Z-0.200 I-0.223 J0.495 K0.000 F150.000
G3 X25.631 Y-78.377 Z-0.200 I-0.020 J0.037 K0.000 F150.000
G0 Z1.000
G0 X25.240 Y-78.395 Z1.000
G0 X25.240 Y-78.395 Z0.500
G1 X25.240 Y-78.395 Z-0.200 F100.000
G3 X24.833 Y-78.169 Z-0.200 I-2.939 J-4.821 K0.000 F150.000
G1 X24.833 Y-78.169 Z-0.200 F150.000
G1 X24.544 Y-78.015 Z-0.200 F150.000
G2 X24.545 Y-78.582 Z-0.200 I-1.373 J-0.285 K0.000 F150.000
G3 X25.240 Y-78.395 Z-0.200 I-0.344 J2.663 K0.000 F150.000
G0 Z1.000
G0 X24.876 Y-78.362 Z1.000
G0 X24.876 Y-78.362 Z0.500
G1 X24.876 Y-78.362 Z-0.200 F100.000
G1 X24.762 Y-78.301 Z-0.200 F150.000
G3 X24.723 Y-78.280 Z-0.200 I-0.020 J0.010 K0.000 F150.000
G1 X24.718 Y-78.396 Z-0.200 F150.000
G3 X24.876 Y-78.362 Z-0.200 I-0.226 J1.418 K0.000 F150.000
G0 Z1.000
G0 X23.773 Y-77.108 Z1.000
G0 X23.773 Y-77.108 Z0.500
G1 X23.773 Y-77.108 Z-0.200 F100.000
G2 X23.555 Y-75.732 Z-0.200 I1.088 J0.878 K0.000 F150.000
G3 X22.540 Y-76.049 Z-0.200 I-0.024 J-1.705 K0.000 F150.000
G3 X22.660 Y-76.294 Z-0.200 I0.241 J-0.034 K0.000 F150.000
G3 X23.581 Y-76.944 Z-0.200 I18.082 J24.657 K0.000 F150.000
G1 X23.773 Y-77.108 Z-0.200 F150.000
G0 Z1.000
G0 X23.236 Y-76.413 Z1.000
G0 X23.236 Y-76.413 Z0.500
G1 X23.236 Y-76.413 Z-0.200 F100.000
G2 X23.236 Y-76.007 Z-0.200 I1.089 J0.202 K0.000 F150.000
G3 X22.843 Y-76.131 Z-0.200 I0.321 J-1.709 K0.000 F150.000
G1 X23.236 Y-76.413 Z-0.200 F150.000
G0 Z1.000
G0 Z1.000
G0 X23.236 Y-76.413
G0 X20.638 Y-76.443
G0 X20.638 Y-76.443 Z0.500
G1 X20.638 Y-76.443 Z-0.200 F100.000
G3 X20.560 Y-74.975 Z-0.200 I-17.923 J-0.211 K0.000 F150.000
G3 X20.463 Y-74.925 Z-0.200 I-0.064 J-0.004 K0.000 F150.000
G3 X19.486 Y-74.976 Z-0.200 I-0.287 J-3.902 K0.000 F150.000
G3 X19.374 Y-75.257 Z-0.200 I0.218 J-0.249 K0.000 F150.000
G3 X19.305 Y-77.781 Z-0.200 I1884.681 J-52.667 K0.000 F150.000
G2 X17.970 Y-78.303 Z-0.200 I-0.806 J0.093 K0.000 F150.000
G2 X17.658 Y-77.416 Z-0.200 I0.829 J0.790 K0.000 F150.000
G3 X17.586 Y-74.997 Z-0.200 I-28.573 J0.367 K0.000 F150.000
G3 X17.000 Y-74.913 Z-0.200 I-0.521 J-1.548 K0.000 F150.000
G3 X15.038 Y-74.982 Z-0.200 I-0.724 J-7.364 K0.000 F150.000
G3 X14.980 Y-75.354 Z-0.200 I0.722 J-0.303 K0.000 F150.000
G3 X15.013 Y-77.802 Z-0.200 I15.812 J-1.008 K0.000 F150.000
G3 X16.172 Y-79.482 Z-0.200 I2.051 J0.176 K0.000 F150.000
G3 X19.073 Y-79.691 Z-0.200 I1.735 J3.840 K0.000 F150.000
G3 X20.568 Y-78.248 Z-0.200 I-0.536 J2.051 K0.000 F150.000
G3 X20.638 Y-76.443 Z-0.200 I-17.853 J1.594 K0.000 F150.000
G0 Z1.000
G0 X20.380 Y-76.444 Z1.000
G0 X20.380 Y-76.444 Z0.500
G1 X20.380 Y-76.444 Z-0.200 F100.000
G3 X20.344 Y-75.159 Z-0.200 I-27.467 J-0.122 K0.000 F150.000
G3 X19.626 Y-75.202 Z-0.200 I-0.192 J-2.838 K0.000 F150.000
G3 X19.541 Y-77.827 Z-0.200 I211.564 J-8.197 K0.000 F150.000
G2 X17.433 Y-77.627 Z-0.200 I-1.050 J0.140 K0.000 F150.000
G2 X17.371 Y-75.188 Z-0.200 I229.194 J7.081 K0.000 F150.000
G3 X15.235 Y-75.188 Z-0.200 I-1.069 J-10.064 K0.000 F150.000
G3 X15.250 Y-77.764 Z-0.200 I15.543 J-1.196 K0.000 F150.000
G3 X16.281 Y-79.266 Z-0.200 I1.814 J0.140 K0.000 F150.000
G3 X19.005 Y-79.461 Z-0.200 I1.627 J3.620 K0.000 F150.000
G3 X20.332 Y-78.205 Z-0.200 I-0.475 J1.831 K0.000 F150.000
G3 X20.380 Y-76.444 Z-0.200 I-27.419 J1.639 K0.000 F150.000
G0 Z1.000
G0 X20.140 Y-76.445 Z1.000
G0 X20.140 Y-76.445 Z0.500
G1 X20.140 Y-76.445 Z-0.200 F100.000
G3 X20.121 Y-75.400 Z-0.200 I-31.491 J-0.041 K0.000 F150.000
G3 X19.841 Y-75.410 Z-0.200 I0.017 J-4.235 K0.000 F150.000
G2 X19.776 Y-77.873 Z-0.200 I-102.931 J1.492 K0.000 F150.000
G2 X17.817 Y-78.786 Z-0.200 I-1.291 J0.214 K0.000 F150.000
G2 X17.178 Y-77.433 Z-0.200 I0.873 J1.240 K0.000 F150.000
G2 X17.144 Y-75.405 Z-0.200 I220.616 J4.762 K0.000 F150.000
G3 X15.458 Y-75.404 Z-0.200 I-0.849 J-10.939 K0.000 F150.000
G3 X15.488 Y-77.726 Z-0.200 I15.341 J-0.965 K0.000 F150.000
G3 X16.389 Y-79.051 Z-0.200 I1.577 J0.104 K0.000 F150.000
G3 X18.936 Y-79.230 Z-0.200 I1.520 J3.401 K0.000 F150.000
G3 X20.095 Y-78.163 Z-0.200 I-0.416 J1.614 K0.000 F150.000
G3 X20.140 Y-76.445 Z-0.200 I-31.446 J1.677 K0.000 F150.000
G0 Z1.000
G0 X16.915 Y-76.490 Z1.000
G0 X16.915 Y-76.490 Z0.500
G1 X16.915 Y-76.490 Z-0.200 F100.000
G2 X16.911 Y-75.630 Z-0.200 I46.086 J0.645 K0.000 F150.000
G3 X15.688 Y-75.629 Z-0.200 I-0.623 J-10.556 K0.000 F150.000
G3 X15.725 Y-77.689 Z-0.200 I14.475 J-0.768 K0.000 F150.000
G3 X16.497 Y-78.836 Z-0.200 I1.340 J0.069 K0.000 F150.000
G3 X17.977 Y-79.129 Z-0.200 I1.351 J2.938 K0.000 F150.000
G2 X16.938 Y-77.442 Z-0.200 I0.634 J1.554 K0.000 F150.000
G2 X16.915 Y-76.490 Z-0.200 I46.063 J1.597 K0.000 F150.000
G0 Z1.000
G0 X16.676 Y-76.492 Z1.000
G0 X16.676 Y-76.492 Z0.500
G1 X16.676 Y-76.492 Z-0.200 F100.000
G2 X16.675 Y-75.863 Z-0.200 I35.183 J0.350 K0.000 F150.000
G3 X15.918 Y-75.858 Z-0.200 I-0.437 J-8.934 K0.000 F150.000
G3 X16.009 Y-77.886 Z-0.200 I9.076 J-0.609 K0.000 F150.000
G3 X16.605 Y-78.620 Z-0.200 I1.023 J0.222 K0.000 F150.000
G3 X17.127 Y-78.798 Z-0.200 I0.786 J1.449 K0.000 F150.000
G2 X16.698 Y-77.450 Z-0.200 I1.759 J1.302 K0.000 F150.000
G2 X16.676 Y-76.492 Z-0.200 I35.160 J1.308 K0.000 F150.000
G0 Z1.000
G0 X16.430 Y-76.482 Z1.000
G0 X16.430 Y-76.482 Z0.500
G1 X16.430 Y-76.482 Z-0.200 F100.000
G2 X16.437 Y-76.340 Z-0.200 I6.680 J-0.291 K0.000 F150.000
G1 X16.436 Y-76.096 Z-0.200 F150.000
G3 X16.152 Y-76.093 Z-0.200 I-0.179 J-3.940 K0.000 F150.000
G3 X16.277 Y-77.939 Z-0.200 I5.423 J-0.560 K0.000 F150.000
G3 X16.610 Y-78.341 Z-0.200 I0.673 J0.219 K0.000 F150.000
G2 X16.430 Y-76.482 Z-0.200 I6.500 J1.568 K0.000 F150.000
G0 Z1.000
G0 Z1.000
G0 X16.430 Y-76.482
G0 X14.048 Y-75.730
G0 X14.048 Y-75.730 Z0.500
G1 X14.048 Y-75.730 Z-0.200 F100.000
G3 X13.992 Y-75.044 Z-0.200 I-0.918 J0.270 K0.000 F150.000
G3 X12.337 Y-74.776 Z-0.200 I-1.497 J-4.011 K0.000 F150.000
G3 X10.391 Y-75.017 Z-0.200 I-0.391 J-4.826 K0.000 F150.000
G3 X8.939 Y-76.884 Z-0.200 I0.761 J-2.091 K0.000 F150.000
G3 X9.215 Y-78.770 Z-0.200 I2.527 J-0.592 K0.000 F150.000
G3 X11.288 Y-79.842 Z-0.200 I2.015 J1.356 K0.000 F150.000
G3 X13.971 Y-79.573 Z-0.200 I0.414 J9.390 K0.000 F150.000
G3 X14.200 Y-79.460 Z-0.200 I-0.143 J0.577 K0.000 F150.000
G3 X14.187 Y-78.829 Z-0.200 I-2.111 J0.273 K0.000 F150.000
G3 X14.058 Y-78.780 Z-0.200 I-0.088 J-0.037 K0.000 F150.000
G2 X12.593 Y-78.651 Z-0.200 I-0.093 J7.320 K0.000 F150.000
G2 X11.693 Y-77.185 Z-0.200 I0.599 J1.377 K0.000 F150.000
G2 X12.908 Y-75.647 Z-0.200 I1.453 J0.100 K0.000 F150.000
G2 X13.924 Y-75.733 Z-0.200 I-0.230 J-8.746 K0.000 F150.000
G3 X14.048 Y-75.730 Z-0.200 I0.048 J0.565 K0.000 F150.000
G0 Z1.000
G0 X13.826 Y-75.481 Z1.000
G0 X13.826 Y-75.481 Z0.500
G1 X13.826 Y-75.481 Z-0.200 F100.000
G3 X13.809 Y-75.225 Z-0.200 I-1.273 J0.047 K0.000 F150.000
G3 X11.932 Y-75.012 Z-0.200 I-1.550 J-5.294 K0.000 F150.000
G3 X10.000 Y-75.492 Z-0.200 I-0.240 J-3.163 K0.000 F150.000
G3 X9.127 Y-77.366 Z-0.200 I1.409 J-1.797 K0.000 F150.000
G3 X9.613 Y-78.906 Z-0.200 I2.068 J-0.195 K0.000 F150.000
G3 X11.521 Y-79.608 Z-0.200 I1.709 J1.704 K0.000 F150.000
G3 X13.899 Y-79.344 Z-0.200 I0.332 J7.854 K0.000 F150.000
G3 X13.975 Y-79.316 Z-0.200 I-0.136 J0.485 K0.000 F150.000
G3 X13.970 Y-79.014 Z-0.200 I-2.601 J0.107 K0.000 F150.000
G2 X12.517 Y-78.879 Z-0.200 I-0.102 J6.759 K0.000 F150.000
G2 X11.454 Y-77.160 Z-0.200 I0.675 J1.606 K0.000 F150.000
G2 X12.898 Y-75.407 Z-0.200 I1.690 J0.079 K0.000 F150.000
G2 X13.826 Y-75.481 Z-0.200 I-0.090 J-6.960 K0.000 F150.000
G0 Z1.000
G0 X12.482 Y-75.267 Z1.000
G0 X12.482 Y-75.267 Z0.500
G1 X12.482 Y-75.267 Z-0.200 F100.000
G3 X10.338 Y-75.569 Z-0.200 I-0.517 J-4.091 K0.000 F150.000
G3 X9.368 Y-77.376 Z-0.200 I1.014 J-1.708 K0.000 F150.000
G3 X9.795 Y-78.749 Z-0.200 I1.824 J-0.186 K0.000 F150.000
G3 X11.524 Y-79.368 Z-0.200 I1.530 J1.549 K0.000 F150.000
G3 X13.304 Y-79.228 Z-0.200 I0.051 J10.744 K0.000 F150.000
G2 X12.059 Y-78.909 Z-0.200 I-0.139 J2.045 K0.000 F150.000
G2 X12.161 Y-75.413 Z-0.200 I1.311 J1.711 K0.000 F150.000
G2 X12.482 Y-75.267 Z-0.200 I0.850 J-1.447 K0.000 F150.000
G0 Z1.000
G0 X11.654 Y-75.503 Z1.000
G0 X11.654 Y-75.503 Z0.500
G1 X11.654 Y-75.503 Z-0.200 F100.000
G3 X9.929 Y-76.234 Z-0.200 I-0.127 J-2.101 K0.000 F150.000
G3 X9.827 Y-78.387 Z-0.200 I1.980 J-1.173 K0.000 F150.000
G3 X11.528 Y-79.128 Z-0.200 I1.488 J1.092 K0.000 F150.000
G3 X11.937 Y-79.116 Z-0.200 I0.069 J4.523 K0.000 F150.000
G2 X11.654 Y-75.503 Z-0.200 I1.456 J1.932 K0.000 F150.000
G0 Z1.000
G0 X11.109 Y-75.802 Z1.000
G0 X11.109 Y-75.802 Z0.500
G1 X11.109 Y-75.802 Z-0.200 F100.000
G3 X9.907 Y-76.935 Z-0.200 I0.127 J-1.339 K0.000 F150.000
G3 X10.031 Y-78.259 Z-0.200 I1.825 J-0.497 K0.000 F150.000
G3 X11.334 Y-78.883 Z-0.200 I1.226 J0.887 K0.000 F150.000
G2 X11.109 Y-75.802 Z-0.200 I2.119 J1.703 K0.000 F150.000
G0 Z1.000
G0 X10.653 Y-76.220 Z1.000
G0 X10.653 Y-76.220 Z0.500
G1 X10.653 Y-76.220 Z-0.200 F100.000
G3 X10.126 Y-77.066 Z-0.200 I0.489 J-0.892 K0.000 F150.000
G3 X10.235 Y-78.131 Z-0.200 I1.394 J-0.395 K0.000 F150.000
G3 X10.827 Y-78.562 Z-0.200 I0.827 J0.514 K0.000 F150.000
G2 X10.653 Y-76.220 Z-0.200 I2.693 J1.378 K0.000 F150.000
G0 Z1.000
G0 X10.382 Y-76.723 Z1.000
G0 X10.382 Y-76.723 Z0.500
G1 X10.382 Y-76.723 Z-0.200 F100.000
G3 X10.362 Y-78.051 Z-0.200 I1.577 J-0.688 K0.000 F150.000
G3 X10.525 Y-78.243 Z-0.200 I0.426 J0.197 K0.000 F150.000
G2 X10.382 Y-76.723 Z-0.200 I2.997 J1.048 K0.000 F150.000
G0 Z1.000
G0 Z1.000
(Finish operation: ENGRAVE 0.6MM)
(Begin postamble)
M5
G17 G90
M2
