(Exported by FreeCAD)
(Post Processor: grbl_post)
(Output Time:2023-04-16 14:40:37.619703)
(Begin preamble)
G17 G90
G21
(Begin operation: G54)
(Path: G54)
G54
G0 Z5.000
(Finish operation: G54)
(Begin operation: endmill-2mm001)
(Path: endmill-2mm001)
(endmill-2mm001)
(Begin toolchange)
( M6 T2 )
M3 S10000
(Finish operation: endmill-2mm001)
(Begin operation: HOLES)
(Path: HOLES)
(HOLES)
(Compensated Tool Path. Diameter: 2.0)
G0 Z5.000
G0 X14.620 Y-12.371
G0 Z3.000
G1 X14.620 Y-12.371 Z-1.500 F150.000
G3 X11.866 Y-11.561 Z-1.500 I-2.120 J-2.120 K0.000 F250.000
G3 X13.134 Y-17.422 Z-1.500 I0.634 J-2.931 K0.000 F250.000
G3 X14.620 Y-12.371 Z-1.500 I-0.634 J2.931 K0.000 F250.000
G0 Z5.000
G0 Z5.000
G0 X14.620 Y-12.371
G0 X46.507 Y-14.310
G0 X46.507 Y-14.310 Z3.000
G1 X46.507 Y-14.310 Z-1.500 F150.000
G3 X50.134 Y-17.422 Z-1.500 I2.993 J-0.182 K0.000 F250.000
G3 X48.866 Y-11.561 Z-1.500 I-0.634 J2.931 K0.000 F250.000
G3 X46.507 Y-14.310 Z-1.500 I0.634 J-2.931 K0.000 F250.000
G0 Z5.000
G0 Z5.000
G0 X46.507 Y-14.310
G0 X31.903 Y-101.135
G0 X31.903 Y-101.135 Z3.000
G1 X31.903 Y-101.135 Z-1.500 F150.000
G3 X29.813 Y-101.191 Z-1.500 I-0.903 J-5.369 K0.000 F250.000
G3 X25.686 Y-107.691 Z-1.500 I1.187 J-5.314 K0.000 F250.000
G3 X32.187 Y-111.818 Z-1.500 I5.314 J1.187 K0.000 F250.000
G3 X31.903 Y-101.135 Z-1.500 I-1.187 J5.314 K0.000 F250.000
G0 Z5.000
G0 Z5.000
G0 X31.903 Y-101.135
G0 X15.858 Y-105.698
G0 X15.858 Y-105.698 Z3.000
G1 X15.858 Y-105.698 Z-1.500 F150.000
G3 X10.139 Y-107.127 Z-1.500 I-2.836 J-0.807 K0.000 F250.000
G3 X13.645 Y-109.387 Z-1.500 I2.882 J0.623 K0.000 F250.000
G3 X15.904 Y-105.881 Z-1.500 I-0.623 J2.882 K0.000 F250.000
G3 X15.858 Y-105.698 Z-1.500 I-2.882 J-0.623 K0.000 F250.000
G0 Z5.000
G0 Z5.000
(Finish operation: HOLES)
(Begin operation: CONTOUR)
(Path: CONTOUR)
(CONTOUR)
(Compensated Tool Path. Diameter: 2.0)
G0 Z5.000
G0 X61.534 Y-0.465
G0 Z3.000
G1 X61.534 Y-0.465 Z-1.500 F150.000
G2 X62.998 Y-3.935 Z-1.500 I-3.537 J-3.536 K0.000 F250.000
G1 X63.000 Y-113.000 Z-1.500 F250.000
G2 X58.065 Y-117.998 Z-1.500 I-5.001 J0.003 K0.000 F250.000
G1 X4.000 Y-118.000 Z-1.500 F250.000
G2 X-0.998 Y-113.065 Z-1.500 I0.003 J5.001 K0.000 F250.000
G1 X-1.000 Y-4.000 Z-1.500 F250.000
G2 X3.935 Y0.998 Z-1.500 I5.001 J-0.003 K0.000 F250.000
G1 X58.000 Y1.000 Z-1.500 F250.000
G2 X61.534 Y-0.465 Z-1.500 I-0.003 J-5.001 K0.000 F250.000
G0 Z5.000
G0 Z5.000
(Finish operation: CONTOUR)
(Begin postamble)
M5
G17 G90
M2
