(Exported by FreeCAD)
(Post Processor: grbl_post)
(Output Time:2023-01-29 21:20:27.858421)
(Begin preamble)
G17 G90
G21
(Begin operation: G54)
(Path: G54)
G54
G0 Z5.000
(Finish operation: G54)
(Begin operation: ballend-020mm001)
(Path: ballend-020mm001)
(ballend-020mm001)
(Begin toolchange)
( M6 T2 )
M3 S10000
(Finish operation: ballend-020mm001)
(Begin operation: Pocket_Shape001)
(Path: Pocket_Shape001)
(Pocket_Shape001)
G0 Z1.000
G0 X9.046 Y-24.259
G0 Z0.500
G1 X9.046 Y-24.259 Z-0.200 F100.000
G1 X8.934 Y-24.259 Z-0.200 F150.000
G1 X8.934 Y-24.904 Z-0.200 F150.000
G2 X8.834 Y-25.004 Z-0.200 I-0.100 J-0.000 K0.000 F150.000
G1 X8.509 Y-25.004 Z-0.200 F150.000
G1 X8.509 Y-25.079 Z-0.200 F150.000
G1 X8.834 Y-25.079 Z-0.200 F150.000
G2 X8.934 Y-25.179 Z-0.200 I0.000 J-0.100 K0.000 F150.000
G1 X8.934 Y-26.885 Z-0.200 F150.000
G1 X9.046 Y-26.885 Z-0.200 F150.000
G1 X9.046 Y-25.179 Z-0.200 F150.000
G2 X9.146 Y-25.079 Z-0.200 I0.100 J0.000 K0.000 F150.000
G1 X9.525 Y-25.079 Z-0.200 F150.000
G1 X9.525 Y-25.004 Z-0.200 F150.000
G1 X9.146 Y-25.004 Z-0.200 F150.000
G2 X9.046 Y-24.904 Z-0.200 I-0.000 J0.100 K0.000 F150.000
G1 X9.046 Y-24.259 Z-0.200 F150.000
G0 Z1.000
G0 X8.995 Y-24.961 Z1.000
G0 X8.995 Y-24.961 Z0.500
G1 X8.995 Y-24.961 Z-0.200 F100.000
G2 X8.936 Y-25.032 Z-0.200 I-0.065 J-0.006 K0.000 F150.000
G2 X8.984 Y-25.121 Z-0.200 I-0.020 J-0.069 K0.000 F150.000
G2 X9.044 Y-25.051 Z-0.200 I0.065 J0.006 K0.000 F150.000
G2 X8.995 Y-24.961 Z-0.200 I0.020 J0.069 K0.000 F150.000
G0 Z1.000
G0 Z1.000
G0 X8.995 Y-24.961
G0 X10.032 Y-25.476
G0 X10.032 Y-25.476 Z0.500
G1 X10.032 Y-25.476 Z-0.200 F100.000
G3 X9.938 Y-25.943 Z-0.200 I0.830 J-0.412 K0.000 F150.000
G3 X11.366 Y-26.791 Z-0.200 I0.931 J-0.059 K0.000 F150.000
G3 X11.163 Y-25.011 Z-0.200 I-0.584 J0.835 K0.000 F150.000
G3 X10.032 Y-25.476 Z-0.200 I-0.300 J-0.876 K0.000 F150.000
G0 Z1.000
G0 X10.089 Y-25.503 Z1.000
G0 X10.089 Y-25.503 Z0.500
G1 X10.089 Y-25.503 Z-0.200 F100.000
G3 X10.230 Y-26.606 Z-0.200 I0.917 J-0.443 K0.000 F150.000
G2 X10.247 Y-25.268 Z-0.200 I0.827 J0.659 K0.000 F150.000
G3 X10.089 Y-25.503 Z-0.200 I0.760 J-0.678 K0.000 F150.000
G0 Z1.000
G0 X10.125 Y-25.520 Z1.000
G0 X10.125 Y-25.520 Z0.500
G1 X10.125 Y-25.520 Z-0.200 F100.000
G3 X10.050 Y-25.935 Z-0.200 I0.739 J-0.349 K0.000 F150.000
G3 X10.499 Y-26.755 Z-0.200 I0.878 J-0.052 K0.000 F150.000
G3 X11.087 Y-26.810 Z-0.200 I0.368 J0.757 K0.000 F150.000
G3 X11.678 Y-25.782 Z-0.200 I-0.270 J0.839 K0.000 F150.000
G3 X10.125 Y-25.520 Z-0.200 I-0.813 J-0.088 K0.000 F150.000
G0 Z1.000
G0 X11.496 Y-25.271 Z1.000
G0 X11.496 Y-25.271 Z0.500
G1 X11.496 Y-25.271 Z-0.200 F100.000
G2 X11.493 Y-26.620 Z-0.200 I-0.809 J-0.673 K0.000 F150.000
G3 X11.496 Y-25.271 Z-0.200 I-0.757 J0.676 K0.000 F150.000
G0 Z1.000
G0 Z1.000
G0 X11.496 Y-25.271
G0 X12.414
G0 X12.414 Z0.500
G1 X12.414 Y-25.271 Z-0.200 F100.000
G1 X12.414 Y-26.885 Z-0.200 F150.000
G1 X12.526 Y-26.885 Z-0.200 F150.000
G1 X12.527 Y-25.775 Z-0.200 F150.000
G2 X13.912 Y-25.567 Z-0.200 I0.706 J0.015 K0.000 F150.000
G1 X13.937 Y-25.782 Z-0.200 F150.000
G1 X13.937 Y-26.885 Z-0.200 F150.000
G1 X14.050 Y-26.885 Z-0.200 F150.000
G1 X14.050 Y-25.780 Z-0.200 F150.000
G3 X12.700 Y-25.295 Z-0.200 I-0.737 J0.069 K0.000 F150.000
G2 X12.526 Y-25.228 Z-0.200 I-0.074 J0.067 K0.000 F150.000
G1 X12.526 Y-25.004 Z-0.200 F150.000
G1 X12.414 Y-25.004 Z-0.200 F150.000
G1 X12.414 Y-25.271 Z-0.200 F150.000
G0 Z1.000
G0 X12.494 Y-25.340 Z1.000
G0 X12.494 Y-25.340 Z0.500
G1 X12.494 Y-25.340 Z-0.200 F100.000
G1 X12.494 Y-25.512 Z-0.200 F150.000
G1 X12.549 Y-25.389 Z-0.200 F150.000
G1 X12.494 Y-25.340 Z-0.200 F150.000
G0 Z1.000
G0 Z1.000
G0 X12.494 Y-25.340
G0 X14.650 Y-25.778
G0 X14.650 Y-25.778 Z0.500
G1 X14.650 Y-25.778 Z-0.200 F100.000
G3 X16.139 Y-26.761 Z-0.200 I0.943 J-0.191 K0.000 F150.000
G3 X16.373 Y-26.486 Z-0.200 I-0.357 J0.542 K0.000 F150.000
G1 X16.256 Y-26.486 Z-0.200 F150.000
G2 X14.778 Y-26.015 Z-0.200 I-0.670 J0.453 K0.000 F150.000
G1 X14.862 Y-25.970 Z-0.200 F150.000
G1 X16.506 Y-25.970 Z-0.200 F150.000
G3 X14.658 Y-25.745 Z-0.200 I-0.930 J0.066 K0.000 F150.000
G3 X14.650 Y-25.778 Z-0.200 I0.935 J-0.225 K0.000 F150.000
G0 Z1.000
G0 X14.766 Y-25.778 Z1.000
G0 X14.766 Y-25.778 Z0.500
G1 X14.766 Y-25.778 Z-0.200 F100.000
G3 X14.866 Y-25.878 Z-0.200 I0.100 J-0.000 K0.000 F150.000
G1 X16.281 Y-25.878 Z-0.200 F150.000
G1 X16.367 Y-25.830 Z-0.200 F150.000
G3 X14.771 Y-25.747 Z-0.200 I-0.801 J-0.014 K0.000 F150.000
G3 X14.766 Y-25.778 Z-0.200 I0.095 J-0.031 K0.000 F150.000
G0 Z1.000
G0 X14.727 Y-25.878 Z1.000
G0 X14.727 Y-25.878 Z0.500
G1 X14.727 Y-25.878 Z-0.200 F100.000
G3 X14.725 Y-25.966 Z-0.200 I0.210 J-0.049 K0.000 F150.000
G1 X14.762 Y-25.925 Z-0.200 F150.000
G2 X14.727 Y-25.878 Z-0.200 I0.014 J0.047 K0.000 F150.000
G0 Z1.000
G0 X16.411 Y-25.890 Z1.000
G0 X16.411 Y-25.890 Z0.500
G1 X16.411 Y-25.890 Z-0.200 F100.000
G1 X16.418 Y-25.890 Z-0.200 F150.000
G1 X16.417 Y-25.883 Z-0.200 F150.000
G1 X16.411 Y-25.890 Z-0.200 F150.000
G0 Z1.000
G0 Z1.000
G0 X16.411 Y-25.890
G0 X17.769 Y-34.855
G0 X17.769 Y-34.855 Z0.500
G1 X17.769 Y-34.855 Z-0.200 F100.000
G3 X15.347 Y-35.319 Z-0.200 I4.707 J-31.081 K0.000 F150.000
G3 X15.498 Y-36.779 Z-0.200 I3.585 J-0.368 K0.000 F150.000
G3 X15.694 Y-36.811 Z-0.200 I0.129 J0.167 K0.000 F150.000
G2 X16.446 Y-36.775 Z-0.200 I0.472 J-1.951 K0.000 F150.000
G2 X16.599 Y-37.187 Z-0.200 I-0.288 J-0.342 K0.000 F150.000
G3 X16.991 Y-39.429 Z-0.200 I26.841 J3.537 K0.000 F150.000
G3 X17.277 Y-39.494 Z-0.200 I0.191 J0.179 K0.000 F150.000
G3 X18.602 Y-39.230 Z-0.200 I0.066 J3.132 K0.000 F150.000
G3 X18.679 Y-38.942 Z-0.200 I-0.126 J0.188 K0.000 F150.000
G3 X18.283 Y-36.537 Z-0.200 I-1200.985 J-196.600 K0.000 F150.000
G2 X18.554 Y-36.355 Z-0.200 I0.242 J-0.067 K0.000 F150.000
G3 X19.110 Y-36.218 Z-0.200 I-0.602 J3.644 K0.000 F150.000
G3 X19.200 Y-35.805 Z-0.200 I-0.301 J0.281 K0.000 F150.000
G3 X19.008 Y-34.724 Z-0.200 I-2.509 J0.113 K0.000 F150.000
G3 X18.666 Y-34.732 Z-0.200 I-0.160 J-0.481 K0.000 F150.000
G3 X17.769 Y-34.855 Z-0.200 I3.810 J-31.204 K0.000 F150.000
G0 Z1.000
G0 X17.783 Y-34.947 Z1.000
G0 X17.783 Y-34.947 Z0.500
G1 X17.783 Y-34.947 Z-0.200 F100.000
G3 X15.418 Y-35.383 Z-0.200 I6.986 J-44.544 K0.000 F150.000
G3 X15.574 Y-36.733 Z-0.200 I2.704 J-0.373 K0.000 F150.000
G2 X16.419 Y-36.686 Z-0.200 I0.630 J-3.667 K0.000 F150.000
G2 X16.656 Y-37.033 Z-0.200 I-0.080 J-0.309 K0.000 F150.000
G3 X17.066 Y-39.395 Z-0.200 I25.941 J3.289 K0.000 F150.000
G3 X17.275 Y-39.414 Z-0.200 I0.155 J0.555 K0.000 F150.000
G3 X18.563 Y-39.160 Z-0.200 I0.066 J3.065 K0.000 F150.000
G3 X18.605 Y-39.029 Z-0.200 I-0.037 J0.084 K0.000 F150.000
G3 X18.204 Y-36.547 Z-0.200 I-165.272 J-25.425 K0.000 F150.000
G2 X18.537 Y-36.276 Z-0.200 I0.324 J-0.058 K0.000 F150.000
G3 X19.070 Y-36.147 Z-0.200 I-0.623 J3.745 K0.000 F150.000
G3 X19.118 Y-36.008 Z-0.200 I-0.075 J0.103 K0.000 F150.000
G3 X18.946 Y-34.780 Z-0.200 I-2.649 J0.255 K0.000 F150.000
G3 X17.783 Y-34.947 Z-0.200 I5.823 J-44.711 K0.000 F150.000
G0 Z1.000
G0 X17.795 Y-35.023 Z1.000
G0 X17.795 Y-35.023 Z0.500
G1 X17.795 Y-35.023 Z-0.200 F100.000
G3 X15.492 Y-35.453 Z-0.200 I6.493 J-41.186 K0.000 F150.000
G3 X15.614 Y-36.653 Z-0.200 I3.171 J-0.282 K0.000 F150.000
G2 X16.426 Y-36.606 Z-0.200 I0.601 J-3.386 K0.000 F150.000
G2 X16.735 Y-37.021 Z-0.200 I-0.092 J-0.391 K0.000 F150.000
G3 X17.128 Y-39.327 Z-0.200 I37.207 J5.156 K0.000 F150.000
G3 X17.863 Y-39.274 Z-0.200 I0.121 J3.417 K0.000 F150.000
G3 X18.525 Y-39.082 Z-0.200 I-0.076 J1.497 K0.000 F150.000
G3 X18.125 Y-36.557 Z-0.200 I-111.513 J-16.385 K0.000 F150.000
G2 X18.520 Y-36.198 Z-0.200 I0.405 J-0.049 K0.000 F150.000
G3 X19.031 Y-36.077 Z-0.200 I-0.135 J1.703 K0.000 F150.000
G3 X18.895 Y-34.865 Z-0.200 I-3.245 J0.248 K0.000 F150.000
G3 X17.795 Y-35.023 Z-0.200 I5.394 J-41.344 K0.000 F150.000
G0 Z1.000
G0 X17.808 Y-35.105 Z1.000
G0 X17.808 Y-35.105 Z0.500
G1 X17.808 Y-35.105 Z-0.200 F100.000
G3 X15.569 Y-35.511 Z-0.200 I8.029 J-50.612 K0.000 F150.000
G3 X15.679 Y-36.572 Z-0.200 I2.762 J-0.252 K0.000 F150.000
G2 X16.546 Y-36.557 Z-0.200 I0.465 J-1.809 K0.000 F150.000
G2 X16.814 Y-37.009 Z-0.200 I-0.255 J-0.457 K0.000 F150.000
G3 X17.190 Y-39.250 Z-0.200 I81.605 J12.540 K0.000 F150.000
G3 X17.848 Y-39.195 Z-0.200 I0.049 J3.408 K0.000 F150.000
G3 X18.445 Y-39.034 Z-0.200 I-0.162 J1.790 K0.000 F150.000
G3 X18.045 Y-36.567 Z-0.200 I-185.151 J-28.730 K0.000 F150.000
G2 X18.502 Y-36.120 Z-0.200 I0.486 J-0.040 K0.000 F150.000
G3 X18.958 Y-36.001 Z-0.200 I-0.151 J1.507 K0.000 F150.000
G3 X18.840 Y-34.952 Z-0.200 I-3.361 J0.153 K0.000 F150.000
G3 X17.808 Y-35.105 Z-0.200 I6.997 J-50.765 K0.000 F150.000
G0 Z1.000
G0 X17.897 Y-35.658 Z1.000
G0 X17.897 Y-35.658 Z0.500
G1 X17.897 Y-35.658 Z-0.200 F100.000
G3 X16.143 Y-35.966 Z-0.200 I9.426 J-58.850 K0.000 F150.000
G2 X17.353 Y-36.820 Z-0.200 I0.198 J-1.003 K0.000 F150.000
G3 X17.653 Y-38.659 Z-0.200 I70.283 J10.528 K0.000 F150.000
G3 X17.828 Y-38.625 Z-0.200 I-0.164 J1.304 K0.000 F150.000
G2 X17.490 Y-36.637 Z-0.200 I97.860 J17.703 K0.000 F150.000
G2 X18.109 Y-35.660 Z-0.200 I0.914 J0.105 K0.000 F150.000
G2 X18.302 Y-35.594 Z-0.200 I0.456 J-1.029 K0.000 F150.000
G3 X17.897 Y-35.658 Z-0.200 I9.021 J-58.914 K0.000 F150.000
G0 Z1.000
G0 X17.884 Y-35.579 Z1.000
G0 X17.884 Y-35.579 Z0.500
G1 X17.884 Y-35.579 Z-0.200 F100.000
G3 X16.057 Y-35.901 Z-0.200 I9.416 J-58.724 K0.000 F150.000
G3 X16.069 Y-36.052 Z-0.200 I2.104 J0.081 K0.000 F150.000
G2 X17.273 Y-36.825 Z-0.200 I0.253 J-0.931 K0.000 F150.000
G3 X17.587 Y-38.746 Z-0.200 I61.964 J9.143 K0.000 F150.000
G3 X17.919 Y-38.686 Z-0.200 I-0.141 J1.737 K0.000 F150.000
G2 X17.569 Y-36.627 Z-0.200 I111.293 J19.970 K0.000 F150.000
G2 X18.271 Y-35.685 Z-0.200 I0.872 J0.082 K0.000 F150.000
G2 X18.468 Y-35.636 Z-0.200 I0.700 J-2.378 K0.000 F150.000
G3 X18.459 Y-35.489 Z-0.200 I-0.633 J0.033 K0.000 F150.000
G3 X17.884 Y-35.579 Z-0.200 I8.841 J-58.813 K0.000 F150.000
G0 Z1.000
G0 X17.872 Y-35.499 Z1.000
G0 X17.872 Y-35.499 Z0.500
G1 X17.872 Y-35.499 Z-0.200 F100.000
G3 X15.974 Y-35.835 Z-0.200 I9.476 J-59.034 K0.000 F150.000
G3 X15.997 Y-36.137 Z-0.200 I3.138 J0.078 K0.000 F150.000
G2 X17.102 Y-36.528 Z-0.200 I0.256 J-1.034 K0.000 F150.000
G1 X17.190 Y-36.821 Z-0.200 F150.000
G3 X17.521 Y-38.832 Z-0.200 I81.698 J12.413 K0.000 F150.000
G3 X18.009 Y-38.748 Z-0.200 I-0.134 J2.237 K0.000 F150.000
G2 X17.648 Y-36.617 Z-0.200 I126.670 J22.555 K0.000 F150.000
G2 X18.292 Y-35.763 Z-0.200 I0.796 J0.069 K0.000 F150.000
G2 X18.552 Y-35.700 Z-0.200 I0.960 J-3.403 K0.000 F150.000
G3 X18.524 Y-35.399 Z-0.200 I-1.301 J0.028 K0.000 F150.000
G3 X17.872 Y-35.499 Z-0.200 I8.824 J-59.135 K0.000 F150.000
G0 Z1.000
G0 X17.859 Y-35.421 Z1.000
G0 X17.859 Y-35.421 Z0.500
G1 X17.859 Y-35.421 Z-0.200 F100.000
G3 X15.891 Y-35.770 Z-0.200 I9.381 J-58.497 K0.000 F150.000
G3 X15.926 Y-36.223 Z-0.200 I4.298 J0.100 K0.000 F150.000
G2 X16.912 Y-36.413 Z-0.200 I0.299 J-1.105 K0.000 F150.000
G2 X17.111 Y-36.830 Z-0.200 I-0.446 J-0.469 K0.000 F150.000
G3 X17.455 Y-38.917 Z-0.200 I66.185 J9.818 K0.000 F150.000
G3 X18.098 Y-38.796 Z-0.200 I-0.061 J2.094 K0.000 F150.000
G2 X17.728 Y-36.607 Z-0.200 I141.634 J25.066 K0.000 F150.000
G2 X18.313 Y-35.840 Z-0.200 I0.722 J0.056 K0.000 F150.000
G2 X18.636 Y-35.764 Z-0.200 I1.156 J-4.213 K0.000 F150.000
G3 X18.589 Y-35.308 Z-0.200 I-1.970 J0.024 K0.000 F150.000
G3 X17.859 Y-35.421 Z-0.200 I8.651 J-58.609 K0.000 F150.000
G0 Z1.000
G0 X17.846 Y-35.340 Z1.000
G0 X17.846 Y-35.340 Z0.500
G1 X17.846 Y-35.340 Z-0.200 F100.000
G3 X15.809 Y-35.710 Z-0.200 I7.418 J-46.599 K0.000 F150.000
G3 X15.856 Y-36.310 Z-0.200 I5.139 J0.105 K0.000 F150.000
G2 X16.873 Y-36.486 Z-0.200 I0.327 J-1.135 K0.000 F150.000
G2 X17.033 Y-36.839 Z-0.200 I-0.410 J-0.398 K0.000 F150.000
G3 X17.389 Y-39.003 Z-0.200 I56.112 J8.123 K0.000 F150.000
G3 X18.188 Y-38.870 Z-0.200 I-0.140 J3.322 K0.000 F150.000
G2 X17.807 Y-36.597 Z-0.200 I309.124 J53.022 K0.000 F150.000
G2 X18.139 Y-35.999 Z-0.200 I0.576 J0.072 K0.000 F150.000
G2 X18.719 Y-35.817 Z-0.200 I2.471 J-6.896 K0.000 F150.000
G3 X18.653 Y-35.218 Z-0.200 I-2.591 J0.018 K0.000 F150.000
G3 X17.846 Y-35.340 Z-0.200 I6.610 J-46.721 K0.000 F150.000
G0 Z1.000
G0 X17.811 Y-35.753 Z1.000
G0 X17.811 Y-35.753 Z0.500
G1 X17.811 Y-35.753 Z-0.200 F100.000
G3 X16.696 Y-35.944 Z-0.200 I6.973 J-44.126 K0.000 F150.000
G2 X17.429 Y-36.792 Z-0.200 I-0.222 J-0.933 K0.000 F150.000
G3 X17.725 Y-38.567 Z-0.200 I53.771 J8.056 K0.000 F150.000
G1 X17.738 Y-38.564 Z-0.200 F150.000
G2 X17.410 Y-36.646 Z-0.200 I89.056 J16.190 K0.000 F150.000
G2 X17.811 Y-35.753 Z-0.200 I0.897 J0.134 K0.000 F150.000
G0 Z1.000
G0 X17.548 Y-35.878 Z1.000
G0 X17.548 Y-35.878 Z0.500
G1 X17.548 Y-35.878 Z-0.200 F100.000
G3 X16.977 Y-35.976 Z-0.200 I5.005 J-30.901 K0.000 F150.000
G2 X17.348 Y-36.323 Z-0.200 I-0.243 J-0.632 K0.000 F150.000
G2 X17.548 Y-35.878 Z-0.200 I0.894 J-0.136 K0.000 F150.000
G0 Z1.000
G0 X17.389 Y-35.986 Z1.000
G0 X17.389 Y-35.986 Z0.500
G1 X17.389 Y-35.986 Z-0.200 F100.000
G3 X17.191 Y-36.020 Z-0.200 I1.742 J-10.668 K0.000 F150.000
G1 X17.313 Y-36.152 Z-0.200 F150.000
G2 X17.389 Y-35.986 Z-0.200 I0.348 J-0.058 K0.000 F150.000
G0 Z1.000
G0 X17.295 Y-36.052 Z1.000
G0 X17.295 Y-36.052 Z0.500
G1 X17.295 Y-36.052 Z-0.200 F100.000
G1 X17.290 Y-36.053 Z-0.200 F150.000
G1 X17.293 Y-36.056 Z-0.200 F150.000
G1 X17.295 Y-36.052 Z-0.200 F150.000
G0 Z1.000
G0 X17.929 Y-36.323 Z1.000
G0 X17.929 Y-36.323 Z0.500
G1 X17.929 Y-36.323 Z-0.200 F100.000
G2 X18.355 Y-35.994 Z-0.200 I0.507 J-0.216 K0.000 F150.000
G2 X18.799 Y-35.894 Z-0.200 I1.628 J-6.154 K0.000 F150.000
G3 X18.718 Y-35.128 Z-0.200 I-3.011 J0.071 K0.000 F150.000
G3 X15.728 Y-35.640 Z-0.200 I7.910 J-55.192 K0.000 F150.000
G3 X15.789 Y-36.398 Z-0.200 I4.919 J0.017 K0.000 F150.000
G2 X16.666 Y-36.435 Z-0.200 I0.381 J-1.360 K0.000 F150.000
G2 X16.973 Y-36.986 Z-0.200 I-0.401 J-0.585 K0.000 F150.000
G3 X17.323 Y-39.089 Z-0.200 I98.756 J15.371 K0.000 F150.000
G3 X18.276 Y-38.930 Z-0.200 I-0.133 J3.752 K0.000 F150.000
G2 X17.886 Y-36.587 Z-0.200 I752.976 J126.335 K0.000 F150.000
G2 X17.929 Y-36.323 Z-0.200 I0.549 J0.047 K0.000 F150.000
G0 Z1.000
G0 X18.019 Y-36.366 Z1.000
G0 X18.019 Y-36.366 Z0.500
G1 X18.019 Y-36.366 Z-0.200 F100.000
G2 X18.485 Y-36.042 Z-0.200 I0.514 J-0.243 K0.000 F150.000
G3 X18.878 Y-35.956 Z-0.200 I-0.971 J5.389 K0.000 F150.000
G3 X18.782 Y-35.040 Z-0.200 I-3.298 J0.116 K0.000 F150.000
G3 X15.648 Y-35.576 Z-0.200 I7.439 J-52.907 K0.000 F150.000
G3 X15.725 Y-36.486 Z-0.200 I4.114 J-0.110 K0.000 F150.000
G2 X16.580 Y-36.484 Z-0.200 I0.431 J-1.745 K0.000 F150.000
G2 X16.893 Y-36.997 Z-0.200 I-0.278 J-0.522 K0.000 F150.000
G3 X17.271 Y-39.173 Z-0.200 I30.426 J4.154 K0.000 F150.000
G3 X18.362 Y-38.986 Z-0.200 I-0.029 J3.439 K0.000 F150.000
G3 X17.966 Y-36.577 Z-0.200 I-344.412 J-55.353 K0.000 F150.000
G2 X18.019 Y-36.366 Z-0.200 I0.567 J-0.031 K0.000 F150.000
G0 Z1.000
G0 Z1.000
G0 X18.019 Y-36.366
G0 X19.878 Y-36.202
G0 X19.878 Y-36.202 Z0.500
G1 X19.878 Y-36.202 Z-0.200 F100.000
G3 X20.162 Y-38.943 Z-0.200 I89.235 J7.854 K0.000 F150.000
G3 X21.750 Y-38.795 Z-0.200 I0.403 J4.252 K0.000 F150.000
G3 X21.820 Y-38.685 Z-0.200 I0.011 J0.070 K0.000 F150.000
G2 X21.683 Y-36.134 Z-0.200 I36.672 J3.239 K0.000 F150.000
G2 X21.986 Y-36.127 Z-0.200 I0.152 J-0.021 K0.000 F150.000
G2 X22.185 Y-37.472 Z-0.200 I-9.783 J-2.135 K0.000 F150.000
G1 X22.330 Y-38.721 Z-0.200 F150.000
G3 X23.960 Y-38.571 Z-0.200 I0.364 J4.954 K0.000 F150.000
G3 X23.685 Y-35.952 Z-0.200 I-21.633 J-0.952 K0.000 F150.000
G3 X23.038 Y-35.026 Z-0.200 I-1.101 J-0.081 K0.000 F150.000
G3 X21.676 Y-35.368 Z-0.200 I-0.179 J-2.166 K0.000 F150.000
G2 X21.521 Y-35.293 Z-0.200 I-0.055 J0.084 K0.000 F150.000
G3 X21.376 Y-33.987 Z-0.200 I-6.981 J-0.114 K0.000 F150.000
G3 X20.913 Y-33.973 Z-0.200 I-0.260 J-0.902 K0.000 F150.000
G3 X19.770 Y-34.303 Z-0.200 I0.064 J-2.366 K0.000 F150.000
G3 X19.746 Y-34.516 Z-0.200 I0.152 J-0.124 K0.000 F150.000
G3 X19.878 Y-36.202 Z-0.200 I89.368 J6.168 K0.000 F150.000
G0 Z1.000
G0 X19.949 Y-36.196 Z1.000
G0 X19.949 Y-36.196 Z0.500
G1 X19.949 Y-36.196 Z-0.200 F100.000
G3 X20.234 Y-38.863 Z-0.200 I62.866 J5.367 K0.000 F150.000
G3 X21.739 Y-38.713 Z-0.200 I0.368 J3.936 K0.000 F150.000
G2 X21.605 Y-36.120 Z-0.200 I37.565 J3.252 K0.000 F150.000
G2 X22.088 Y-36.194 Z-0.200 I0.240 J-0.045 K0.000 F150.000
G2 X22.402 Y-38.647 Z-0.200 I-25.482 J-4.510 K0.000 F150.000
G3 X23.881 Y-38.511 Z-0.200 I0.318 J4.665 K0.000 F150.000
G3 X23.607 Y-35.970 Z-0.200 I-23.282 J-1.223 K0.000 F150.000
G3 X23.026 Y-35.105 Z-0.200 I-1.042 J-0.073 K0.000 F150.000
G3 X21.720 Y-35.435 Z-0.200 I-0.168 J-2.085 K0.000 F150.000
G2 X21.442 Y-35.300 Z-0.200 I-0.099 J0.151 K0.000 F150.000
G3 X21.310 Y-34.049 Z-0.200 I-8.419 J-0.251 K0.000 F150.000
G3 X19.820 Y-34.366 Z-0.200 I-0.144 J-2.991 K0.000 F150.000
G3 X19.949 Y-36.196 Z-0.200 I62.995 J3.537 K0.000 F150.000
G0 Z1.000
G0 X20.032 Y-36.189 Z1.000
G0 X20.032 Y-36.189 Z0.500
G1 X20.032 Y-36.189 Z-0.200 F100.000
G3 X20.307 Y-38.783 Z-0.200 I67.892 J5.883 K0.000 F150.000
G3 X21.659 Y-38.655 Z-0.200 I0.303 J4.027 K0.000 F150.000
G2 X21.526 Y-36.105 Z-0.200 I32.661 J2.981 K0.000 F150.000
G2 X22.166 Y-36.177 Z-0.200 I0.317 J-0.059 K0.000 F150.000
G2 X22.474 Y-38.573 Z-0.200 I-24.877 J-4.415 K0.000 F150.000
G3 X23.799 Y-38.437 Z-0.200 I0.235 J4.239 K0.000 F150.000
G3 X23.436 Y-35.661 Z-0.200 I-15.013 J-0.548 K0.000 F150.000
G3 X23.014 Y-35.185 Z-0.200 I-0.692 J-0.188 K0.000 F150.000
G3 X21.764 Y-35.502 Z-0.200 I-0.157 J-2.003 K0.000 F150.000
G2 X21.362 Y-35.307 Z-0.200 I-0.142 J0.217 K0.000 F150.000
G3 X21.243 Y-34.121 Z-0.200 I-9.925 J-0.399 K0.000 F150.000
G3 X19.901 Y-34.410 Z-0.200 I-0.027 J-3.133 K0.000 F150.000
G3 X20.032 Y-36.189 Z-0.200 I68.022 J4.104 K0.000 F150.000
G0 Z1.000
G0 X20.113 Y-36.182 Z1.000
G0 X20.113 Y-36.182 Z0.500
G1 X20.113 Y-36.182 Z-0.200 F100.000
G3 X20.379 Y-38.702 Z-0.200 I70.496 J6.165 K0.000 F150.000
G3 X21.577 Y-38.595 Z-0.200 I0.161 J4.923 K0.000 F150.000
G2 X21.447 Y-36.090 Z-0.200 I19.312 J2.255 K0.000 F150.000
G2 X22.244 Y-36.160 Z-0.200 I0.395 J-0.073 K0.000 F150.000
G2 X22.546 Y-38.498 Z-0.200 I-24.279 J-4.321 K0.000 F150.000
G3 X23.715 Y-38.365 Z-0.200 I0.144 J3.941 K0.000 F150.000
G3 X23.361 Y-35.688 Z-0.200 I-14.911 J-0.612 K0.000 F150.000
G3 X23.002 Y-35.264 Z-0.200 I-0.641 J-0.179 K0.000 F150.000
G3 X21.807 Y-35.569 Z-0.200 I-0.146 J-1.922 K0.000 F150.000
G2 X21.282 Y-35.313 Z-0.200 I-0.186 J0.284 K0.000 F150.000
G3 X21.173 Y-34.198 Z-0.200 I-8.913 J-0.308 K0.000 F150.000
G3 X19.983 Y-34.455 Z-0.200 I0.091 J-3.303 K0.000 F150.000
G3 X20.113 Y-36.182 Z-0.200 I70.625 J4.438 K0.000 F150.000
G0 Z1.000
G0 X20.198 Y-36.174 Z1.000
G0 X20.198 Y-36.174 Z0.500
G1 X20.198 Y-36.174 Z-0.200 F100.000
G3 X20.451 Y-38.622 Z-0.200 I84.564 J7.524 K0.000 F150.000
G3 X21.494 Y-38.532 Z-0.200 I0.106 J4.840 K0.000 F150.000
G2 X21.369 Y-36.076 Z-0.200 I18.045 J2.155 K0.000 F150.000
G2 X21.746 Y-35.691 Z-0.200 I0.433 J-0.048 K0.000 F150.000
G2 X22.334 Y-36.198 Z-0.200 I0.067 J-0.517 K0.000 F150.000
G2 X22.618 Y-38.423 Z-0.200 I-29.150 J-4.842 K0.000 F150.000
G3 X23.632 Y-38.322 Z-0.200 I-0.010 J5.248 K0.000 F150.000
G3 X23.286 Y-35.718 Z-0.200 I-14.818 J-0.645 K0.000 F150.000
G3 X22.990 Y-35.344 Z-0.200 I-0.731 J-0.274 K0.000 F150.000
G3 X21.851 Y-35.636 Z-0.200 I-0.134 J-1.840 K0.000 F150.000
G2 X21.202 Y-35.320 Z-0.200 I-0.230 J0.351 K0.000 F150.000
G3 X21.106 Y-34.280 Z-0.200 I-12.973 J-0.683 K0.000 F150.000
G3 X20.066 Y-34.505 Z-0.200 I0.186 J-3.369 K0.000 F150.000
G3 X20.198 Y-36.174 Z-0.200 I84.696 J5.854 K0.000 F150.000
G0 Z1.000
G0 X20.279 Y-36.167 Z1.000
G0 X20.279 Y-36.167 Z0.500
G1 X20.279 Y-36.167 Z-0.200 F100.000
G3 X20.524 Y-38.542 Z-0.200 I89.216 J8.006 K0.000 F150.000
G3 X21.411 Y-38.462 Z-0.200 I0.070 J4.210 K0.000 F150.000
G2 X21.277 Y-36.187 Z-0.200 I20.681 J2.360 K0.000 F150.000
G2 X21.460 Y-35.749 Z-0.200 I0.537 J0.032 K0.000 F150.000
G2 X21.123 Y-35.327 Z-0.200 I0.139 J0.457 K0.000 F150.000
G3 X21.036 Y-34.364 Z-0.200 I-13.262 J-0.710 K0.000 F150.000
G3 X20.150 Y-34.581 Z-0.200 I0.071 J-2.199 K0.000 F150.000
G3 X20.279 Y-36.167 Z-0.200 I89.344 J6.420 K0.000 F150.000
G0 Z1.000
G0 X20.763 Y-36.120 Z1.000
G0 X20.763 Y-36.120 Z0.500
G1 X20.763 Y-36.120 Z-0.200 F100.000
G3 X20.792 Y-36.410 Z-0.200 I42.710 J4.168 K0.000 F150.000
G2 X20.849 Y-35.877 Z-0.200 I1.674 J0.090 K0.000 F150.000
G2 X20.719 Y-35.647 Z-0.200 I0.282 J0.311 K0.000 F150.000
G3 X20.763 Y-36.120 Z-0.200 I42.754 J3.695 K0.000 F150.000
G0 Z1.000
G0 X20.682 Y-36.127 Z1.000
G0 X20.682 Y-36.127 Z0.500
G1 X20.682 Y-36.127 Z-0.200 F100.000
G3 X20.884 Y-38.130 Z-0.200 I122.442 J11.334 K0.000 F150.000
G3 X20.981 Y-38.043 Z-0.200 I0.029 J0.066 K0.000 F150.000
G2 X20.897 Y-35.987 Z-0.200 I8.835 J1.391 K0.000 F150.000
G2 X20.937 Y-35.866 Z-0.200 I0.366 J-0.054 K0.000 F150.000
G2 X20.679 Y-34.822 Z-0.200 I1.478 J0.919 K0.000 F150.000
G1 X20.570 Y-34.847 Z-0.200 F150.000
G3 X20.682 Y-36.127 Z-0.200 I122.554 J10.054 K0.000 F150.000
G0 Z1.000
G0 X20.602 Y-36.135 Z1.000
G0 X20.602 Y-36.135 Z0.500
G1 X20.602 Y-36.135 Z-0.200 F100.000
G3 X20.812 Y-38.213 Z-0.200 I120.309 J11.090 K0.000 F150.000
G3 X21.072 Y-38.189 Z-0.200 I-0.002 J1.436 K0.000 F150.000
G2 X20.958 Y-36.159 Z-0.200 I13.407 J1.772 K0.000 F150.000
G2 X21.030 Y-35.842 Z-0.200 I0.697 J0.008 K0.000 F150.000
G2 X20.804 Y-35.353 Z-0.200 I0.534 J0.544 K0.000 F150.000
G1 X20.751 Y-34.728 Z-0.200 F150.000
G3 X20.486 Y-34.786 Z-0.200 I0.342 J-2.226 K0.000 F150.000
G3 X20.602 Y-36.135 Z-0.200 I120.425 J9.741 K0.000 F150.000
G0 Z1.000
G0 X20.523 Y-36.142 Z1.000
G0 X20.523 Y-36.142 Z0.500
G1 X20.523 Y-36.142 Z-0.200 F100.000
G3 X20.740 Y-38.296 Z-0.200 I119.042 J10.931 K0.000 F150.000
G3 X21.157 Y-38.257 Z-0.200 I0.003 J2.228 K0.000 F150.000
G2 X21.038 Y-36.166 Z-0.200 I13.924 J1.846 K0.000 F150.000
G2 X21.122 Y-35.822 Z-0.200 I0.756 J-0.003 K0.000 F150.000
G2 X20.884 Y-35.347 Z-0.200 I0.468 J0.532 K0.000 F150.000
G3 X20.823 Y-34.636 Z-0.200 I-19.884 J-1.341 K0.000 F150.000
G3 X20.401 Y-34.727 Z-0.200 I0.327 J-2.522 K0.000 F150.000
G3 X20.523 Y-36.142 Z-0.200 I119.163 J9.516 K0.000 F150.000
G0 Z1.000
G0 X20.443 Y-36.149 Z1.000
G0 X20.443 Y-36.149 Z0.500
G1 X20.443 Y-36.149 Z-0.200 F100.000
G3 X20.668 Y-38.379 Z-0.200 I118.910 J10.884 K0.000 F150.000
G3 X21.242 Y-38.326 Z-0.200 I0.009 J3.018 K0.000 F150.000
G2 X21.117 Y-36.173 Z-0.200 I14.498 J1.922 K0.000 F150.000
G2 X21.215 Y-35.797 Z-0.200 I0.826 J-0.015 K0.000 F150.000
G2 X20.963 Y-35.340 Z-0.200 I0.370 J0.502 K0.000 F150.000
G3 X20.894 Y-34.543 Z-0.200 I-22.286 J-1.542 K0.000 F150.000
G3 X20.317 Y-34.679 Z-0.200 I0.029 J-1.419 K0.000 F150.000
G3 X20.443 Y-36.149 Z-0.200 I119.035 J9.414 K0.000 F150.000
G0 Z1.000
G0 X20.364 Y-36.157 Z1.000
G0 X20.364 Y-36.157 Z0.500
G1 X20.364 Y-36.157 Z-0.200 F100.000
G3 X20.613 Y-38.461 Z-0.200 I83.715 J7.889 K0.000 F150.000
G1 X20.936 Y-38.448 Z-0.200 F150.000
G3 X21.327 Y-38.394 Z-0.200 I-0.250 J3.279 K0.000 F150.000
G2 X21.197 Y-36.180 Z-0.200 I19.500 J2.253 K0.000 F150.000
G2 X21.325 Y-35.782 Z-0.200 I0.532 J0.049 K0.000 F150.000
G2 X21.043 Y-35.333 Z-0.200 I0.294 J0.497 K0.000 F150.000
G3 X20.965 Y-34.451 Z-0.200 I-24.687 J-1.743 K0.000 F150.000
G3 X20.233 Y-34.616 Z-0.200 I0.298 J-3.023 K0.000 F150.000
G3 X20.364 Y-36.157 Z-0.200 I83.846 J6.348 K0.000 F150.000
G0 Z1.000
G0 X20.792 Y-35.889 Z1.000
G0 X20.792 Y-35.889 Z0.500
G1 X20.792 Y-35.889 Z-0.200 F100.000
G3 X20.791 Y-35.879 Z-0.200 I-0.004 J0.005 K0.000 F150.000
G1 X20.792 Y-35.889 Z-0.200 F150.000
G0 Z1.000
G0 X21.998 Y-35.636 Z1.000
G0 X21.998 Y-35.636 Z0.500
G1 X21.998 Y-35.636 Z-0.200 F100.000
G2 X22.431 Y-36.279 Z-0.200 I-0.260 J-0.643 K0.000 F150.000
G2 X22.689 Y-38.345 Z-0.200 I-33.879 J-5.284 K0.000 F150.000
G3 X23.548 Y-38.256 Z-0.200 I-0.149 J5.646 K0.000 F150.000
G3 X23.212 Y-35.749 Z-0.200 I-14.710 J-0.696 K0.000 F150.000
G3 X22.892 Y-35.419 Z-0.200 I-0.471 J-0.136 K0.000 F150.000
G3 X21.998 Y-35.636 Z-0.200 I-0.029 J-1.834 K0.000 F150.000
G0 Z1.000
G0 X22.163 Y-35.630 Z1.000
G0 X22.163 Y-35.630 Z0.500
G1 X22.163 Y-35.630 Z-0.200 F100.000
G2 X22.545 Y-36.489 Z-0.200 I-0.664 J-0.809 K0.000 F150.000
G2 X22.760 Y-38.264 Z-0.200 I-55.081 J-7.580 K0.000 F150.000
G3 X23.463 Y-38.188 Z-0.200 I-0.263 J5.768 K0.000 F150.000
G3 X23.216 Y-36.059 Z-0.200 I-23.614 J-1.652 K0.000 F150.000
G3 X22.929 Y-35.501 Z-0.200 I-0.800 J-0.059 K0.000 F150.000
G3 X22.163 Y-35.630 Z-0.200 I-0.023 J-2.208 K0.000 F150.000
G0 Z1.000
G0 X22.339 Y-35.654 Z1.000
G0 X22.339 Y-35.654 Z0.500
G1 X22.339 Y-35.654 Z-0.200 F100.000
G2 X22.644 Y-36.624 Z-0.200 I-1.419 J-0.981 K0.000 F150.000
G2 X22.834 Y-38.180 Z-0.200 I-327.120 J-40.723 K0.000 F150.000
G1 X22.947 Y-38.172 Z-0.200 F150.000
G3 X23.377 Y-38.120 Z-0.200 I-0.433 J5.406 K0.000 F150.000
G3 X23.138 Y-36.076 Z-0.200 I-23.300 J-1.685 K0.000 F150.000
G3 X22.892 Y-35.579 Z-0.200 I-0.642 J-0.008 K0.000 F150.000
G3 X22.339 Y-35.654 Z-0.200 I0.059 J-2.530 K0.000 F150.000
G0 Z1.000
G0 X22.484 Y-35.704 Z1.000
G0 X22.484 Y-35.704 Z0.500
G1 X22.484 Y-35.704 Z-0.200 F100.000
G2 X22.749 Y-36.806 Z-0.200 I-2.771 J-1.250 K0.000 F150.000
G2 X22.901 Y-38.095 Z-0.200 I-144.489 J-17.760 K0.000 F150.000
G3 X23.291 Y-38.052 Z-0.200 I-0.296 J4.447 K0.000 F150.000
G3 X23.060 Y-36.094 Z-0.200 I-23.039 J-1.726 K0.000 F150.000
G3 X22.866 Y-35.661 Z-0.200 I-0.639 J-0.026 K0.000 F150.000
G3 X22.484 Y-35.704 Z-0.200 I0.066 J-2.277 K0.000 F150.000
G0 Z1.000
G0 X22.608 Y-35.764 Z1.000
G0 X22.608 Y-35.764 Z0.500
G1 X22.608 Y-35.764 Z-0.200 F100.000
G2 X22.828 Y-36.797 Z-0.200 I-3.393 J-1.262 K0.000 F150.000
G2 X22.972 Y-38.008 Z-0.200 I-135.898 J-16.722 K0.000 F150.000
G3 X23.205 Y-37.983 Z-0.200 I-0.196 J2.931 K0.000 F150.000
G3 X22.915 Y-35.874 Z-0.200 I-10.049 J-0.310 K0.000 F150.000
G3 X22.690 Y-35.754 Z-0.200 I-0.143 J0.003 K0.000 F150.000
G1 X22.608 Y-35.764 Z-0.200 F150.000
G0 Z1.000
G0 X22.727 Y-35.832 Z1.000
G0 X22.727 Y-35.832 Z0.500
G1 X22.727 Y-35.832 Z-0.200 F100.000
G2 X23.042 Y-37.920 Z-0.200 I-10.810 J-2.701 K0.000 F150.000
G1 X23.119 Y-37.912 Z-0.200 F150.000
G3 X22.840 Y-35.905 Z-0.200 I-9.796 J-0.339 K0.000 F150.000
G3 X22.727 Y-35.832 Z-0.200 I-0.074 J0.010 K0.000 F150.000
G0 Z1.000
G0 Z1.000
G0 X22.727 Y-35.832
G0 X24.369 Y-36.103
G0 X24.369 Y-36.103 Z0.500
G1 X24.369 Y-36.103 Z-0.200 F100.000
G3 X24.351 Y-36.294 Z-0.200 I1.401 J-0.231 K0.000 F150.000
G3 X24.531 Y-37.792 Z-0.200 I2.753 J-0.429 K0.000 F150.000
G3 X25.430 Y-38.510 Z-0.200 I1.253 J0.647 K0.000 F150.000
G3 X26.706 Y-38.546 Z-0.200 I0.831 J6.900 K0.000 F150.000
G3 X27.645 Y-38.399 Z-0.200 I0.001 J3.070 K0.000 F150.000
G3 X27.972 Y-38.129 Z-0.200 I-0.138 J0.499 K0.000 F150.000
G3 X27.592 Y-37.350 Z-0.200 I-1.081 J-0.045 K0.000 F150.000
G3 X27.076 Y-37.441 Z-0.200 I-0.123 J-0.811 K0.000 F150.000
G2 X26.360 Y-37.557 Z-0.200 I-0.618 J1.544 K0.000 F150.000
G2 X26.060 Y-37.272 Z-0.200 I0.012 J0.312 K0.000 F150.000
G2 X26.405 Y-37.085 Z-0.200 I0.314 J-0.167 K0.000 F150.000
G3 X27.472 Y-36.802 Z-0.200 I-0.210 J2.948 K0.000 F150.000
G3 X27.926 Y-35.502 Z-0.200 I-0.482 J0.898 K0.000 F150.000
G3 X27.087 Y-34.882 Z-0.200 I-0.897 J-0.335 K0.000 F150.000
G3 X24.892 Y-35.218 Z-0.200 I-0.611 J-3.347 K0.000 F150.000
G3 X24.369 Y-36.103 Z-0.200 I0.878 J-1.116 K0.000 F150.000
G0 Z1.000
G0 X24.448 Y-36.116 Z1.000
G0 X24.448 Y-36.116 Z0.500
G1 X24.448 Y-36.116 Z-0.200 F100.000
G3 X24.430 Y-36.303 Z-0.200 I1.325 J-0.220 K0.000 F150.000
G3 X24.601 Y-37.754 Z-0.200 I2.670 J-0.421 K0.000 F150.000
G3 X25.443 Y-38.432 Z-0.200 I1.185 J0.611 K0.000 F150.000
G3 X26.702 Y-38.466 Z-0.200 I0.817 J6.830 K0.000 F150.000
G3 X27.612 Y-38.326 Z-0.200 I0.002 J3.017 K0.000 F150.000
G3 X27.893 Y-38.107 Z-0.200 I-0.100 J0.418 K0.000 F150.000
G3 X27.561 Y-37.426 Z-0.200 I-1.039 J-0.086 K0.000 F150.000
G3 X27.096 Y-37.519 Z-0.200 I-0.093 J-0.748 K0.000 F150.000
G2 X26.333 Y-37.633 Z-0.200 I-0.621 J1.539 K0.000 F150.000
G2 X26.010 Y-37.169 Z-0.200 I0.001 J0.345 K0.000 F150.000
G2 X26.538 Y-36.985 Z-0.200 I0.471 J-0.504 K0.000 F150.000
G3 X27.614 Y-36.612 Z-0.200 I-0.079 J1.965 K0.000 F150.000
G3 X27.523 Y-35.112 Z-0.200 I-0.701 J0.710 K0.000 F150.000
G3 X27.076 Y-34.961 Z-0.200 I-0.647 J-1.178 K0.000 F150.000
G3 X24.941 Y-35.282 Z-0.200 I-0.599 J-3.278 K0.000 F150.000
G3 X24.448 Y-36.116 Z-0.200 I0.832 J-1.054 K0.000 F150.000
G0 Z1.000
G0 X24.527 Y-36.129 Z1.000
G0 X24.527 Y-36.129 Z0.500
G1 X24.527 Y-36.129 Z-0.200 F100.000
G3 X24.510 Y-36.312 Z-0.200 I1.249 J-0.209 K0.000 F150.000
G3 X24.672 Y-37.716 Z-0.200 I2.586 J-0.413 K0.000 F150.000
G3 X25.457 Y-38.353 Z-0.200 I1.117 J0.575 K0.000 F150.000
G3 X26.697 Y-38.386 Z-0.200 I0.803 J6.760 K0.000 F150.000
G3 X27.578 Y-38.253 Z-0.200 I0.003 J2.968 K0.000 F150.000
G3 X27.815 Y-38.084 Z-0.200 I-0.056 J0.328 K0.000 F150.000
G3 X27.507 Y-37.498 Z-0.200 I-0.702 J0.005 K0.000 F150.000
G2 X26.382 Y-37.723 Z-0.200 I-1.325 J3.700 K0.000 F150.000
G2 X25.929 Y-37.148 Z-0.200 I-0.019 J0.451 K0.000 F150.000
G2 X26.525 Y-36.906 Z-0.200 I0.542 J-0.479 K0.000 F150.000
G3 X27.565 Y-36.548 Z-0.200 I-0.067 J1.886 K0.000 F150.000
G3 X27.479 Y-35.180 Z-0.200 I-0.653 J0.646 K0.000 F150.000
G3 X27.064 Y-35.041 Z-0.200 I-0.602 J-1.106 K0.000 F150.000
G3 X24.989 Y-35.346 Z-0.200 I-0.588 J-3.210 K0.000 F150.000
G3 X24.527 Y-36.129 Z-0.200 I0.787 J-0.992 K0.000 F150.000
G0 Z1.000
G0 X24.606 Y-36.142 Z1.000
G0 X24.606 Y-36.142 Z0.500
G1 X24.606 Y-36.142 Z-0.200 F100.000
G3 X24.590 Y-36.321 Z-0.200 I1.173 J-0.197 K0.000 F150.000
G3 X24.743 Y-37.678 Z-0.200 I2.503 J-0.405 K0.000 F150.000
G3 X25.471 Y-38.274 Z-0.200 I1.049 J0.540 K0.000 F150.000
G3 X26.693 Y-38.306 Z-0.200 I0.789 J6.691 K0.000 F150.000
G3 X27.544 Y-38.181 Z-0.200 I0.003 J2.926 K0.000 F150.000
G3 X27.737 Y-38.056 Z-0.200 I-0.307 J0.686 K0.000 F150.000
G3 X27.494 Y-37.579 Z-0.200 I-0.750 J-0.082 K0.000 F150.000
G2 X26.378 Y-37.803 Z-0.200 I-1.280 J3.493 K0.000 F150.000
G2 X25.852 Y-37.124 Z-0.200 I-0.015 J0.532 K0.000 F150.000
G2 X26.512 Y-36.827 Z-0.200 I0.613 J-0.482 K0.000 F150.000
G3 X27.352 Y-36.594 Z-0.200 I-0.128 J2.092 K0.000 F150.000
G3 X27.696 Y-35.572 Z-0.200 I-0.367 J0.693 K0.000 F150.000
G3 X27.053 Y-35.120 Z-0.200 I-0.673 J-0.273 K0.000 F150.000
G3 X25.038 Y-35.410 Z-0.200 I-0.576 J-3.143 K0.000 F150.000
G3 X24.606 Y-36.142 Z-0.200 I0.741 J-0.930 K0.000 F150.000
G0 Z1.000
G0 X24.685 Y-36.156 Z1.000
G0 X24.685 Y-36.156 Z0.500
G1 X24.685 Y-36.156 Z-0.200 F100.000
G3 X24.669 Y-36.330 Z-0.200 I1.097 J-0.186 K0.000 F150.000
G3 X24.813 Y-37.640 Z-0.200 I2.420 J-0.397 K0.000 F150.000
G3 X25.484 Y-38.195 Z-0.200 I0.982 J0.505 K0.000 F150.000
G3 X26.688 Y-38.226 Z-0.200 I0.775 J6.622 K0.000 F150.000
G3 X27.510 Y-38.108 Z-0.200 I0.002 J2.892 K0.000 F150.000
G3 X27.653 Y-38.020 Z-0.200 I-0.214 J0.507 K0.000 F150.000
G3 X27.471 Y-37.665 Z-0.200 I-1.484 J-0.539 K0.000 F150.000
G2 X26.375 Y-37.883 Z-0.200 I-1.230 J3.330 K0.000 F150.000
G2 X25.769 Y-37.115 Z-0.200 I-0.009 J0.616 K0.000 F150.000
G2 X26.070 Y-36.841 Z-0.200 I0.473 J-0.218 K0.000 F150.000
G2 X25.635 Y-35.936 Z-0.200 I0.217 J0.662 K0.000 F150.000
G2 X26.694 Y-35.821 Z-0.200 I0.540 J-0.037 K0.000 F150.000
G2 X26.432 Y-36.758 Z-0.200 I-0.772 J-0.288 K0.000 F150.000
G3 X27.311 Y-36.525 Z-0.200 I-0.215 J2.586 K0.000 F150.000
G3 X27.619 Y-35.595 Z-0.200 I-0.329 J0.624 K0.000 F150.000
G3 X27.041 Y-35.199 Z-0.200 I-0.598 J-0.253 K0.000 F150.000
G3 X25.087 Y-35.473 Z-0.200 I-0.565 J-3.078 K0.000 F150.000
G3 X24.685 Y-36.156 Z-0.200 I0.695 J-0.868 K0.000 F150.000
G0 Z1.000
G0 X24.764 Y-36.169 Z1.000
G0 X24.764 Y-36.169 Z0.500
G1 X24.764 Y-36.169 Z-0.200 F100.000
G3 X24.749 Y-36.339 Z-0.200 I1.021 J-0.175 K0.000 F150.000
G3 X24.884 Y-37.602 Z-0.200 I2.337 J-0.389 K0.000 F150.000
G3 X25.498 Y-38.116 Z-0.200 I0.916 J0.470 K0.000 F150.000
G3 X26.684 Y-38.146 Z-0.200 I0.761 J6.554 K0.000 F150.000
G3 X27.476 Y-38.035 Z-0.200 I0.000 J2.870 K0.000 F150.000
G1 X27.554 Y-37.991 Z-0.200 F150.000
G3 X27.435 Y-37.757 Z-0.200 I-1.118 J-0.419 K0.000 F150.000
G2 X26.372 Y-37.963 Z-0.200 I-1.032 J2.478 K0.000 F150.000
G2 X25.690 Y-37.098 Z-0.200 I-0.005 J0.697 K0.000 F150.000
G2 X25.880 Y-36.855 Z-0.200 I0.453 J-0.159 K0.000 F150.000
G2 X25.939 Y-35.401 Z-0.200 I0.529 J0.707 K0.000 F150.000
G2 X26.773 Y-35.805 Z-0.200 I0.248 J-0.550 K0.000 F150.000
G2 X26.653 Y-36.636 Z-0.200 I-0.828 J-0.305 K0.000 F150.000
G3 X27.526 Y-36.226 Z-0.200 I0.009 J1.113 K0.000 F150.000
G3 X27.346 Y-35.381 Z-0.200 I-0.573 J0.319 K0.000 F150.000
G3 X27.030 Y-35.279 Z-0.200 I-0.465 J-0.895 K0.000 F150.000
G3 X25.135 Y-35.537 Z-0.200 I-0.554 J-3.015 K0.000 F150.000
G3 X24.764 Y-36.169 Z-0.200 I0.649 J-0.807 K0.000 F150.000
G0 Z1.000
G0 X24.915 Y-36.191 Z1.000
G0 X24.915 Y-36.191 Z0.500
G1 X24.915 Y-36.191 Z-0.200 F100.000
G3 X24.908 Y-36.356 Z-0.200 I0.788 J-0.116 K0.000 F150.000
G3 X25.025 Y-37.526 Z-0.200 I2.172 J-0.373 K0.000 F150.000
G3 X25.600 Y-37.969 Z-0.200 I0.725 J0.346 K0.000 F150.000
G3 X25.965 Y-37.995 Z-0.200 I0.438 J3.625 K0.000 F150.000
G2 X25.647 Y-36.862 Z-0.200 I0.285 J0.691 K0.000 F150.000
G2 X25.561 Y-35.524 Z-0.200 I0.787 J0.723 K0.000 F150.000
G3 X24.915 Y-36.191 Z-0.200 I0.143 J-0.783 K0.000 F150.000
G0 Z1.000
G0 X25.011 Y-36.210 Z1.000
G0 X25.011 Y-36.210 Z0.500
G1 X25.011 Y-36.210 Z-0.200 F100.000
G3 X25.096 Y-37.488 Z-0.200 I2.453 J-0.478 K0.000 F150.000
G3 X25.608 Y-37.889 Z-0.200 I0.653 J0.306 K0.000 F150.000
G1 X25.686 Y-37.895 Z-0.200 F150.000
G2 X25.540 Y-36.865 Z-0.200 I0.557 J0.604 K0.000 F150.000
G2 X25.388 Y-35.674 Z-0.200 I0.891 J0.719 K0.000 F150.000
G3 X25.034 Y-36.105 Z-0.200 I0.216 J-0.538 K0.000 F150.000
G3 X25.011 Y-36.210 Z-0.200 I2.430 J-0.583 K0.000 F150.000
G0 Z1.000
G0 X25.080 Y-36.228 Z1.000
G0 X25.080 Y-36.228 Z0.500
G1 X25.080 Y-36.228 Z-0.200 F100.000
G3 X25.054 Y-36.662 Z-0.200 I1.083 J-0.281 K0.000 F150.000
G3 X25.167 Y-37.450 Z-0.200 I1.747 J-0.152 K0.000 F150.000
G3 X25.480 Y-37.767 Z-0.200 I0.917 J0.594 K0.000 F150.000
G2 X25.444 Y-36.879 Z-0.200 I0.739 J0.474 K0.000 F150.000
G2 X25.244 Y-35.871 Z-0.200 I0.975 J0.718 K0.000 F150.000
G3 X25.080 Y-36.228 Z-0.200 I0.919 J-0.639 K0.000 F150.000
G0 Z1.000
G0 X25.149 Y-36.377 Z1.000
G0 X25.149 Y-36.377 Z0.500
G1 X25.149 Y-36.377 Z-0.200 F100.000
G3 X25.238 Y-37.412 Z-0.200 I2.313 J-0.323 K0.000 F150.000
G3 X25.285 Y-37.475 Z-0.200 I0.294 J0.172 K0.000 F150.000
G2 X25.348 Y-36.893 Z-0.200 I0.791 J0.208 K0.000 F150.000
G2 X25.149 Y-36.377 Z-0.200 I1.126 J0.731 K0.000 F150.000
G0 Z1.000
G0 X25.219 Y-36.824 Z1.000
G0 X25.219 Y-36.824 Z0.500
G1 X25.219 Y-36.824 Z-0.200 F100.000
G3 X25.228 Y-36.986 Z-0.200 I1.875 J0.021 K0.000 F150.000
G3 X25.219 Y-36.824 Z-0.200 I-0.122 J0.075 K0.000 F150.000
G0 Z1.000
G0 X25.575 Y-36.626 Z1.000
G0 X25.575 Y-36.626 Z0.500
G1 X25.575 Y-36.626 Z-0.200 F100.000
G2 X25.831 Y-35.380 Z-0.200 I0.854 J0.474 K0.000 F150.000
G3 X25.035 Y-35.735 Z-0.200 I0.109 J-1.311 K0.000 F150.000
G3 X24.834 Y-37.078 Z-0.200 I1.844 J-0.964 K0.000 F150.000
G3 X25.591 Y-38.049 Z-0.200 I1.004 J0.003 K0.000 F150.000
G3 X26.679 Y-38.067 Z-0.200 I0.659 J6.907 K0.000 F150.000
G3 X27.443 Y-37.962 Z-0.200 I-0.003 J2.864 K0.000 F150.000
G1 X27.451 Y-37.958 Z-0.200 F150.000
G3 X27.397 Y-37.850 Z-0.200 I-0.511 J-0.189 K0.000 F150.000
G2 X26.369 Y-38.042 Z-0.200 I-0.988 J2.438 K0.000 F150.000
G2 X25.610 Y-37.083 Z-0.200 I-0.002 J0.778 K0.000 F150.000
G2 X25.756 Y-36.860 Z-0.200 I0.390 J-0.095 K0.000 F150.000
G2 X25.575 Y-36.626 Z-0.200 I0.673 J0.708 K0.000 F150.000
G0 Z1.000
G0 X25.761 Y-36.513 Z1.000
G0 X25.761 Y-36.513 Z0.500
G1 X25.761 Y-36.513 Z-0.200 F100.000
G3 X26.206 Y-36.767 Z-0.200 I0.452 J0.275 K0.000 F150.000
G3 X26.660 Y-36.045 Z-0.200 I-0.207 J0.633 K0.000 F150.000
G3 X26.218 Y-35.502 Z-0.200 I-0.515 J0.032 K0.000 F150.000
G3 X25.691 Y-36.151 Z-0.200 I0.025 J-0.558 K0.000 F150.000
G3 X25.761 Y-36.513 Z-0.200 I0.522 J-0.086 K0.000 F150.000
G0 Z1.000
G0 X25.835 Y-36.468 Z1.000
G0 X25.835 Y-36.468 Z0.500
G1 X25.835 Y-36.468 Z-0.200 F100.000
G3 X26.192 Y-36.688 Z-0.200 I0.397 J0.243 K0.000 F150.000
G3 X26.581 Y-36.061 Z-0.200 I-0.194 J0.555 K0.000 F150.000
G3 X26.088 Y-35.600 Z-0.200 I-0.412 J0.054 K0.000 F150.000
G3 X25.771 Y-36.160 Z-0.200 I0.182 J-0.473 K0.000 F150.000
G3 X25.835 Y-36.468 Z-0.200 I0.461 J-0.065 K0.000 F150.000
G0 Z1.000
G0 X25.896 Y-36.431 Z1.000
G0 X25.896 Y-36.431 Z0.500
G1 X25.896 Y-36.431 Z-0.200 F100.000
G3 X26.177 Y-36.609 Z-0.200 I0.319 J0.191 K0.000 F150.000
G3 X26.460 Y-35.871 Z-0.200 I-0.201 J0.500 K0.000 F150.000
G3 X26.118 Y-35.674 Z-0.200 I-0.275 J-0.082 K0.000 F150.000
G3 X25.850 Y-36.169 Z-0.200 I0.155 J-0.404 K0.000 F150.000
G3 X25.896 Y-36.431 Z-0.200 I0.365 J-0.071 K0.000 F150.000
G0 Z1.000
G0 X25.964 Y-36.391 Z1.000
G0 X25.964 Y-36.391 Z0.500
G1 X25.964 Y-36.391 Z-0.200 F100.000
G3 X26.163 Y-36.531 Z-0.200 I0.254 J0.150 K0.000 F150.000
G3 X26.381 Y-35.887 Z-0.200 I-0.192 J0.424 K0.000 F150.000
G3 X26.058 Y-35.794 Z-0.200 I-0.194 J-0.063 K0.000 F150.000
G3 X25.930 Y-36.178 Z-0.200 I0.286 J-0.309 K0.000 F150.000
G3 X25.964 Y-36.391 Z-0.200 I0.288 J-0.063 K0.000 F150.000
G0 Z1.000
G0 X26.812 Y-36.524 Z1.000
G0 X26.812 Y-36.524 Z0.500
G1 X26.812 Y-36.524 Z-0.200 F100.000
G3 X27.455 Y-36.186 Z-0.200 I-0.068 J0.912 K0.000 F150.000
G3 X27.302 Y-35.449 Z-0.200 I-0.496 J0.282 K0.000 F150.000
G3 X27.019 Y-35.358 Z-0.200 I-0.421 J-0.828 K0.000 F150.000
G3 X26.460 Y-35.325 Z-0.200 I-0.456 J-2.976 K0.000 F150.000
G2 X26.895 Y-35.995 Z-0.200 I-0.318 J-0.682 K0.000 F150.000
G2 X26.812 Y-36.524 Z-0.200 I-0.868 J-0.135 K0.000 F150.000
G0 Z1.000
G0 X26.943 Y-36.409 Z1.000
G0 X26.943 Y-36.409 Z0.500
G1 X26.943 Y-36.409 Z-0.200 F100.000
G3 X27.424 Y-36.044 Z-0.200 I-0.016 J0.521 K0.000 F150.000
G3 X27.257 Y-35.516 Z-0.200 I-0.448 J0.149 K0.000 F150.000
G3 X26.731 Y-35.418 Z-0.200 I-0.449 J-0.952 K0.000 F150.000
G2 X26.943 Y-36.409 Z-0.200 I-0.855 J-0.701 K0.000 F150.000
G0 Z1.000
G0 X27.052 Y-36.286 Z1.000
G0 X27.052 Y-36.286 Z0.500
G1 X27.052 Y-36.286 Z-0.200 F100.000
G3 X27.345 Y-35.847 Z-0.200 I-0.044 J0.346 K0.000 F150.000
G3 X26.895 Y-35.510 Z-0.200 I-0.372 J-0.027 K0.000 F150.000
G2 X27.052 Y-36.286 Z-0.200 I-1.053 J-0.618 K0.000 F150.000
G0 Z1.000
G0 X27.139 Y-36.159 Z1.000
G0 X27.139 Y-36.159 Z0.500
G1 X27.139 Y-36.159 Z-0.200 F100.000
G3 X27.159 Y-35.646 Z-0.200 I-0.211 J0.265 K0.000 F150.000
G3 X27.024 Y-35.605 Z-0.200 I-0.238 J-0.550 K0.000 F150.000
G2 X27.139 Y-36.159 Z-0.200 I-1.012 J-0.499 K0.000 F150.000
G0 Z1.000
G0 Z1.000
G0 X27.139 Y-36.159
G0 X29.811 Y-35.416
G0 X29.811 Y-35.416 Z0.500
G1 X29.811 Y-35.416 Z-0.200 F100.000
G1 X29.788 Y-34.843 Z-0.200 F150.000
G2 X29.808 Y-34.128 Z-0.200 I2.117 J0.299 K0.000 F150.000
G2 X30.290 Y-33.935 Z-0.200 I0.404 J-0.308 K0.000 F150.000
G2 X33.615 Y-33.913 Z-0.200 I1.934 J-42.085 K0.000 F150.000
G2 X33.663 Y-34.777 Z-0.200 I-2.255 J-0.559 K0.000 F150.000
G2 X33.511 Y-35.413 Z-0.200 I-1.337 J-0.017 K0.000 F150.000
G2 X32.697 Y-35.457 Z-0.200 I-0.523 J2.144 K0.000 F150.000
G3 X32.597 Y-35.557 Z-0.200 I-0.000 J-0.100 K0.000 F150.000
G1 X32.597 Y-38.296 Z-0.200 F150.000
G2 X31.936 Y-38.381 Z-0.200 I-0.740 J3.148 K0.000 F150.000
G2 X30.823 Y-38.356 Z-0.200 I-0.416 J6.257 K0.000 F150.000
G2 X30.778 Y-35.566 Z-0.200 I22.425 J1.758 K0.000 F150.000
G3 X30.684 Y-35.466 Z-0.200 I-0.100 J0.000 K0.000 F150.000
G2 X29.811 Y-35.416 Z-0.200 I37852.432 J657497.849 K0.000 F150.000
G0 Z1.000
G0 X29.888 Y-35.340 Z1.000
G0 X29.888 Y-35.340 Z0.500
G1 X29.888 Y-35.340 Z-0.200 F100.000
G1 X29.868 Y-34.840 Z-0.200 F150.000
G2 X29.880 Y-34.163 Z-0.200 I2.161 J0.299 K0.000 F150.000
G2 X30.298 Y-34.014 Z-0.200 I0.335 J-0.280 K0.000 F150.000
G2 X33.548 Y-33.993 Z-0.200 I1.894 J-41.305 K0.000 F150.000
G2 X33.472 Y-35.342 Z-0.200 I-2.814 J-0.516 K0.000 F150.000
G2 X32.697 Y-35.377 Z-0.200 I-0.487 J2.186 K0.000 F150.000
G3 X32.517 Y-35.557 Z-0.200 I-0.000 J-0.180 K0.000 F150.000
G1 X32.517 Y-38.231 Z-0.200 F150.000
G2 X31.932 Y-38.301 Z-0.200 I-0.648 J2.911 K0.000 F150.000
G2 X30.896 Y-38.287 Z-0.200 I-0.420 J7.079 K0.000 F150.000
G2 X30.858 Y-35.566 Z-0.200 I30.418 J1.781 K0.000 F150.000
G3 X30.689 Y-35.387 Z-0.200 I-0.180 J-0.000 K0.000 F150.000
G2 X29.888 Y-35.340 Z-0.200 I35527.753 J617118.237 K0.000 F150.000
G0 Z1.000
G0 X29.965 Y-35.265 Z1.000
G0 X29.965 Y-35.265 Z0.500
G1 X29.965 Y-35.265 Z-0.200 F100.000
G1 X29.948 Y-34.836 Z-0.200 F150.000
G2 X29.952 Y-34.198 Z-0.200 I2.281 J0.302 K0.000 F150.000
G2 X30.305 Y-34.094 Z-0.200 I0.268 J-0.260 K0.000 F150.000
G2 X33.482 Y-34.073 Z-0.200 I1.854 J-40.523 K0.000 F150.000
G2 X33.420 Y-35.274 Z-0.200 I-3.083 J-0.442 K0.000 F150.000
G2 X32.697 Y-35.297 Z-0.200 I-0.442 J2.564 K0.000 F150.000
G3 X32.437 Y-35.557 Z-0.200 I0.000 J-0.260 K0.000 F150.000
G1 X32.437 Y-38.165 Z-0.200 F150.000
G2 X31.929 Y-38.221 Z-0.200 I-0.561 J2.744 K0.000 F150.000
G2 X30.970 Y-38.214 Z-0.200 I-0.415 J8.265 K0.000 F150.000
G2 X30.938 Y-35.566 Z-0.200 I32.732 J1.718 K0.000 F150.000
G3 X30.693 Y-35.307 Z-0.200 I-0.260 J-0.000 K0.000 F150.000
G2 X29.965 Y-35.265 Z-0.200 I32578.725 J565893.861 K0.000 F150.000
G0 Z1.000
G0 X30.042 Y-35.189 Z1.000
G0 X30.042 Y-35.189 Z0.500
G1 X30.042 Y-35.189 Z-0.200 F100.000
G1 X30.698 Y-35.227 Z-0.200 F150.000
G2 X31.018 Y-35.566 Z-0.200 I-0.020 J-0.339 K0.000 F150.000
G3 X31.045 Y-38.139 Z-0.200 I35.495 J-0.918 K0.000 F150.000
G3 X31.925 Y-38.141 Z-0.200 I0.459 J8.685 K0.000 F150.000
G3 X32.357 Y-38.099 Z-0.200 I-0.061 J2.877 K0.000 F150.000
G1 X32.357 Y-35.557 Z-0.200 F150.000
G2 X32.697 Y-35.217 Z-0.200 I0.340 J-0.000 K0.000 F150.000
G3 X33.356 Y-35.203 Z-0.200 I0.279 J2.466 K0.000 F150.000
G3 X33.416 Y-34.153 Z-0.200 I-2.451 J0.666 K0.000 F150.000
G3 X30.312 Y-34.174 Z-0.200 I-1.289 J-39.759 K0.000 F150.000
G3 X30.026 Y-34.232 Z-0.200 I-0.070 J-0.385 K0.000 F150.000
G3 X30.042 Y-35.189 Z-0.200 I4.880 J-0.400 K0.000 F150.000
G0 Z1.000
G0 X30.119 Y-35.113 Z1.000
G0 X30.119 Y-35.113 Z0.500
G1 X30.119 Y-35.113 Z-0.200 F100.000
G2 X30.871 Y-35.193 Z-0.200 I0.189 J-1.808 K0.000 F150.000
G2 X31.098 Y-35.566 Z-0.200 I-0.193 J-0.373 K0.000 F150.000
G3 X31.121 Y-38.063 Z-0.200 I38.023 J-0.906 K0.000 F150.000
G3 X31.922 Y-38.061 Z-0.200 I0.386 J8.485 K0.000 F150.000
G3 X32.277 Y-38.031 Z-0.200 I-0.030 J2.428 K0.000 F150.000
G1 X32.277 Y-35.557 Z-0.200 F150.000
G2 X32.697 Y-35.137 Z-0.200 I0.420 J0.000 K0.000 F150.000
G3 X33.290 Y-35.131 Z-0.200 I0.220 J7.588 K0.000 F150.000
G3 X33.348 Y-34.233 Z-0.200 I-3.335 J0.665 K0.000 F150.000
G3 X30.319 Y-34.253 Z-0.200 I-1.254 J-38.957 K0.000 F150.000
G3 X30.097 Y-34.289 Z-0.200 I0.006 J-0.746 K0.000 F150.000
G3 X30.119 Y-35.113 Z-0.200 I6.257 J-0.248 K0.000 F150.000
G0 Z1.000
G0 X30.196 Y-35.038 Z1.000
G0 X30.196 Y-35.038 Z0.500
G1 X30.196 Y-35.038 Z-0.200 F100.000
G1 X30.225 Y-35.039 Z-0.200 F150.000
G1 X30.225 Y-35.039 Z-0.200 F150.000
G2 X30.896 Y-35.116 Z-0.200 I0.142 J-1.724 K0.000 F150.000
G2 X31.178 Y-35.566 Z-0.200 I-0.218 J-0.450 K0.000 F150.000
G3 X31.197 Y-37.986 Z-0.200 I42.682 J-0.875 K0.000 F150.000
G3 X31.918 Y-37.981 Z-0.200 I0.303 J8.756 K0.000 F150.000
G3 X32.197 Y-37.961 Z-0.200 I-0.182 J4.387 K0.000 F150.000
G1 X32.197 Y-35.557 Z-0.200 F150.000
G2 X32.697 Y-35.057 Z-0.200 I0.500 J0.000 K0.000 F150.000
G3 X33.224 Y-35.053 Z-0.200 I0.220 J6.737 K0.000 F150.000
G3 X33.275 Y-34.313 Z-0.200 I-3.479 J0.612 K0.000 F150.000
G3 X30.326 Y-34.333 Z-0.200 I-1.217 J-38.084 K0.000 F150.000
G3 X30.173 Y-34.353 Z-0.200 I0.067 J-1.106 K0.000 F150.000
G3 X30.196 Y-35.038 Z-0.200 I13.732 J0.122 K0.000 F150.000
G0 Z1.000
G0 X30.273 Y-34.962 Z1.000
G0 X30.273 Y-34.962 Z0.500
G1 X30.273 Y-34.962 Z-0.200 F100.000
G2 X30.918 Y-35.038 Z-0.200 I0.118 J-1.765 K0.000 F150.000
G2 X31.258 Y-35.566 Z-0.200 I-0.240 J-0.528 K0.000 F150.000
G3 X31.274 Y-37.908 Z-0.200 I44.816 J-0.868 K0.000 F150.000
G3 X31.915 Y-37.901 Z-0.200 I0.223 J9.076 K0.000 F150.000
G3 X32.117 Y-37.888 Z-0.200 I-0.112 J3.181 K0.000 F150.000
G1 X32.117 Y-35.557 Z-0.200 F150.000
G2 X32.697 Y-34.977 Z-0.200 I0.580 J0.000 K0.000 F150.000
G3 X33.156 Y-34.976 Z-0.200 I0.219 J5.869 K0.000 F150.000
G3 X33.195 Y-34.393 Z-0.200 I-3.326 J0.517 K0.000 F150.000
G3 X30.252 Y-34.422 Z-0.200 I-1.182 J-29.599 K0.000 F150.000
G3 X30.273 Y-34.962 Z-0.200 I19.860 J0.497 K0.000 F150.000
G0 Z1.000
G0 X30.350 Y-34.886 Z1.000
G0 X30.350 Y-34.886 Z0.500
G1 X30.350 Y-34.886 Z-0.200 F100.000
G2 X30.928 Y-34.955 Z-0.200 I0.082 J-1.767 K0.000 F150.000
G2 X31.338 Y-35.566 Z-0.200 I-0.250 J-0.611 K0.000 F150.000
G3 X31.352 Y-37.830 Z-0.200 I44.928 J-0.867 K0.000 F150.000
G3 X31.911 Y-37.822 Z-0.200 I0.149 J8.872 K0.000 F150.000
G1 X32.037 Y-37.814 Z-0.200 F150.000
G1 X32.037 Y-35.557 Z-0.200 F150.000
G2 X32.697 Y-34.897 Z-0.200 I0.660 J0.000 K0.000 F150.000
G1 X33.085 Y-34.897 Z-0.200 F150.000
G3 X33.113 Y-34.473 Z-0.200 I-2.436 J0.372 K0.000 F150.000
G3 X30.334 Y-34.493 Z-0.200 I-1.135 J-35.203 K0.000 F150.000
G2 X30.350 Y-34.886 Z-0.200 I-184.392 J-7.836 K0.000 F150.000
G0 Z1.000
G0 X30.427 Y-34.811 Z1.000
G0 X30.427 Y-34.811 Z0.500
G1 X30.427 Y-34.811 Z-0.200 F100.000
G2 X31.301 Y-35.166 Z-0.200 I0.153 J-0.876 K0.000 F150.000
G2 X31.418 Y-35.566 Z-0.200 I-0.623 J-0.400 K0.000 F150.000
G3 X31.429 Y-37.751 Z-0.200 I46.510 J-0.862 K0.000 F150.000
G3 X31.957 Y-37.739 Z-0.200 I0.111 J6.654 K0.000 F150.000
G1 X31.957 Y-35.557 Z-0.200 F150.000
G2 X32.697 Y-34.817 Z-0.200 I0.740 J0.000 K0.000 F150.000
G1 X33.014 Y-34.817 Z-0.200 F150.000
G3 X33.030 Y-34.553 Z-0.200 I-1.516 J0.225 K0.000 F150.000
G3 X30.416 Y-34.568 Z-0.200 I-1.088 J-39.596 K0.000 F150.000
G3 X30.427 Y-34.811 Z-0.200 I13.757 J0.478 K0.000 F150.000
G0 Z1.000
G0 X30.504 Y-34.735 Z1.000
G0 X30.504 Y-34.735 Z0.500
G1 X30.504 Y-34.735 Z-0.200 F100.000
G2 X31.498 Y-35.566 Z-0.200 I0.132 J-0.852 K0.000 F150.000
G3 X31.507 Y-37.671 Z-0.200 I57.693 J-0.823 K0.000 F150.000
G3 X31.877 Y-37.662 Z-0.200 I0.029 J6.967 K0.000 F150.000
G1 X31.877 Y-35.557 Z-0.200 F150.000
G2 X32.697 Y-34.737 Z-0.200 I0.820 J-0.000 K0.000 F150.000
G1 X32.943 Y-34.737 Z-0.200 F150.000
G3 X32.947 Y-34.633 Z-0.200 I-0.596 J0.078 K0.000 F150.000
G3 X30.500 Y-34.644 Z-0.200 I-0.930 J-70.059 K0.000 F150.000
G1 X30.504 Y-34.735 Z-0.200 F150.000
G0 Z1.000
G0 X30.958 Y-34.714 Z1.000
G0 X30.958 Y-34.714 Z0.500
G1 X30.958 Y-34.714 Z-0.200 F100.000
G2 X31.578 Y-35.566 Z-0.200 I-0.271 J-0.849 K0.000 F150.000
G3 X31.585 Y-37.591 Z-0.200 I59.974 J-0.818 K0.000 F150.000
G1 X31.797 Y-37.585 Z-0.200 F150.000
G1 X31.797 Y-35.557 Z-0.200 F150.000
G2 X32.437 Y-34.713 Z-0.200 I0.839 J0.028 K0.000 F150.000
G3 X30.958 Y-34.714 Z-0.200 I-0.687 J-106.260 K0.000 F150.000
G0 Z1.000
G0 X31.274 Y-34.793 Z1.000
G0 X31.274 Y-34.793 Z0.500
G1 X31.274 Y-34.793 Z-0.200 F100.000
G2 X31.658 Y-35.566 Z-0.200 I-0.582 J-0.770 K0.000 F150.000
G3 X31.663 Y-37.508 Z-0.200 I61.546 J-0.815 K0.000 F150.000
G1 X31.717 Y-37.507 Z-0.200 F150.000
G1 X31.717 Y-35.557 Z-0.200 F150.000
G2 X32.091 Y-34.793 Z-0.200 I0.947 J0.010 K0.000 F150.000
G2 X31.274 Y-34.793 Z-0.200 I-0.156 J899.834 K0.000 F150.000
G0 Z1.000
G0 X31.476 Y-34.873 Z1.000
G0 X31.476 Y-34.873 Z0.500
G1 X31.476 Y-34.873 Z-0.200 F100.000
G2 X31.682 Y-35.257 Z-0.200 I-0.534 J-0.533 K0.000 F150.000
G2 X31.899 Y-34.873 Z-0.200 I0.794 J-0.195 K0.000 F150.000
G2 X31.476 Y-34.873 Z-0.200 I-0.061 J466.167 K0.000 F150.000
G0 Z1.000
G0 X31.628 Y-34.953 Z1.000
G0 X31.628 Y-34.953 Z0.500
G1 X31.628 Y-34.953 Z-0.200 F100.000
G1 X31.687 Y-35.040 Z-0.200 F150.000
G2 X31.735 Y-34.953 Z-0.200 I0.187 J-0.046 K0.000 F150.000
G1 X31.628 Y-34.953 Z-0.200 F150.000
G0 Z1.000
G0 Z1.000
G0 X31.628 Y-34.953
G0 X34.095 Y-35.810
G0 X34.095 Y-35.810 Z0.500
G1 X34.095 Y-35.810 Z-0.200 F100.000
G3 X34.088 Y-35.829 Z-0.200 I1.372 J-0.477 K0.000 F150.000
G3 X34.163 Y-37.719 Z-0.200 I3.064 J-0.824 K0.000 F150.000
G3 X35.509 Y-38.461 Z-0.200 I1.352 J0.860 K0.000 F150.000
G3 X36.417 Y-38.460 Z-0.200 I0.449 J6.340 K0.000 F150.000
G3 X38.001 Y-37.042 Z-0.200 I0.063 J1.523 K0.000 F150.000
G3 X37.832 Y-35.473 Z-0.200 I-2.611 J0.513 K0.000 F150.000
G3 X36.950 Y-34.888 Z-0.200 I-1.085 J-0.679 K0.000 F150.000
G3 X35.055 Y-34.894 Z-0.200 I-0.934 J-4.294 K0.000 F150.000
G3 X34.095 Y-35.810 Z-0.200 I0.411 J-1.393 K0.000 F150.000
G0 Z1.000
G0 X34.164 Y-35.834 Z1.000
G0 X34.164 Y-35.834 Z0.500
G1 X34.164 Y-35.834 Z-0.200 F100.000
G3 X34.094 Y-36.205 Z-0.200 I1.273 J-0.432 K0.000 F150.000
G3 X34.162 Y-37.490 Z-0.200 I3.543 J-0.458 K0.000 F150.000
G3 X35.211 Y-38.346 Z-0.200 I1.223 J0.429 K0.000 F150.000
G3 X36.411 Y-38.381 Z-0.200 I0.758 J5.407 K0.000 F150.000
G3 X37.921 Y-37.033 Z-0.200 I0.068 J1.444 K0.000 F150.000
G3 X37.763 Y-35.514 Z-0.200 I-2.541 J0.503 K0.000 F150.000
G3 X36.935 Y-34.967 Z-0.200 I-1.015 J-0.637 K0.000 F150.000
G3 X35.084 Y-34.969 Z-0.200 I-0.921 J-4.237 K0.000 F150.000
G3 X34.164 Y-35.834 Z-0.200 I0.353 J-1.298 K0.000 F150.000
G0 Z1.000
G0 X34.240 Y-35.860 Z1.000
G0 X34.240 Y-35.860 Z0.500
G1 X34.240 Y-35.860 Z-0.200 F100.000
G3 X34.174 Y-36.213 Z-0.200 I1.200 J-0.408 K0.000 F150.000
G3 X34.238 Y-37.466 Z-0.200 I3.475 J-0.450 K0.000 F150.000
G3 X35.225 Y-38.267 Z-0.200 I1.147 J0.404 K0.000 F150.000
G3 X36.404 Y-38.301 Z-0.200 I0.744 J5.333 K0.000 F150.000
G3 X37.841 Y-37.024 Z-0.200 I0.073 J1.365 K0.000 F150.000
G3 X37.694 Y-35.555 Z-0.200 I-2.473 J0.494 K0.000 F150.000
G3 X36.920 Y-35.046 Z-0.200 I-0.946 J-0.595 K0.000 F150.000
G3 X35.113 Y-35.043 Z-0.200 I-0.909 J-4.182 K0.000 F150.000
G3 X34.240 Y-35.860 Z-0.200 I0.327 J-1.224 K0.000 F150.000
G0 Z1.000
G0 X34.316 Y-35.886 Z1.000
G0 X34.316 Y-35.886 Z0.500
G1 X34.316 Y-35.886 Z-0.200 F100.000
G3 X34.254 Y-36.221 Z-0.200 I1.126 J-0.384 K0.000 F150.000
G3 X34.315 Y-37.441 Z-0.200 I3.409 J-0.441 K0.000 F150.000
G3 X35.307 Y-38.199 Z-0.200 I1.119 J0.438 K0.000 F150.000
G3 X36.398 Y-38.221 Z-0.200 I0.658 J5.475 K0.000 F150.000
G3 X37.762 Y-37.014 Z-0.200 I0.078 J1.286 K0.000 F150.000
G3 X37.625 Y-35.596 Z-0.200 I-2.406 J0.484 K0.000 F150.000
G3 X36.905 Y-35.125 Z-0.200 I-0.876 J-0.552 K0.000 F150.000
G3 X35.142 Y-35.118 Z-0.200 I-0.896 J-4.131 K0.000 F150.000
G3 X34.316 Y-35.886 Z-0.200 I0.301 J-1.151 K0.000 F150.000
G0 Z1.000
G0 X34.392 Y-35.912 Z1.000
G0 X34.392 Y-35.912 Z0.500
G1 X34.392 Y-35.912 Z-0.200 F100.000
G3 X34.333 Y-36.229 Z-0.200 I1.053 J-0.360 K0.000 F150.000
G3 X34.391 Y-37.417 Z-0.200 I3.344 J-0.433 K0.000 F150.000
G3 X35.385 Y-38.128 Z-0.200 I1.053 J0.421 K0.000 F150.000
G3 X36.391 Y-38.141 Z-0.200 I0.580 J5.802 K0.000 F150.000
G3 X37.682 Y-37.005 Z-0.200 I0.083 J1.207 K0.000 F150.000
G3 X37.557 Y-35.638 Z-0.200 I-2.342 J0.474 K0.000 F150.000
G3 X36.890 Y-35.203 Z-0.200 I-0.807 J-0.510 K0.000 F150.000
G3 X35.171 Y-35.193 Z-0.200 I-0.884 J-4.084 K0.000 F150.000
G3 X34.392 Y-35.912 Z-0.200 I0.274 J-1.079 K0.000 F150.000
G0 Z1.000
G0 X34.468 Y-35.938 Z1.000
G0 X34.468 Y-35.938 Z0.500
G1 X34.468 Y-35.938 Z-0.200 F100.000
G3 X34.413 Y-36.237 Z-0.200 I0.980 J-0.336 K0.000 F150.000
G3 X34.467 Y-37.393 Z-0.200 I3.280 J-0.425 K0.000 F150.000
G3 X35.394 Y-38.048 Z-0.200 I0.976 J0.397 K0.000 F150.000
G3 X36.385 Y-38.062 Z-0.200 I0.571 J5.722 K0.000 F150.000
G3 X37.603 Y-36.996 Z-0.200 I0.088 J1.128 K0.000 F150.000
G3 X37.488 Y-35.679 Z-0.200 I-2.281 J0.464 K0.000 F150.000
G3 X36.874 Y-35.282 Z-0.200 I-0.737 J-0.467 K0.000 F150.000
G3 X35.200 Y-35.268 Z-0.200 I-0.872 J-4.043 K0.000 F150.000
G3 X34.468 Y-35.938 Z-0.200 I0.248 J-1.006 K0.000 F150.000
G0 Z1.000
G0 X34.557 Y-35.965 Z1.000
G0 X34.557 Y-35.965 Z0.500
G1 X34.557 Y-35.965 Z-0.200 F100.000
G3 X34.656 Y-37.606 Z-0.200 I2.248 J-0.687 K0.000 F150.000
G3 X35.580 Y-37.984 Z-0.200 I0.893 J0.862 K0.000 F150.000
G2 X35.244 Y-36.854 Z-0.200 I1.030 J0.921 K0.000 F150.000
G2 X35.439 Y-35.599 Z-0.200 I3.256 J0.137 K0.000 F150.000
G2 X35.733 Y-35.282 Z-0.200 I0.620 J-0.279 K0.000 F150.000
G3 X34.603 Y-35.830 Z-0.200 I-0.103 J-1.227 K0.000 F150.000
G3 X34.557 Y-35.965 Z-0.200 I2.202 J-0.822 K0.000 F150.000
G0 Z1.000
G0 X34.627 Y-35.990 Z1.000
G0 X34.627 Y-35.990 Z0.500
G1 X34.627 Y-35.990 Z-0.200 F100.000
G3 X34.572 Y-36.254 Z-0.200 I0.880 J-0.321 K0.000 F150.000
G3 X34.620 Y-37.344 Z-0.200 I3.160 J-0.408 K0.000 F150.000
G3 X35.377 Y-37.885 Z-0.200 I0.816 J0.341 K0.000 F150.000
G2 X35.196 Y-36.335 Z-0.200 I2.214 J1.044 K0.000 F150.000
G2 X35.496 Y-35.374 Z-0.200 I1.571 J0.036 K0.000 F150.000
G3 X34.627 Y-35.990 Z-0.200 I0.011 J-0.937 K0.000 F150.000
G0 Z1.000
G0 X34.697 Y-36.015 Z1.000
G0 X34.697 Y-36.015 Z0.500
G1 X34.697 Y-36.015 Z-0.200 F100.000
G3 X34.652 Y-36.262 Z-0.200 I0.770 J-0.268 K0.000 F150.000
G3 X34.696 Y-37.320 Z-0.200 I3.104 J-0.400 K0.000 F150.000
G3 X35.226 Y-37.775 Z-0.200 I0.666 J0.239 K0.000 F150.000
G2 X35.173 Y-35.932 Z-0.200 I3.274 J1.018 K0.000 F150.000
G2 X35.324 Y-35.480 Z-0.200 I1.367 J-0.206 K0.000 F150.000
G3 X34.697 Y-36.015 Z-0.200 I0.142 J-0.802 K0.000 F150.000
G0 Z1.000
G0 X34.770 Y-36.040 Z1.000
G0 X34.770 Y-36.040 Z0.500
G1 X34.770 Y-36.040 Z-0.200 F100.000
G3 X34.732 Y-36.270 Z-0.200 I0.632 J-0.222 K0.000 F150.000
G3 X34.773 Y-37.295 Z-0.200 I3.052 J-0.392 K0.000 F150.000
G3 X35.087 Y-37.626 Z-0.200 I0.452 J0.115 K0.000 F150.000
G2 X35.167 Y-35.635 Z-0.200 I4.372 J0.821 K0.000 F150.000
G3 X34.770 Y-36.040 Z-0.200 I0.235 J-0.628 K0.000 F150.000
G0 Z1.000
G0 X34.846 Y-36.068 Z1.000
G0 X34.846 Y-36.068 Z0.500
G1 X34.846 Y-36.068 Z-0.200 F100.000
G3 X34.812 Y-36.278 Z-0.200 I0.557 J-0.200 K0.000 F150.000
G3 X34.849 Y-37.271 Z-0.200 I3.005 J-0.384 K0.000 F150.000
G3 X34.962 Y-37.462 Z-0.200 I0.323 J0.062 K0.000 F150.000
G2 X35.036 Y-35.804 Z-0.200 I5.097 J0.602 K0.000 F150.000
G3 X34.846 Y-36.068 Z-0.200 I0.367 J-0.464 K0.000 F150.000
G0 Z1.000
G0 X34.905 Y-36.088 Z1.000
G0 X34.905 Y-36.088 Z0.500
G1 X34.905 Y-36.088 Z-0.200 F100.000
G3 X34.843 Y-36.652 Z-0.200 I1.233 J-0.421 K0.000 F150.000
G3 X34.877 Y-37.138 Z-0.200 I2.172 J-0.091 K0.000 F150.000
G2 X34.954 Y-35.965 Z-0.200 I6.111 J0.191 K0.000 F150.000
G3 X34.905 Y-36.088 Z-0.200 I1.184 J-0.543 K0.000 F150.000
G0 Z1.000
G0 X35.367 Y-36.171 Z1.000
G0 X35.367 Y-36.171 Z0.500
G1 X35.367 Y-36.171 Z-0.200 F100.000
G3 X35.324 Y-37.051 Z-0.200 I3.329 J-0.603 K0.000 F150.000
G3 X35.767 Y-38.005 Z-0.200 I0.949 J-0.140 K0.000 F150.000
G3 X36.458 Y-37.745 Z-0.200 I0.199 J0.520 K0.000 F150.000
G3 X36.642 Y-35.811 Z-0.200 I-3.466 J1.305 K0.000 F150.000
G3 X35.512 Y-35.631 Z-0.200 I-0.586 J-0.046 K0.000 F150.000
G3 X35.367 Y-36.171 Z-0.200 I3.184 J-1.143 K0.000 F150.000
G0 Z1.000
G0 X35.446 Y-36.186 Z1.000
G0 X35.446 Y-36.186 Z0.500
G1 X35.446 Y-36.186 Z-0.200 F100.000
G3 X35.404 Y-37.050 Z-0.200 I3.257 J-0.590 K0.000 F150.000
G3 X35.795 Y-37.930 Z-0.200 I0.871 J-0.140 K0.000 F150.000
G3 X36.390 Y-37.702 Z-0.200 I0.171 J0.445 K0.000 F150.000
G3 X36.563 Y-35.825 Z-0.200 I-3.435 J1.263 K0.000 F150.000
G3 X35.586 Y-35.663 Z-0.200 I-0.507 J-0.032 K0.000 F150.000
G3 X35.446 Y-36.186 Z-0.200 I3.118 J-1.113 K0.000 F150.000
G0 Z1.000
G0 X35.607 Y-36.217 Z1.000
G0 X35.607 Y-36.217 Z0.500
G1 X35.607 Y-36.217 Z-0.200 F100.000
G3 X35.568 Y-37.137 Z-0.200 I3.081 J-0.591 K0.000 F150.000
G3 X35.851 Y-37.780 Z-0.200 I0.679 J-0.085 K0.000 F150.000
G3 X36.255 Y-37.616 Z-0.200 I0.117 J0.292 K0.000 F150.000
G3 X36.405 Y-35.853 Z-0.200 I-3.391 J1.177 K0.000 F150.000
G3 X35.762 Y-35.676 Z-0.200 I-0.347 J-0.002 K0.000 F150.000
G3 X35.607 Y-36.217 Z-0.200 I2.926 J-1.132 K0.000 F150.000
G0 Z1.000
G0 X35.679 Y-36.230 Z1.000
G0 X35.679 Y-36.230 Z0.500
G1 X35.679 Y-36.230 Z-0.200 F100.000
G3 X35.644 Y-37.050 Z-0.200 I2.768 J-0.528 K0.000 F150.000
G3 X35.878 Y-37.705 Z-0.200 I0.787 J-0.088 K0.000 F150.000
G3 X36.188 Y-37.573 Z-0.200 I0.090 J0.219 K0.000 F150.000
G3 X36.327 Y-35.867 Z-0.200 I-3.381 J1.135 K0.000 F150.000
G3 X35.826 Y-35.723 Z-0.200 I-0.268 J0.008 K0.000 F150.000
G3 X35.679 Y-36.230 Z-0.200 I2.621 J-1.035 K0.000 F150.000
G0 Z1.000
G0 X35.757 Y-36.244 Z1.000
G0 X35.757 Y-36.244 Z0.500
G1 X35.757 Y-36.244 Z-0.200 F100.000
G3 X35.728 Y-36.746 Z-0.200 I2.258 J-0.383 K0.000 F150.000
G3 X35.875 Y-37.611 Z-0.200 I1.405 J-0.206 K0.000 F150.000
G3 X36.079 Y-37.590 Z-0.200 I0.092 J0.113 K0.000 F150.000
G3 X36.248 Y-35.880 Z-0.200 I-2.893 J1.149 K0.000 F150.000
G3 X35.890 Y-35.771 Z-0.200 I-0.189 J0.021 K0.000 F150.000
G3 X35.757 Y-36.244 Z-0.200 I2.124 J-0.856 K0.000 F150.000
G0 Z1.000
G0 X35.528 Y-36.199 Z1.000
G0 X35.528 Y-36.199 Z0.500
G1 X35.528 Y-36.199 Z-0.200 F100.000
G3 X35.488 Y-37.140 Z-0.200 I3.088 J-0.605 K0.000 F150.000
G3 X35.823 Y-37.855 Z-0.200 I0.755 J-0.082 K0.000 F150.000
G3 X36.323 Y-37.659 Z-0.200 I0.145 J0.366 K0.000 F150.000
G3 X36.484 Y-35.839 Z-0.200 I-3.409 J1.220 K0.000 F150.000
G3 X35.697 Y-35.628 Z-0.200 I-0.426 J-0.015 K0.000 F150.000
G3 X35.528 Y-36.199 Z-0.200 I2.919 J-1.175 K0.000 F150.000
G0 Z1.000
G0 X36.758 Y-36.100 Z1.000
G0 X36.758 Y-36.100 Z0.500
G1 X36.758 Y-36.100 Z-0.200 F100.000
G2 X36.580 Y-37.676 Z-0.200 I-4.129 J-0.333 K0.000 F150.000
G2 X36.354 Y-37.983 Z-0.200 I-0.597 J0.203 K0.000 F150.000
G3 X37.523 Y-36.987 Z-0.200 I0.110 J1.055 K0.000 F150.000
G3 X37.419 Y-35.720 Z-0.200 I-2.224 J0.454 K0.000 F150.000
G3 X36.859 Y-35.361 Z-0.200 I-0.668 J-0.424 K0.000 F150.000
G1 X36.421 Y-35.308 Z-0.200 F150.000
G2 X36.741 Y-35.931 Z-0.200 I-0.472 J-0.637 K0.000 F150.000
G2 X36.758 Y-36.100 Z-0.200 I-4.112 J-0.502 K0.000 F150.000
G0 Z1.000
G0 X36.854 Y-36.092 Z1.000
G0 X36.854 Y-36.092 Z0.500
G1 X36.854 Y-36.092 Z-0.200 F100.000
G2 X36.838 Y-36.459 Z-0.200 I-1.576 J-0.118 K0.000 F150.000
G2 X36.656 Y-37.703 Z-0.200 I-3.061 J-0.186 K0.000 F150.000
G2 X36.558 Y-37.882 Z-0.200 I-0.488 J0.150 K0.000 F150.000
G3 X37.444 Y-36.977 Z-0.200 I-0.039 J0.924 K0.000 F150.000
G3 X37.350 Y-35.761 Z-0.200 I-2.172 J0.445 K0.000 F150.000
G3 X36.644 Y-35.416 Z-0.200 I-0.654 J-0.442 K0.000 F150.000
G2 X36.854 Y-36.092 Z-0.200 I-1.366 J-0.794 K0.000 F150.000
G0 Z1.000
G0 X37.068 Y-36.079 Z1.000
G0 X37.068 Y-36.079 Z0.500
G1 X37.068 Y-36.079 Z-0.200 F100.000
G2 X36.981 Y-37.463 Z-0.200 I-5.558 J-0.345 K0.000 F150.000
G3 X37.205 Y-36.950 Z-0.200 I-0.522 J0.533 K0.000 F150.000
G3 X37.136 Y-35.875 Z-0.200 I-1.941 J0.416 K0.000 F150.000
G3 X37.040 Y-35.772 Z-0.200 I-0.235 J-0.122 K0.000 F150.000
G2 X37.068 Y-36.079 Z-0.200 I-5.531 J-0.653 K0.000 F150.000
G0 Z1.000
G0 X37.120 Y-36.076 Z1.000
G0 X37.120 Y-36.076 Z0.500
G1 X37.120 Y-36.076 Z-0.200 F100.000
G2 X37.064 Y-37.274 Z-0.200 I-6.070 J-0.316 K0.000 F150.000
G3 X37.113 Y-35.959 Z-0.200 I-2.364 J0.746 K0.000 F150.000
G2 X37.120 Y-36.076 Z-0.200 I-6.063 J-0.434 K0.000 F150.000
G0 Z1.000
G0 X36.982 Y-36.087 Z1.000
G0 X36.982 Y-36.087 Z0.500
G1 X36.982 Y-36.087 Z-0.200 F100.000
G2 X36.849 Y-37.640 Z-0.200 I-4.794 J-0.372 K0.000 F150.000
G3 X37.284 Y-36.959 Z-0.200 I-0.324 J0.686 K0.000 F150.000
G3 X37.208 Y-35.837 Z-0.200 I-2.020 J0.425 K0.000 F150.000
G3 X36.924 Y-35.627 Z-0.200 I-0.388 J-0.227 K0.000 F150.000
G2 X36.982 Y-36.087 Z-0.200 I-4.736 J-0.832 K0.000 F150.000
G0 Z1.000
G0 X36.908 Y-36.095 Z1.000
G0 X36.908 Y-36.095 Z0.500
G1 X36.908 Y-36.095 Z-0.200 F100.000
G2 X36.874 Y-37.131 Z-0.200 I-3.634 J-0.401 K0.000 F150.000
G2 X36.706 Y-37.780 Z-0.200 I-2.014 J0.175 K0.000 F150.000
G3 X37.364 Y-36.968 Z-0.200 I-0.174 J0.813 K0.000 F150.000
G3 X37.279 Y-35.800 Z-0.200 I-2.100 J0.435 K0.000 F150.000
G3 X36.795 Y-35.514 Z-0.200 I-0.529 J-0.344 K0.000 F150.000
G2 X36.908 Y-36.095 Z-0.200 I-3.522 J-0.982 K0.000 F150.000
G0 Z1.000
G0 Z1.000
G0 X36.908 Y-36.095
G0 X38.628 Y-36.323
G0 X38.628 Y-36.323 Z0.500
G1 X38.628 Y-36.323 Z-0.200 F100.000
G3 X38.501 Y-38.487 Z-0.200 I14.740 J-1.952 K0.000 F150.000
G3 X38.598 Y-38.556 Z-0.200 I0.070 J-0.005 K0.000 F150.000
G3 X40.085 Y-38.621 Z-0.200 I1.070 J7.381 K0.000 F150.000
G2 X40.351 Y-36.041 Z-0.200 I36.994 J-2.521 K0.000 F150.000
G2 X40.667 Y-36.073 Z-0.200 I0.156 J-0.035 K0.000 F150.000
G2 X40.657 Y-37.759 Z-0.200 I-6.837 J-0.804 K0.000 F150.000
G3 X40.636 Y-38.742 Z-0.200 I3.674 J-0.569 K0.000 F150.000
G3 X41.615 Y-38.843 Z-0.200 I0.785 J2.826 K0.000 F150.000
G1 X42.228 Y-38.851 Z-0.200 F150.000
G3 X42.351 Y-35.775 Z-0.200 I-18.101 J2.267 K0.000 F150.000
G3 X42.150 Y-35.399 Z-0.200 I-0.445 J0.003 K0.000 F150.000
G3 X41.403 Y-35.198 Z-0.200 I-0.611 J-0.784 K0.000 F150.000
G3 X40.497 Y-35.344 Z-0.200 I-0.060 J-2.501 K0.000 F150.000
G3 X39.382 Y-35.105 Z-0.200 I-0.887 J-1.415 K0.000 F150.000
G3 X38.864 Y-35.196 Z-0.200 I-0.051 J-1.227 K0.000 F150.000
G3 X38.663 Y-36.074 Z-0.200 I1.656 J-0.839 K0.000 F150.000
G3 X38.628 Y-36.323 Z-0.200 I14.704 J-2.202 K0.000 F150.000
G0 Z1.000
G0 X38.708 Y-36.334 Z1.000
G0 X38.708 Y-36.334 Z0.500
G1 X38.708 Y-36.334 Z-0.200 F100.000
G3 X38.580 Y-38.470 Z-0.200 I14.926 J-1.965 K0.000 F150.000
G3 X40.012 Y-38.541 Z-0.200 I1.020 J6.069 K0.000 F150.000
G2 X40.275 Y-36.017 Z-0.200 I34.270 J-2.294 K0.000 F150.000
G2 X40.745 Y-36.055 Z-0.200 I0.232 J-0.058 K0.000 F150.000
G2 X40.737 Y-37.764 Z-0.200 I-6.882 J-0.823 K0.000 F150.000
G3 X40.699 Y-38.684 Z-0.200 I6.434 J-0.729 K0.000 F150.000
G3 X42.157 Y-38.770 Z-0.200 I1.074 J5.828 K0.000 F150.000
G3 X42.272 Y-35.787 Z-0.200 I-17.960 J2.186 K0.000 F150.000
G3 X42.100 Y-35.462 Z-0.200 I-0.369 J0.012 K0.000 F150.000
G3 X41.403 Y-35.278 Z-0.200 I-0.564 J-0.724 K0.000 F150.000
G3 X40.721 Y-35.368 Z-0.200 I-0.102 J-1.848 K0.000 F150.000
G1 X40.721 Y-35.368 Z-0.200 F150.000
G2 X40.166 Y-35.267 Z-0.200 I-0.208 J0.435 K0.000 F150.000
G3 X38.919 Y-35.258 Z-0.200 I-0.642 J-2.375 K0.000 F150.000
G3 X38.743 Y-36.083 Z-0.200 I1.658 J-0.786 K0.000 F150.000
G3 X38.708 Y-36.334 Z-0.200 I14.891 J-2.216 K0.000 F150.000
G0 Z1.000
G0 X38.775 Y-36.341 Z1.000
G0 X38.775 Y-36.341 Z0.500
G1 X38.775 Y-36.341 Z-0.200 F100.000
G3 X38.743 Y-36.893 Z-0.200 I5.954 J-0.625 K0.000 F150.000
G3 X38.655 Y-38.403 Z-0.200 I10.973 J-1.401 K0.000 F150.000
G3 X39.940 Y-38.460 Z-0.200 I0.940 J6.600 K0.000 F150.000
G2 X40.199 Y-35.993 Z-0.200 I31.891 J-2.099 K0.000 F150.000
G2 X40.823 Y-36.038 Z-0.200 I0.308 J-0.083 K0.000 F150.000
G2 X40.817 Y-37.769 Z-0.200 I-6.928 J-0.841 K0.000 F150.000
G3 X40.784 Y-38.625 Z-0.200 I3.833 J-0.578 K0.000 F150.000
G3 X42.086 Y-38.689 Z-0.200 I1.081 J8.780 K0.000 F150.000
G3 X42.193 Y-35.798 Z-0.200 I-17.865 J2.106 K0.000 F150.000
G3 X42.051 Y-35.525 Z-0.200 I-0.293 J0.021 K0.000 F150.000
G3 X41.261 Y-35.361 Z-0.200 I-0.613 J-0.967 K0.000 F150.000
G3 X40.596 Y-35.496 Z-0.200 I-0.014 J-1.638 K0.000 F150.000
G2 X40.135 Y-35.341 Z-0.200 I0.057 J0.934 K0.000 F150.000
G3 X38.972 Y-35.326 Z-0.200 I-0.614 J-2.344 K0.000 F150.000
G3 X38.775 Y-36.341 Z-0.200 I5.757 J-1.640 K0.000 F150.000
G0 Z1.000
G0 X39.351 Y-36.404 Z1.000
G0 X39.351 Y-36.404 Z0.500
G1 X39.351 Y-36.404 Z-0.200 F100.000
G3 X39.225 Y-37.890 Z-0.200 I30.072 J-3.313 K0.000 F150.000
G3 X39.434 Y-37.895 Z-0.200 I0.248 J5.434 K0.000 F150.000
G3 X39.573 Y-36.337 Z-0.200 I-41.128 J4.470 K0.000 F150.000
G1 X39.573 Y-36.337 Z-0.200 F150.000
G2 X39.662 Y-35.833 Z-0.200 I1.553 J-0.015 K0.000 F150.000
G3 X39.421 Y-35.824 Z-0.200 I-0.178 J-1.633 K0.000 F150.000
G3 X39.351 Y-36.404 Z-0.200 I30.002 J-3.893 K0.000 F150.000
G0 Z1.000
G0 X39.276 Y-36.396 Z1.000
G0 X39.276 Y-36.396 Z0.500
G1 X39.276 Y-36.396 Z-0.200 F100.000
G3 X39.140 Y-37.967 Z-0.200 I35.608 J-3.867 K0.000 F150.000
G3 X39.506 Y-37.976 Z-0.200 I0.406 J9.513 K0.000 F150.000
G2 X39.701 Y-35.976 Z-0.200 I72.248 J-6.039 K0.000 F150.000
G2 X39.792 Y-35.762 Z-0.200 I0.530 J-0.097 K0.000 F150.000
G3 X39.352 Y-35.748 Z-0.200 I-0.289 J-2.220 K0.000 F150.000
G3 X39.276 Y-36.396 Z-0.200 I35.532 J-4.515 K0.000 F150.000
G0 Z1.000
G0 X39.197 Y-36.387 Z1.000
G0 X39.197 Y-36.387 Z0.500
G1 X39.197 Y-36.387 Z-0.200 F100.000
G3 X39.056 Y-38.044 Z-0.200 I33.037 J-3.636 K0.000 F150.000
G3 X39.578 Y-38.057 Z-0.200 I0.541 J11.203 K0.000 F150.000
G2 X39.777 Y-36.000 Z-0.200 I93.654 J-8.029 K0.000 F150.000
G2 X39.919 Y-35.697 Z-0.200 I0.756 J-0.167 K0.000 F150.000
G3 X39.283 Y-35.672 Z-0.200 I-0.419 J-2.583 K0.000 F150.000
G3 X39.197 Y-36.387 Z-0.200 I32.951 J-4.351 K0.000 F150.000
G0 Z1.000
G0 X39.116 Y-36.378 Z1.000
G0 X39.116 Y-36.378 Z0.500
G1 X39.116 Y-36.378 Z-0.200 F100.000
G3 X38.975 Y-38.119 Z-0.200 I28.943 J-3.231 K0.000 F150.000
G3 X39.651 Y-38.137 Z-0.200 I0.665 J11.923 K0.000 F150.000
G2 X39.854 Y-36.024 Z-0.200 I132.220 J-11.640 K0.000 F150.000
G2 X40.040 Y-35.657 Z-0.200 I0.701 J-0.124 K0.000 F150.000
G3 X39.861 Y-35.606 Z-0.200 I-0.181 J-0.295 K0.000 F150.000
G3 X39.214 Y-35.600 Z-0.200 I-0.347 J-2.510 K0.000 F150.000
G3 X39.116 Y-36.378 Z-0.200 I28.846 J-4.010 K0.000 F150.000
G0 Z1.000
G0 X39.030 Y-36.368 Z1.000
G0 X39.030 Y-36.368 Z0.500
G1 X39.030 Y-36.368 Z-0.200 F100.000
G3 X38.912 Y-38.194 Z-0.200 I18.328 J-2.102 K0.000 F150.000
G3 X39.723 Y-38.218 Z-0.200 I0.657 J8.550 K0.000 F150.000
G2 X39.930 Y-36.048 Z-0.200 I223.325 J-20.216 K0.000 F150.000
G2 X40.177 Y-35.643 Z-0.200 I0.612 J-0.096 K0.000 F150.000
G3 X39.870 Y-35.526 Z-0.200 I-0.342 J-0.436 K0.000 F150.000
G3 X39.146 Y-35.528 Z-0.200 I-0.357 J-2.603 K0.000 F150.000
G3 X39.030 Y-36.368 Z-0.200 I18.212 J-2.943 K0.000 F150.000
G0 Z1.000
G0 X38.960 Y-36.360 Z1.000
G0 X38.960 Y-36.360 Z0.500
G1 X38.960 Y-36.360 Z-0.200 F100.000
G3 X38.810 Y-38.263 Z-0.200 I26.661 J-3.060 K0.000 F150.000
G3 X39.795 Y-38.299 Z-0.200 I0.727 J6.421 K0.000 F150.000
G2 X40.046 Y-35.945 Z-0.200 I27.902 J-1.784 K0.000 F150.000
G2 X40.351 Y-35.626 Z-0.200 I0.524 J-0.195 K0.000 F150.000
G2 X40.067 Y-35.487 Z-0.200 I0.366 J1.110 K0.000 F150.000
G3 X39.076 Y-35.473 Z-0.200 I-0.522 J-1.990 K0.000 F150.000
G3 X38.960 Y-36.360 Z-0.200 I26.544 J-3.947 K0.000 F150.000
G0 Z1.000
G0 X38.881 Y-36.351 Z1.000
G0 X38.881 Y-36.351 Z0.500
G1 X38.881 Y-36.351 Z-0.200 F100.000
G3 X38.730 Y-38.332 Z-0.200 I24.067 J-2.827 K0.000 F150.000
G3 X39.868 Y-38.379 Z-0.200 I0.830 J6.296 K0.000 F150.000
G2 X40.122 Y-35.969 Z-0.200 I29.786 J-1.931 K0.000 F150.000
G2 X40.901 Y-36.020 Z-0.200 I0.384 J-0.106 K0.000 F150.000
G2 X40.897 Y-37.774 Z-0.200 I-6.977 J-0.860 K0.000 F150.000
G3 X40.852 Y-38.555 Z-0.200 I42.428 J-2.803 K0.000 F150.000
G3 X42.015 Y-38.608 Z-0.200 I0.993 J9.019 K0.000 F150.000
G3 X42.113 Y-35.810 Z-0.200 I-17.830 J2.026 K0.000 F150.000
G3 X41.737 Y-35.455 Z-0.200 I-0.429 J-0.077 K0.000 F150.000
G3 X40.604 Y-35.576 Z-0.200 I-0.349 J-2.107 K0.000 F150.000
G2 X40.092 Y-35.411 Z-0.200 I0.091 J1.158 K0.000 F150.000
G3 X39.009 Y-35.418 Z-0.200 I-0.529 J-1.863 K0.000 F150.000
G3 X38.881 Y-36.351 Z-0.200 I23.939 J-3.760 K0.000 F150.000
G0 Z1.000
G0 X39.434 Y-36.409 Z1.000
G0 X39.434 Y-36.409 Z0.500
G1 X39.434 Y-36.409 Z-0.200 F100.000
G3 X39.310 Y-37.812 Z-0.200 I43.120 J-4.520 K0.000 F150.000
G1 X39.361 Y-37.814 Z-0.200 F150.000
G2 X39.556 Y-35.905 Z-0.200 I27.267 J-1.812 K0.000 F150.000
G3 X39.490 Y-35.903 Z-0.200 I-0.050 J-0.490 K0.000 F150.000
G3 X39.434 Y-36.409 Z-0.200 I43.064 J-5.026 K0.000 F150.000
G0 Z1.000
G0 X40.674 Y-35.639 Z1.000
G0 X40.674 Y-35.639 Z0.500
G1 X40.674 Y-35.639 Z-0.200 F100.000
G2 X41.017 Y-36.223 Z-0.200 I-0.267 J-0.550 K0.000 F150.000
G2 X40.940 Y-38.485 Z-0.200 I-31.339 J-0.064 K0.000 F150.000
G3 X41.944 Y-38.527 Z-0.200 I0.931 J10.319 K0.000 F150.000
G3 X42.004 Y-35.701 Z-0.200 I-15.394 J1.740 K0.000 F150.000
G3 X41.402 Y-35.518 Z-0.200 I-0.474 J-0.478 K0.000 F150.000
G3 X40.674 Y-35.639 Z-0.200 I-0.108 J-1.599 K0.000 F150.000
G0 Z1.000
G0 X40.862 Y-35.659 Z1.000
G0 X40.862 Y-35.659 Z0.500
G1 X40.862 Y-35.659 Z-0.200 F100.000
G2 X41.114 Y-36.618 Z-0.200 I-1.025 J-0.781 K0.000 F150.000
G2 X41.020 Y-38.412 Z-0.200 I-65.869 J2.557 K0.000 F150.000
G3 X41.873 Y-38.446 Z-0.200 I0.817 J9.944 K0.000 F150.000
G3 X41.932 Y-35.743 Z-0.200 I-15.939 J1.700 K0.000 F150.000
G3 X41.402 Y-35.598 Z-0.200 I-0.405 J-0.439 K0.000 F150.000
G3 X40.862 Y-35.659 Z-0.200 I-0.103 J-1.509 K0.000 F150.000
G0 Z1.000
G0 X40.997 Y-35.708 Z1.000
G0 X40.997 Y-35.708 Z0.500
G1 X40.997 Y-35.708 Z-0.200 F100.000
G2 X41.194 Y-36.619 Z-0.200 I-1.188 J-0.734 K0.000 F150.000
G2 X41.104 Y-38.339 Z-0.200 I-61.796 J2.367 K0.000 F150.000
G3 X41.802 Y-38.365 Z-0.200 I0.693 J9.203 K0.000 F150.000
G3 X41.852 Y-35.778 Z-0.200 I-16.176 J1.610 K0.000 F150.000
G3 X41.111 Y-35.693 Z-0.200 I-0.473 J-0.854 K0.000 F150.000
G1 X40.997 Y-35.708 Z-0.200 F150.000
G0 Z1.000
G0 X41.147 Y-35.771 Z1.000
G0 X41.147 Y-35.771 Z0.500
G1 X41.147 Y-35.771 Z-0.200 F100.000
G2 X41.270 Y-36.842 Z-0.200 I-2.279 J-0.804 K0.000 F150.000
G2 X41.188 Y-38.265 Z-0.200 I-265.044 J14.435 K0.000 F150.000
G3 X41.733 Y-38.261 Z-0.200 I0.264 J1.107 K0.000 F150.000
G1 X41.746 Y-38.140 Z-0.200 F150.000
G3 X41.789 Y-35.833 Z-0.200 I-19.926 J1.528 K0.000 F150.000
G3 X41.147 Y-35.771 Z-0.200 I-0.399 J-0.784 K0.000 F150.000
G0 Z1.000
G0 X41.263 Y-35.842 Z1.000
G0 X41.263 Y-35.842 Z0.500
G1 X41.263 Y-35.842 Z-0.200 F100.000
G2 X41.296 Y-37.798 Z-0.200 I-5.835 J-1.077 K0.000 F150.000
G3 X41.273 Y-38.190 Z-0.200 I138.536 J-8.394 K0.000 F150.000
G3 X41.659 Y-38.203 Z-0.200 I0.484 J8.758 K0.000 F150.000
G3 X41.716 Y-35.881 Z-0.200 I-19.714 J1.649 K0.000 F150.000
G3 X41.598 Y-35.843 Z-0.200 I-0.100 J-0.108 K0.000 F150.000
G3 X41.263 Y-35.842 Z-0.200 I-0.171 J-2.087 K0.000 F150.000
G0 Z1.000
G0 X41.370 Y-35.919 Z1.000
G0 X41.370 Y-35.919 Z0.500
G1 X41.370 Y-35.919 Z-0.200 F100.000
G2 X41.376 Y-37.803 Z-0.200 I-7.317 J-0.964 K0.000 F150.000
G1 X41.357 Y-38.114 Z-0.200 F150.000
G3 X41.587 Y-38.122 Z-0.200 I0.295 J5.293 K0.000 F150.000
G3 X41.639 Y-35.928 Z-0.200 I-21.726 J1.613 K0.000 F150.000
G3 X41.370 Y-35.919 Z-0.200 I-0.203 J-2.108 K0.000 F150.000
G0 Z1.000
G0 X41.468 Y-36.000 Z1.000
G0 X41.468 Y-36.000 Z0.500
G1 X41.468 Y-36.000 Z-0.200 F100.000
G2 X41.442 Y-38.038 Z-0.200 I-9.015 J-0.903 K0.000 F150.000
G3 X41.516 Y-37.996 Z-0.200 I0.036 J0.022 K0.000 F150.000
G1 X41.521 Y-37.933 Z-0.200 F150.000
G3 X41.563 Y-36.002 Z-0.200 I-24.747 J1.499 K0.000 F150.000
G1 X41.468 Y-36.000 Z-0.200 F150.000
G0 Z1.000
G0 Z1.000
G0 X41.468 Y-36.000
G0 X43.026 Y-36.585
G0 X43.026 Y-36.585 Z0.500
G1 X43.026 Y-36.585 Z-0.200 F100.000
G3 X42.985 Y-38.399 Z-0.200 I2.573 J-0.966 K0.000 F150.000
G3 X43.833 Y-39.129 Z-0.200 I1.463 J0.842 K0.000 F150.000
G3 X45.659 Y-39.347 Z-0.200 I1.325 J3.344 K0.000 F150.000
G1 X45.758 Y-39.340 Z-0.200 F150.000
G3 X46.139 Y-39.267 Z-0.200 I0.083 J0.597 K0.000 F150.000
G3 X45.925 Y-38.258 Z-0.200 I-1.331 J0.245 K0.000 F150.000
G3 X45.528 Y-38.284 Z-0.200 I-0.145 J-0.832 K0.000 F150.000
G2 X44.950 Y-38.385 Z-0.200 I-0.807 J2.901 K0.000 F150.000
G2 X44.488 Y-38.054 Z-0.200 I0.020 J0.516 K0.000 F150.000
G2 X44.732 Y-37.883 Z-0.200 I0.213 J-0.043 K0.000 F150.000
G3 X45.991 Y-37.744 Z-0.200 I-0.528 J10.616 K0.000 F150.000
G3 X46.627 Y-37.097 Z-0.200 I-0.171 J0.805 K0.000 F150.000
G3 X46.072 Y-35.871 Z-0.200 I-0.882 J0.339 K0.000 F150.000
G3 X43.792 Y-35.730 Z-0.200 I-1.322 J-2.859 K0.000 F150.000
G3 X43.133 Y-36.337 Z-0.200 I0.477 J-1.177 K0.000 F150.000
G3 X43.026 Y-36.585 Z-0.200 I2.466 J-1.214 K0.000 F150.000
G0 Z1.000
G0 X43.101 Y-36.613 Z1.000
G0 X43.101 Y-36.613 Z0.500
G1 X43.101 Y-36.613 Z-0.200 F100.000
G3 X43.058 Y-38.367 Z-0.200 I2.497 J-0.939 K0.000 F150.000
G3 X43.865 Y-39.056 Z-0.200 I1.390 J0.812 K0.000 F150.000
G3 X45.655 Y-39.267 Z-0.200 I1.293 J3.268 K0.000 F150.000
G1 X45.751 Y-39.260 Z-0.200 F150.000
G3 X46.082 Y-39.190 Z-0.200 I0.077 J0.450 K0.000 F150.000
G3 X45.872 Y-38.323 Z-0.200 I-1.252 J0.155 K0.000 F150.000
G3 X45.145 Y-38.445 Z-0.200 I0.044 J-2.497 K0.000 F150.000
G2 X44.409 Y-38.026 Z-0.200 I-0.179 J0.542 K0.000 F150.000
G2 X44.900 Y-37.786 Z-0.200 I0.395 J-0.184 K0.000 F150.000
G3 X46.092 Y-37.627 Z-0.200 I0.155 J3.386 K0.000 F150.000
G3 X46.550 Y-37.073 Z-0.200 I-0.262 J0.683 K0.000 F150.000
G3 X46.038 Y-35.943 Z-0.200 I-0.807 J0.315 K0.000 F150.000
G3 X43.821 Y-35.804 Z-0.200 I-1.288 J-2.789 K0.000 F150.000
G3 X43.205 Y-36.374 Z-0.200 I0.444 J-1.099 K0.000 F150.000
G3 X43.101 Y-36.613 Z-0.200 I2.394 J-1.178 K0.000 F150.000
G0 Z1.000
G0 X43.177 Y-36.641 Z1.000
G0 X43.177 Y-36.641 Z0.500
G1 X43.177 Y-36.641 Z-0.200 F100.000
G3 X43.132 Y-38.335 Z-0.200 I2.422 J-0.911 K0.000 F150.000
G3 X43.896 Y-38.982 Z-0.200 I1.317 J0.782 K0.000 F150.000
G3 X45.650 Y-39.187 Z-0.200 I1.262 J3.192 K0.000 F150.000
G1 X45.745 Y-39.181 Z-0.200 F150.000
G3 X46.002 Y-39.150 Z-0.200 I-0.107 J1.994 K0.000 F150.000
G3 X45.841 Y-38.402 Z-0.200 I-1.396 J0.090 K0.000 F150.000
G3 X44.929 Y-38.544 Z-0.200 I2.182 J-17.085 K0.000 F150.000
G2 X44.328 Y-38.048 Z-0.200 I0.025 J0.643 K0.000 F150.000
G2 X44.716 Y-37.723 Z-0.200 I0.356 J-0.031 K0.000 F150.000
G3 X45.948 Y-37.590 Z-0.200 I-0.537 J10.725 K0.000 F150.000
G3 X46.473 Y-37.050 Z-0.200 I-0.130 J0.653 K0.000 F150.000
G3 X46.003 Y-36.016 Z-0.200 I-0.732 J0.292 K0.000 F150.000
G3 X43.851 Y-35.879 Z-0.200 I-1.253 J-2.719 K0.000 F150.000
G3 X43.276 Y-36.411 Z-0.200 I0.412 J-1.021 K0.000 F150.000
G3 X43.177 Y-36.641 Z-0.200 I2.322 J-1.141 K0.000 F150.000
G0 Z1.000
G0 X43.252 Y-36.670 Z1.000
G0 X43.252 Y-36.670 Z0.500
G1 X43.252 Y-36.670 Z-0.200 F100.000
G3 X43.206 Y-38.304 Z-0.200 I2.346 J-0.883 K0.000 F150.000
G3 X43.928 Y-38.909 Z-0.200 I1.245 J0.753 K0.000 F150.000
G3 X45.646 Y-39.107 Z-0.200 I1.231 J3.116 K0.000 F150.000
G1 X45.739 Y-39.101 Z-0.200 F150.000
G3 X45.923 Y-39.082 Z-0.200 I-0.242 J3.221 K0.000 F150.000
G3 X45.783 Y-38.485 Z-0.200 I-1.151 J0.047 K0.000 F150.000
G2 X44.798 Y-38.607 Z-0.200 I-0.828 J2.640 K0.000 F150.000
G2 X44.249 Y-38.020 Z-0.200 I0.104 J0.648 K0.000 F150.000
G2 X44.708 Y-37.644 Z-0.200 I0.453 J-0.084 K0.000 F150.000
G3 X45.926 Y-37.513 Z-0.200 I-0.542 J10.793 K0.000 F150.000
G3 X46.397 Y-37.027 Z-0.200 I-0.110 J0.578 K0.000 F150.000
G3 X45.969 Y-36.088 Z-0.200 I-0.657 J0.268 K0.000 F150.000
G3 X43.881 Y-35.953 Z-0.200 I-1.219 J-2.649 K0.000 F150.000
G3 X43.348 Y-36.448 Z-0.200 I0.379 J-0.943 K0.000 F150.000
G3 X43.252 Y-36.670 Z-0.200 I2.250 J-1.105 K0.000 F150.000
G0 Z1.000
G0 X43.327 Y-36.698 Z1.000
G0 X43.327 Y-36.698 Z0.500
G1 X43.327 Y-36.698 Z-0.200 F100.000
G3 X43.280 Y-38.272 Z-0.200 I2.271 J-0.856 K0.000 F150.000
G3 X43.960 Y-38.835 Z-0.200 I1.173 J0.725 K0.000 F150.000
G3 X45.642 Y-39.027 Z-0.200 I1.200 J3.040 K0.000 F150.000
G1 X45.733 Y-39.021 Z-0.200 F150.000
G3 X45.843 Y-39.011 Z-0.200 I-0.129 J1.939 K0.000 F150.000
G3 X45.742 Y-38.572 Z-0.200 I-1.150 J-0.035 K0.000 F150.000
G2 X44.908 Y-38.702 Z-0.200 I-0.955 J3.370 K0.000 F150.000
G2 X44.168 Y-38.042 Z-0.200 I0.040 J0.789 K0.000 F150.000
G2 X44.568 Y-37.587 Z-0.200 I0.481 J-0.020 K0.000 F150.000
G2 X44.303 Y-36.748 Z-0.200 I0.300 J0.555 K0.000 F150.000
G2 X44.908 Y-36.149 Z-0.200 I0.673 J-0.073 K0.000 F150.000
G2 X45.461 Y-36.786 Z-0.200 I-0.024 J-0.579 K0.000 F150.000
G2 X45.076 Y-37.534 Z-0.200 I-0.925 J0.003 K0.000 F150.000
G3 X46.002 Y-37.404 Z-0.200 I0.086 J2.753 K0.000 F150.000
G3 X46.369 Y-36.710 Z-0.200 I-0.349 J0.629 K0.000 F150.000
G3 X45.750 Y-36.083 Z-0.200 I-0.807 J-0.179 K0.000 F150.000
G3 X44.198 Y-35.939 Z-0.200 I-1.061 J-2.995 K0.000 F150.000
G3 X43.419 Y-36.485 Z-0.200 I0.114 J-0.990 K0.000 F150.000
G3 X43.327 Y-36.698 Z-0.200 I2.178 J-1.069 K0.000 F150.000
G0 Z1.000
G0 X43.402 Y-36.726 Z1.000
G0 X43.402 Y-36.726 Z0.500
G1 X43.402 Y-36.726 Z-0.200 F100.000
G3 X43.354 Y-38.240 Z-0.200 I2.196 J-0.828 K0.000 F150.000
G3 X44.294 Y-38.876 Z-0.200 I1.299 J0.909 K0.000 F150.000
G3 X45.726 Y-38.941 Z-0.200 I0.902 J4.043 K0.000 F150.000
G1 X45.763 Y-38.938 Z-0.200 F150.000
G3 X45.688 Y-38.662 Z-0.200 I-1.164 J-0.167 K0.000 F150.000
G2 X44.897 Y-38.782 Z-0.200 I-0.856 J2.988 K0.000 F150.000
G2 X44.088 Y-38.039 Z-0.200 I0.048 J0.865 K0.000 F150.000
G2 X44.390 Y-37.572 Z-0.200 I0.513 J0.000 K0.000 F150.000
G2 X44.228 Y-36.722 Z-0.200 I0.494 J0.534 K0.000 F150.000
G2 X44.896 Y-36.069 Z-0.200 I0.748 J-0.097 K0.000 F150.000
G2 X45.541 Y-36.795 Z-0.200 I-0.011 J-0.659 K0.000 F150.000
G2 X45.299 Y-37.436 Z-0.200 I-0.985 J0.004 K0.000 F150.000
G3 X46.046 Y-37.293 Z-0.200 I0.092 J1.538 K0.000 F150.000
G3 X46.170 Y-36.424 Z-0.200 I-0.392 J0.499 K0.000 F150.000
G3 X45.306 Y-36.048 Z-0.200 I-1.007 J-1.135 K0.000 F150.000
G3 X44.216 Y-36.017 Z-0.200 I-0.615 J-2.440 K0.000 F150.000
G3 X43.491 Y-36.522 Z-0.200 I0.094 J-0.909 K0.000 F150.000
G3 X43.402 Y-36.726 Z-0.200 I2.107 J-1.033 K0.000 F150.000
G0 Z1.000
G0 X43.467 Y-36.749 Z1.000
G0 X43.467 Y-36.749 Z0.500
G1 X43.467 Y-36.749 Z-0.200 F100.000
G3 X43.422 Y-36.926 Z-0.200 I0.980 J-0.345 K0.000 F150.000
G3 X43.488 Y-38.319 Z-0.200 I1.718 J-0.617 K0.000 F150.000
G3 X45.238 Y-38.881 Z-0.200 I1.485 J1.620 K0.000 F150.000
G3 X45.667 Y-38.865 Z-0.200 I-0.005 J6.028 K0.000 F150.000
G3 X45.634 Y-38.752 Z-0.200 I-0.487 J-0.082 K0.000 F150.000
G2 X44.766 Y-38.845 Z-0.200 I-0.620 J1.708 K0.000 F150.000
G2 X44.009 Y-38.012 Z-0.200 I0.143 J0.891 K0.000 F150.000
G2 X44.262 Y-37.555 Z-0.200 I0.548 J-0.006 K0.000 F150.000
G2 X44.153 Y-36.695 Z-0.200 I0.638 J0.518 K0.000 F150.000
G2 X44.607 Y-36.067 Z-0.200 I0.899 J-0.171 K0.000 F150.000
G3 X43.467 Y-36.749 Z-0.200 I-0.159 J-1.027 K0.000 F150.000
G0 Z1.000
G0 X43.553 Y-36.782 Z1.000
G0 X43.553 Y-36.782 Z0.500
G1 X43.553 Y-36.782 Z-0.200 F100.000
G3 X43.501 Y-38.177 Z-0.200 I2.046 J-0.775 K0.000 F150.000
G3 X44.310 Y-38.711 Z-0.200 I1.136 J0.841 K0.000 F150.000
G2 X44.083 Y-37.609 Z-0.200 I0.387 J0.654 K0.000 F150.000
G1 X44.150 Y-37.541 Z-0.200 F150.000
G2 X44.274 Y-36.246 Z-0.200 I1.085 J0.549 K0.000 F150.000
G1 X44.349 Y-36.159 Z-0.200 F150.000
G3 X43.634 Y-36.595 Z-0.200 I0.046 J-0.879 K0.000 F150.000
G3 X43.553 Y-36.782 Z-0.200 I1.966 J-0.961 K0.000 F150.000
G0 Z1.000
G0 X43.629 Y-36.810 Z1.000
G0 X43.629 Y-36.810 Z0.500
G1 X43.629 Y-36.810 Z-0.200 F100.000
G3 X43.575 Y-38.145 Z-0.200 I1.973 J-0.747 K0.000 F150.000
G3 X43.996 Y-38.497 Z-0.200 I0.827 J0.562 K0.000 F150.000
G2 X44.054 Y-37.526 Z-0.200 I0.611 J0.451 K0.000 F150.000
G2 X44.156 Y-36.287 Z-0.200 I1.150 J0.529 K0.000 F150.000
G3 X43.706 Y-36.632 Z-0.200 I0.132 J-0.638 K0.000 F150.000
G3 X43.629 Y-36.810 Z-0.200 I1.896 J-0.925 K0.000 F150.000
G0 Z1.000
G0 X43.695 Y-36.835 Z1.000
G0 X43.695 Y-36.835 Z0.500
G1 X43.695 Y-36.835 Z-0.200 F100.000
G3 X43.654 Y-36.991 Z-0.200 I0.788 J-0.289 K0.000 F150.000
G3 X43.684 Y-38.177 Z-0.200 I1.519 J-0.555 K0.000 F150.000
G3 X43.810 Y-38.289 Z-0.200 I0.392 J0.317 K0.000 F150.000
G2 X43.961 Y-37.511 Z-0.200 I0.761 J0.256 K0.000 F150.000
G2 X43.990 Y-36.444 Z-0.200 I1.159 J0.502 K0.000 F150.000
G3 X43.695 Y-36.835 Z-0.200 I0.493 J-0.680 K0.000 F150.000
G0 Z1.000
G0 X43.785 Y-36.872 Z1.000
G0 X43.785 Y-36.872 Z0.500
G1 X43.785 Y-36.872 Z-0.200 F100.000
G3 X43.692 Y-37.985 Z-0.200 I1.855 J-0.717 K0.000 F150.000
G2 X43.869 Y-37.498 Z-0.200 I0.648 J0.040 K0.000 F150.000
G2 X43.785 Y-36.872 Z-0.200 I0.971 J0.448 K0.000 F150.000
G0 Z1.000
G0 X43.742 Y-37.409 Z1.000
G0 X43.742 Y-37.409 Z0.500
G1 X43.742 Y-37.409 Z-0.200 F100.000
G3 X43.733 Y-37.574 Z-0.200 I0.677 J-0.119 K0.000 F150.000
G3 X43.742 Y-37.409 Z-0.200 I-0.062 J0.086 K0.000 F150.000
G0 Z1.000
G0 X44.345 Y-37.207 Z1.000
G0 X44.345 Y-37.207 Z0.500
G1 X44.345 Y-37.207 Z-0.200 F100.000
G3 X44.598 Y-37.514 Z-0.200 I0.526 J0.176 K0.000 F150.000
G3 X44.882 Y-37.534 Z-0.200 I0.169 J0.383 K0.000 F150.000
G3 X45.382 Y-36.776 Z-0.200 I-0.263 J0.717 K0.000 F150.000
G3 X44.769 Y-36.256 Z-0.200 I-0.482 J0.053 K0.000 F150.000
G3 X44.379 Y-36.775 Z-0.200 I0.239 J-0.585 K0.000 F150.000
G3 X44.345 Y-37.207 Z-0.200 I0.492 J-0.256 K0.000 F150.000
G0 Z1.000
G0 X44.494 Y-37.161 Z1.000
G0 X44.494 Y-37.161 Z0.500
G1 X44.494 Y-37.161 Z-0.200 F100.000
G3 X44.652 Y-37.364 Z-0.200 I0.343 J0.106 K0.000 F150.000
G3 X44.782 Y-37.389 Z-0.200 I0.119 J0.263 K0.000 F150.000
G3 X45.223 Y-36.757 Z-0.200 I-0.133 J0.562 K0.000 F150.000
G3 X44.775 Y-36.428 Z-0.200 I-0.314 J0.043 K0.000 F150.000
G3 X44.505 Y-36.919 Z-0.200 I0.397 J-0.538 K0.000 F150.000
G3 X44.494 Y-37.161 Z-0.200 I0.332 J-0.137 K0.000 F150.000
G0 Z1.000
G0 X44.564 Y-37.138 Z1.000
G0 X44.564 Y-37.138 Z0.500
G1 X44.564 Y-37.138 Z-0.200 F100.000
G3 X44.781 Y-37.309 Z-0.200 I0.238 J0.078 K0.000 F150.000
G3 X45.143 Y-36.748 Z-0.200 I-0.116 J0.473 K0.000 F150.000
G3 X44.864 Y-36.477 Z-0.200 I-0.249 J0.023 K0.000 F150.000
G3 X44.582 Y-36.939 Z-0.200 I0.255 J-0.472 K0.000 F150.000
G3 X44.564 Y-37.138 Z-0.200 I0.220 J-0.121 K0.000 F150.000
G0 Z1.000
G0 X44.422 Y-37.187 Z1.000
G0 X44.422 Y-37.187 Z0.500
G1 X44.422 Y-37.187 Z-0.200 F100.000
G3 X44.625 Y-37.439 Z-0.200 I0.452 J0.157 K0.000 F150.000
G3 X44.857 Y-37.457 Z-0.200 I0.141 J0.309 K0.000 F150.000
G3 X45.302 Y-36.767 Z-0.200 I-0.236 J0.640 K0.000 F150.000
G3 X44.800 Y-36.330 Z-0.200 I-0.403 J0.044 K0.000 F150.000
G3 X44.454 Y-36.802 Z-0.200 I0.210 J-0.517 K0.000 F150.000
G3 X44.422 Y-37.187 Z-0.200 I0.420 J-0.229 K0.000 F150.000
G0 Z1.000
G0 X45.467 Y-37.337 Z1.000
G0 X45.467 Y-37.337 Z0.500
G1 X45.467 Y-37.337 Z-0.200 F100.000
G3 X46.039 Y-37.199 Z-0.200 I0.098 J0.849 K0.000 F150.000
G3 X46.128 Y-36.499 Z-0.200 I-0.401 J0.407 K0.000 F150.000
G3 X45.699 Y-36.235 Z-0.200 I-0.719 J-0.690 K0.000 F150.000
G3 X45.288 Y-36.127 Z-0.200 I-0.579 J-1.360 K0.000 F150.000
G2 X45.519 Y-37.244 Z-0.200 I-0.508 J-0.688 K0.000 F150.000
G1 X45.467 Y-37.337 Z-0.200 F150.000
G0 Z1.000
G0 X45.607 Y-37.241 Z1.000
G0 X45.607 Y-37.241 Z0.500
G1 X45.607 Y-37.241 Z-0.200 F100.000
G3 X46.038 Y-37.060 Z-0.200 I0.074 J0.428 K0.000 F150.000
G3 X46.057 Y-36.538 Z-0.200 I-0.354 J0.274 K0.000 F150.000
G3 X45.551 Y-36.278 Z-0.200 I-0.703 J-0.749 K0.000 F150.000
G2 X45.607 Y-37.241 Z-0.200 I-0.887 J-0.535 K0.000 F150.000
G0 Z1.000
G0 X45.722 Y-37.147 Z1.000
G0 X45.722 Y-37.147 Z0.500
G1 X45.722 Y-37.147 Z-0.200 F100.000
G3 X46.012 Y-36.910 Z-0.200 I0.031 J0.259 K0.000 F150.000
G3 X45.798 Y-36.450 Z-0.200 I-0.288 J0.146 K0.000 F150.000
G1 X45.717 Y-36.416 Z-0.200 F150.000
G2 X45.722 Y-37.147 Z-0.200 I-1.082 J-0.374 K0.000 F150.000
G0 Z1.000
G0 X45.832 Y-37.038 Z1.000
G0 X45.832 Y-37.038 Z0.500
G1 X45.832 Y-37.038 Z-0.200 F100.000
G3 X45.935 Y-36.644 Z-0.200 I-0.237 J0.272 K0.000 F150.000
G3 X45.829 Y-36.559 Z-0.200 I-0.362 J-0.341 K0.000 F150.000
G2 X45.832 Y-37.038 Z-0.200 I-0.872 J-0.245 K0.000 F150.000
G0 Z1.000
G0 Z1.000
G0 X45.832 Y-37.038
G0 X46.753 Y-39.995
G0 X46.753 Y-39.995 Z0.500
G1 X46.753 Y-39.995 Z-0.200 F100.000
G3 X45.413 Y-40.744 Z-0.200 I2.250 J-5.592 K0.000 F150.000
G1 X45.343 Y-40.760 Z-0.200 F150.000
G3 X34.033 Y-39.442 Z-0.200 I-18.643 J-110.744 K0.000 F150.000
G3 X22.489 Y-39.911 Z-0.200 I-3.148 J-64.799 K0.000 F150.000
G2 X16.906 Y-40.612 Z-0.200 I-21.651 J149.789 K0.000 F150.000
G2 X16.115 Y-40.451 Z-0.200 I-0.227 J0.909 K0.000 F150.000
G3 X13.894 Y-39.794 Z-0.200 I-2.317 J-3.747 K0.000 F150.000
G3 X10.489 Y-43.879 Z-0.200 I0.241 J-3.663 K0.000 F150.000
G3 X11.239 Y-45.702 Z-0.200 I4.705 J0.870 K0.000 F150.000
G1 X11.250 Y-45.763 Z-0.200 F150.000
G3 X10.506 Y-58.583 Z-0.200 I77.210 J-10.911 K0.000 F150.000
G3 X11.176 Y-65.975 Z-0.200 I80.924 J3.604 K0.000 F150.000
G2 X10.916 Y-67.060 Z-0.200 I-1.287 J-0.265 K0.000 F150.000
G3 X11.186 Y-70.899 Z-0.200 I2.930 J-1.722 K0.000 F150.000
G3 X14.166 Y-72.378 Z-0.200 I2.907 J2.116 K0.000 F150.000
G3 X16.338 Y-71.579 Z-0.200 I-0.547 J4.836 K0.000 F150.000
G2 X17.309 Y-71.595 Z-0.200 I0.441 J-2.681 K0.000 F150.000
G3 X28.987 Y-72.809 Z-0.200 I18.542 J121.655 K0.000 F150.000
G3 X40.921 Y-72.103 Z-0.200 I1.825 J70.440 K0.000 F150.000
G3 X45.317 Y-71.397 Z-0.200 I-9.971 J76.089 K0.000 F150.000
G1 X45.391 Y-71.412 Z-0.200 F150.000
G3 X47.693 Y-72.364 Z-0.200 I2.657 J3.168 K0.000 F150.000
G3 X51.140 Y-70.407 Z-0.200 I0.119 J3.805 K0.000 F150.000
G3 X50.825 Y-66.637 Z-0.200 I-3.335 J1.620 K0.000 F150.000
G2 X50.615 Y-65.890 Z-0.200 I0.723 J0.607 K0.000 F150.000
G3 X51.430 Y-59.466 Z-0.200 I-109.180 J17.121 K0.000 F150.000
G3 X51.472 Y-53.767 Z-0.200 I-34.560 J3.104 K0.000 F150.000
G3 X50.683 Y-46.840 Z-0.200 I-101.332 J-8.035 K0.000 F150.000
G2 X50.622 Y-45.958 Z-0.200 I3.056 J0.655 K0.000 F150.000
G2 X51.117 Y-45.061 Z-0.200 I3.780 J-1.500 K0.000 F150.000
G3 X51.033 Y-41.572 Z-0.200 I-3.313 J1.667 K0.000 F150.000
G3 X46.753 Y-39.995 Z-0.200 I-3.173 J-2.016 K0.000 F150.000
G0 Z1.000
G0 X46.778 Y-40.071 Z1.000
G0 X46.778 Y-40.071 Z0.500
G1 X46.778 Y-40.071 Z-0.200 F100.000
G3 X45.458 Y-40.811 Z-0.200 I2.232 J-5.530 K0.000 F150.000
G1 X45.331 Y-40.840 Z-0.200 F150.000
G3 X34.029 Y-39.522 Z-0.200 I-18.631 J-110.667 K0.000 F150.000
G3 X22.498 Y-39.991 Z-0.200 I-3.143 J-64.720 K0.000 F150.000
G2 X16.912 Y-40.692 Z-0.200 I-21.613 J149.495 K0.000 F150.000
G2 X16.074 Y-40.520 Z-0.200 I-0.235 J0.983 K0.000 F150.000
G3 X13.896 Y-39.874 Z-0.200 I-2.276 J-3.679 K0.000 F150.000
G3 X10.568 Y-43.865 Z-0.200 I0.240 J-3.584 K0.000 F150.000
G3 X11.309 Y-45.663 Z-0.200 I4.631 J0.857 K0.000 F150.000
G1 X11.330 Y-45.773 Z-0.200 F150.000
G3 X10.586 Y-58.580 Z-0.200 I77.132 J-10.901 K0.000 F150.000
G3 X11.255 Y-65.964 Z-0.200 I80.835 J3.600 K0.000 F150.000
G2 X10.987 Y-67.098 Z-0.200 I-1.371 J-0.274 K0.000 F150.000
G3 X11.251 Y-70.851 Z-0.200 I2.860 J-1.685 K0.000 F150.000
G3 X14.162 Y-72.298 Z-0.200 I2.843 J2.069 K0.000 F150.000
G3 X16.311 Y-71.504 Z-0.200 I-0.556 J4.808 K0.000 F150.000
G2 X17.319 Y-71.516 Z-0.200 I0.471 J-2.727 K0.000 F150.000
G3 X28.991 Y-72.729 Z-0.200 I18.534 J121.594 K0.000 F150.000
G3 X40.910 Y-72.024 Z-0.200 I1.822 J70.361 K0.000 F150.000
G3 X45.302 Y-71.318 Z-0.200 I-9.961 J76.016 K0.000 F150.000
G1 X45.436 Y-71.346 Z-0.200 F150.000
G3 X47.696 Y-72.284 Z-0.200 I2.613 J3.106 K0.000 F150.000
G3 X51.067 Y-70.373 Z-0.200 I0.115 J3.725 K0.000 F150.000
G3 X50.756 Y-66.677 Z-0.200 I-3.266 J1.585 K0.000 F150.000
G2 X50.535 Y-65.879 Z-0.200 I0.800 J0.650 K0.000 F150.000
G3 X51.350 Y-59.459 Z-0.200 I-109.114 J17.111 K0.000 F150.000
G3 X51.392 Y-53.772 Z-0.200 I-34.486 J3.098 K0.000 F150.000
G3 X50.604 Y-46.851 Z-0.200 I-101.259 J-8.030 K0.000 F150.000
G2 X50.547 Y-45.929 Z-0.200 I2.983 J0.645 K0.000 F150.000
G2 X51.045 Y-45.025 Z-0.200 I3.862 J-1.537 K0.000 F150.000
G3 X50.964 Y-41.613 Z-0.200 I-3.240 J1.630 K0.000 F150.000
G3 X46.778 Y-40.071 Z-0.200 I-3.104 J-1.975 K0.000 F150.000
G0 Z1.000
G0 X46.803 Y-40.147 Z1.000
G0 X46.803 Y-40.147 Z0.500
G1 X46.803 Y-40.147 Z-0.200 F100.000
G3 X45.503 Y-40.877 Z-0.200 I2.214 J-5.467 K0.000 F150.000
G1 X45.319 Y-40.919 Z-0.200 F150.000
G3 X34.024 Y-39.602 Z-0.200 I-18.619 J-110.591 K0.000 F150.000
G3 X22.508 Y-40.070 Z-0.200 I-3.139 J-64.640 K0.000 F150.000
G2 X16.918 Y-40.772 Z-0.200 I-21.575 J149.207 K0.000 F150.000
G2 X16.032 Y-40.589 Z-0.200 I-0.242 J1.058 K0.000 F150.000
G3 X13.898 Y-39.954 Z-0.200 I-2.234 J-3.611 K0.000 F150.000
G3 X10.647 Y-43.851 Z-0.200 I0.238 J-3.504 K0.000 F150.000
G3 X11.379 Y-45.625 Z-0.200 I4.558 J0.844 K0.000 F150.000
G1 X11.409 Y-45.784 Z-0.200 F150.000
G3 X10.666 Y-58.578 Z-0.200 I77.053 J-10.890 K0.000 F150.000
G3 X11.334 Y-65.952 Z-0.200 I80.746 J3.596 K0.000 F150.000
G2 X11.058 Y-67.135 Z-0.200 I-1.454 J-0.283 K0.000 F150.000
G3 X11.315 Y-70.803 Z-0.200 I2.790 J-1.648 K0.000 F150.000
G3 X14.157 Y-72.218 Z-0.200 I2.779 J2.021 K0.000 F150.000
G3 X16.147 Y-71.513 Z-0.200 I-0.473 J4.493 K0.000 F150.000
G1 X16.147 Y-71.513 Z-0.200 F150.000
G2 X17.087 Y-71.410 Z-0.200 I0.600 J-1.144 K0.000 F150.000
G2 X21.158 Y-71.946 Z-0.200 I-12.659 J-111.881 K0.000 F150.000
G3 X28.994 Y-72.649 Z-0.200 I12.276 J92.869 K0.000 F150.000
G3 X40.899 Y-71.945 Z-0.200 I1.818 J70.281 K0.000 F150.000
G3 X45.288 Y-71.240 Z-0.200 I-9.951 J75.944 K0.000 F150.000
G1 X45.480 Y-71.280 Z-0.200 F150.000
G3 X47.700 Y-72.204 Z-0.200 I2.569 J3.045 K0.000 F150.000
G3 X51.172 Y-69.910 Z-0.200 I0.137 J3.568 K0.000 F150.000
G3 X50.686 Y-66.716 Z-0.200 I-3.385 J1.118 K0.000 F150.000
G2 X50.456 Y-65.867 Z-0.200 I0.873 J0.692 K0.000 F150.000
G3 X51.270 Y-59.453 Z-0.200 I-109.048 J17.102 K0.000 F150.000
G3 X51.312 Y-53.778 Z-0.200 I-34.412 J3.092 K0.000 F150.000
G3 X50.524 Y-46.862 Z-0.200 I-101.185 J-8.026 K0.000 F150.000
G2 X50.473 Y-45.900 Z-0.200 I2.948 J0.640 K0.000 F150.000
G2 X50.974 Y-44.988 Z-0.200 I3.943 J-1.573 K0.000 F150.000
G3 X50.895 Y-41.653 Z-0.200 I-3.167 J1.593 K0.000 F150.000
G3 X46.803 Y-40.147 Z-0.200 I-3.035 J-1.935 K0.000 F150.000
G0 Z1.000
G0 X46.829 Y-40.223 Z1.000
G0 X46.829 Y-40.223 Z0.500
G1 X46.829 Y-40.223 Z-0.200 F100.000
G3 X45.547 Y-40.944 Z-0.200 I2.196 J-5.405 K0.000 F150.000
G2 X45.307 Y-40.998 Z-0.200 I-0.190 J0.282 K0.000 F150.000
G3 X34.020 Y-39.682 Z-0.200 I-18.608 J-110.514 K0.000 F150.000
G3 X22.517 Y-40.150 Z-0.200 I-3.135 J-64.560 K0.000 F150.000
G2 X16.923 Y-40.852 Z-0.200 I-21.538 J148.921 K0.000 F150.000
G2 X15.991 Y-40.657 Z-0.200 I-0.250 J1.133 K0.000 F150.000
G3 X13.900 Y-40.034 Z-0.200 I-2.193 J-3.543 K0.000 F150.000
G3 X10.725 Y-43.837 Z-0.200 I0.237 J-3.424 K0.000 F150.000
G3 X11.449 Y-45.587 Z-0.200 I4.484 J0.831 K0.000 F150.000
G1 X11.488 Y-45.794 Z-0.200 F150.000
G3 X10.746 Y-58.575 Z-0.200 I76.975 J-10.880 K0.000 F150.000
G3 X11.414 Y-65.941 Z-0.200 I80.658 J3.593 K0.000 F150.000
G2 X11.129 Y-67.172 Z-0.200 I-1.536 J-0.293 K0.000 F150.000
G3 X11.379 Y-70.755 Z-0.200 I2.719 J-1.610 K0.000 F150.000
G3 X14.152 Y-72.138 Z-0.200 I2.715 J1.974 K0.000 F150.000
G3 X16.257 Y-71.353 Z-0.200 I-0.573 J4.752 K0.000 F150.000
G2 X17.652 Y-71.395 Z-0.200 I0.593 J-3.482 K0.000 F150.000
G3 X28.997 Y-72.569 Z-0.200 I17.883 J117.437 K0.000 F150.000
G3 X40.888 Y-71.866 Z-0.200 I1.815 J70.202 K0.000 F150.000
G3 X45.273 Y-71.161 Z-0.200 I-9.941 J75.872 K0.000 F150.000
G2 X45.525 Y-71.213 Z-0.200 I0.062 J-0.334 K0.000 F150.000
G3 X47.704 Y-72.123 Z-0.200 I2.526 J2.983 K0.000 F150.000
G3 X51.096 Y-69.885 Z-0.200 I0.134 J3.487 K0.000 F150.000
G3 X50.617 Y-66.756 Z-0.200 I-3.312 J1.094 K0.000 F150.000
G2 X50.377 Y-65.856 Z-0.200 I0.946 J0.734 K0.000 F150.000
G3 X51.191 Y-59.447 Z-0.200 I-108.981 J17.092 K0.000 F150.000
G3 X51.233 Y-53.783 Z-0.200 I-34.338 J3.086 K0.000 F150.000
G3 X50.445 Y-46.873 Z-0.200 I-101.111 J-8.021 K0.000 F150.000
G2 X50.398 Y-45.871 Z-0.200 I2.939 J0.639 K0.000 F150.000
G2 X50.903 Y-44.951 Z-0.200 I4.021 J-1.608 K0.000 F150.000
G3 X50.826 Y-41.694 Z-0.200 I-3.148 J1.555 K0.000 F150.000
G3 X46.829 Y-40.223 Z-0.200 I-2.966 J-1.894 K0.000 F150.000
G0 Z1.000
G0 X46.856 Y-40.307 Z1.000
G0 X46.856 Y-40.307 Z0.500
G1 X46.856 Y-40.307 Z-0.200 F100.000
G3 X46.542 Y-40.425 Z-0.200 I1.035 J-3.217 K0.000 F150.000
G3 X45.592 Y-41.010 Z-0.200 I3.295 J-6.414 K0.000 F150.000
G2 X45.295 Y-41.077 Z-0.200 I-0.234 J0.348 K0.000 F150.000
G3 X34.016 Y-39.761 Z-0.200 I-18.596 J-110.438 K0.000 F150.000
G3 X22.526 Y-40.229 Z-0.200 I-3.130 J-64.481 K0.000 F150.000
G2 X16.929 Y-40.932 Z-0.200 I-21.502 J148.640 K0.000 F150.000
G2 X16.141 Y-40.850 Z-0.200 I-0.261 J1.323 K0.000 F150.000
G3 X14.341 Y-40.129 Z-0.200 I-2.615 J-3.919 K0.000 F150.000
G3 X10.804 Y-43.823 Z-0.200 I-0.220 J-3.329 K0.000 F150.000
G3 X11.520 Y-45.548 Z-0.200 I4.411 J0.818 K0.000 F150.000
G2 X11.567 Y-45.805 Z-0.200 I-0.368 J-0.202 K0.000 F150.000
G3 X10.826 Y-58.572 Z-0.200 I76.897 J-10.869 K0.000 F150.000
G3 X11.493 Y-65.929 Z-0.200 I80.569 J3.589 K0.000 F150.000
G2 X11.199 Y-67.209 Z-0.200 I-1.618 J-0.302 K0.000 F150.000
G3 X11.444 Y-70.707 Z-0.200 I2.649 J-1.573 K0.000 F150.000
G3 X14.147 Y-72.058 Z-0.200 I2.651 J1.926 K0.000 F150.000
G3 X16.230 Y-71.278 Z-0.200 I-0.582 J4.724 K0.000 F150.000
G2 X17.662 Y-71.316 Z-0.200 I0.622 J-3.534 K0.000 F150.000
G3 X29.000 Y-72.489 Z-0.200 I17.872 J117.365 K0.000 F150.000
G3 X40.877 Y-71.786 Z-0.200 I1.812 J70.123 K0.000 F150.000
G3 X45.258 Y-71.082 Z-0.200 I-9.931 J75.799 K0.000 F150.000
G2 X45.570 Y-71.147 Z-0.200 I0.077 J-0.413 K0.000 F150.000
G3 X47.707 Y-72.043 Z-0.200 I2.482 J2.922 K0.000 F150.000
G3 X51.020 Y-69.860 Z-0.200 I0.131 J3.407 K0.000 F150.000
G3 X50.547 Y-66.796 Z-0.200 I-3.239 J1.069 K0.000 F150.000
G2 X50.298 Y-65.844 Z-0.200 I1.018 J0.775 K0.000 F150.000
G3 X51.111 Y-59.441 Z-0.200 I-108.915 J17.082 K0.000 F150.000
G3 X51.153 Y-53.788 Z-0.200 I-34.264 J3.080 K0.000 F150.000
G3 X50.366 Y-46.884 Z-0.200 I-101.038 J-8.016 K0.000 F150.000
G2 X50.324 Y-45.842 Z-0.200 I2.947 J0.641 K0.000 F150.000
G2 X50.832 Y-44.914 Z-0.200 I4.098 J-1.641 K0.000 F150.000
G3 X50.757 Y-41.735 Z-0.200 I-3.076 J1.518 K0.000 F150.000
G3 X46.856 Y-40.307 Z-0.200 I-2.867 J-1.789 K0.000 F150.000
G0 Z1.000
G0 X46.880 Y-40.383 Z1.000
G0 X46.880 Y-40.383 Z0.500
G1 X46.880 Y-40.383 Z-0.200 F100.000
G3 X46.577 Y-40.497 Z-0.200 I1.010 J-3.141 K0.000 F150.000
G3 X45.637 Y-41.076 Z-0.200 I3.262 J-6.348 K0.000 F150.000
G2 X45.284 Y-41.156 Z-0.200 I-0.279 J0.415 K0.000 F150.000
G3 X34.011 Y-39.841 Z-0.200 I-18.584 J-110.361 K0.000 F150.000
G3 X22.535 Y-40.308 Z-0.200 I-3.126 J-64.401 K0.000 F150.000
G2 X16.935 Y-41.011 Z-0.200 I-21.466 J148.363 K0.000 F150.000
G2 X16.097 Y-40.917 Z-0.200 I-0.268 J1.385 K0.000 F150.000
G3 X14.333 Y-40.208 Z-0.200 I-2.573 J-3.856 K0.000 F150.000
G3 X10.883 Y-43.809 Z-0.200 I-0.212 J-3.250 K0.000 F150.000
G3 X11.590 Y-45.510 Z-0.200 I4.337 J0.805 K0.000 F150.000
G2 X11.647 Y-45.815 Z-0.200 I-0.439 J-0.240 K0.000 F150.000
G3 X10.906 Y-58.569 Z-0.200 I76.819 J-10.859 K0.000 F150.000
G3 X11.572 Y-65.918 Z-0.200 I80.481 J3.585 K0.000 F150.000
G2 X11.270 Y-67.246 Z-0.200 I-1.700 J-0.312 K0.000 F150.000
G3 X11.508 Y-70.660 Z-0.200 I2.579 J-1.536 K0.000 F150.000
G3 X14.143 Y-71.978 Z-0.200 I2.587 J1.879 K0.000 F150.000
G3 X16.204 Y-71.202 Z-0.200 I-0.591 J4.696 K0.000 F150.000
G2 X17.673 Y-71.237 Z-0.200 I0.652 J-3.589 K0.000 F150.000
G3 X29.003 Y-72.409 Z-0.200 I17.862 J117.293 K0.000 F150.000
G3 X40.866 Y-71.707 Z-0.200 I1.809 J70.044 K0.000 F150.000
G3 X45.244 Y-71.004 Z-0.200 I-9.921 J75.727 K0.000 F150.000
G2 X45.614 Y-71.081 Z-0.200 I0.092 J-0.492 K0.000 F150.000
G3 X47.711 Y-71.963 Z-0.200 I2.438 J2.861 K0.000 F150.000
G3 X50.944 Y-69.835 Z-0.200 I0.127 J3.326 K0.000 F150.000
G3 X50.478 Y-66.835 Z-0.200 I-3.166 J1.044 K0.000 F150.000
G2 X50.219 Y-65.833 Z-0.200 I1.089 J0.816 K0.000 F150.000
G3 X51.031 Y-59.435 Z-0.200 I-108.849 J17.072 K0.000 F150.000
G3 X51.073 Y-53.794 Z-0.200 I-34.190 J3.073 K0.000 F150.000
G3 X50.287 Y-46.895 Z-0.200 I-100.964 J-8.012 K0.000 F150.000
G2 X50.249 Y-45.813 Z-0.200 I2.969 J0.644 K0.000 F150.000
G2 X50.761 Y-44.877 Z-0.200 I4.174 J-1.674 K0.000 F150.000
G3 X50.688 Y-41.775 Z-0.200 I-3.004 J1.481 K0.000 F150.000
G3 X46.880 Y-40.383 Z-0.200 I-2.798 J-1.749 K0.000 F150.000
G0 Z1.000
G0 X46.905 Y-40.459 Z1.000
G0 X46.905 Y-40.459 Z0.500
G1 X46.905 Y-40.459 Z-0.200 F100.000
G3 X46.612 Y-40.569 Z-0.200 I0.985 J-3.066 K0.000 F150.000
G3 X45.681 Y-41.143 Z-0.200 I3.229 J-6.281 K0.000 F150.000
G2 X45.272 Y-41.235 Z-0.200 I-0.324 J0.481 K0.000 F150.000
G3 X34.007 Y-39.921 Z-0.200 I-18.572 J-110.285 K0.000 F150.000
G3 X22.545 Y-40.388 Z-0.200 I-3.122 J-64.321 K0.000 F150.000
G2 X16.941 Y-41.091 Z-0.200 I-21.430 J148.090 K0.000 F150.000
G2 X15.867 Y-40.863 Z-0.200 I-0.305 J1.202 K0.000 F150.000
G3 X13.906 Y-40.275 Z-0.200 I-2.070 J-3.339 K0.000 F150.000
G3 X10.962 Y-43.795 Z-0.200 I0.232 J-3.186 K0.000 F150.000
G3 X11.660 Y-45.471 Z-0.200 I4.263 J0.792 K0.000 F150.000
G2 X11.726 Y-45.826 Z-0.200 I-0.509 J-0.278 K0.000 F150.000
G3 X10.986 Y-58.566 Z-0.200 I76.740 J-10.848 K0.000 F150.000
G3 X11.651 Y-65.907 Z-0.200 I80.392 J3.581 K0.000 F150.000
G2 X11.341 Y-67.283 Z-0.200 I-1.781 J-0.322 K0.000 F150.000
G3 X11.572 Y-70.612 Z-0.200 I2.509 J-1.498 K0.000 F150.000
G3 X14.138 Y-71.898 Z-0.200 I2.524 J1.831 K0.000 F150.000
G3 X16.177 Y-71.127 Z-0.200 I-0.600 J4.668 K0.000 F150.000
G2 X17.684 Y-71.157 Z-0.200 I0.681 J-3.647 K0.000 F150.000
G3 X29.006 Y-72.329 Z-0.200 I17.852 J117.221 K0.000 F150.000
G3 X40.855 Y-71.628 Z-0.200 I1.806 J69.964 K0.000 F150.000
G3 X45.229 Y-70.925 Z-0.200 I-9.911 J75.655 K0.000 F150.000
G2 X45.659 Y-71.014 Z-0.200 I0.106 J-0.570 K0.000 F150.000
G3 X47.714 Y-71.883 Z-0.200 I2.394 J2.800 K0.000 F150.000
G3 X50.868 Y-69.810 Z-0.200 I0.124 J3.246 K0.000 F150.000
G3 X50.408 Y-66.875 Z-0.200 I-3.092 J1.019 K0.000 F150.000
G2 X50.140 Y-65.821 Z-0.200 I1.160 J0.856 K0.000 F150.000
G3 X50.951 Y-59.428 Z-0.200 I-108.783 J17.062 K0.000 F150.000
G3 X50.993 Y-53.799 Z-0.200 I-34.116 J3.067 K0.000 F150.000
G3 X50.207 Y-46.906 Z-0.200 I-100.891 J-8.007 K0.000 F150.000
G2 X50.175 Y-45.783 Z-0.200 I3.000 J0.649 K0.000 F150.000
G2 X50.690 Y-44.840 Z-0.200 I4.247 J-1.706 K0.000 F150.000
G3 X50.619 Y-41.816 Z-0.200 I-2.932 J1.444 K0.000 F150.000
G3 X46.905 Y-40.459 Z-0.200 I-2.729 J-1.709 K0.000 F150.000
G0 Z1.000
G0 X46.929 Y-40.536 Z1.000
G0 X46.929 Y-40.536 Z0.500
G1 X46.929 Y-40.536 Z-0.200 F100.000
G3 X46.647 Y-40.641 Z-0.200 I0.960 J-2.990 K0.000 F150.000
G3 X45.726 Y-41.209 Z-0.200 I3.197 J-6.214 K0.000 F150.000
G2 X45.260 Y-41.314 Z-0.200 I-0.368 J0.548 K0.000 F150.000
G3 X34.002 Y-40.001 Z-0.200 I-18.560 J-110.208 K0.000 F150.000
G3 X22.554 Y-40.467 Z-0.200 I-3.118 J-64.242 K0.000 F150.000
G2 X16.946 Y-41.171 Z-0.200 I-21.395 J147.822 K0.000 F150.000
G2 X15.826 Y-40.931 Z-0.200 I-0.313 J1.274 K0.000 F150.000
G3 X13.908 Y-40.355 Z-0.200 I-2.029 J-3.271 K0.000 F150.000
G3 X11.041 Y-43.782 Z-0.200 I0.231 J-3.106 K0.000 F150.000
G3 X11.730 Y-45.433 Z-0.200 I4.189 J0.778 K0.000 F150.000
G2 X11.805 Y-45.836 Z-0.200 I-0.579 J-0.317 K0.000 F150.000
G3 X11.066 Y-58.563 Z-0.200 I76.662 J-10.838 K0.000 F150.000
G3 X11.750 Y-66.064 Z-0.200 I77.658 J3.294 K0.000 F150.000
G2 X11.412 Y-67.320 Z-0.200 I-1.860 J-0.174 K0.000 F150.000
G3 X11.637 Y-70.564 Z-0.200 I2.439 J-1.461 K0.000 F150.000
G3 X14.133 Y-71.818 Z-0.200 I2.460 J1.784 K0.000 F150.000
G3 X16.150 Y-71.052 Z-0.200 I-0.609 J4.640 K0.000 F150.000
G2 X17.695 Y-71.078 Z-0.200 I0.709 J-3.708 K0.000 F150.000
G3 X29.009 Y-72.249 Z-0.200 I17.842 J117.149 K0.000 F150.000
G3 X40.844 Y-71.549 Z-0.200 I1.803 J69.885 K0.000 F150.000
G3 X45.214 Y-70.847 Z-0.200 I-9.901 J75.582 K0.000 F150.000
G2 X45.704 Y-70.948 Z-0.200 I0.121 J-0.649 K0.000 F150.000
G3 X47.718 Y-71.803 Z-0.200 I2.351 J2.739 K0.000 F150.000
G3 X50.791 Y-69.785 Z-0.200 I0.121 J3.165 K0.000 F150.000
G3 X50.338 Y-66.914 Z-0.200 I-3.019 J0.994 K0.000 F150.000
G2 X50.060 Y-65.810 Z-0.200 I1.231 J0.897 K0.000 F150.000
G3 X50.872 Y-59.422 Z-0.200 I-108.717 J17.052 K0.000 F150.000
G3 X50.913 Y-53.804 Z-0.200 I-34.042 J3.061 K0.000 F150.000
G3 X50.128 Y-46.917 Z-0.200 I-100.817 J-8.002 K0.000 F150.000
G2 X50.100 Y-45.754 Z-0.200 I2.730 J0.647 K0.000 F150.000
G2 X50.618 Y-44.803 Z-0.200 I4.320 J-1.737 K0.000 F150.000
G3 X50.550 Y-41.857 Z-0.200 I-2.860 J1.407 K0.000 F150.000
G3 X46.929 Y-40.536 Z-0.200 I-2.660 J-1.668 K0.000 F150.000
G0 Z1.000
G0 X47.005 Y-40.761 Z1.000
G0 X47.005 Y-40.761 Z0.500
G1 X47.005 Y-40.761 Z-0.200 F100.000
G3 X45.860 Y-41.408 Z-0.200 I1.116 J-3.313 K0.000 F150.000
G2 X45.224 Y-41.552 Z-0.200 I-0.502 J0.747 K0.000 F150.000
G1 X43.683 Y-41.321 Z-0.200 F150.000
G3 X45.650 Y-41.664 Z-0.200 I13.164 J69.601 K0.000 F150.000
G3 X45.926 Y-41.444 Z-0.200 I-0.550 J0.977 K0.000 F150.000
G2 X47.103 Y-40.730 Z-0.200 I2.230 J-2.348 K0.000 F150.000
G3 X47.005 Y-40.761 Z-0.200 I1.018 J-3.345 K0.000 F150.000
G0 Z1.000
G0 X46.983 Y-40.693 Z1.000
G0 X46.983 Y-40.693 Z0.500
G1 X46.983 Y-40.693 Z-0.200 F100.000
G3 X46.247 Y-41.051 Z-0.200 I0.917 J-2.818 K0.000 F150.000
G2 X45.595 Y-41.447 Z-0.200 I-1.637 J1.966 K0.000 F150.000
G1 X45.236 Y-41.472 Z-0.200 F150.000
G3 X33.994 Y-40.161 Z-0.200 I-18.537 J-110.055 K0.000 F150.000
G3 X22.572 Y-40.626 Z-0.200 I-3.109 J-64.082 K0.000 F150.000
G2 X16.958 Y-41.331 Z-0.200 I-21.327 J147.296 K0.000 F150.000
G2 X15.743 Y-41.068 Z-0.200 I-0.329 J1.421 K0.000 F150.000
G3 X13.912 Y-40.515 Z-0.200 I-1.947 J-3.135 K0.000 F150.000
G3 X11.199 Y-43.754 Z-0.200 I0.228 J-2.947 K0.000 F150.000
G3 X11.870 Y-45.356 Z-0.200 I4.041 J0.752 K0.000 F150.000
G2 X11.964 Y-45.857 Z-0.200 I-0.719 J-0.394 K0.000 F150.000
G3 X11.226 Y-58.558 Z-0.200 I76.506 J-10.817 K0.000 F150.000
G3 X11.910 Y-66.061 Z-0.200 I79.548 J3.463 K0.000 F150.000
G2 X11.554 Y-67.394 Z-0.200 I-2.023 J-0.175 K0.000 F150.000
G3 X11.765 Y-70.468 Z-0.200 I2.298 J-1.386 K0.000 F150.000
G3 X14.124 Y-71.658 Z-0.200 I2.332 J1.689 K0.000 F150.000
G3 X16.096 Y-70.901 Z-0.200 I-0.628 J4.584 K0.000 F150.000
G2 X17.396 Y-70.881 Z-0.200 I0.701 J-3.220 K0.000 F150.000
G3 X29.015 Y-72.089 Z-0.200 I18.469 J121.108 K0.000 F150.000
G3 X40.822 Y-71.390 Z-0.200 I1.797 J69.727 K0.000 F150.000
G3 X45.185 Y-70.689 Z-0.200 I-9.881 J75.437 K0.000 F150.000
G2 X45.793 Y-70.815 Z-0.200 I0.150 J-0.806 K0.000 F150.000
G3 X47.725 Y-71.642 Z-0.200 I2.264 J2.617 K0.000 F150.000
G3 X50.639 Y-69.734 Z-0.200 I0.114 J3.004 K0.000 F150.000
G3 X50.199 Y-66.993 Z-0.200 I-2.874 J0.945 K0.000 F150.000
G2 X49.902 Y-65.787 Z-0.200 I1.372 J0.978 K0.000 F150.000
G3 X50.712 Y-59.410 Z-0.200 I-108.585 J17.032 K0.000 F150.000
G3 X50.754 Y-53.815 Z-0.200 I-33.894 J3.049 K0.000 F150.000
G3 X49.970 Y-46.939 Z-0.200 I-100.670 J-7.993 K0.000 F150.000
G2 X49.951 Y-45.696 Z-0.200 I2.824 J0.663 K0.000 F150.000
G2 X50.476 Y-44.730 Z-0.200 I4.461 J-1.796 K0.000 F150.000
G3 X50.412 Y-41.938 Z-0.200 I-2.716 J1.334 K0.000 F150.000
G3 X46.983 Y-40.693 Z-0.200 I-2.512 J-1.573 K0.000 F150.000
G0 Z1.000
G0 X46.958 Y-40.617 Z1.000
