(Exported by FreeCAD)
(Post Processor: grbl_post)
(Output Time:2025-06-19 22:27:46.287801)
(Begin preamble)
G17 G90
G21
(Begin operation: Fixture)
(Path: Fixture)
G54
(Finish operation: Fixture)
(Begin operation: vbit-0_1mm-10deg003)
(Path: vbit-0_1mm-10deg003)
(vbit-0_1mm-10deg003)
(Begin toolchange)
( M6 T3 )
M3 S15000
(Finish operation: vbit-0_1mm-10deg003)
(Begin operation: Pocket_Shape)
(Path: Pocket_Shape)
(Pocket_Shape)
G0 Z1.000
G0 X4.167 Y-3.286
G0 Z0.500
G1 X4.167 Y-3.286 Z-0.150 F150.000
G1 X4.064 Y-3.286 Z-0.150 F200.000
G1 X3.479 Y-4.851 Z-0.150 F200.000
G2 X3.292 Y-4.851 Z-0.150 I-0.094 J0.035 K0.000 F200.000
G1 X2.703 Y-3.286 Z-0.150 F200.000
G1 X2.601 Y-3.286 Z-0.150 F200.000
G1 X3.283 Y-5.026 Z-0.150 F200.000
G1 X3.488 Y-5.026 Z-0.150 F200.000
G1 X4.167 Y-3.286 Z-0.150 F200.000
G0 Z1.000
G0 X3.470 Y-4.934 Z1.000
G0 X3.470 Y-4.934 Z0.500
G1 X3.470 Y-4.934 Z-0.150 F150.000
G2 X3.289 Y-4.905 Z-0.150 I-0.081 J0.078 K0.000 F200.000
G1 X3.317 Y-4.976 Z-0.150 F200.000
G1 X3.454 Y-4.976 Z-0.150 F200.000
G1 X3.470 Y-4.934 Z-0.150 F200.000
G0 Z1.000
G0 Z1.000
G0 X3.470 Y-4.934
G0 X4.803 Y-4.492
G0 X4.803 Y-4.492 Z0.500
G1 X4.803 Y-4.492 Z-0.150 F150.000
G3 X5.878 Y-5.023 Z-0.150 I0.800 J0.265 K0.000 F200.000
G1 X6.071 Y-4.940 Z-0.150 F200.000
G3 X5.612 Y-3.256 Z-0.150 I-0.501 J0.768 K0.000 F200.000
G3 X4.785 Y-4.432 Z-0.150 I0.010 J-0.886 K0.000 F200.000
G3 X4.803 Y-4.492 Z-0.150 I0.817 J0.205 K0.000 F200.000
G0 Z1.000
G0 X4.885 Y-4.464 Z1.000
G0 X4.885 Y-4.464 Z0.500
G1 X4.885 Y-4.464 Z-0.150 F150.000
G3 X5.260 Y-4.915 Z-0.150 I0.782 J0.268 K0.000 F200.000
G1 X5.339 Y-4.949 Z-0.150 F200.000
G3 X6.373 Y-4.012 Z-0.150 I0.265 J0.747 K0.000 F200.000
G3 X4.841 Y-4.147 Z-0.150 I-0.765 J-0.077 K0.000 F200.000
G3 X4.885 Y-4.464 Z-0.150 I0.825 J-0.049 K0.000 F200.000
G0 Z1.000
G0 Z1.000
G0 X4.885 Y-4.464
G0 X7.244
G0 X7.244 Z0.500
G1 X7.244 Y-4.464 Z-0.150 F150.000
G1 X7.244 Y-5.026 Z-0.150 F200.000
G1 X7.335 Y-5.026 Z-0.150 F200.000
G1 X7.335 Y-2.510 Z-0.150 F200.000
G1 X7.244 Y-2.510 Z-0.150 F200.000
G1 X7.244 Y-4.464 Z-0.150 F200.000
G0 Z1.000
G0 Z1.000
G0 X7.244 Y-4.464
G0 X8.203 Y-4.414
G0 X8.203 Y-4.414 Z0.500
G1 X8.203 Y-4.414 Z-0.150 F150.000
G3 X9.217 Y-4.974 Z-0.150 I0.681 J0.035 K0.000 F200.000
G3 X9.386 Y-4.829 Z-0.150 I-0.316 J0.538 K0.000 F200.000
G2 X8.296 Y-4.308 Z-0.150 I-0.439 J0.481 K0.000 F200.000
G1 X8.296 Y-3.286 Z-0.150 F200.000
G1 X8.205 Y-3.286 Z-0.150 F200.000
G1 X8.205 Y-4.309 Z-0.150 F200.000
G3 X8.203 Y-4.414 Z-0.150 I0.678 J-0.070 K0.000 F200.000
G0 Z1.000
G0 X8.286 Y-4.548 Z1.000
G0 X8.286 Y-4.548 Z0.500
G1 X8.286 Y-4.548 Z-0.150 F150.000
G3 X8.351 Y-4.712 Z-0.150 I0.293 J0.021 K0.000 F200.000
G1 X8.286 Y-4.548 Z-0.150 F200.000
G0 Z1.000
G0 X9.457 Y-4.754 Z1.000
G0 X9.457 Y-4.754 Z0.500
G1 X9.457 Y-4.754 Z-0.150 F150.000
G2 X9.625 Y-4.824 Z-0.150 I0.070 J-0.069 K0.000 F200.000
G1 X9.625 Y-5.026 Z-0.150 F200.000
G1 X9.716 Y-5.026 Z-0.150 F200.000
G1 X9.716 Y-3.286 Z-0.150 F200.000
G1 X9.625 Y-3.286 Z-0.150 F200.000
G1 X9.625 Y-4.316 Z-0.150 F200.000
G2 X9.457 Y-4.754 Z-0.150 I-0.608 J-0.018 K0.000 F200.000
G0 Z1.000
G0 X9.569 Y-4.689 Z1.000
G0 X9.569 Y-4.689 Z0.500
G1 X9.569 Y-4.689 Z-0.150 F150.000
G2 X9.666 Y-4.807 Z-0.150 I-0.003 J-0.102 K0.000 F200.000
G1 X9.666 Y-4.374 Z-0.150 F200.000
G2 X9.569 Y-4.689 Z-0.150 I-0.603 J0.015 K0.000 F200.000
G0 Z1.000
G0 Z1.000
G0 X9.569 Y-4.689
G0 X10.606
G0 X10.606 Z0.500
G1 X10.606 Y-4.689 Z-0.150 F150.000
G1 X10.606 Y-5.026 Z-0.150 F200.000
G1 X10.697 Y-5.026 Z-0.150 F200.000
G1 X10.698 Y-3.951 Z-0.150 F200.000
G2 X10.810 Y-3.580 Z-0.150 I0.593 J0.023 K0.000 F200.000
G2 X10.697 Y-3.481 Z-0.150 I-0.013 J0.099 K0.000 F200.000
G1 X10.697 Y-3.286 Z-0.150 F200.000
G1 X10.606 Y-3.286 Z-0.150 F200.000
G1 X10.606 Y-4.689 Z-0.150 F200.000
G0 Z1.000
G0 X10.656 Y-3.905 Z1.000
G0 X10.656 Y-3.905 Z0.500
G1 X10.656 Y-3.905 Z-0.150 F150.000
G2 X10.734 Y-3.615 Z-0.150 I0.462 J0.032 K0.000 F200.000
G2 X10.656 Y-3.526 Z-0.150 I0.030 J0.104 K0.000 F200.000
G1 X10.656 Y-3.905 Z-0.150 F200.000
G0 Z1.000
G0 X10.946 Y-3.449 Z1.000
G0 X10.946 Y-3.449 Z0.500
G1 X10.946 Y-3.449 Z-0.150 F150.000
G2 X11.902 Y-3.962 Z-0.150 I0.369 J-0.459 K0.000 F200.000
G1 X11.902 Y-5.026 Z-0.150 F200.000
G1 X11.993 Y-5.026 Z-0.150 F200.000
G1 X11.994 Y-3.950 Z-0.150 F200.000
G2 X12.110 Y-3.572 Z-0.150 I0.613 J0.019 K0.000 F200.000
G2 X11.921 Y-3.603 Z-0.150 I-0.103 J0.034 K0.000 F200.000
G3 X10.946 Y-3.449 Z-0.150 I-0.538 J-0.243 K0.000 F200.000
G0 Z1.000
G0 X11.861 Y-3.604 Z1.000
G0 X11.861 Y-3.604 Z0.500
G1 X11.861 Y-3.604 Z-0.150 F150.000
G2 X11.948 Y-3.925 Z-0.150 I-0.517 J-0.313 K0.000 F200.000
G1 X11.994 Y-3.688 Z-0.150 F200.000
G2 X11.861 Y-3.604 Z-0.150 I0.008 J0.159 K0.000 F200.000
G0 Z1.000
G0 X12.130 Y-3.546 Z1.000
G0 X12.130 Y-3.546 Z0.500
G1 X12.130 Y-3.546 Z-0.150 F150.000
G2 X13.198 Y-3.962 Z-0.150 I0.472 J-0.368 K0.000 F200.000
G1 X13.198 Y-5.026 Z-0.150 F200.000
G1 X13.289 Y-5.026 Z-0.150 F200.000
G1 X13.289 Y-3.961 Z-0.150 F200.000
G3 X12.130 Y-3.546 Z-0.150 I-0.627 J0.075 K0.000 F200.000
G0 Z1.000
G0 Z1.000
G0 X12.130 Y-3.546
G0 X14.060 Y-3.944
G0 X14.060 Y-3.944 Z0.500
G1 X14.060 Y-3.944 Z-0.150 F150.000
G3 X14.056 Y-3.964 Z-0.150 I0.844 J-0.174 K0.000 F200.000
G3 X15.424 Y-4.912 Z-0.150 I0.863 J-0.216 K0.000 F200.000
G3 X15.637 Y-4.668 Z-0.150 I-0.315 J0.488 K0.000 F200.000
G3 X15.426 Y-4.808 Z-0.150 I0.016 J-0.252 K0.000 F200.000
G2 X14.151 Y-4.225 Z-0.150 I-0.509 J0.574 K0.000 F200.000
G1 X14.238 Y-4.173 Z-0.150 F200.000
G1 X15.764 Y-4.173 Z-0.150 F200.000
G3 X14.060 Y-3.944 Z-0.150 I-0.860 J0.055 K0.000 F200.000
G0 Z1.000
G0 X14.148 Y-3.966 Z1.000
G0 X14.148 Y-3.966 Z0.500
G1 X14.148 Y-3.966 Z-0.150 F150.000
G3 X14.242 Y-4.101 Z-0.150 I0.094 J-0.035 K0.000 F200.000
G1 X15.561 Y-4.101 Z-0.150 F200.000
G1 X15.647 Y-4.052 Z-0.150 F200.000
G3 X14.148 Y-3.966 Z-0.150 I-0.752 J-0.009 K0.000 F200.000
G0 Z1.000
G0 X14.100 Y-4.038 Z1.000
G0 X14.100 Y-4.038 Z0.500
G1 X14.100 Y-4.038 Z-0.150 F150.000
G3 X14.100 Y-4.228 Z-0.150 I0.442 J-0.096 K0.000 F200.000
G2 X14.193 Y-4.133 Z-0.150 I0.107 J-0.012 K0.000 F200.000
G2 X14.100 Y-4.038 Z-0.150 I0.011 J0.103 K0.000 F200.000
G0 Z1.000
G0 X14.161 Y-3.798 Z1.000
G0 X14.161 Y-3.798 Z0.500
G1 X14.161 Y-3.798 Z-0.150 F150.000
G1 X14.192 Y-3.720 Z-0.150 F200.000
G3 X14.161 Y-3.798 Z-0.150 I0.151 J-0.105 K0.000 F200.000
G0 Z1.000
G0 X15.638 Y-4.123 Z1.000
G0 X15.638 Y-4.123 Z0.500
G1 X15.638 Y-4.123 Z-0.150 F150.000
G1 X15.709 Y-4.123 Z-0.150 F200.000
G1 X15.699 Y-4.043 Z-0.150 F200.000
G2 X15.638 Y-4.123 Z-0.150 I-0.078 J-0.004 K0.000 F200.000
G0 Z1.000
G0 Z1.000
G0 X15.638 Y-4.123
G0 X12.213 Y-8.645
G0 X12.213 Y-8.645 Z0.500
G1 X12.213 Y-8.645 Z-0.150 F150.000
G3 X11.011 Y-9.155 Z-0.150 I-0.455 J-0.600 K0.000 F200.000
G3 X11.106 Y-9.286 Z-0.150 I0.095 J-0.031 K0.000 F200.000
G1 X12.426 Y-9.286 Z-0.150 F200.000
G1 X12.512 Y-9.237 Z-0.150 F200.000
G3 X12.213 Y-8.645 Z-0.150 I-0.753 J-0.009 K0.000 F200.000
G0 Z1.000
G0 X12.563 Y-9.228 Z1.000
G0 X12.563 Y-9.228 Z0.500
G1 X12.563 Y-9.228 Z-0.150 F150.000
G2 X12.503 Y-9.307 Z-0.150 I-0.077 J-0.004 K0.000 F200.000
G1 X12.573 Y-9.307 Z-0.150 F200.000
G1 X12.563 Y-9.228 Z-0.150 F200.000
G0 Z1.000
G0 X12.626 Y-9.222 Z1.000
G0 X12.626 Y-9.222 Z0.500
G1 X12.626 Y-9.222 Z-0.150 F150.000
G3 X10.915 Y-9.178 Z-0.150 I-0.858 J-0.080 K0.000 F200.000
G3 X12.289 Y-10.097 Z-0.150 I0.870 J-0.186 K0.000 F200.000
G3 X12.498 Y-9.853 Z-0.150 I-0.316 J0.482 K0.000 F200.000
G3 X12.291 Y-9.993 Z-0.150 I0.020 J-0.253 K0.000 F200.000
G2 X11.015 Y-9.409 Z-0.150 I-0.509 J0.574 K0.000 F200.000
G1 X11.103 Y-9.357 Z-0.150 F200.000
G1 X12.628 Y-9.357 Z-0.150 F200.000
G3 X12.626 Y-9.222 Z-0.150 I-0.860 J0.055 K0.000 F200.000
G0 Z1.000
G0 X11.057 Y-9.318 Z1.000
G0 X11.057 Y-9.318 Z0.500
G1 X11.057 Y-9.318 Z-0.150 F150.000
G2 X10.963 Y-9.219 Z-0.150 I0.012 J0.105 K0.000 F200.000
G3 X10.964 Y-9.416 Z-0.150 I0.486 J-0.094 K0.000 F200.000
G2 X11.057 Y-9.318 Z-0.150 I0.107 J-0.008 K0.000 F200.000
G0 Z1.000
G0 X10.988 Y-9.600 Z1.000
G0 X10.988 Y-9.600 Z0.500
G1 X10.988 Y-9.600 Z-0.150 F150.000
G3 X10.990 Y-9.608 Z-0.150 I0.025 J0.002 K0.000 F200.000
G1 X10.988 Y-9.600 Z-0.150 F200.000
G0 Z1.000
G0 Z1.000
G0 X10.988 Y-9.600
G0 X10.154
G0 X10.154 Z0.500
G1 X10.154 Y-9.600 Z-0.150 F150.000
G1 X10.154 Y-9.188 Z-0.150 F200.000
G3 X8.984 Y-8.656 Z-0.150 I-0.674 J0.070 K0.000 F200.000
G2 X10.063 Y-9.190 Z-0.150 I0.428 J-0.493 K0.000 F200.000
G1 X10.063 Y-10.211 Z-0.150 F200.000
G1 X10.154 Y-10.211 Z-0.150 F200.000
G1 X10.154 Y-9.600 Z-0.150 F200.000
G0 Z1.000
G0 X10.072 Y-8.944 Z1.000
G0 X10.072 Y-8.944 Z0.500
G1 X10.072 Y-8.944 Z-0.150 F150.000
G3 X10.011 Y-8.797 Z-0.150 I-0.286 J-0.033 K0.000 F200.000
G1 X10.072 Y-8.944 Z-0.150 F200.000
G0 Z1.000
G0 X8.901 Y-8.743 Z1.000
G0 X8.901 Y-8.743 Z0.500
G1 X8.901 Y-8.743 Z-0.150 F150.000
G2 X8.733 Y-8.673 Z-0.150 I-0.070 J0.069 K0.000 F200.000
G1 X8.733 Y-8.471 Z-0.150 F200.000
G1 X8.642 Y-8.471 Z-0.150 F200.000
G1 X8.642 Y-10.211 Z-0.150 F200.000
G1 X8.734 Y-10.211 Z-0.150 F200.000
G1 X8.734 Y-9.182 Z-0.150 F200.000
G2 X8.901 Y-8.743 Z-0.150 I0.561 J0.038 K0.000 F200.000
G0 Z1.000
G0 X8.788 Y-8.808 Z1.000
G0 X8.788 Y-8.808 Z0.500
G1 X8.788 Y-8.808 Z-0.150 F150.000
G2 X8.692 Y-8.689 Z-0.150 I0.004 J0.101 K0.000 F200.000
G1 X8.692 Y-9.124 Z-0.150 F200.000
G2 X8.788 Y-8.808 Z-0.150 I0.606 J-0.011 K0.000 F200.000
G0 Z1.000
G0 Z1.000
G0 X8.788 Y-8.808
G0 X7.835 Y-9.087
G0 X7.835 Y-9.087 Z0.500
G1 X7.835 Y-9.087 Z-0.150 F150.000
G3 X7.275 Y-8.475 Z-0.150 I-0.904 J-0.265 K0.000 F200.000
G3 X6.184 Y-9.617 Z-0.150 I-0.260 J-0.844 K0.000 F200.000
G3 X7.277 Y-10.208 Z-0.150 I0.817 J0.205 K0.000 F200.000
G1 X7.471 Y-10.124 Z-0.150 F200.000
G3 X7.835 Y-9.087 Z-0.150 I-0.541 J0.772 K0.000 F200.000
G0 Z1.000
G0 X7.766 Y-9.103 Z1.000
G0 X7.766 Y-9.103 Z0.500
G1 X7.766 Y-9.103 Z-0.150 F150.000
G3 X6.606 Y-8.613 Z-0.150 I-0.756 J-0.170 K0.000 F200.000
G3 X6.658 Y-10.100 Z-0.150 I0.529 J-0.726 K0.000 F200.000
G3 X7.781 Y-9.351 Z-0.150 I0.351 J0.690 K0.000 F200.000
G3 X7.766 Y-9.103 Z-0.150 I-0.771 J0.078 K0.000 F200.000
G0 Z1.000
G0 Z1.000
G0 X7.766 Y-9.103
G0 X5.565 Y-8.527
G0 X5.565 Y-8.527 Z0.500
G1 X5.565 Y-8.527 Z-0.150 F150.000
G1 X5.565 Y-8.471 Z-0.150 F200.000
G1 X5.219 Y-8.471 Z-0.150 F200.000
G2 X5.119 Y-8.371 Z-0.150 I0.000 J0.100 K0.000 F200.000
G1 X5.119 Y-7.776 Z-0.150 F200.000
G1 X5.028 Y-7.776 Z-0.150 F200.000
G1 X5.028 Y-8.371 Z-0.150 F200.000
G2 X4.928 Y-8.471 Z-0.150 I-0.100 J0.000 K0.000 F200.000
G1 X4.632 Y-8.471 Z-0.150 F200.000
G1 X4.632 Y-8.527 Z-0.150 F200.000
G1 X4.928 Y-8.527 Z-0.150 F200.000
G2 X5.028 Y-8.627 Z-0.150 I0.000 J-0.100 K0.000 F200.000
G1 X5.028 Y-10.211 Z-0.150 F200.000
G1 X5.119 Y-10.211 Z-0.150 F200.000
G1 X5.119 Y-8.627 Z-0.150 F200.000
G2 X5.219 Y-8.527 Z-0.150 I0.100 J0.000 K0.000 F200.000
G1 X5.565 Y-8.527 Z-0.150 F200.000
G0 Z1.000
G0 X5.165 Y-8.502 Z1.000
G0 X5.165 Y-8.502 Z0.500
G1 X5.165 Y-8.502 Z-0.150 F150.000
G2 X5.074 Y-8.382 Z-0.150 I0.014 J0.106 K0.000 F200.000
G2 X4.981 Y-8.496 Z-0.150 I-0.104 J-0.011 K0.000 F200.000
G2 X5.073 Y-8.616 Z-0.150 I-0.014 J-0.106 K0.000 F200.000
G2 X5.165 Y-8.502 Z-0.150 I0.104 J0.011 K0.000 F200.000
G0 Z1.000
G0 X5.081 Y-8.493 Z1.000
G0 X5.081 Y-8.493 Z0.500
G1 X5.081 Y-8.493 Z-0.150 F150.000
G3 X5.066 Y-8.505 Z-0.150 I-0.008 J-0.006 K0.000 F200.000
G3 X5.081 Y-8.493 Z-0.150 I0.008 J0.006 K0.000 F200.000
G0 Z1.000
G0 Z1.000
G0 X5.081 Y-8.493
G0 X19.448 Y-8.935
G0 X19.448 Y-8.935 Z0.500
G1 X19.448 Y-8.935 Z-0.150 F150.000
G3 X19.449 Y-9.011 Z-0.150 I0.859 J-0.026 K0.000 F200.000
G3 X20.706 Y-9.829 Z-0.150 I0.858 J-0.057 K0.000 F200.000
G3 X21.062 Y-9.474 Z-0.150 I-0.223 J0.579 K0.000 F200.000
G3 X20.904 Y-9.576 Z-0.150 I-0.050 J-0.096 K0.000 F200.000
G2 X19.540 Y-9.002 Z-0.150 I-0.589 J0.508 K0.000 F200.000
G2 X20.968 Y-8.552 Z-0.150 I0.766 J0.058 K0.000 F200.000
G1 X21.062 Y-8.552 Z-0.150 F200.000
G3 X19.448 Y-8.935 Z-0.150 I-0.755 J-0.410 K0.000 F200.000
G0 Z1.000
G0 X19.533 Y-9.272 Z1.000
G0 X19.533 Y-9.272 Z0.500
G1 X19.533 Y-9.272 Z-0.150 F150.000
G3 X19.534 Y-9.280 Z-0.150 I0.021 J-0.001 K0.000 F200.000
G1 X19.533 Y-9.272 Z-0.150 F200.000
G0 Z1.000
G0 Z1.000
G0 X19.533 Y-9.272
G0 X21.865
G0 X21.865 Z0.500
G1 X21.865 Y-9.272 Z-0.150 F150.000
G1 X21.865 Y-9.883 Z-0.150 F200.000
G1 X21.956 Y-9.883 Z-0.150 F200.000
G1 X21.956 Y-7.367 Z-0.150 F200.000
G1 X21.865 Y-7.367 Z-0.150 F200.000
G1 X21.865 Y-9.272 Z-0.150 F200.000
G0 Z1.000
G0 Z1.000
G0 X21.865 Y-9.272
G0 X22.834 Y-7.617
G0 X22.834 Y-7.617 Z0.500
G1 X22.834 Y-7.617 Z-0.150 F150.000
G1 X22.949 Y-7.617 Z-0.150 F200.000
G1 X22.949 Y-7.436 Z-0.150 F200.000
G1 X22.834 Y-7.436 Z-0.150 F200.000
G1 X22.834 Y-7.617 Z-0.150 F200.000
G0 Z1.000
G0 X22.884 Y-7.567 Z1.000
G0 X22.884 Y-7.567 Z0.500
G1 X22.884 Y-7.567 Z-0.150 F150.000
G1 X22.899 Y-7.567 Z-0.150 F200.000
G1 X22.899 Y-7.486 Z-0.150 F200.000
G1 X22.884 Y-7.486 Z-0.150 F200.000
G1 X22.884 Y-7.567 Z-0.150 F200.000
G0 Z1.000
G0 Z1.000
G0 X22.884 Y-7.567
G0 Y-8.143
G0 Y-8.143 Z0.500
G1 X22.884 Y-8.143 Z-0.150 F150.000
G1 X22.846 Y-8.143 Z-0.150 F200.000
G1 X22.846 Y-9.883 Z-0.150 F200.000
G1 X22.937 Y-9.883 Z-0.150 F200.000
G1 X22.937 Y-8.143 Z-0.150 F200.000
G1 X22.884 Y-8.143 Z-0.150 F200.000
G0 Z1.000
G0 Z1.000
G0 X22.884 Y-8.143
G0 X23.827
G0 X23.827 Z0.500
G1 X23.827 Y-8.143 Z-0.150 F150.000
G1 X23.827 Y-10.652 Z-0.150 F200.000
G1 X23.918 Y-10.652 Z-0.150 F200.000
G1 X23.918 Y-9.669 Z-0.150 F200.000
G2 X24.094 Y-9.604 Z-0.150 I0.100 J0.000 K0.000 F200.000
G3 X25.539 Y-9.176 Z-0.150 I0.638 J0.500 K0.000 F200.000
G3 X25.109 Y-8.207 Z-0.150 I-0.895 J0.183 K0.000 F200.000
G3 X24.093 Y-8.420 Z-0.150 I-0.390 J-0.673 K0.000 F200.000
G2 X23.918 Y-8.353 Z-0.150 I-0.075 J0.066 K0.000 F200.000
G1 X23.918 Y-8.143 Z-0.150 F200.000
G1 X23.827 Y-8.143 Z-0.150 F200.000
G0 Z1.000
G0 X23.877 Y-8.370 Z1.000
G0 X23.877 Y-8.370 Z0.500
G1 X23.877 Y-8.370 Z-0.150 F150.000
G1 X23.877 Y-8.792 Z-0.150 F200.000
G2 X24.001 Y-8.494 Z-0.150 I0.589 J-0.070 K0.000 F200.000
G2 X23.877 Y-8.370 Z-0.150 I-0.009 J0.116 K0.000 F200.000
G0 Z1.000
G0 X24.063 Y-8.498 Z1.000
G0 X24.063 Y-8.498 Z0.500
G1 X24.063 Y-8.498 Z-0.150 F150.000
G3 X24.243 Y-9.725 Z-0.150 I0.750 J-0.517 K0.000 F200.000
G3 X25.460 Y-9.023 Z-0.150 I0.432 J0.656 K0.000 F200.000
G3 X24.269 Y-8.285 Z-0.150 I-0.784 J0.065 K0.000 F200.000
G3 X24.063 Y-8.498 Z-0.150 I0.544 J-0.730 K0.000 F200.000
G0 Z1.000
G0 X23.877 Y-9.229 Z1.000
G0 X23.877 Y-9.229 Z0.500
G1 X23.877 Y-9.229 Z-0.150 F150.000
G1 X23.877 Y-9.644 Z-0.150 F200.000
G2 X23.992 Y-9.521 Z-0.150 I0.131 J-0.007 K0.000 F200.000
G1 X23.993 Y-9.521 Z-0.150 F200.000
G2 X23.877 Y-9.229 Z-0.150 I0.562 J0.393 K0.000 F200.000
G0 Z1.000
G0 X25.473 Y-8.800 Z1.000
G0 X25.473 Y-8.800 Z0.500
G1 X25.473 Y-8.800 Z-0.150 F150.000
G3 X25.464 Y-8.741 Z-0.150 I-0.123 J0.011 K0.000 F200.000
G1 X25.473 Y-8.800 Z-0.150 F200.000
G0 Z1.000
G0 Z1.000
G0 X25.473 Y-8.800
G0 X29.496 Y-9.237
G0 X29.496 Y-9.237 Z0.500
G1 X29.496 Y-9.237 Z-0.150 F150.000
G3 X29.492 Y-9.379 Z-0.150 I0.854 J-0.093 K0.000 F200.000
G3 X30.750 Y-10.198 Z-0.150 I0.859 J-0.056 K0.000 F200.000
G3 X31.105 Y-9.842 Z-0.150 I-0.224 J0.579 K0.000 F200.000
G1 X31.005 Y-9.842 Z-0.150 F200.000
G2 X29.584 Y-9.367 Z-0.150 I-0.656 J0.400 K0.000 F200.000
G2 X31.006 Y-8.921 Z-0.150 I0.764 J0.052 K0.000 F200.000
G1 X31.105 Y-8.921 Z-0.150 F200.000
G3 X29.496 Y-9.237 Z-0.150 I-0.755 J-0.409 K0.000 F200.000
G0 Z1.000
G0 X29.551 Y-9.242 Z1.000
G0 X29.551 Y-9.242 Z0.500
G1 X29.551 Y-9.242 Z-0.150 F150.000
G3 X29.551 Y-9.262 Z-0.150 I0.150 J-0.013 K0.000 F200.000
G1 X29.561 Y-9.202 Z-0.150 F200.000
G3 X29.551 Y-9.242 Z-0.150 I0.140 J-0.054 K0.000 F200.000
G0 Z1.000
G0 Z1.000
G0 X29.551 Y-9.242
G0 X31.776 Y-9.332
G0 X31.776 Y-9.332 Z0.500
G1 X31.776 Y-9.332 Z-0.150 F150.000
G3 X31.824 Y-9.658 Z-0.150 I0.887 J-0.036 K0.000 F200.000
G3 X32.917 Y-10.248 Z-0.150 I0.817 J0.205 K0.000 F200.000
G1 X33.110 Y-10.165 Z-0.150 F200.000
G3 X32.914 Y-8.515 Z-0.150 I-0.540 J0.772 K0.000 F200.000
G3 X31.776 Y-9.332 Z-0.150 I-0.251 J-0.852 K0.000 F200.000
G0 Z1.000
G0 X31.878 Y-9.330 Z1.000
G0 X31.878 Y-9.330 Z0.500
G1 X31.878 Y-9.330 Z-0.150 F150.000
G3 X31.880 Y-9.372 Z-0.150 I0.769 J0.015 K0.000 F200.000
G3 X32.299 Y-10.141 Z-0.150 I0.825 J-0.049 K0.000 F200.000
G1 X32.378 Y-10.175 Z-0.150 F200.000
G3 X33.412 Y-9.237 Z-0.150 I0.265 J0.747 K0.000 F200.000
G3 X31.878 Y-9.330 Z-0.150 I-0.765 J-0.077 K0.000 F200.000
G0 Z1.000
G0 Z1.000
G0 X31.878 Y-9.330
G0 X34.282
G0 X34.282 Z0.500
G1 X34.282 Y-9.330 Z-0.150 F150.000
G1 X34.282 Y-10.252 Z-0.150 F200.000
G1 X34.373 Y-10.252 Z-0.150 F200.000
G1 X34.373 Y-7.736 Z-0.150 F200.000
G1 X34.282 Y-7.736 Z-0.150 F200.000
G1 X34.282 Y-9.330 Z-0.150 F200.000
G0 Z1.000
G0 Z1.000
G0 X34.282 Y-9.330
G0 X35.127 Y-9.351
G0 X35.127 Y-9.351 Z0.500
G1 X35.127 Y-9.351 Z-0.150 F150.000
G3 X35.203 Y-9.735 Z-0.150 I0.894 J-0.023 K0.000 F200.000
G3 X36.465 Y-10.165 Z-0.150 I0.810 J0.311 K0.000 F200.000
G3 X36.269 Y-8.515 Z-0.150 I-0.540 J0.772 K0.000 F200.000
G3 X35.127 Y-9.351 Z-0.150 I-0.248 J-0.859 K0.000 F200.000
G0 Z1.000
G0 X35.223 Y-9.354 Z1.000
G0 X35.223 Y-9.354 Z0.500
G1 X35.223 Y-9.354 Z-0.150 F150.000
G3 X35.285 Y-9.696 Z-0.150 I0.875 J-0.020 K0.000 F200.000
G3 X35.990 Y-10.218 Z-0.150 I0.697 J0.204 K0.000 F200.000
G3 X36.776 Y-9.392 Z-0.150 I0.030 J0.759 K0.000 F200.000
G3 X35.601 Y-8.653 Z-0.150 I-0.771 J0.077 K0.000 F200.000
G3 X35.223 Y-9.354 Z-0.150 I0.497 J-0.720 K0.000 F200.000
G0 Z1.000
G0 Z1.000
G0 X35.223 Y-9.354
G0 X37.618
G0 X37.618 Z0.500
G1 X37.618 Y-9.354 Z-0.150 F150.000
G1 X37.618 Y-9.535 Z-0.150 F200.000
G3 X38.629 Y-10.200 Z-0.150 I0.679 J-0.069 K0.000 F200.000
G3 X38.803 Y-10.050 Z-0.150 I-0.325 J0.553 K0.000 F200.000
G2 X37.708 Y-9.533 Z-0.150 I-0.445 J0.475 K0.000 F200.000
G1 X37.708 Y-8.512 Z-0.150 F200.000
G1 X37.618 Y-8.512 Z-0.150 F200.000
G1 X37.618 Y-9.354 Z-0.150 F200.000
G0 Z1.000
G0 X37.698 Y-9.773 Z1.000
G0 X37.698 Y-9.773 Z0.500
G1 X37.698 Y-9.773 Z-0.150 F150.000
G3 X37.763 Y-9.938 Z-0.150 I0.293 J0.021 K0.000 F200.000
G1 X37.698 Y-9.773 Z-0.150 F200.000
G0 Z1.000
G0 X38.869 Y-9.980 Z1.000
G0 X38.869 Y-9.980 Z0.500
G1 X38.869 Y-9.980 Z-0.150 F150.000
G2 X39.038 Y-10.049 Z-0.150 I0.071 J-0.068 K0.000 F200.000
G1 X39.038 Y-10.252 Z-0.150 F200.000
G1 X39.129 Y-10.252 Z-0.150 F200.000
G1 X39.129 Y-8.512 Z-0.150 F200.000
G1 X39.038 Y-8.512 Z-0.150 F200.000
G1 X39.037 Y-9.541 Z-0.150 F200.000
G2 X38.869 Y-9.980 Z-0.150 I-0.608 J-0.018 K0.000 F200.000
G0 Z1.000
G0 X38.981 Y-9.914 Z1.000
G0 X38.981 Y-9.914 Z0.500
G1 X38.981 Y-9.914 Z-0.150 F150.000
G2 X39.079 Y-10.033 Z-0.150 I-0.002 J-0.102 K0.000 F200.000
G1 X39.079 Y-9.599 Z-0.150 F200.000
G2 X38.981 Y-9.914 Z-0.150 I-0.602 J0.014 K0.000 F200.000
G0 Z1.000
G0 Z1.000
G0 X38.981 Y-9.914
G0 X40.018
G0 X40.018 Z0.500
G1 X40.018 Y-9.914 Z-0.150 F150.000
G1 X40.018 Y-10.252 Z-0.150 F200.000
G1 X40.110 Y-10.252 Z-0.150 F200.000
G2 X40.152 Y-9.190 Z-0.150 I3.836 J0.380 K0.000 F200.000
G2 X40.251 Y-8.978 Z-0.150 I0.525 J-0.115 K0.000 F200.000
G2 X40.110 Y-8.889 Z-0.150 I-0.043 J0.087 K0.000 F200.000
G1 X40.110 Y-8.512 Z-0.150 F200.000
G1 X40.018 Y-8.512 Z-0.150 F200.000
G1 X40.018 Y-9.914 Z-0.150 F200.000
G0 Z1.000
G0 X40.068 Y-9.428 Z1.000
G0 X40.068 Y-9.428 Z0.500
G1 X40.068 Y-9.428 Z-0.150 F150.000
G2 X40.161 Y-9.026 Z-0.150 I0.904 J0.003 K0.000 F200.000
G2 X40.068 Y-8.915 Z-0.150 I0.024 J0.114 K0.000 F200.000
G1 X40.068 Y-9.428 Z-0.150 F200.000
G0 Z1.000
G0 X40.340 Y-8.841 Z1.000
G0 X40.340 Y-8.841 Z0.500
G1 X40.340 Y-8.841 Z-0.150 F150.000
G2 X40.843 Y-8.578 Z-0.150 I0.538 J-0.417 K0.000 F200.000
G1 X40.843 Y-8.488 Z-0.150 F200.000
G3 X40.340 Y-8.841 Z-0.150 I0.056 J-0.615 K0.000 F200.000
G0 Z1.000
G0 Z1.000
G0 X40.340 Y-8.841
G0 X38.439 Y-4.607
G0 X38.439 Y-4.607 Z0.500
G1 X38.439 Y-4.607 Z-0.150 F150.000
G1 X38.439 Y-3.585 Z-0.150 F200.000
G3 X37.269 Y-3.052 Z-0.150 I-0.674 J0.070 K0.000 F200.000
G2 X38.348 Y-3.586 Z-0.150 I0.428 J-0.492 K0.000 F200.000
G1 X38.348 Y-4.607 Z-0.150 F200.000
G1 X38.439 Y-4.607 Z-0.150 F200.000
G0 Z1.000
G0 X38.357 Y-3.341 Z1.000
G0 X38.357 Y-3.341 Z0.500
G1 X38.357 Y-3.341 Z-0.150 F150.000
G3 X38.296 Y-3.194 Z-0.150 I-0.286 J-0.033 K0.000 F200.000
G1 X38.357 Y-3.341 Z-0.150 F200.000
G0 Z1.000
G0 X37.186 Y-3.140 Z1.000
G0 X37.186 Y-3.140 Z0.500
G1 X37.186 Y-3.140 Z-0.150 F150.000
G2 X37.019 Y-3.070 Z-0.150 I-0.070 J0.069 K0.000 F200.000
G1 X37.019 Y-2.867 Z-0.150 F200.000
G1 X36.928 Y-2.867 Z-0.150 F200.000
G1 X36.928 Y-4.607 Z-0.150 F200.000
G1 X37.019 Y-4.607 Z-0.150 F200.000
G1 X37.019 Y-3.578 Z-0.150 F200.000
G2 X37.186 Y-3.140 Z-0.150 I0.561 J0.037 K0.000 F200.000
G0 Z1.000
G0 X37.073 Y-3.204 Z1.000
G0 X37.073 Y-3.204 Z0.500
G1 X37.073 Y-3.204 Z-0.150 F150.000
G2 X36.978 Y-3.086 Z-0.150 I0.004 J0.100 K0.000 F200.000
G1 X36.978 Y-3.516 Z-0.150 F200.000
G2 X37.073 Y-3.204 Z-0.150 I0.598 J-0.012 K0.000 F200.000
G0 Z1.000
G0 Z1.000
G0 X37.073 Y-3.204
G0 X36.038
G0 X36.038 Z0.500
G1 X36.038 Y-3.204 Z-0.150 F150.000
G1 X36.038 Y-2.867 Z-0.150 F200.000
G1 X35.947 Y-2.867 Z-0.150 F200.000
G1 X35.947 Y-4.607 Z-0.150 F200.000
G1 X36.038 Y-4.607 Z-0.150 F200.000
G1 X36.038 Y-3.204 Z-0.150 F200.000
G0 Z1.000
G0 Z1.000
G0 X36.038 Y-3.204
G0 X35.057
G0 X35.057 Z0.500
G1 X35.057 Y-3.204 Z-0.150 F150.000
G1 X35.057 Y-2.867 Z-0.150 F200.000
G1 X34.966 Y-2.867 Z-0.150 F200.000
G2 X34.937 Y-3.152 Z-0.150 I-0.359 J-0.107 K0.000 F200.000
G2 X34.698 Y-3.037 Z-0.150 I-0.066 J0.167 K0.000 F200.000
G3 X33.333 Y-3.735 Z-0.150 I-0.541 J-0.626 K0.000 F200.000
G3 X34.534 Y-4.557 Z-0.150 I0.830 J-0.075 K0.000 F200.000
G3 X34.790 Y-4.332 Z-0.150 I-0.334 J0.637 K0.000 F200.000
G2 X34.966 Y-4.397 Z-0.150 I0.076 J-0.064 K0.000 F200.000
G1 X34.966 Y-4.607 Z-0.150 F200.000
G1 X35.057 Y-4.607 Z-0.150 F200.000
G1 X35.057 Y-3.204 Z-0.150 F200.000
G0 Z1.000
G0 X35.007 Z1.000
G0 X35.007 Z0.500
G1 X35.007 Y-3.204 Z-0.150 F150.000
G1 X35.007 Y-3.107 Z-0.150 F200.000
G2 X34.888 Y-3.229 Z-0.150 I-0.099 J-0.022 K0.000 F200.000
G2 X35.007 Y-3.537 Z-0.150 I-0.483 J-0.363 K0.000 F200.000
G1 X35.007 Y-3.204 Z-0.150 F200.000
G0 Z1.000
G0 X34.877 Y-3.281 Z1.000
G0 X34.877 Y-3.281 Z0.500
G1 X34.877 Y-3.281 Z-0.150 F150.000
G3 X34.021 Y-2.920 Z-0.150 I-0.670 J-0.395 K0.000 F200.000
G3 X33.856 Y-4.497 Z-0.150 I0.272 J-0.825 K0.000 F200.000
G3 X34.981 Y-3.747 Z-0.150 I0.352 J0.691 K0.000 F200.000
G3 X34.877 Y-3.281 Z-0.150 I-0.774 J0.072 K0.000 F200.000
G0 Z1.000
G0 X35.007 Y-3.956 Z1.000
G0 X35.007 Y-3.956 Z0.500
G1 X35.007 Y-3.956 Z-0.150 F150.000
G2 X34.883 Y-4.257 Z-0.150 I-0.588 J0.068 K0.000 F200.000
G2 X35.007 Y-4.381 Z-0.150 I0.010 J-0.115 K0.000 F200.000
G1 X35.007 Y-3.956 Z-0.150 F200.000
G0 Z1.000
G0 Z1.000
G0 X35.007 Y-3.956
G0 X35.935 Y-2.341
G0 X35.935 Y-2.341 Z0.500
G1 X35.935 Y-2.341 Z-0.150 F150.000
G1 X36.049 Y-2.341 Z-0.150 F200.000
G1 X36.049 Y-2.161 Z-0.150 F200.000
G1 X35.935 Y-2.161 Z-0.150 F200.000
G1 X35.935 Y-2.341 Z-0.150 F200.000
G0 Z1.000
G0 X35.985 Y-2.291 Z1.000
G0 X35.985 Y-2.291 Z0.500
G1 X35.985 Y-2.291 Z-0.150 F150.000
G1 X35.999 Y-2.291 Z-0.150 F200.000
G1 X35.999 Y-2.211 Z-0.150 F200.000
G1 X35.985 Y-2.211 Z-0.150 F200.000
G1 X35.985 Y-2.291 Z-0.150 F200.000
G0 Z1.000
G0 Z1.000
G0 X35.985 Y-2.291
G0 X32.563 Y-2.867
G0 X32.563 Y-2.867 Z0.500
G1 X32.563 Y-2.867 Z-0.150 F150.000
G1 X32.472 Y-2.867 Z-0.150 F200.000
G2 X32.442 Y-3.148 Z-0.150 I-0.354 J-0.105 K0.000 F200.000
G2 X32.208 Y-3.037 Z-0.150 I-0.067 J0.162 K0.000 F200.000
G3 X30.839 Y-3.721 Z-0.150 I-0.544 J-0.623 K0.000 F200.000
G3 X32.297 Y-4.296 Z-0.150 I0.814 J-0.072 K0.000 F200.000
G2 X32.472 Y-4.362 Z-0.150 I0.075 J-0.066 K0.000 F200.000
G2 X32.303 Y-5.135 Z-0.150 I-0.905 J-0.207 K0.000 F200.000
G2 X31.718 Y-5.342 Z-0.150 I-0.512 J0.515 K0.000 F200.000
G2 X31.106 Y-5.040 Z-0.150 I-0.056 J0.659 K0.000 F200.000
G1 X31.000 Y-5.040 Z-0.150 F200.000
G3 X31.743 Y-5.406 Z-0.150 I0.666 J0.415 K0.000 F200.000
G3 X32.234 Y-5.299 Z-0.150 I0.050 J0.948 K0.000 F200.000
G3 X32.505 Y-4.987 Z-0.150 I-0.285 J0.521 K0.000 F200.000
G1 X32.563 Y-4.641 Z-0.150 F200.000
G1 X32.563 Y-2.867 Z-0.150 F200.000
G0 Z1.000
G0 X32.513 Y-3.101 Z1.000
G0 X32.513 Y-3.101 Z0.500
G1 X32.513 Y-3.101 Z-0.150 F150.000
G2 X32.398 Y-3.225 Z-0.150 I-0.132 J0.007 K0.000 F200.000
G2 X32.513 Y-3.508 Z-0.150 I-0.573 J-0.398 K0.000 F200.000
G1 X32.513 Y-3.101 Z-0.150 F200.000
G0 Z1.000
G0 X32.339 Y-3.230 Z1.000
G0 X32.339 Y-3.230 Z0.500
G1 X32.339 Y-3.230 Z-0.150 F150.000
G3 X31.731 Y-2.901 Z-0.150 I-0.657 J-0.488 K0.000 F200.000
G3 X31.283 Y-4.423 Z-0.150 I0.024 J-0.834 K0.000 F200.000
G3 X32.432 Y-4.045 Z-0.150 I0.423 J0.648 K0.000 F200.000
G3 X32.339 Y-3.230 Z-0.150 I-0.751 J0.326 K0.000 F200.000
G0 Z1.000
G0 X32.513 Y-3.885 Z1.000
G0 X32.513 Y-3.885 Z0.500
G1 X32.513 Y-3.885 Z-0.150 F150.000
G2 X32.394 Y-4.223 Z-0.150 I-0.612 J0.026 K0.000 F200.000
G2 X32.513 Y-4.347 Z-0.150 I0.006 J-0.114 K0.000 F200.000
G1 X32.513 Y-3.885 Z-0.150 F200.000
G0 Z1.000
G0 X32.415 Y-5.042 Z1.000
G0 X32.415 Y-5.042 Z0.500
G1 X32.415 Y-5.042 Z-0.150 F150.000
G1 X32.365 Y-5.128 Z-0.150 F200.000
G3 X32.415 Y-5.042 Z-0.150 I-0.155 J0.150 K0.000 F200.000
G0 Z1.000
G0 Z1.000
G0 X32.415 Y-5.042
G0 X25.351
G0 X25.351 Z0.500
G1 X25.351 Y-5.042 Z-0.150 F150.000
G1 X25.351 Y-5.025 Z-0.150 F200.000
G1 X25.101 Y-5.025 Z-0.150 F200.000
G1 X25.090 Y-5.029 Z-0.150 F200.000
G1 X22.677 Y-5.029 Z-0.150 F200.000
G2 X22.577 Y-4.929 Z-0.150 I0.000 J0.100 K0.000 F200.000
G1 X22.577 Y-1.621 Z-0.150 F200.000
G1 X22.425 Y-1.621 Z-0.150 F200.000
G1 X22.425 Y-4.929 Z-0.150 F200.000
G2 X22.325 Y-5.029 Z-0.150 I-0.100 J0.000 K0.000 F200.000
G1 X19.910 Y-5.029 Z-0.150 F200.000
G1 X19.899 Y-5.025 Z-0.150 F200.000
G1 X19.649 Y-5.025 Z-0.150 F200.000
G1 X19.649 Y-5.947 Z-0.150 F200.000
G1 X19.810 Y-5.947 Z-0.150 F200.000
G1 X19.810 Y-5.282 Z-0.150 F200.000
G2 X19.910 Y-5.182 Z-0.150 I0.100 J0.000 K0.000 F200.000
G1 X22.325 Y-5.182 Z-0.150 F200.000
G2 X22.425 Y-5.282 Z-0.150 I0.000 J-0.100 K0.000 F200.000
G1 X22.425 Y-5.947 Z-0.150 F200.000
G1 X22.577 Y-5.947 Z-0.150 F200.000
G1 X22.577 Y-5.282 Z-0.150 F200.000
G2 X22.677 Y-5.182 Z-0.150 I0.100 J0.000 K0.000 F200.000
G1 X25.090 Y-5.182 Z-0.150 F200.000
G2 X25.190 Y-5.282 Z-0.150 I0.000 J-0.100 K0.000 F200.000
G1 X25.190 Y-5.947 Z-0.150 F200.000
G1 X25.351 Y-5.947 Z-0.150 F200.000
G1 X25.351 Y-5.042 Z-0.150 F200.000
G0 Z1.000
G0 X25.301 Y-5.075 Z1.000
G0 X25.301 Y-5.075 Z0.500
G1 X25.301 Y-5.075 Z-0.150 F150.000
G2 X22.677 Y-5.079 Z-0.150 I-1.418 J59.103 K0.000 F200.000
G2 X22.527 Y-4.929 Z-0.150 I0.000 J0.150 K0.000 F200.000
G1 X22.527 Y-1.671 Z-0.150 F200.000
G1 X22.475 Y-1.671 Z-0.150 F200.000
G1 X22.475 Y-4.929 Z-0.150 F200.000
G2 X22.325 Y-5.079 Z-0.150 I-0.150 J0.000 K0.000 F200.000
G1 X19.910 Y-5.079 Z-0.150 F200.000
G3 X19.699 Y-5.075 Z-0.150 I-0.112 J-0.289 K0.000 F200.000
G1 X19.699 Y-5.897 Z-0.150 F200.000
G1 X19.760 Y-5.897 Z-0.150 F200.000
G1 X19.760 Y-5.282 Z-0.150 F200.000
G2 X19.910 Y-5.132 Z-0.150 I0.150 J0.000 K0.000 F200.000
G1 X22.325 Y-5.132 Z-0.150 F200.000
G2 X22.475 Y-5.282 Z-0.150 I0.000 J-0.150 K0.000 F200.000
G1 X22.475 Y-5.897 Z-0.150 F200.000
G1 X22.527 Y-5.897 Z-0.150 F200.000
G1 X22.527 Y-5.282 Z-0.150 F200.000
G2 X22.677 Y-5.132 Z-0.150 I0.150 J0.000 K0.000 F200.000
G1 X25.090 Y-5.132 Z-0.150 F200.000
G2 X25.240 Y-5.282 Z-0.150 I0.000 J-0.150 K0.000 F200.000
G1 X25.240 Y-5.897 Z-0.150 F200.000
G1 X25.301 Y-5.897 Z-0.150 F200.000
G1 X25.301 Y-5.075 Z-0.150 F200.000
G0 Z1.000
G0 X25.251 Y-5.125 Z1.000
G0 X25.251 Y-5.125 Z0.500
G1 X25.251 Y-5.125 Z-0.150 F150.000
G1 X25.209 Y-5.125 Z-0.150 F200.000
G1 X25.251 Y-5.207 Z-0.150 F200.000
G1 X25.251 Y-5.125 Z-0.150 F200.000
G0 Z1.000
G0 X22.620 Y-5.111 Z1.000
G0 X22.620 Y-5.111 Z0.500
G1 X22.620 Y-5.111 Z-0.150 F150.000
G2 X22.507 Y-4.987 Z-0.150 I0.005 J0.119 K0.000 F200.000
G2 X22.382 Y-5.100 Z-0.150 I-0.119 J0.005 K0.000 F200.000
G2 X22.496 Y-5.224 Z-0.150 I-0.005 J-0.119 K0.000 F200.000
G2 X22.620 Y-5.111 Z-0.150 I0.119 J-0.005 K0.000 F200.000
G0 Z1.000
G0 X22.512 Y-5.106 Z1.000
G0 X22.512 Y-5.106 Z0.500
G1 X22.512 Y-5.106 Z-0.150 F150.000
G3 X22.501 Y-5.095 Z-0.150 I-0.011 J0.000 K0.000 F200.000
G3 X22.491 Y-5.106 Z-0.150 I-0.000 J-0.011 K0.000 F200.000
G3 X22.501 Y-5.116 Z-0.150 I0.011 J-0.000 K0.000 F200.000
G3 X22.512 Y-5.106 Z-0.150 I0.000 J0.011 K0.000 F200.000
G0 Z1.000
G0 X19.826 Y-5.125 Z1.000
G0 X19.826 Y-5.125 Z0.500
G1 X19.826 Y-5.125 Z-0.150 F150.000
G1 X19.749 Y-5.125 Z-0.150 F200.000
G1 X19.749 Y-5.164 Z-0.150 F200.000
G1 X19.826 Y-5.125 Z-0.150 F200.000
G0 Z1.000
G0 Z1.000
(Finish operation: Pocket_Shape)
(Begin postamble)
M5
G17 G90
M2
