(Exported by FreeCAD)
(Post Processor: grbl_post)
(Output Time:2022-12-07 21:33:57.036940)
(Begin preamble)
G17 G90
G21
(Begin operation: G54)
(Path: G54)
G54
G0 Z5.000
(Finish operation: G54)
(Begin operation: ballend-020mm001)
(Path: ballend-020mm001)
(ballend-020mm001)
(Begin toolchange)
( M6 T2 )
M3 S10000
(Finish operation: ballend-020mm001)
(Begin operation: Pocket_Shape)
(Path: Pocket_Shape)
(Pocket_Shape)
G0 Z5.000
G0 X39.887 Y-2.323
G0 Z3.000
G1 X39.887 Y-2.323 Z-0.200 F100.000
G3 X39.580 Y-2.162 Z-0.200 I-0.429 J-0.445 K0.000 F250.000
G3 X39.189 Y-2.134 Z-0.200 I-0.271 J-1.038 K0.000 F250.000
G1 X23.065 Y-3.983 Z-0.200 F250.000
G3 X22.150 Y-4.833 Z-0.200 I0.034 J-0.953 K0.000 F250.000
G1 X22.150 Y-13.265 Z-0.200 F250.000
G3 X22.725 Y-13.877 Z-0.200 I0.635 J0.020 K0.000 F250.000
G1 X23.043 Y-13.886 Z-0.200 F250.000
G1 X39.163 Y-12.038 Z-0.200 F250.000
G3 X40.076 Y-11.188 Z-0.200 I-0.034 J0.952 K0.000 F250.000
G1 X40.076 Y-2.756 Z-0.200 F250.000
G3 X39.887 Y-2.323 Z-0.200 I-0.618 J-0.012 K0.000 F250.000
G0 Z5.000
G0 X39.838 Y-2.375 Z5.000
G0 X39.838 Y-2.375 Z3.000
G1 X39.838 Y-2.375 Z-0.200 F100.000
G3 X39.269 Y-2.181 Z-0.200 I-0.492 J-0.516 K0.000 F250.000
G1 X39.252 Y-2.190 Z-0.200 F250.000
G1 X39.252 Y-2.181 Z-0.200 F250.000
G1 X39.172 Y-2.187 Z-0.200 F250.000
G1 X23.036 Y-4.046 Z-0.200 F250.000
G3 X22.211 Y-4.777 Z-0.200 I0.084 J-0.926 K0.000 F250.000
G1 X22.202 Y-13.245 Z-0.200 F250.000
G3 X22.249 Y-13.461 Z-0.200 I0.521 J0.001 K0.000 F250.000
G3 X23.045 Y-13.834 Z-0.200 I0.649 J0.347 K0.000 F250.000
G1 X39.184 Y-11.961 Z-0.200 F250.000
G3 X40.016 Y-11.220 Z-0.200 I-0.162 J1.019 K0.000 F250.000
G1 X40.025 Y-2.776 Z-0.200 F250.000
G3 X39.982 Y-2.568 Z-0.200 I-0.520 J-0.001 K0.000 F250.000
G3 X39.838 Y-2.375 Z-0.200 I-0.636 J-0.322 K0.000 F250.000
G0 Z5.000
G0 X39.820 Y-11.665 Z5.000
G0 X39.820 Y-11.665 Z3.000
G1 X39.820 Y-11.665 Z-0.200 F100.000
G1 X39.807 Y-11.679 Z-0.200 F250.000
G3 X39.820 Y-11.665 Z-0.200 I-0.024 J0.037 K0.000 F250.000
G0 Z5.000
G0 Z5.000
G0 X39.820 Y-11.665
G0 X40.312 Y-12.080
G0 X40.312 Y-12.080 Z3.000
G1 X40.312 Y-12.080 Z-0.200 F100.000
G3 X40.548 Y-11.585 Z-0.200 I-0.823 J0.695 K0.000 F250.000
G1 X40.552 Y-2.235 Z-0.200 F250.000
G3 X39.775 Y-1.620 Z-0.200 I-0.776 J-0.182 K0.000 F250.000
G1 X39.773 Y-1.626 Z-0.200 F250.000
G3 X39.680 Y-1.622 Z-0.200 I-0.051 J-0.110 K0.000 F250.000
G1 X22.455 Y-3.591 Z-0.200 F250.000
G3 X21.684 Y-4.283 Z-0.200 I0.071 J-0.853 K0.000 F250.000
G1 X21.684 Y-13.737 Z-0.200 F250.000
G1 X21.708 Y-13.896 Z-0.200 F250.000
G3 X22.614 Y-14.401 Z-0.200 I0.766 J0.309 K0.000 F250.000
G1 X39.717 Y-12.438 Z-0.200 F250.000
G3 X40.312 Y-12.080 Z-0.200 I-0.227 J1.052 K0.000 F250.000
G0 Z5.000
G0 X40.389 Y-12.145 Z5.000
G0 X40.389 Y-12.145 Z3.000
G1 X40.389 Y-12.145 Z-0.200 F100.000
G3 X40.647 Y-11.596 Z-0.200 I-0.898 J0.758 K0.000 F250.000
G1 X40.652 Y-2.235 Z-0.200 F250.000
G1 X40.632 Y-2.117 Z-0.200 F250.000
G3 X39.793 Y-1.522 Z-0.200 I-0.881 J-0.352 K0.000 F250.000
G1 X39.792 Y-1.530 Z-0.200 F250.000
G3 X39.675 Y-1.522 Z-0.200 I-0.071 J-0.176 K0.000 F250.000
G1 X22.443 Y-3.492 Z-0.200 F250.000
G3 X21.587 Y-4.258 Z-0.200 I0.084 J-0.955 K0.000 F250.000
G1 X21.584 Y-13.737 Z-0.200 F250.000
G1 X21.610 Y-13.912 Z-0.200 F250.000
G3 X22.611 Y-14.501 Z-0.200 I0.860 J0.316 K0.000 F250.000
G1 X39.729 Y-12.537 Z-0.200 F250.000
G3 X40.389 Y-12.145 Z-0.200 I-0.238 J1.151 K0.000 F250.000
G0 Z5.000
G0 X40.500 Y-12.240 Z5.000
G0 X40.500 Y-12.240 Z3.000
G1 X40.500 Y-12.240 Z-0.200 F100.000
G3 X40.712 Y-11.873 Z-0.200 I-0.867 J0.744 K0.000 F250.000
G3 X40.745 Y-11.053 Z-0.200 I-2.862 J0.526 K0.000 F250.000
G2 X40.814 Y-10.920 Z-0.200 I0.101 J0.032 K0.000 F250.000
G1 X40.745 Y-10.783 Z-0.200 F250.000
G2 X40.783 Y-10.345 Z-0.200 I0.693 J0.160 K0.000 F250.000
G1 X40.945 Y-10.263 Z-0.200 F250.000
G1 X61.800 Y-10.263 Z-0.200 F250.000
G1 X61.800 Y-10.163 Z-0.200 F250.000
G1 X40.945 Y-10.163 Z-0.200 F250.000
G2 X40.745 Y-9.963 Z-0.200 I-0.000 J0.200 K0.000 F250.000
G1 X40.745 Y-9.466 Z-0.200 F250.000
G2 X40.814 Y-9.332 Z-0.200 I0.101 J0.032 K0.000 F250.000
G1 X40.745 Y-9.196 Z-0.200 F250.000
G2 X40.783 Y-8.758 Z-0.200 I0.693 J0.160 K0.000 F250.000
G1 X40.945 Y-8.675 Z-0.200 F250.000
G1 X61.800 Y-8.675 Z-0.200 F250.000
G1 X61.800 Y-8.576 Z-0.200 F250.000
G1 X40.945 Y-8.576 Z-0.200 F250.000
G2 X40.745 Y-8.376 Z-0.200 I-0.000 J0.200 K0.000 F250.000
G1 X40.745 Y-7.878 Z-0.200 F250.000
G2 X40.814 Y-7.745 Z-0.200 I0.101 J0.032 K0.000 F250.000
G1 X40.745 Y-7.608 Z-0.200 F250.000
G2 X40.783 Y-7.170 Z-0.200 I0.693 J0.160 K0.000 F250.000
G1 X40.945 Y-7.088 Z-0.200 F250.000
G1 X61.800 Y-7.088 Z-0.200 F250.000
G1 X61.800 Y-6.988 Z-0.200 F250.000
G1 X40.945 Y-6.988 Z-0.200 F250.000
G2 X40.745 Y-6.788 Z-0.200 I-0.000 J0.200 K0.000 F250.000
G1 X40.745 Y-6.291 Z-0.200 F250.000
G2 X40.814 Y-6.157 Z-0.200 I0.101 J0.032 K0.000 F250.000
G1 X40.745 Y-6.021 Z-0.200 F250.000
G2 X40.783 Y-5.583 Z-0.200 I0.693 J0.160 K0.000 F250.000
G1 X40.945 Y-5.500 Z-0.200 F250.000
G1 X61.800 Y-5.500 Z-0.200 F250.000
G1 X61.800 Y-5.401 Z-0.200 F250.000
G1 X40.945 Y-5.401 Z-0.200 F250.000
G2 X40.745 Y-5.201 Z-0.200 I-0.000 J0.200 K0.000 F250.000
G1 X40.745 Y-2.120 Z-0.200 F250.000
G3 X40.188 Y-1.438 Z-0.200 I-0.700 J-0.003 K0.000 F250.000
G3 X39.780 Y-1.408 Z-0.200 I-0.285 J-1.076 K0.000 F250.000
G1 X22.500 Y-3.385 Z-0.200 F250.000
G3 X21.517 Y-4.145 Z-0.200 I0.094 J-1.136 K0.000 F250.000
G3 X21.484 Y-5.201 Z-0.200 I3.678 J-0.644 K0.000 F250.000
G2 X21.284 Y-5.401 Z-0.200 I-0.200 J-0.000 K0.000 F250.000
G1 X0.200 Y-5.401 Z-0.200 F250.000
G1 X0.200 Y-5.500 Z-0.200 F250.000
G1 X21.284 Y-5.500 Z-0.200 F250.000
G2 X21.484 Y-5.700 Z-0.200 I0.000 J-0.200 K0.000 F250.000
G2 X21.446 Y-6.138 Z-0.200 I-0.693 J-0.160 K0.000 F250.000
G1 X21.415 Y-6.154 Z-0.200 F250.000
G1 X21.484 Y-6.291 Z-0.200 F250.000
G1 X21.484 Y-6.788 Z-0.200 F250.000
G2 X21.284 Y-6.988 Z-0.200 I-0.200 J-0.000 K0.000 F250.000
G1 X0.200 Y-6.988 Z-0.200 F250.000
G1 X0.200 Y-7.088 Z-0.200 F250.000
G1 X21.284 Y-7.088 Z-0.200 F250.000
G2 X21.484 Y-7.288 Z-0.200 I0.000 J-0.200 K0.000 F250.000
G2 X21.446 Y-7.726 Z-0.200 I-0.693 J-0.160 K0.000 F250.000
G1 X21.415 Y-7.742 Z-0.200 F250.000
G1 X21.484 Y-7.878 Z-0.200 F250.000
G1 X21.484 Y-8.376 Z-0.200 F250.000
G2 X21.284 Y-8.576 Z-0.200 I-0.200 J-0.000 K0.000 F250.000
G1 X0.200 Y-8.576 Z-0.200 F250.000
G1 X0.200 Y-8.675 Z-0.200 F250.000
G1 X21.284 Y-8.675 Z-0.200 F250.000
G2 X21.484 Y-8.875 Z-0.200 I0.000 J-0.200 K0.000 F250.000
G2 X21.446 Y-9.313 Z-0.200 I-0.693 J-0.160 K0.000 F250.000
G1 X21.415 Y-9.329 Z-0.200 F250.000
G1 X21.484 Y-9.466 Z-0.200 F250.000
G1 X21.484 Y-9.963 Z-0.200 F250.000
G2 X21.284 Y-10.163 Z-0.200 I-0.200 J-0.000 K0.000 F250.000
G1 X0.200 Y-10.163 Z-0.200 F250.000
G1 X0.200 Y-10.263 Z-0.200 F250.000
G1 X21.284 Y-10.263 Z-0.200 F250.000
G2 X21.484 Y-10.463 Z-0.200 I0.000 J-0.200 K0.000 F250.000
G2 X21.446 Y-10.901 Z-0.200 I-0.693 J-0.160 K0.000 F250.000
G1 X21.415 Y-10.917 Z-0.200 F250.000
G1 X21.484 Y-11.053 Z-0.200 F250.000
G1 X21.484 Y-13.899 Z-0.200 F250.000
G3 X22.325 Y-14.619 Z-0.200 I0.754 J0.029 K0.000 F250.000
G3 X22.446 Y-14.612 Z-0.200 I-0.006 J1.084 K0.000 F250.000
G1 X39.727 Y-12.634 Z-0.200 F250.000
G3 X40.500 Y-12.240 Z-0.200 I-0.094 J1.139 K0.000 F250.000
G0 Z5.000
G0 X40.576 Y-12.306 Z5.000
G0 X40.576 Y-12.306 Z3.000
G1 X40.576 Y-12.306 Z-0.200 F100.000
G3 X40.809 Y-11.900 Z-0.200 I-0.942 J0.811 K0.000 F250.000
G3 X40.845 Y-11.053 Z-0.200 I-2.957 J0.550 K0.000 F250.000
G2 X40.945 Y-10.953 Z-0.200 I0.100 J0.000 K0.000 F250.000
G1 X61.900 Y-10.953 Z-0.200 F250.000
G1 X61.900 Y-10.883 Z-0.200 F250.000
G1 X40.945 Y-10.883 Z-0.200 F250.000
G2 X40.845 Y-10.783 Z-0.200 I-0.000 J0.100 K0.000 F250.000
G1 X40.845 Y-10.463 Z-0.200 F250.000
G2 X40.945 Y-10.363 Z-0.200 I0.100 J0.000 K0.000 F250.000
G1 X61.900 Y-10.363 Z-0.200 F250.000
G1 X61.900 Y-10.063 Z-0.200 F250.000
G1 X40.945 Y-10.063 Z-0.200 F250.000
G2 X40.845 Y-9.963 Z-0.200 I-0.000 J0.100 K0.000 F250.000
G1 X40.845 Y-9.466 Z-0.200 F250.000
G2 X40.945 Y-9.366 Z-0.200 I0.100 J0.000 K0.000 F250.000
G1 X61.900 Y-9.366 Z-0.200 F250.000
G1 X61.900 Y-9.296 Z-0.200 F250.000
G1 X40.945 Y-9.296 Z-0.200 F250.000
G2 X40.845 Y-9.196 Z-0.200 I-0.000 J0.100 K0.000 F250.000
G1 X40.845 Y-8.875 Z-0.200 F250.000
G2 X40.945 Y-8.775 Z-0.200 I0.100 J0.000 K0.000 F250.000
G1 X61.900 Y-8.775 Z-0.200 F250.000
G1 X61.900 Y-8.476 Z-0.200 F250.000
G1 X40.945 Y-8.476 Z-0.200 F250.000
G2 X40.845 Y-8.376 Z-0.200 I-0.000 J0.100 K0.000 F250.000
G1 X40.845 Y-7.878 Z-0.200 F250.000
G2 X40.945 Y-7.778 Z-0.200 I0.100 J0.000 K0.000 F250.000
G1 X61.900 Y-7.778 Z-0.200 F250.000
G1 X61.900 Y-7.708 Z-0.200 F250.000
G1 X40.945 Y-7.708 Z-0.200 F250.000
G2 X40.845 Y-7.608 Z-0.200 I-0.000 J0.100 K0.000 F250.000
G1 X40.845 Y-7.288 Z-0.200 F250.000
G2 X40.945 Y-7.188 Z-0.200 I0.100 J0.000 K0.000 F250.000
G1 X61.900 Y-7.188 Z-0.200 F250.000
G1 X61.900 Y-6.888 Z-0.200 F250.000
G1 X40.945 Y-6.888 Z-0.200 F250.000
G2 X40.845 Y-6.788 Z-0.200 I-0.000 J0.100 K0.000 F250.000
G1 X40.845 Y-6.291 Z-0.200 F250.000
G2 X40.945 Y-6.191 Z-0.200 I0.100 J0.000 K0.000 F250.000
G1 X61.900 Y-6.191 Z-0.200 F250.000
G1 X61.900 Y-6.121 Z-0.200 F250.000
G1 X40.945 Y-6.121 Z-0.200 F250.000
G2 X40.845 Y-6.021 Z-0.200 I-0.000 J0.100 K0.000 F250.000
G1 X40.845 Y-5.700 Z-0.200 F250.000
G2 X40.945 Y-5.600 Z-0.200 I0.100 J0.000 K0.000 F250.000
G1 X61.900 Y-5.600 Z-0.200 F250.000
G1 X61.900 Y-5.301 Z-0.200 F250.000
G1 X40.945 Y-5.301 Z-0.200 F250.000
G2 X40.845 Y-5.201 Z-0.200 I-0.000 J0.100 K0.000 F250.000
G1 X40.845 Y-2.117 Z-0.200 F250.000
G3 X40.213 Y-1.340 Z-0.200 I-0.800 J-0.005 K0.000 F250.000
G3 X39.770 Y-1.308 Z-0.200 I-0.307 J-1.167 K0.000 F250.000
G1 X22.483 Y-3.287 Z-0.200 F250.000
G3 X21.420 Y-4.117 Z-0.200 I0.111 J-1.236 K0.000 F250.000
G3 X21.384 Y-5.201 Z-0.200 I3.773 J-0.668 K0.000 F250.000
G2 X21.284 Y-5.301 Z-0.200 I-0.100 J-0.000 K0.000 F250.000
G1 X0.100 Y-5.301 Z-0.200 F250.000
G1 X0.100 Y-5.600 Z-0.200 F250.000
G1 X21.284 Y-5.600 Z-0.200 F250.000
G2 X21.384 Y-5.700 Z-0.200 I0.000 J-0.100 K0.000 F250.000
G1 X21.384 Y-6.021 Z-0.200 F250.000
G2 X21.284 Y-6.121 Z-0.200 I-0.100 J-0.000 K0.000 F250.000
G1 X0.100 Y-6.121 Z-0.200 F250.000
G1 X0.100 Y-6.191 Z-0.200 F250.000
G1 X21.284 Y-6.191 Z-0.200 F250.000
G2 X21.384 Y-6.291 Z-0.200 I0.000 J-0.100 K0.000 F250.000
G1 X21.384 Y-6.788 Z-0.200 F250.000
G2 X21.284 Y-6.888 Z-0.200 I-0.100 J-0.000 K0.000 F250.000
G1 X0.100 Y-6.888 Z-0.200 F250.000
G1 X0.100 Y-7.188 Z-0.200 F250.000
G1 X21.284 Y-7.188 Z-0.200 F250.000
G2 X21.384 Y-7.288 Z-0.200 I0.000 J-0.100 K0.000 F250.000
G1 X21.384 Y-7.608 Z-0.200 F250.000
G2 X21.284 Y-7.708 Z-0.200 I-0.100 J-0.000 K0.000 F250.000
G1 X0.100 Y-7.708 Z-0.200 F250.000
G1 X0.100 Y-7.778 Z-0.200 F250.000
G1 X21.284 Y-7.778 Z-0.200 F250.000
G2 X21.384 Y-7.878 Z-0.200 I0.000 J-0.100 K0.000 F250.000
G1 X21.384 Y-8.376 Z-0.200 F250.000
G2 X21.284 Y-8.476 Z-0.200 I-0.100 J-0.000 K0.000 F250.000
G1 X0.100 Y-8.476 Z-0.200 F250.000
G1 X0.100 Y-8.775 Z-0.200 F250.000
G1 X21.284 Y-8.775 Z-0.200 F250.000
G2 X21.384 Y-8.875 Z-0.200 I0.000 J-0.100 K0.000 F250.000
G1 X21.384 Y-9.196 Z-0.200 F250.000
G2 X21.284 Y-9.296 Z-0.200 I-0.100 J-0.000 K0.000 F250.000
G1 X0.100 Y-9.296 Z-0.200 F250.000
G1 X0.100 Y-9.366 Z-0.200 F250.000
G1 X21.284 Y-9.366 Z-0.200 F250.000
G2 X21.384 Y-9.466 Z-0.200 I0.000 J-0.100 K0.000 F250.000
G1 X21.384 Y-9.963 Z-0.200 F250.000
G2 X21.284 Y-10.063 Z-0.200 I-0.100 J-0.000 K0.000 F250.000
G1 X0.100 Y-10.063 Z-0.200 F250.000
G1 X0.100 Y-10.363 Z-0.200 F250.000
G1 X21.284 Y-10.363 Z-0.200 F250.000
G2 X21.384 Y-10.463 Z-0.200 I0.000 J-0.100 K0.000 F250.000
G1 X21.384 Y-10.783 Z-0.200 F250.000
G2 X21.284 Y-10.883 Z-0.200 I-0.100 J-0.000 K0.000 F250.000
G1 X0.100 Y-10.883 Z-0.200 F250.000
G1 X0.100 Y-10.953 Z-0.200 F250.000
G1 X21.284 Y-10.953 Z-0.200 F250.000
G2 X21.384 Y-11.053 Z-0.200 I0.000 J-0.100 K0.000 F250.000
G1 X21.384 Y-13.902 Z-0.200 F250.000
G3 X22.321 Y-14.720 Z-0.200 I0.852 J0.031 K0.000 F250.000
G3 X22.456 Y-14.711 Z-0.200 I-0.005 J1.212 K0.000 F250.000
G1 X39.744 Y-12.733 Z-0.200 F250.000
G3 X40.576 Y-12.306 Z-0.200 I-0.111 J1.238 K0.000 F250.000
G0 Z5.000
G0 X40.747 Y-10.247 Z5.000
G0 X40.747 Y-10.247 Z3.000
G1 X40.747 Y-10.247 Z-0.200 F100.000
G2 X40.787 Y-10.212 Z-0.200 I0.048 J-0.015 K0.000 F250.000
G1 X40.747 Y-10.177 Z-0.200 F250.000
G1 X40.747 Y-10.247 Z-0.200 F250.000
G0 Z5.000
G0 X40.748 Y-8.658 Z5.000
G0 X40.748 Y-8.658 Z3.000
G1 X40.748 Y-8.658 Z-0.200 F100.000
G2 X40.787 Y-8.625 Z-0.200 I0.047 J-0.015 K0.000 F250.000
G1 X40.748 Y-8.591 Z-0.200 F250.000
G1 X40.748 Y-8.658 Z-0.200 F250.000
G0 Z5.000
G0 X40.749 Y-7.069 Z5.000
G0 X40.749 Y-7.069 Z3.000
G1 X40.749 Y-7.069 Z-0.200 F100.000
G2 X40.787 Y-7.037 Z-0.200 I0.045 J-0.015 K0.000 F250.000
G1 X40.749 Y-7.004 Z-0.200 F250.000
G1 X40.749 Y-7.069 Z-0.200 F250.000
G0 Z5.000
G0 X40.750 Y-5.481 Z5.000
G0 X40.750 Y-5.481 Z3.000
G1 X40.750 Y-5.481 Z-0.200 F100.000
G2 X40.787 Y-5.450 Z-0.200 I0.044 J-0.015 K0.000 F250.000
G1 X40.750 Y-5.418 Z-0.200 F250.000
G1 X40.750 Y-5.481 Z-0.200 F250.000
G0 Z5.000
G0 X40.528 Y-1.777 Z5.000
G0 X40.528 Y-1.777 Z3.000
G1 X40.528 Y-1.777 Z-0.200 F100.000
G3 X40.271 Y-1.580 Z-0.200 I-0.395 J-0.250 K0.000 F250.000
G2 X40.528 Y-1.777 Z-0.200 I-0.290 J-0.645 K0.000 F250.000
G0 Z5.000
G0 X21.481 Y-5.417 Z5.000
G0 X21.481 Y-5.417 Z3.000
G1 X21.481 Y-5.417 Z-0.200 F100.000
G2 X21.442 Y-5.451 Z-0.200 I-0.048 J0.015 K0.000 F250.000
G1 X21.482 Y-5.486 Z-0.200 F250.000
G1 X21.481 Y-5.417 Z-0.200 F250.000
G0 Z5.000
G0 X21.482 Y-7.004 Z5.000
G0 X21.482 Y-7.004 Z3.000
G1 X21.482 Y-7.004 Z-0.200 F100.000
G2 X21.442 Y-7.039 Z-0.200 I-0.049 J0.015 K0.000 F250.000
G1 X21.482 Y-7.074 Z-0.200 F250.000
G1 X21.482 Y-7.004 Z-0.200 F250.000
G0 Z5.000
G0 X21.482 Y-8.591 Z5.000
G0 X21.482 Y-8.591 Z3.000
G1 X21.482 Y-8.591 Z-0.200 F100.000
G2 X21.442 Y-8.626 Z-0.200 I-0.049 J0.016 K0.000 F250.000
G1 X21.482 Y-8.662 Z-0.200 F250.000
G1 X21.482 Y-8.591 Z-0.200 F250.000
G0 Z5.000
G0 X21.483 Y-10.178 Z5.000
G0 X21.483 Y-10.178 Z3.000
G1 X21.483 Y-10.178 Z-0.200 F100.000
G2 X21.442 Y-10.214 Z-0.200 I-0.050 J0.016 K0.000 F250.000
G1 X21.483 Y-10.250 Z-0.200 F250.000
G1 X21.483 Y-10.178 Z-0.200 F250.000
G0 Z5.000
G0 Z5.000
(Finish operation: Pocket_Shape)
(Begin operation: Pocket_Shape001)
(Path: Pocket_Shape001)
(Pocket_Shape001)
G0 Z5.000
G0 X26.869 Y-4.466
G0 Z3.000
G1 X26.869 Y-4.466 Z-0.200 F100.000
G3 X25.888 Y-4.729 Z-0.200 I-0.319 J-0.772 K0.000 F250.000
G3 X25.875 Y-8.784 Z-0.200 I118.875 J-2.404 K0.000 F250.000
G2 X25.594 Y-8.919 Z-0.200 I-0.246 J0.153 K0.000 F250.000
G2 X23.962 Y-9.167 Z-0.200 I-3.715 J18.941 K0.000 F250.000
G2 X23.754 Y-8.736 Z-0.200 I0.263 J0.392 K0.000 F250.000
G2 X23.833 Y-7.438 Z-0.200 I7.650 J0.185 K0.000 F250.000
G3 X23.792 Y-4.942 Z-0.200 I-28.351 J0.788 K0.000 F250.000
G3 X23.405 Y-4.807 Z-0.200 I-0.326 J-0.311 K0.000 F250.000
G3 X22.796 Y-5.099 Z-0.200 I-0.057 J-0.663 K0.000 F250.000
G3 X22.827 Y-9.506 Z-0.200 I278.129 J-0.244 K0.000 F250.000
G3 X23.600 Y-9.692 Z-0.200 I0.683 J1.140 K0.000 F250.000
G3 X25.088 Y-9.488 Z-0.200 I0.102 J4.796 K0.000 F250.000
G2 X25.710 Y-9.386 Z-0.200 I0.676 J-2.175 K0.000 F250.000
G2 X25.816 Y-9.450 Z-0.200 I-0.016 J-0.148 K0.000 F250.000
G2 X26.008 Y-10.559 Z-0.200 I-1.799 J-0.881 K0.000 F250.000
G2 X25.718 Y-12.205 Z-0.200 I-5.611 J0.139 K0.000 F250.000
G2 X25.267 Y-12.321 Z-0.200 I-0.472 J0.901 K0.000 F250.000
G2 X24.040 Y-12.475 Z-0.200 I-1.136 J4.073 K0.000 F250.000
G2 X23.717 Y-12.120 Z-0.200 I-0.041 J0.287 K0.000 F250.000
G3 X23.728 Y-11.459 Z-0.200 I-3.088 J0.380 K0.000 F250.000
G3 X23.247 Y-11.340 Z-0.200 I-0.329 J-0.299 K0.000 F250.000
G3 X22.886 Y-11.661 Z-0.200 I-0.003 J-0.359 K0.000 F250.000
G3 X22.874 Y-13.051 Z-0.200 I2.686 J-0.719 K0.000 F250.000
G3 X23.260 Y-13.095 Z-0.200 I0.241 J0.409 K0.000 F250.000
G1 X23.387 Y-13.085 Z-0.200 F250.000
G2 X25.050 Y-12.899 Z-0.200 I6.984 J-54.936 K0.000 F250.000
G3 X26.294 Y-12.586 Z-0.200 I-0.257 J3.653 K0.000 F250.000
G3 X26.825 Y-11.799 Z-0.200 I-0.365 J0.819 K0.000 F250.000
G3 X26.891 Y-9.200 Z-0.200 I-9.654 J1.546 K0.000 F250.000
G2 X26.869 Y-4.466 Z-0.200 I224.485 J3.420 K0.000 F250.000
G0 Z5.000
G0 X26.764 Y-4.539 Z5.000
G0 X26.764 Y-4.539 Z3.000
G1 X26.764 Y-4.539 Z-0.200 F100.000
G3 X25.985 Y-4.782 Z-0.200 I-0.242 J-0.594 K0.000 F250.000
G3 X25.975 Y-8.784 Z-0.200 I163.488 J-2.416 K0.000 F250.000
G2 X25.718 Y-8.999 Z-0.200 I-0.278 J0.072 K0.000 F250.000
G2 X23.965 Y-9.267 Z-0.200 I-3.939 J19.841 K0.000 F250.000
G2 X23.660 Y-8.807 Z-0.200 I0.141 J0.426 K0.000 F250.000
G2 X23.733 Y-7.433 Z-0.200 I6.643 J0.335 K0.000 F250.000
G3 X23.684 Y-4.973 Z-0.200 I-18.997 J0.856 K0.000 F250.000
G3 X22.896 Y-5.130 Z-0.200 I-0.291 J-0.599 K0.000 F250.000
G3 X22.897 Y-5.577 Z-0.200 I256.917 J0.371 K0.000 F250.000
G1 X22.897 Y-5.635 Z-0.200 F250.000
G1 X22.897 Y-5.635 Z-0.200 F250.000
G1 X22.898 Y-5.961 Z-0.200 F250.000
G1 X22.898 Y-5.961 Z-0.200 F250.000
G3 X22.922 Y-9.452 Z-0.200 I166.982 J-0.594 K0.000 F250.000
G3 X24.133 Y-9.573 Z-0.200 I0.821 J2.100 K0.000 F250.000
G2 X25.735 Y-9.290 Z-0.200 I4.079 J-18.385 K0.000 F250.000
G2 X26.025 Y-9.659 Z-0.200 I-0.165 J-0.428 K0.000 F250.000
G2 X25.955 Y-11.717 Z-0.200 I-5.222 J-0.852 K0.000 F250.000
G2 X25.803 Y-12.258 Z-0.200 I-2.163 J0.316 K0.000 F250.000
G2 X25.285 Y-12.419 Z-0.200 I-0.527 J0.782 K0.000 F250.000
G2 X24.021 Y-12.573 Z-0.200 I-1.137 J4.062 K0.000 F250.000
G2 X23.617 Y-12.117 Z-0.200 I-0.027 J0.382 K0.000 F250.000
G3 X23.633 Y-11.502 Z-0.200 I-10.590 J0.587 K0.000 F250.000
G3 X23.259 Y-11.440 Z-0.200 I-0.239 J-0.282 K0.000 F250.000
G3 X22.984 Y-11.681 Z-0.200 I-0.015 J-0.261 K0.000 F250.000
G3 X22.977 Y-12.999 Z-0.200 I2.318 J-0.671 K0.000 F250.000
G3 X23.378 Y-12.985 Z-0.200 I0.137 J1.917 K0.000 F250.000
G2 X25.036 Y-12.800 Z-0.200 I6.931 J-54.477 K0.000 F250.000
G3 X26.246 Y-12.499 Z-0.200 I-0.247 J3.573 K0.000 F250.000
G3 X26.727 Y-11.776 Z-0.200 I-0.352 J0.757 K0.000 F250.000
G3 X26.791 Y-9.202 Z-0.200 I-9.580 J1.525 K0.000 F250.000
G2 X26.764 Y-4.539 Z-0.200 I426.362 J4.811 K0.000 F250.000
G0 Z5.000
G0 X26.669 Y-4.617 Z5.000
G0 X26.669 Y-4.617 Z3.000
G1 X26.669 Y-4.617 Z-0.200 F100.000
G3 X26.085 Y-4.787 Z-0.200 I-0.140 J-0.611 K0.000 F250.000
G3 X26.075 Y-8.784 Z-0.200 I164.296 J-2.411 K0.000 F250.000
G2 X25.735 Y-9.097 Z-0.200 I-0.358 J0.048 K0.000 F250.000
G2 X23.969 Y-9.367 Z-0.200 I-3.934 J19.811 K0.000 F250.000
G2 X23.571 Y-8.889 Z-0.200 I0.078 J0.470 K0.000 F250.000
G2 X23.633 Y-7.428 Z-0.200 I5.920 J0.481 K0.000 F250.000
G3 X23.606 Y-5.046 Z-0.200 I-55.825 J0.554 K0.000 F250.000
G3 X22.996 Y-5.172 Z-0.200 I-0.209 J-0.527 K0.000 F250.000
G3 X23.033 Y-9.409 Z-0.200 I175.479 J-0.598 K0.000 F250.000
G3 X24.417 Y-9.422 Z-0.200 I0.719 J2.978 K0.000 F250.000
G2 X25.637 Y-9.185 Z-0.200 I2.972 J-12.026 K0.000 F250.000
G2 X25.996 Y-9.361 Z-0.200 I0.041 J-0.370 K0.000 F250.000
G2 X26.195 Y-10.783 Z-0.200 I-2.182 J-1.030 K0.000 F250.000
G2 X25.887 Y-12.312 Z-0.200 I-5.205 J0.252 K0.000 F250.000
G2 X25.302 Y-12.518 Z-0.200 I-0.600 J0.771 K0.000 F250.000
G2 X24.002 Y-12.672 Z-0.200 I-1.141 J4.067 K0.000 F250.000
G2 X23.517 Y-12.114 Z-0.200 I-0.012 J0.479 K0.000 F250.000
G3 X23.522 Y-11.547 Z-0.200 I-1.959 J0.301 K0.000 F250.000
G3 X23.129 Y-11.591 Z-0.200 I-0.141 J-0.519 K0.000 F250.000
G3 X23.028 Y-12.017 Z-0.200 I0.868 J-0.431 K0.000 F250.000
G3 X23.041 Y-12.902 Z-0.200 I2.473 J-0.406 K0.000 F250.000
G3 X23.369 Y-12.886 Z-0.200 I-0.029 J3.855 K0.000 F250.000
G2 X25.021 Y-12.701 Z-0.200 I6.879 J-54.019 K0.000 F250.000
G3 X26.197 Y-12.411 Z-0.200 I-0.238 J3.496 K0.000 F250.000
G3 X26.630 Y-11.754 Z-0.200 I-0.305 J0.672 K0.000 F250.000
G3 X26.691 Y-9.204 Z-0.200 I-9.508 J1.503 K0.000 F250.000
G2 X26.669 Y-4.617 Z-0.200 I218.067 J3.332 K0.000 F250.000
G0 Z5.000
G0 X26.548 Y-4.706 Z5.000
G0 X26.548 Y-4.706 Z3.000
G1 X26.548 Y-4.706 Z-0.200 F100.000
G3 X26.184 Y-4.831 Z-0.200 I-0.032 J-0.500 K0.000 F250.000
G3 X26.175 Y-8.784 Z-0.200 I180.251 J-2.377 K0.000 F250.000
G2 X25.909 Y-9.148 Z-0.200 I-0.353 J-0.021 K0.000 F250.000
G2 X26.288 Y-9.954 Z-0.200 I-0.738 J-0.839 K0.000 F250.000
G2 X25.972 Y-12.365 Z-0.200 I-5.792 J-0.467 K0.000 F250.000
G1 X25.926 Y-12.412 Z-0.200 F250.000
G3 X26.425 Y-12.091 Z-0.200 I-0.156 J0.791 K0.000 F250.000
G3 X26.604 Y-9.495 Z-0.200 I-6.542 J1.754 K0.000 F250.000
G2 X26.548 Y-4.706 Z-0.200 I178.800 J4.488 K0.000 F250.000
G0 Z5.000
G0 X26.470 Y-4.815 Z5.000
G0 X26.470 Y-4.815 Z3.000
G1 X26.470 Y-4.815 Z-0.200 F100.000
G3 X26.282 Y-4.878 Z-0.200 I0.055 J-0.471 K0.000 F250.000
G3 X26.275 Y-8.784 Z-0.200 I206.207 J-2.347 K0.000 F250.000
G2 X26.087 Y-9.166 Z-0.200 I-0.380 J-0.050 K0.000 F250.000
G2 X26.388 Y-9.949 Z-0.200 I-1.047 J-0.851 K0.000 F250.000
G2 X26.146 Y-12.208 Z-0.200 I-7.139 J-0.379 K0.000 F250.000
G3 X26.372 Y-11.949 Z-0.200 I-0.116 J0.329 K0.000 F250.000
G3 X26.504 Y-9.500 Z-0.200 I-7.122 J1.613 K0.000 F250.000
G2 X26.470 Y-4.815 Z-0.200 I102.098 J3.090 K0.000 F250.000
G0 Z5.000
G0 X26.375 Y-6.830 Z5.000
G0 X26.375 Y-6.830 Z3.000
G1 X26.375 Y-6.830 Z-0.200 F100.000
G1 X26.375 Y-8.784 Z-0.200 F250.000
G2 X26.223 Y-9.180 Z-0.200 I-0.419 J-0.066 K0.000 F250.000
G2 X26.406 Y-9.548 Z-0.200 I-0.926 J-0.692 K0.000 F250.000
G2 X26.375 Y-6.830 Z-0.200 I49.536 J1.936 K0.000 F250.000
G0 Z5.000
G0 X26.339 Y-9.087 Z5.000
G0 X26.339 Y-9.087 Z3.000
G1 X26.339 Y-9.087 Z-0.200 F100.000
G1 X26.286 Y-9.179 Z-0.200 F250.000
G2 X26.343 Y-9.274 Z-0.200 I-0.155 J-0.157 K0.000 F250.000
G2 X26.339 Y-9.087 Z-0.200 I7.924 J0.275 K0.000 F250.000
G0 Z5.000
G0 X23.750 Y-9.395 Z5.000
G0 X23.750 Y-9.395 Z3.000
G1 X23.750 Y-9.395 Z-0.200 F100.000
G2 X23.450 Y-8.661 Z-0.200 I0.573 J0.662 K0.000 F250.000
G2 X23.533 Y-7.422 Z-0.200 I8.449 J0.060 K0.000 F250.000
G3 X23.509 Y-5.119 Z-0.200 I-63.246 J0.496 K0.000 F250.000
G3 X23.096 Y-5.214 Z-0.200 I-0.109 J-0.471 K0.000 F250.000
G3 X23.118 Y-9.330 Z-0.200 I568.827 J0.990 K0.000 F250.000
G3 X23.750 Y-9.395 Z-0.200 I0.550 J2.255 K0.000 F250.000
G0 Z5.000
G0 X23.504 Y-9.287 Z5.000
G0 X23.504 Y-9.287 Z3.000
G1 X23.504 Y-9.287 Z-0.200 F100.000
G2 X23.356 Y-8.277 Z-0.200 I1.695 J0.764 K0.000 F250.000
G3 X23.426 Y-6.030 Z-0.200 I-11.910 J1.492 K0.000 F250.000
G3 X23.412 Y-5.210 Z-0.200 I-35.870 J-0.200 K0.000 F250.000
G3 X23.196 Y-5.263 Z-0.200 I-0.015 J-0.402 K0.000 F250.000
G3 X23.201 Y-6.570 Z-0.200 I442.746 J0.932 K0.000 F250.000
G1 X23.201 Y-6.570 Z-0.200 F250.000
G1 X23.203 Y-7.126 Z-0.200 F250.000
G3 X23.216 Y-9.255 Z-0.200 I174.583 J0.012 K0.000 F250.000
G3 X23.504 Y-9.287 Z-0.200 I0.285 J1.233 K0.000 F250.000
G0 Z5.000
G0 X23.339 Y-9.178 Z5.000
G0 X23.339 Y-9.178 Z3.000
G1 X23.339 Y-9.178 Z-0.200 F100.000
G2 X23.314 Y-9.101 Z-0.200 I0.473 J0.194 K0.000 F250.000
G3 X23.315 Y-9.175 Z-0.200 I9.927 J0.079 K0.000 F250.000
G3 X23.339 Y-9.178 Z-0.200 I0.044 J0.333 K0.000 F250.000
G0 Z5.000
G0 X23.306 Y-7.665 Z5.000
G0 X23.306 Y-7.665 Z3.000
G1 X23.306 Y-7.665 Z-0.200 F100.000
G3 X23.315 Y-5.324 Z-0.200 I-42.963 J1.338 K0.000 F250.000
G3 X23.296 Y-5.328 Z-0.200 I-0.003 J-0.034 K0.000 F250.000
G3 X23.306 Y-7.665 Z-0.200 I1294.564 J4.055 K0.000 F250.000
G0 Z5.000
G0 X23.371 Y-11.630 Z5.000
G0 X23.371 Y-11.630 Z3.000
G1 X23.371 Y-11.630 Z-0.200 F100.000
G3 X23.204 Y-11.661 Z-0.200 I0.008 J-0.494 K0.000 F250.000
G3 X23.129 Y-12.799 Z-0.200 I2.642 J-0.747 K0.000 F250.000
G3 X23.800 Y-12.734 Z-0.200 I-0.271 J6.294 K0.000 F250.000
G2 X23.417 Y-12.112 Z-0.200 I0.177 J0.538 K0.000 F250.000
G3 X23.433 Y-11.633 Z-0.200 I-167.049 J5.730 K0.000 F250.000
G3 X23.371 Y-11.630 Z-0.200 I-0.054 J-0.491 K0.000 F250.000
G0 Z5.000
G0 X23.318 Y-11.725 Z5.000
G0 X23.318 Y-11.725 Z3.000
G1 X23.318 Y-11.725 Z-0.200 F100.000
G3 X23.278 Y-11.743 Z-0.200 I-0.013 J-0.024 K0.000 F250.000
G3 X23.217 Y-12.696 Z-0.200 I2.569 J-0.643 K0.000 F250.000
G3 X23.510 Y-12.670 Z-0.200 I-0.266 J4.688 K0.000 F250.000
G2 X23.329 Y-11.737 Z-0.200 I0.933 J0.665 K0.000 F250.000
G3 X23.318 Y-11.725 Z-0.200 I-0.025 J-0.013 K0.000 F250.000
G0 Z5.000
G0 X23.299 Y-12.522 Z5.000
G0 X23.299 Y-12.522 Z3.000
G1 X23.299 Y-12.522 Z-0.200 F100.000
G3 X23.324 Y-12.588 Z-0.200 I0.013 J-0.033 K0.000 F250.000
G1 X23.299 Y-12.522 Z-0.200 F250.000
G0 Z5.000
G0 Z5.000
G0 X23.299 Y-12.522
G0 X28.274 Y-12.122
G0 X28.274 Y-12.122 Z3.000
G1 X28.274 Y-12.122 Z-0.200 F100.000
G3 X28.334 Y-12.355 Z-0.200 I0.710 J0.057 K0.000 F250.000
G3 X28.721 Y-12.392 Z-0.200 I0.248 J0.542 K0.000 F250.000
G3 X32.036 Y-11.936 Z-0.200 I-1.530 J23.388 K0.000 F250.000
G3 X32.599 Y-11.329 Z-0.200 I-0.087 J0.645 K0.000 F250.000
G3 X32.709 Y-9.905 Z-0.200 I-4.813 J1.087 K0.000 F250.000
G2 X32.622 Y-7.782 Z-0.200 I39.991 J2.703 K0.000 F250.000
G3 X31.889 Y-7.549 Z-0.200 I-0.608 J-0.645 K0.000 F250.000
G3 X30.778 Y-7.699 Z-0.200 I0.019 J-4.319 K0.000 F250.000
G3 X30.593 Y-8.123 Z-0.200 I0.258 J-0.365 K0.000 F250.000
G3 X31.121 Y-8.239 Z-0.200 I0.402 J0.573 K0.000 F250.000
G1 X31.308 Y-8.221 Z-0.200 F250.000
G1 X31.308 Y-8.221 Z-0.200 F250.000
G2 X31.683 Y-8.431 Z-0.200 I0.107 J-0.249 K0.000 F250.000
G2 X31.716 Y-9.978 Z-0.200 I-6.018 J-0.901 K0.000 F250.000
G2 X31.590 Y-11.579 Z-0.200 I-12.776 J0.204 K0.000 F250.000
G2 X31.146 Y-11.875 Z-0.200 I-0.513 J0.288 K0.000 F250.000
G2 X29.523 Y-12.064 Z-0.200 I-10.467 J83.061 K0.000 F250.000
G2 X29.398 Y-11.751 Z-0.200 I0.071 J0.210 K0.000 F250.000
G3 X29.543 Y-8.284 Z-0.200 I-26.283 J2.835 K0.000 F250.000
G2 X29.422 Y-4.818 Z-0.200 I77.094 J4.426 K0.000 F250.000
G2 X29.489 Y-4.449 Z-0.200 I0.508 J0.098 K0.000 F250.000
G2 X31.351 Y-4.171 Z-0.200 I1.912 J-6.424 K0.000 F250.000
G2 X31.431 Y-4.504 Z-0.200 I-0.216 J-0.228 K0.000 F250.000
G3 X31.378 Y-5.078 Z-0.200 I24.020 J-2.491 K0.000 F250.000
G3 X32.501 Y-4.963 Z-0.200 I0.348 J2.139 K0.000 F250.000
G3 X32.577 Y-3.879 Z-0.200 I-7.315 J1.053 K0.000 F250.000
G3 X32.484 Y-3.796 Z-0.200 I-0.166 J-0.092 K0.000 F250.000
G3 X29.857 Y-4.018 Z-0.200 I2.460 J-44.739 K0.000 F250.000
G3 X28.502 Y-4.255 Z-0.200 I0.124 J-4.703 K0.000 F250.000
G3 X28.341 Y-4.549 Z-0.200 I0.198 J-0.299 K0.000 F250.000
G3 X28.389 Y-7.884 Z-0.200 I24.188 J-1.320 K0.000 F250.000
G2 X28.286 Y-11.927 Z-0.200 I-27.028 J-1.334 K0.000 F250.000
G3 X28.274 Y-12.122 Z-0.200 I0.699 J-0.138 K0.000 F250.000
G0 Z5.000
G0 X28.366 Y-12.112 Z5.000
G0 X28.366 Y-12.112 Z3.000
G1 X28.366 Y-12.112 Z-0.200 F100.000
G3 X28.427 Y-12.293 Z-0.200 I0.440 J0.046 K0.000 F250.000
G3 X28.714 Y-12.293 Z-0.200 I0.139 J1.356 K0.000 F250.000
G3 X32.009 Y-11.840 Z-0.200 I-1.528 J23.333 K0.000 F250.000
G3 X32.502 Y-11.306 Z-0.200 I-0.064 J0.553 K0.000 F250.000
G3 X32.609 Y-9.908 Z-0.200 I-4.722 J1.064 K0.000 F250.000
G2 X32.523 Y-7.836 Z-0.200 I39.764 J2.691 K0.000 F250.000
G3 X31.898 Y-7.649 Z-0.200 I-0.505 J-0.547 K0.000 F250.000
G3 X30.827 Y-7.789 Z-0.200 I0.023 J-4.327 K0.000 F250.000
G3 X30.684 Y-8.070 Z-0.200 I0.238 J-0.299 K0.000 F250.000
G3 X31.299 Y-8.122 Z-0.200 I0.402 J1.102 K0.000 F250.000
G1 X31.299 Y-8.122 Z-0.200 F250.000
G2 X31.782 Y-8.412 Z-0.200 I0.130 J-0.331 K0.000 F250.000
G2 X31.816 Y-9.982 Z-0.200 I-6.135 J-0.919 K0.000 F250.000
G2 X31.678 Y-11.626 Z-0.200 I-11.861 J0.167 K0.000 F250.000
G2 X31.157 Y-11.975 Z-0.200 I-0.606 J0.341 K0.000 F250.000
G2 X29.498 Y-12.161 Z-0.200 I-5.879 J45.008 K0.000 F250.000
G2 X29.298 Y-11.743 Z-0.200 I0.098 J0.304 K0.000 F250.000
G3 X29.443 Y-8.286 Z-0.200 I-26.197 J2.828 K0.000 F250.000
G2 X29.322 Y-4.815 Z-0.200 I76.612 J4.407 K0.000 F250.000
G2 X29.433 Y-4.367 Z-0.200 I0.553 J0.101 K0.000 F250.000
G2 X31.368 Y-4.072 Z-0.200 I1.933 J-6.201 K0.000 F250.000
G2 X31.541 Y-4.441 Z-0.200 I-0.121 J-0.282 K0.000 F250.000
G3 X31.491 Y-4.992 Z-0.200 I3.581 J-0.601 K0.000 F250.000
G3 X32.410 Y-4.903 Z-0.200 I0.229 J2.424 K0.000 F250.000
G3 X32.458 Y-3.896 Z-0.200 I-3.454 J0.671 K0.000 F250.000
G3 X29.867 Y-4.118 Z-0.200 I2.579 J-45.508 K0.000 F250.000
G3 X28.512 Y-4.373 Z-0.200 I-0.075 J-3.324 K0.000 F250.000
G3 X28.396 Y-5.132 Z-0.200 I1.675 J-0.644 K0.000 F250.000
G2 X28.516 Y-9.644 Z-0.200 I-384.754 J-12.533 K0.000 F250.000
G2 X28.386 Y-11.929 Z-0.200 I-138.608 J6.788 K0.000 F250.000
G3 X28.366 Y-12.112 Z-0.200 I0.420 J-0.137 K0.000 F250.000
G0 Z5.000
G0 X28.485 Y-12.109 Z5.000
G0 X28.485 Y-12.109 Z3.000
G1 X28.485 Y-12.109 Z-0.200 F100.000
G3 X28.489 Y-12.200 Z-0.200 I2.591 J0.076 K0.000 F250.000
G3 X28.707 Y-12.193 Z-0.200 I-0.001 J3.213 K0.000 F250.000
G3 X29.284 Y-12.142 Z-0.200 I-0.717 J11.342 K0.000 F250.000
G2 X29.212 Y-11.576 Z-0.200 I0.699 J0.376 K0.000 F250.000
G3 X29.343 Y-8.288 Z-0.200 I-23.680 J2.592 K0.000 F250.000
G2 X29.222 Y-4.813 Z-0.200 I76.150 J4.389 K0.000 F250.000
G2 X29.420 Y-4.259 Z-0.200 I0.489 J0.137 K0.000 F250.000
G3 X28.584 Y-4.444 Z-0.200 I-0.085 J-1.603 K0.000 F250.000
G3 X28.499 Y-5.622 Z-0.200 I2.735 J-0.791 K0.000 F250.000
G2 X28.611 Y-9.982 Z-0.200 I-74.316 J-4.096 K0.000 F250.000
G3 X28.486 Y-11.931 Z-0.200 I52.166 J-4.332 K0.000 F250.000
G3 X28.485 Y-12.109 Z-0.200 I2.590 J-0.102 K0.000 F250.000
G0 Z5.000
G0 X28.586 Y-12.099 Z5.000
G0 X28.586 Y-12.099 Z3.000
G1 X28.586 Y-12.099 Z-0.200 F100.000
G3 X29.127 Y-12.058 Z-0.200 I-0.338 J8.050 K0.000 F250.000
G2 X29.180 Y-10.812 Z-0.200 I4.245 J0.446 K0.000 F250.000
G3 X29.174 Y-6.323 Z-0.200 I-31.188 J2.205 K0.000 F250.000
G2 X29.139 Y-4.521 Z-0.200 I10.669 J1.110 K0.000 F250.000
G2 X29.176 Y-4.387 Z-0.200 I0.170 J0.024 K0.000 F250.000
G3 X28.667 Y-4.508 Z-0.200 I0.058 J-1.376 K0.000 F250.000
G3 X28.599 Y-5.621 Z-0.200 I3.470 J-0.773 K0.000 F250.000
G2 X28.711 Y-9.986 Z-0.200 I-74.280 J-4.094 K0.000 F250.000
G3 X28.586 Y-11.933 Z-0.200 I52.423 J-4.350 K0.000 F250.000
G3 X28.586 Y-12.099 Z-0.200 I2.455 J-0.079 K0.000 F250.000
G0 Z5.000
G0 X28.685 Y-11.994 Z5.000
G0 X28.685 Y-11.994 Z3.000
G1 X28.685 Y-11.994 Z-0.200 F100.000
G3 X28.999 Y-11.968 Z-0.200 I-0.337 J6.022 K0.000 F250.000
G2 X29.125 Y-10.081 Z-0.200 I28.381 J-0.952 K0.000 F250.000
G3 X29.024 Y-5.108 Z-0.200 I-91.155 J0.630 K0.000 F250.000
G2 X29.039 Y-4.510 Z-0.200 I3.342 J0.214 K0.000 F250.000
G3 X28.749 Y-4.583 Z-0.200 I0.070 J-0.887 K0.000 F250.000
G3 X28.699 Y-5.620 Z-0.200 I3.726 J-0.700 K0.000 F250.000
G2 X28.811 Y-9.990 Z-0.200 I-74.245 J-4.092 K0.000 F250.000
G3 X28.686 Y-11.935 Z-0.200 I52.689 J-4.368 K0.000 F250.000
G1 X28.685 Y-11.994 Z-0.200 F250.000
G0 Z5.000
G0 X28.787 Y-11.885 Z5.000
G0 X28.787 Y-11.885 Z3.000
G1 X28.787 Y-11.885 Z-0.200 F100.000
G1 X28.893 Y-11.876 Z-0.200 F250.000
G3 X28.974 Y-6.331 Z-0.200 I-33.553 J3.267 K0.000 F250.000
G2 X28.927 Y-4.636 Z-0.200 I17.878 J1.344 K0.000 F250.000
G3 X28.830 Y-4.658 Z-0.200 I0.016 J-0.294 K0.000 F250.000
G3 X28.913 Y-8.516 Z-0.200 I34.192 J-1.196 K0.000 F250.000
G2 X28.787 Y-11.885 Z-0.200 I-26.394 J-0.700 K0.000 F250.000
G0 Z5.000
G0 X28.839 Y-11.831 Z5.000
G0 X28.839 Y-11.831 Z3.000
G1 X28.839 Y-11.831 Z-0.200 F100.000
G3 X28.924 Y-6.334 Z-0.200 I-30.792 J3.225 K0.000 F250.000
G2 X28.875 Y-4.699 Z-0.200 I18.666 J1.377 K0.000 F250.000
G1 X28.875 Y-4.699 Z-0.200 F250.000
G3 X28.963 Y-8.516 Z-0.200 I35.917 J-1.078 K0.000 F250.000
G2 X28.839 Y-11.831 Z-0.200 I-25.735 J-0.699 K0.000 F250.000
G0 Z5.000
G0 X31.670 Y-11.812 Z5.000
G0 X31.670 Y-11.812 Z3.000
G1 X31.670 Y-11.812 Z-0.200 F100.000
G3 X32.307 Y-11.577 Z-0.200 I-0.042 J1.094 K0.000 F250.000
G3 X32.509 Y-9.911 Z-0.200 I-3.234 J1.237 K0.000 F250.000
G2 X32.424 Y-7.891 Z-0.200 I39.615 J2.682 K0.000 F250.000
G3 X31.906 Y-7.748 Z-0.200 I-0.403 J-0.450 K0.000 F250.000
G3 X30.886 Y-7.872 Z-0.200 I0.454 J-7.992 K0.000 F250.000
G3 X30.793 Y-8.014 Z-0.200 I0.361 J-0.340 K0.000 F250.000
G3 X31.290 Y-8.022 Z-0.200 I0.270 J1.349 K0.000 F250.000
G1 X31.290 Y-8.022 Z-0.200 F250.000
G2 X31.836 Y-8.286 Z-0.200 I0.147 J-0.394 K0.000 F250.000
G2 X31.924 Y-9.682 Z-0.200 I-3.778 J-0.937 K0.000 F250.000
G2 X31.806 Y-11.558 Z-0.200 I-18.038 J0.189 K0.000 F250.000
G2 X31.670 Y-11.812 Z-0.200 I-0.514 J0.113 K0.000 F250.000
G0 Z5.000
G0 X31.874 Y-11.667 Z5.000
G0 X31.874 Y-11.667 Z3.000
G1 X31.874 Y-11.667 Z-0.200 F100.000
G3 X32.241 Y-11.489 Z-0.200 I-0.017 J0.502 K0.000 F250.000
G3 X32.409 Y-9.915 Z-0.200 I-3.800 J1.201 K0.000 F250.000
G2 X32.325 Y-7.946 Z-0.200 I39.566 J2.679 K0.000 F250.000
G3 X31.915 Y-7.848 Z-0.200 I-0.297 J-0.336 K0.000 F250.000
G3 X31.071 Y-7.941 Z-0.200 I0.949 J-12.526 K0.000 F250.000
G3 X31.281 Y-7.923 Z-0.200 I-0.056 J1.886 K0.000 F250.000
G1 X31.281 Y-7.923 Z-0.200 F250.000
G2 X31.920 Y-8.231 Z-0.200 I0.160 J-0.486 K0.000 F250.000
G2 X32.024 Y-9.684 Z-0.200 I-3.703 J-0.994 K0.000 F250.000
G2 X31.874 Y-11.667 Z-0.200 I-13.332 J0.013 K0.000 F250.000
G0 Z5.000
G0 X32.014 Y-11.523 Z5.000
G0 X32.014 Y-11.523 Z3.000
G1 X32.014 Y-11.523 Z-0.200 F100.000
G3 X32.196 Y-11.293 Z-0.200 I-0.028 J0.209 K0.000 F250.000
G3 X32.309 Y-9.918 Z-0.200 I-4.060 J1.026 K0.000 F250.000
G2 X32.226 Y-8.002 Z-0.200 I39.650 J2.682 K0.000 F250.000
G3 X31.846 Y-7.956 Z-0.200 I-0.231 J-0.313 K0.000 F250.000
G2 X32.136 Y-8.991 Z-0.200 I-1.239 J-0.906 K0.000 F250.000
G2 X32.014 Y-11.523 Z-0.200 I-23.840 J-0.124 K0.000 F250.000
G0 Z5.000
G0 X32.172 Y-10.909 Z5.000
G0 X32.172 Y-10.909 Z3.000
G1 X32.172 Y-10.909 Z-0.200 F100.000
G3 X32.211 Y-10.138 Z-0.200 I-4.320 J0.603 K0.000 F250.000
G2 X32.172 Y-10.909 Z-0.200 I-17.310 J0.480 K0.000 F250.000
G0 Z5.000
G0 X32.130 Y-8.226 Z5.000
G0 X32.130 Y-8.226 Z3.000
G1 X32.130 Y-8.226 Z-0.200 F100.000
G2 X32.127 Y-8.059 Z-0.200 I11.884 J0.306 K0.000 F250.000
G3 X32.036 Y-8.042 Z-0.200 I-0.066 J-0.109 K0.000 F250.000
G2 X32.130 Y-8.226 Z-0.200 I-0.418 J-0.329 K0.000 F250.000
G0 Z5.000
G0 X31.906 Y-4.893 Z5.000
G0 X31.906 Y-4.893 Z3.000
G1 X31.906 Y-4.893 Z-0.200 F100.000
G3 X32.046 Y-4.880 Z-0.200 I-0.183 J2.717 K0.000 F250.000
G3 X32.318 Y-4.829 Z-0.200 I-0.118 J1.388 K0.000 F250.000
G3 X32.383 Y-3.998 Z-0.200 I-10.625 J1.246 K0.000 F250.000
G3 X31.521 Y-4.038 Z-0.200 I0.012 J-9.591 K0.000 F250.000
G2 X31.629 Y-4.529 Z-0.200 I-0.429 J-0.352 K0.000 F250.000
G3 X31.594 Y-4.896 Z-0.200 I12.054 J-1.339 K0.000 F250.000
G3 X31.906 Y-4.893 Z-0.200 I0.129 J2.720 K0.000 F250.000
G0 Z5.000
G0 X31.899 Y-4.793 Z5.000
G0 X31.899 Y-4.793 Z3.000
G1 X31.899 Y-4.793 Z-0.200 F100.000
G3 X32.034 Y-4.781 Z-0.200 I-0.183 J2.731 K0.000 F250.000
G1 X32.227 Y-4.747 Z-0.200 F250.000
G3 X32.279 Y-4.100 Z-0.200 I-11.918 J1.284 K0.000 F250.000
G3 X31.707 Y-4.124 Z-0.200 I0.019 J-7.230 K0.000 F250.000
G2 X31.703 Y-4.799 Z-0.200 I-1.598 J-0.329 K0.000 F250.000
G3 X31.899 Y-4.793 Z-0.200 I0.013 J2.738 K0.000 F250.000
G0 Z5.000
G0 X31.893 Y-4.694 Z5.000
G0 X31.893 Y-4.694 Z3.000
G1 X31.893 Y-4.694 Z-0.200 F100.000
G3 X32.135 Y-4.662 Z-0.200 I-0.099 J1.665 K0.000 F250.000
G3 X32.173 Y-4.201 Z-0.200 I-12.790 J1.284 K0.000 F250.000
G3 X31.828 Y-4.215 Z-0.200 I0.026 J-4.983 K0.000 F250.000
G2 X31.813 Y-4.697 Z-0.200 I-1.467 J-0.195 K0.000 F250.000
G3 X31.893 Y-4.694 Z-0.200 I-0.018 J1.668 K0.000 F250.000
G0 Z5.000
G0 X31.925 Y-4.588 Z5.000
G0 X31.925 Y-4.588 Z3.000
G1 X31.925 Y-4.588 Z-0.200 F100.000
G3 X32.043 Y-4.576 Z-0.200 I-0.002 J0.610 K0.000 F250.000
G3 X32.066 Y-4.305 Z-0.200 I-8.143 J0.823 K0.000 F250.000
G1 X31.946 Y-4.310 Z-0.200 F250.000
G2 X31.925 Y-4.588 Z-0.200 I-1.505 J-0.025 K0.000 F250.000
G0 Z5.000
G0 X31.996 Y-4.533 Z5.000
G0 X31.996 Y-4.533 Z3.000
G1 X31.996 Y-4.533 Z-0.200 F100.000
G1 X32.012 Y-4.358 Z-0.200 F250.000
G1 X31.999 Y-4.358 Z-0.200 F250.000
G3 X31.996 Y-4.533 Z-0.200 I0.273 J-0.092 K0.000 F250.000
G0 Z5.000
G0 Z5.000
G0 X31.996 Y-4.533
G0 X33.977 Y-4.700
G0 X33.977 Y-4.700 Z3.000
G1 X33.977 Y-4.700 Z-0.200 F100.000
G3 X33.976 Y-8.100 Z-0.200 I20.138 J-1.701 K0.000 F250.000
G2 X34.170 Y-11.708 Z-0.200 I-135.069 J-9.066 K0.000 F250.000
G3 X34.385 Y-11.709 Z-0.200 I0.113 J1.063 K0.000 F250.000
G3 X35.248 Y-11.561 Z-0.200 I0.068 J2.202 K0.000 F250.000
G2 X35.158 Y-4.746 Z-0.200 I698.312 J12.620 K0.000 F250.000
G2 X35.377 Y-4.818 Z-0.200 I0.097 J-0.074 K0.000 F250.000
G3 X37.246 Y-9.057 Z-0.200 I51.341 J20.105 K0.000 F250.000
G2 X38.160 Y-10.752 Z-0.200 I-25.010 J-14.583 K0.000 F250.000
G2 X38.299 Y-11.148 Z-0.200 I-4.373 J-1.751 K0.000 F250.000
G3 X38.386 Y-11.203 Z-0.200 I0.072 J0.016 K0.000 F250.000
G3 X39.263 Y-11.089 Z-0.200 I0.211 J1.805 K0.000 F250.000
G3 X39.368 Y-10.837 Z-0.200 I-0.204 J0.233 K0.000 F250.000
G3 X39.339 Y-7.547 Z-0.200 I-19.601 J1.472 K0.000 F250.000
G2 X39.321 Y-3.184 Z-0.200 I40.532 J2.352 K0.000 F250.000
G2 X39.347 Y-2.880 Z-0.200 I6.888 J-0.432 K0.000 F250.000
G3 X38.280 Y-3.031 Z-0.200 I0.073 J-4.365 K0.000 F250.000
G3 X38.241 Y-5.285 Z-0.200 I21.886 J-1.502 K0.000 F250.000
G2 X38.288 Y-9.687 Z-0.200 I-165.417 J-3.961 K0.000 F250.000
G2 X38.039 Y-9.672 Z-0.200 I-0.125 J0.008 K0.000 F250.000
G2 X35.523 Y-3.942 Z-0.200 I71.481 J34.800 K0.000 F250.000
G3 X35.228 Y-3.399 Z-0.200 I-2.421 J-0.965 K0.000 F250.000
G3 X34.107 Y-3.552 Z-0.200 I-0.299 J-2.000 K0.000 F250.000
G3 X33.977 Y-4.700 Z-0.200 I20.008 J-2.849 K0.000 F250.000
G0 Z5.000
G0 X34.076 Y-4.708 Z5.000
G0 X34.076 Y-4.708 Z3.000
G1 X34.076 Y-4.708 Z-0.200 F100.000
G3 X34.076 Y-8.094 Z-0.200 I20.131 J-1.690 K0.000 F250.000
G2 X34.262 Y-11.613 Z-0.200 I-64.042 J-5.143 K0.000 F250.000
G3 X35.148 Y-11.498 Z-0.200 I-0.148 J4.597 K0.000 F250.000
G1 X35.143 Y-11.192 Z-0.200 F250.000
G1 X35.143 Y-11.192 Z-0.200 F250.000
G1 X35.137 Y-10.688 Z-0.200 F250.000
G1 X35.137 Y-10.688 Z-0.200 F250.000
G3 X35.093 Y-7.511 Z-0.200 I-6514.047 J-88.801 K0.000 F250.000
G1 X35.093 Y-7.511 Z-0.200 F250.000
G1 X35.087 Y-7.138 Z-0.200 F250.000
G1 X35.087 Y-7.138 Z-0.200 F250.000
G2 X35.064 Y-4.714 Z-0.200 I28.817 J1.492 K0.000 F250.000
G2 X35.470 Y-4.782 Z-0.200 I0.191 J-0.105 K0.000 F250.000
G3 X37.334 Y-9.010 Z-0.200 I51.259 J20.073 K0.000 F250.000
G2 X38.254 Y-10.718 Z-0.200 I-24.489 J-14.292 K0.000 F250.000
G2 X38.389 Y-11.103 Z-0.200 I-4.291 J-1.722 K0.000 F250.000
G3 X39.222 Y-10.997 Z-0.200 I0.211 J1.668 K0.000 F250.000
G3 X39.322 Y-10.254 Z-0.200 I-2.088 J0.660 K0.000 F250.000
G3 X39.239 Y-7.550 Z-0.200 I-45.128 J-0.029 K0.000 F250.000
G2 X39.221 Y-3.176 Z-0.200 I40.612 J2.356 K0.000 F250.000
G2 X39.236 Y-2.988 Z-0.200 I11.108 J-0.785 K0.000 F250.000
G3 X38.363 Y-3.103 Z-0.200 I-0.121 J-2.454 K0.000 F250.000
G3 X38.383 Y-9.736 Z-0.200 I372.641 J-2.192 K0.000 F250.000
G2 X37.951 Y-9.720 Z-0.200 I-0.214 J0.070 K0.000 F250.000
G2 X35.432 Y-3.984 Z-0.200 I71.373 J34.763 K0.000 F250.000
G3 X35.176 Y-3.497 Z-0.200 I-3.075 J-1.304 K0.000 F250.000
G3 X34.199 Y-3.607 Z-0.200 I-0.179 J-2.811 K0.000 F250.000
G3 X34.076 Y-4.708 Z-0.200 I20.008 J-2.792 K0.000 F250.000
G0 Z5.000
G0 X34.174 Y-4.716 Z5.000
G0 X34.174 Y-4.716 Z3.000
G1 X34.174 Y-4.716 Z-0.200 F100.000
G3 X34.176 Y-8.088 Z-0.200 I20.198 J-1.676 K0.000 F250.000
G2 X34.357 Y-11.510 Z-0.200 I-59.468 J-4.869 K0.000 F250.000
G3 X35.046 Y-11.420 Z-0.200 I-0.318 J5.151 K0.000 F250.000
G1 X35.043 Y-11.194 Z-0.200 F250.000
G1 X35.043 Y-11.194 Z-0.200 F250.000
G2 X34.969 Y-4.682 Z-0.200 I261.170 J6.242 K0.000 F250.000
G2 X35.563 Y-4.745 Z-0.200 I0.289 J-0.112 K0.000 F250.000
G3 X37.422 Y-8.963 Z-0.200 I51.177 J20.041 K0.000 F250.000
G1 X37.718 Y-9.498 Z-0.200 F250.000
G2 X35.294 Y-3.925 Z-0.200 I92.933 J43.736 K0.000 F250.000
G3 X35.120 Y-3.594 Z-0.200 I-2.917 J-1.326 K0.000 F250.000
G3 X34.287 Y-3.683 Z-0.200 I-0.093 J-3.053 K0.000 F250.000
G3 X34.174 Y-4.716 Z-0.200 I20.086 J-2.709 K0.000 F250.000
G0 Z5.000
G0 X34.277 Y-4.724 Z5.000
G0 X34.277 Y-4.724 Z3.000
G1 X34.277 Y-4.724 Z-0.200 F100.000
G3 X34.276 Y-8.082 Z-0.200 I21.601 J-1.688 K0.000 F250.000
G2 X34.454 Y-11.402 Z-0.200 I-65.255 J-5.173 K0.000 F250.000
G3 X34.945 Y-11.338 Z-0.200 I-0.383 J4.812 K0.000 F250.000
G3 X34.906 Y-8.488 Z-0.200 I-4926.203 J-66.172 K0.000 F250.000
G1 X34.906 Y-8.488 Z-0.200 F250.000
G3 X34.887 Y-7.141 Z-0.200 I-4101.974 J-57.098 K0.000 F250.000
G1 X34.887 Y-7.141 Z-0.200 F250.000
G2 X34.872 Y-4.657 Z-0.200 I22.785 J1.384 K0.000 F250.000
G2 X35.394 Y-4.409 Z-0.200 I0.375 J-0.115 K0.000 F250.000
G3 X35.061 Y-3.691 Z-0.200 I-5.398 J-2.066 K0.000 F250.000
G3 X34.372 Y-3.776 Z-0.200 I-0.094 J-2.068 K0.000 F250.000
G3 X34.277 Y-4.724 Z-0.200 I21.506 J-2.637 K0.000 F250.000
G0 Z5.000
G0 X34.376 Y-4.732 Z5.000
G0 X34.376 Y-4.732 Z3.000
G1 X34.376 Y-4.732 Z-0.200 F100.000
G3 X34.376 Y-8.076 Z-0.200 I21.578 J-1.677 K0.000 F250.000
G2 X34.551 Y-11.293 Z-0.200 I-65.619 J-5.196 K0.000 F250.000
G3 X34.844 Y-11.255 Z-0.200 I-0.215 J2.799 K0.000 F250.000
G3 X34.806 Y-8.489 Z-0.200 I-4024.048 J-53.885 K0.000 F250.000
G1 X34.806 Y-8.489 Z-0.200 F250.000
G3 X34.795 Y-7.665 Z-0.200 I-5775.332 J-80.579 K0.000 F250.000
G1 X34.795 Y-7.665 Z-0.200 F250.000
G3 X34.787 Y-7.142 Z-0.200 I-3142.697 J-44.297 K0.000 F250.000
G1 X34.785 Y-6.968 Z-0.200 F250.000
G1 X34.785 Y-6.968 Z-0.200 F250.000
G2 X34.777 Y-4.625 Z-0.200 I18.896 J1.234 K0.000 F250.000
G2 X35.234 Y-4.281 Z-0.200 I0.468 J-0.146 K0.000 F250.000
G3 X35.002 Y-3.789 Z-0.200 I-5.156 J-2.140 K0.000 F250.000
G3 X34.463 Y-3.848 Z-0.200 I0.092 J-3.348 K0.000 F250.000
G3 X34.376 Y-4.732 Z-0.200 I21.491 J-2.561 K0.000 F250.000
G0 Z5.000
G0 X34.475 Y-4.740 Z5.000
G0 X34.475 Y-4.740 Z3.000
G1 X34.475 Y-4.740 Z-0.200 F100.000
G3 X34.475 Y-8.070 Z-0.200 I21.598 J-1.664 K0.000 F250.000
G2 X34.648 Y-11.181 Z-0.200 I-66.589 J-5.257 K0.000 F250.000
G1 X34.743 Y-11.168 Z-0.200 F250.000
G3 X34.706 Y-8.490 Z-0.200 I-5227.172 J-70.516 K0.000 F250.000
G1 X34.706 Y-8.490 Z-0.200 F250.000
G2 X34.651 Y-4.759 Z-0.200 I889.924 J14.989 K0.000 F250.000
G2 X35.094 Y-4.206 Z-0.200 I0.589 J-0.018 K0.000 F250.000
G3 X34.942 Y-3.892 Z-0.200 I-5.307 J-2.367 K0.000 F250.000
G3 X34.553 Y-3.933 Z-0.200 I0.161 J-3.350 K0.000 F250.000
G3 X34.475 Y-4.740 Z-0.200 I21.521 J-2.470 K0.000 F250.000
G0 Z5.000
G0 X34.564 Y-4.685 Z5.000
G0 X34.564 Y-4.685 Z3.000
G1 X34.564 Y-4.685 Z-0.200 F100.000
G2 X34.959 Y-4.153 Z-0.200 I0.641 J-0.063 K0.000 F250.000
G3 X34.882 Y-3.996 Z-0.200 I-3.149 J-1.443 K0.000 F250.000
G3 X34.641 Y-4.022 Z-0.200 I0.169 J-2.663 K0.000 F250.000
G3 X34.564 Y-4.685 Z-0.200 I5.628 J-0.988 K0.000 F250.000
G0 Z5.000
G0 X34.549 Y-4.887 Z5.000
G0 X34.549 Y-4.887 Z3.000
G1 X34.549 Y-4.887 Z-0.200 F100.000
G3 X34.607 Y-8.562 Z-0.200 I27.599 J-1.397 K0.000 F250.000
G1 X34.606 Y-8.492 Z-0.200 F250.000
G1 X34.599 Y-7.988 Z-0.200 F250.000
G3 X34.549 Y-4.887 Z-0.200 I-786.647 J-11.308 K0.000 F250.000
G0 Z5.000
G0 X34.718 Y-4.196 Z5.000
G0 X34.718 Y-4.196 Z3.000
G1 X34.718 Y-4.196 Z-0.200 F100.000
G2 X34.827 Y-4.107 Z-0.200 I0.190 J-0.122 K0.000 F250.000
G3 X34.718 Y-4.196 Z-0.200 I-0.028 J-0.076 K0.000 F250.000
G0 Z5.000
G0 X38.458 Y-4.205 Z5.000
G0 X38.458 Y-4.205 Z3.000
G1 X38.458 Y-4.205 Z-0.200 F100.000
G3 X38.482 Y-9.752 Z-0.200 I413.513 J-0.980 K0.000 F250.000
G2 X37.912 Y-9.846 Z-0.200 I-0.303 J0.063 K0.000 F250.000
G2 X38.463 Y-11.003 Z-0.200 I-3.970 J-2.599 K0.000 F250.000
G3 X39.149 Y-10.920 Z-0.200 I0.147 J1.664 K0.000 F250.000
G3 X39.223 Y-9.253 Z-0.200 I-6.868 J1.141 K0.000 F250.000
G2 X39.127 Y-3.096 Z-0.200 I50.678 J3.872 K0.000 F250.000
G3 X38.462 Y-3.174 Z-0.200 I0.266 J-5.119 K0.000 F250.000
G3 X38.458 Y-4.205 Z-0.200 I413.509 J-2.011 K0.000 F250.000
G0 Z5.000
G0 X38.557 Y-4.205 Z5.000
G0 X38.557 Y-4.205 Z3.000
G1 X38.557 Y-4.205 Z-0.200 F100.000
G3 X38.582 Y-9.760 Z-0.200 I428.436 J-0.865 K0.000 F250.000
G2 X38.166 Y-10.095 Z-0.200 I-0.379 J0.044 K0.000 F250.000
G2 X38.548 Y-10.902 Z-0.200 I-5.844 J-3.258 K0.000 F250.000
G1 X38.808 Y-10.886 Z-0.200 F250.000
G1 X39.064 Y-10.840 Z-0.200 F250.000
G3 X39.123 Y-9.256 Z-0.200 I-7.454 J1.073 K0.000 F250.000
G2 X39.019 Y-3.204 Z-0.200 I52.787 J3.938 K0.000 F250.000
G3 X38.560 Y-3.254 Z-0.200 I-0.035 J-1.821 K0.000 F250.000
G3 X38.557 Y-4.205 Z-0.200 I428.433 J-1.816 K0.000 F250.000
G0 Z5.000
G0 X38.656 Y-4.205 Z5.000
G0 X38.656 Y-4.205 Z3.000
G1 X38.656 Y-4.205 Z-0.200 F100.000
G3 X38.687 Y-9.713 Z-0.200 I334.753 J-0.838 K0.000 F250.000
G2 X38.326 Y-10.180 Z-0.200 I-0.494 J0.009 K0.000 F250.000
G2 X38.603 Y-10.799 Z-0.200 I-2.931 J-1.680 K0.000 F250.000
G3 X38.975 Y-10.755 Z-0.200 I-0.000 J1.605 K0.000 F250.000
G3 X38.939 Y-7.562 Z-0.200 I-19.600 J1.378 K0.000 F250.000
G2 X38.911 Y-3.313 Z-0.200 I43.551 J2.415 K0.000 F250.000
G3 X38.659 Y-3.341 Z-0.200 I0.260 J-3.417 K0.000 F250.000
G3 X38.656 Y-4.205 Z-0.200 I334.750 J-1.702 K0.000 F250.000
G0 Z5.000
G0 X38.755 Y-4.206 Z5.000
G0 X38.755 Y-4.206 Z3.000
G1 X38.755 Y-4.206 Z-0.200 F100.000
G3 X38.789 Y-9.666 Z-0.200 I306.580 J-0.799 K0.000 F250.000
G2 X38.462 Y-10.228 Z-0.200 I-0.616 J-0.018 K0.000 F250.000
G2 X38.671 Y-10.694 Z-0.200 I-2.297 J-1.311 K0.000 F250.000
G3 X38.884 Y-10.670 Z-0.200 I0.001 J0.919 K0.000 F250.000
G3 X38.840 Y-7.566 Z-0.200 I-20.183 J1.261 K0.000 F250.000
G2 X38.804 Y-3.425 Z-0.200 I46.374 J2.468 K0.000 F250.000
G1 X38.758 Y-3.431 Z-0.200 F250.000
G3 X38.755 Y-4.206 Z-0.200 I306.577 J-1.573 K0.000 F250.000
G0 Z5.000
G0 X38.822 Y-9.978 Z5.000
G0 X38.822 Y-9.978 Z3.000
G1 X38.822 Y-9.978 Z-0.200 F100.000
G2 X38.590 Y-10.265 Z-0.200 I-0.458 J0.134 K0.000 F250.000
G2 X38.740 Y-10.590 Z-0.200 I-1.610 J-0.938 K0.000 F250.000
G3 X38.804 Y-10.492 Z-0.200 I0.021 J0.056 K0.000 F250.000
G3 X38.822 Y-9.978 Z-0.200 I-3.728 J0.389 K0.000 F250.000
G0 Z5.000
G0 X38.718 Y-10.295 Z5.000
G0 X38.718 Y-10.295 Z3.000
G1 X38.718 Y-10.295 Z-0.200 F100.000
G3 X38.717 Y-10.300 Z-0.200 I0.000 J-0.003 K0.000 F250.000
G1 X38.718 Y-10.295 Z-0.200 F250.000
G0 Z5.000
G0 Z5.000
(Finish operation: Pocket_Shape001)
(Begin postamble)
M5
G17 G90
M2
