(Exported by FreeCAD)
(Post Processor: grbl_post)
(Output Time:2023-01-31 21:01:09.007622)
(Begin preamble)
G17 G90
G21
(Begin operation: G54)
(Path: G54)
G54
G0 Z5.000
(Finish operation: G54)
(Begin operation: ballend-020mm001)
(Path: ballend-020mm001)
(ballend-020mm001)
(Begin toolchange)
( M6 T2 )
M3 S10000
(Finish operation: ballend-020mm001)
(Begin operation: Pocket_Shape)
(Path: Pocket_Shape)
(Pocket_Shape)
G0 Z1.000
G0 X26.869 Y-4.466
G0 Z0.500
G1 X26.869 Y-4.466 Z-0.200 F150.000
G3 X25.888 Y-4.729 Z-0.200 I-0.319 J-0.772 K0.000 F250.000
G3 X25.875 Y-8.784 Z-0.200 I118.875 J-2.404 K0.000 F250.000
G2 X25.594 Y-8.919 Z-0.200 I-0.246 J0.153 K0.000 F250.000
G2 X23.962 Y-9.167 Z-0.200 I-3.715 J18.941 K0.000 F250.000
G2 X23.754 Y-8.736 Z-0.200 I0.263 J0.392 K0.000 F250.000
G2 X23.833 Y-7.438 Z-0.200 I7.650 J0.185 K0.000 F250.000
G3 X23.792 Y-4.942 Z-0.200 I-28.351 J0.788 K0.000 F250.000
G3 X23.405 Y-4.807 Z-0.200 I-0.326 J-0.311 K0.000 F250.000
G3 X22.796 Y-5.099 Z-0.200 I-0.057 J-0.663 K0.000 F250.000
G3 X22.827 Y-9.506 Z-0.200 I278.129 J-0.244 K0.000 F250.000
G3 X23.600 Y-9.692 Z-0.200 I0.683 J1.140 K0.000 F250.000
G3 X25.088 Y-9.488 Z-0.200 I0.102 J4.796 K0.000 F250.000
G2 X25.710 Y-9.386 Z-0.200 I0.676 J-2.175 K0.000 F250.000
G2 X25.816 Y-9.450 Z-0.200 I-0.016 J-0.148 K0.000 F250.000
G2 X26.008 Y-10.559 Z-0.200 I-1.799 J-0.881 K0.000 F250.000
G2 X25.718 Y-12.205 Z-0.200 I-5.611 J0.139 K0.000 F250.000
G2 X25.267 Y-12.321 Z-0.200 I-0.472 J0.901 K0.000 F250.000
G2 X24.040 Y-12.475 Z-0.200 I-1.136 J4.073 K0.000 F250.000
G2 X23.717 Y-12.120 Z-0.200 I-0.041 J0.287 K0.000 F250.000
G3 X23.728 Y-11.459 Z-0.200 I-3.088 J0.380 K0.000 F250.000
G3 X23.247 Y-11.340 Z-0.200 I-0.329 J-0.299 K0.000 F250.000
G3 X22.886 Y-11.661 Z-0.200 I-0.003 J-0.359 K0.000 F250.000
G3 X22.874 Y-13.051 Z-0.200 I2.686 J-0.719 K0.000 F250.000
G3 X23.260 Y-13.095 Z-0.200 I0.241 J0.409 K0.000 F250.000
G1 X23.387 Y-13.085 Z-0.200 F250.000
G2 X25.050 Y-12.899 Z-0.200 I6.984 J-54.936 K0.000 F250.000
G3 X26.294 Y-12.586 Z-0.200 I-0.252 J3.634 K0.000 F250.000
G3 X26.825 Y-11.799 Z-0.200 I-0.365 J0.819 K0.000 F250.000
G3 X26.891 Y-9.200 Z-0.200 I-9.654 J1.546 K0.000 F250.000
G2 X26.869 Y-4.466 Z-0.200 I224.485 J3.420 K0.000 F250.000
G0 Z1.000
G0 X26.770 Y-4.520 Z1.000
G0 X26.770 Y-4.520 Z0.500
G1 X26.770 Y-4.520 Z-0.200 F150.000
G3 X25.965 Y-4.781 Z-0.200 I-0.249 J-0.604 K0.000 F250.000
G3 X25.955 Y-8.784 Z-0.200 I163.395 J-2.417 K0.000 F250.000
G2 X25.714 Y-8.979 Z-0.200 I-0.258 J0.073 K0.000 F250.000
G2 X23.965 Y-9.247 Z-0.200 I-3.940 J19.847 K0.000 F250.000
G2 X23.680 Y-8.806 Z-0.200 I0.144 J0.406 K0.000 F250.000
G2 X23.753 Y-7.434 Z-0.200 I6.628 J0.333 K0.000 F250.000
G3 X23.721 Y-4.982 Z-0.200 I-40.761 J0.689 K0.000 F250.000
G3 X22.876 Y-5.123 Z-0.200 I-0.340 J-0.567 K0.000 F250.000
G3 X22.877 Y-5.577 Z-0.200 I260.657 J0.376 K0.000 F250.000
G1 X22.877 Y-5.577 Z-0.200 F250.000
G3 X22.903 Y-9.462 Z-0.200 I269.863 J-0.138 K0.000 F250.000
G3 X23.886 Y-9.615 Z-0.200 I0.765 J1.686 K0.000 F250.000
G3 X25.641 Y-9.305 Z-0.200 I-1.780 J15.184 K0.000 F250.000
G2 X25.888 Y-9.414 Z-0.200 I0.037 J-0.249 K0.000 F250.000
G2 X26.088 Y-10.564 Z-0.200 I-1.885 J-0.919 K0.000 F250.000
G2 X25.786 Y-12.248 Z-0.200 I-5.488 J0.115 K0.000 F250.000
G2 X25.281 Y-12.399 Z-0.200 I-0.514 J0.792 K0.000 F250.000
G2 X24.025 Y-12.554 Z-0.200 I-1.137 J4.062 K0.000 F250.000
G2 X23.637 Y-12.118 Z-0.200 I-0.030 J0.363 K0.000 F250.000
G3 X23.653 Y-11.493 Z-0.200 I-9.671 J0.556 K0.000 F250.000
G3 X23.257 Y-11.420 Z-0.200 I-0.258 J-0.287 K0.000 F250.000
G3 X22.965 Y-11.677 Z-0.200 I-0.012 J-0.280 K0.000 F250.000
G3 X22.944 Y-13.008 Z-0.200 I2.664 J-0.707 K0.000 F250.000
G3 X23.380 Y-13.005 Z-0.200 I0.210 J1.176 K0.000 F250.000
G2 X25.039 Y-12.820 Z-0.200 I6.942 J-54.568 K0.000 F250.000
G3 X26.255 Y-12.516 Z-0.200 I-0.240 J3.553 K0.000 F250.000
G3 X26.747 Y-11.781 Z-0.200 I-0.329 J0.752 K0.000 F250.000
G3 X26.811 Y-9.202 Z-0.200 I-9.595 J1.529 K0.000 F250.000
G2 X26.770 Y-4.520 Z-0.200 I2033.715 J20.371 K0.000 F250.000
G0 Z1.000
G0 X26.694 Y-4.582 Z1.000
G0 X26.694 Y-4.582 Z0.500
G1 X26.694 Y-4.582 Z-0.200 F150.000
G3 X26.045 Y-4.784 Z-0.200 I-0.172 J-0.592 K0.000 F250.000
G3 X26.035 Y-8.784 Z-0.200 I163.766 J-2.414 K0.000 F250.000
G2 X25.728 Y-9.058 Z-0.200 I-0.318 J0.048 K0.000 F250.000
G2 X23.968 Y-9.327 Z-0.200 I-3.936 J19.822 K0.000 F250.000
G2 X23.610 Y-8.883 Z-0.200 I0.082 J0.432 K0.000 F250.000
G2 X23.673 Y-7.430 Z-0.200 I5.899 J0.474 K0.000 F250.000
G3 X23.644 Y-5.020 Z-0.200 I-52.316 J0.581 K0.000 F250.000
G3 X22.956 Y-5.155 Z-0.200 I-0.249 J-0.550 K0.000 F250.000
G3 X22.981 Y-9.421 Z-0.200 I429.456 J0.389 K0.000 F250.000
G3 X24.125 Y-9.514 Z-0.200 I0.759 J2.259 K0.000 F250.000
G2 X25.676 Y-9.223 Z-0.200 I7.943 J-38.140 K0.000 F250.000
G2 X25.960 Y-9.379 Z-0.200 I0.006 J-0.326 K0.000 F250.000
G2 X26.168 Y-10.568 Z-0.200 I-1.969 J-0.957 K0.000 F250.000
G2 X25.853 Y-12.290 Z-0.200 I-5.404 J0.096 K0.000 F250.000
G2 X25.295 Y-12.478 Z-0.200 I-0.570 J0.770 K0.000 F250.000
G2 X24.009 Y-12.632 Z-0.200 I-1.139 J4.063 K0.000 F250.000
G2 X23.557 Y-12.115 Z-0.200 I-0.018 J0.440 K0.000 F250.000
G3 X23.557 Y-11.520 Z-0.200 I-1.822 J0.296 K0.000 F250.000
G3 X23.098 Y-11.564 Z-0.200 I-0.182 J-0.513 K0.000 F250.000
G3 X23.009 Y-12.941 Z-0.200 I2.531 J-0.854 K0.000 F250.000
G3 X23.373 Y-12.925 Z-0.200 I0.027 J3.585 K0.000 F250.000
G2 X25.027 Y-12.740 Z-0.200 I6.900 J-54.201 K0.000 F250.000
G3 X26.217 Y-12.446 Z-0.200 I-0.228 J3.472 K0.000 F250.000
G3 X26.669 Y-11.763 Z-0.200 I-0.324 J0.706 K0.000 F250.000
G3 X26.731 Y-9.204 Z-0.200 I-9.537 J1.512 K0.000 F250.000
G2 X26.694 Y-4.582 Z-0.200 I936.902 J9.755 K0.000 F250.000
G0 Z1.000
G0 X26.620 Y-4.648 Z1.000
G0 X26.620 Y-4.648 Z0.500
G1 X26.620 Y-4.648 Z-0.200 F150.000
G3 X26.124 Y-4.803 Z-0.200 I-0.089 J-0.585 K0.000 F250.000
G3 X26.115 Y-8.784 Z-0.200 I169.524 J-2.398 K0.000 F250.000
G2 X25.742 Y-9.136 Z-0.200 I-0.398 J0.048 K0.000 F250.000
G1 X25.692 Y-9.145 Z-0.200 F250.000
G2 X26.032 Y-9.343 Z-0.200 I-0.002 J-0.394 K0.000 F250.000
G2 X26.234 Y-10.787 Z-0.200 I-2.224 J-1.048 K0.000 F250.000
G2 X25.921 Y-12.333 Z-0.200 I-5.177 J0.245 K0.000 F250.000
G2 X25.309 Y-12.557 Z-0.200 I-0.631 J0.777 K0.000 F250.000
G2 X23.994 Y-12.711 Z-0.200 I-1.143 J4.073 K0.000 F250.000
G2 X23.477 Y-12.113 Z-0.200 I-0.006 J0.517 K0.000 F250.000
G3 X23.484 Y-11.574 Z-0.200 I-1.630 J0.290 K0.000 F250.000
G3 X23.160 Y-11.617 Z-0.200 I-0.108 J-0.419 K0.000 F250.000
G3 X23.068 Y-12.022 Z-0.200 I0.839 J-0.404 K0.000 F250.000
G3 X23.076 Y-12.861 Z-0.200 I2.347 J-0.396 K0.000 F250.000
G3 X25.735 Y-12.527 Z-0.200 I-2.973 J34.367 K0.000 F250.000
G3 X26.480 Y-12.116 Z-0.200 I-0.057 J0.983 K0.000 F250.000
G3 X26.664 Y-9.492 Z-0.200 I-6.575 J1.780 K0.000 F250.000
G2 X26.620 Y-4.648 Z-0.200 I145.142 J3.737 K0.000 F250.000
G0 Z1.000
G0 X26.549 Y-4.726 Z1.000
G0 X26.549 Y-4.726 Z0.500
G1 X26.549 Y-4.726 Z-0.200 F150.000
G3 X26.203 Y-4.841 Z-0.200 I-0.033 J-0.479 K0.000 F250.000
G3 X26.195 Y-8.784 Z-0.200 I184.468 J-2.371 K0.000 F250.000
G2 X25.953 Y-9.148 Z-0.200 I-0.341 J-0.035 K0.000 F250.000
G2 X26.308 Y-9.953 Z-0.200 I-0.845 J-0.853 K0.000 F250.000
G2 X25.994 Y-12.368 Z-0.200 I-5.885 J-0.462 K0.000 F250.000
G3 X26.425 Y-12.039 Z-0.200 I-0.158 J0.655 K0.000 F250.000
G3 X26.584 Y-9.496 Z-0.200 I-6.752 J1.697 K0.000 F250.000
G2 X26.549 Y-4.726 Z-0.200 I126.143 J3.319 K0.000 F250.000
G0 Z1.000
G0 X26.470 Y-4.815 Z1.000
G0 X26.470 Y-4.815 Z0.500
G1 X26.470 Y-4.815 Z-0.200 F150.000
G3 X26.282 Y-4.878 Z-0.200 I0.055 J-0.471 K0.000 F250.000
G3 X26.275 Y-8.784 Z-0.200 I206.207 J-2.347 K0.000 F250.000
G2 X26.087 Y-9.166 Z-0.200 I-0.380 J-0.050 K0.000 F250.000
G2 X26.388 Y-9.949 Z-0.200 I-1.047 J-0.851 K0.000 F250.000
G2 X26.146 Y-12.208 Z-0.200 I-7.139 J-0.379 K0.000 F250.000
G3 X26.372 Y-11.949 Z-0.200 I-0.116 J0.329 K0.000 F250.000
G3 X26.504 Y-9.500 Z-0.200 I-7.122 J1.613 K0.000 F250.000
G2 X26.470 Y-4.815 Z-0.200 I102.098 J3.090 K0.000 F250.000
G0 Z1.000
G0 X26.390 Y-4.923 Z1.000
G0 X26.390 Y-4.923 Z0.500
G1 X26.390 Y-4.923 Z-0.200 F150.000
G3 X26.360 Y-5.033 Z-0.200 I0.044 J-0.071 K0.000 F250.000
G3 X26.355 Y-8.784 Z-0.200 I294.010 J-2.265 K0.000 F250.000
G2 X26.203 Y-9.175 Z-0.200 I-0.580 J-0.000 K0.000 F250.000
G1 X26.198 Y-9.179 Z-0.200 F250.000
G2 X26.440 Y-9.803 Z-0.200 I-0.997 J-0.746 K0.000 F250.000
G2 X26.390 Y-4.923 Z-0.200 I81.399 J3.271 K0.000 F250.000
G0 Z1.000
G0 X23.567 Y-5.071 Z1.000
G0 X23.567 Y-5.071 Z0.500
G1 X23.567 Y-5.071 Z-0.200 F150.000
G3 X23.036 Y-5.189 Z-0.200 I-0.166 J-0.510 K0.000 F250.000
G3 X23.043 Y-7.127 Z-0.200 I797.646 J2.023 K0.000 F250.000
G1 X23.043 Y-7.127 Z-0.200 F250.000
G3 X23.059 Y-9.375 Z-0.200 I123.107 J-0.254 K0.000 F250.000
G3 X24.114 Y-9.434 Z-0.200 I0.696 J2.985 K0.000 F250.000
G3 X24.857 Y-9.291 Z-0.200 I-1.737 J10.977 K0.000 F250.000
G2 X23.971 Y-9.407 Z-0.200 I-1.322 J6.625 K0.000 F250.000
G2 X23.532 Y-8.896 Z-0.200 I0.075 J0.508 K0.000 F250.000
G2 X23.593 Y-7.426 Z-0.200 I5.941 J0.488 K0.000 F250.000
G3 X23.567 Y-5.071 Z-0.200 I-60.531 J0.518 K0.000 F250.000
G0 Z1.000
G0 X23.490 Y-5.137 Z1.000
G0 X23.490 Y-5.137 Z0.500
G1 X23.490 Y-5.137 Z-0.200 F150.000
G3 X23.116 Y-5.223 Z-0.200 I-0.093 J-0.454 K0.000 F250.000
G3 X23.138 Y-9.315 Z-0.200 I591.420 J1.088 K0.000 F250.000
G3 X23.689 Y-9.374 Z-0.200 I0.461 J1.714 K0.000 F250.000
G2 X23.429 Y-8.531 Z-0.200 I0.844 J0.721 K0.000 F250.000
G2 X23.513 Y-7.421 Z-0.200 I10.288 J-0.217 K0.000 F250.000
G3 X23.490 Y-5.137 Z-0.200 I-64.425 J0.487 K0.000 F250.000
G0 Z1.000
G0 X23.412 Y-5.210 Z1.000
G0 X23.412 Y-5.210 Z0.500
G1 X23.412 Y-5.210 Z-0.200 F150.000
G3 X23.196 Y-5.263 Z-0.200 I-0.015 J-0.402 K0.000 F250.000
G3 X23.201 Y-6.570 Z-0.200 I442.746 J0.932 K0.000 F250.000
G1 X23.201 Y-6.570 Z-0.200 F250.000
G1 X23.203 Y-7.126 Z-0.200 F250.000
G3 X23.216 Y-9.255 Z-0.200 I174.583 J0.012 K0.000 F250.000
G3 X23.504 Y-9.287 Z-0.200 I0.285 J1.233 K0.000 F250.000
G2 X23.356 Y-8.277 Z-0.200 I1.695 J0.764 K0.000 F250.000
G3 X23.426 Y-6.030 Z-0.200 I-11.910 J1.492 K0.000 F250.000
G3 X23.412 Y-5.210 Z-0.200 I-35.870 J-0.200 K0.000 F250.000
G0 Z1.000
G0 X23.334 Y-5.301 Z1.000
G0 X23.334 Y-5.301 Z0.500
G1 X23.334 Y-5.301 Z-0.200 F150.000
G3 X23.276 Y-5.315 Z-0.200 I-0.005 J-0.108 K0.000 F250.000
G3 X23.288 Y-8.101 Z-0.200 I1394.414 J4.376 K0.000 F250.000
G3 X23.346 Y-6.031 Z-0.200 I-10.345 J1.326 K0.000 F250.000
G3 X23.334 Y-5.301 Z-0.200 I-39.072 J-0.254 K0.000 F250.000
G0 Z1.000
G0 X23.293 Y-8.920 Z1.000
G0 X23.293 Y-8.920 Z0.500
G1 X23.293 Y-8.920 Z-0.200 F150.000
G3 X23.295 Y-9.193 Z-0.200 I26.443 J0.141 K0.000 F250.000
G3 X23.367 Y-9.200 Z-0.200 I0.129 J1.003 K0.000 F250.000
G2 X23.293 Y-8.920 Z-0.200 I1.096 J0.442 K0.000 F250.000
G0 Z1.000
G0 X23.335 Y-11.635 Z1.000
G0 X23.335 Y-11.635 Z0.500
G1 X23.335 Y-11.635 Z-0.200 F150.000
G3 X23.206 Y-11.700 Z-0.200 I0.003 J-0.163 K0.000 F250.000
G3 X23.146 Y-12.779 Z-0.200 I2.659 J-0.688 K0.000 F250.000
G3 X23.725 Y-12.724 Z-0.200 I-0.204 J5.234 K0.000 F250.000
G2 X23.402 Y-11.927 Z-0.200 I0.364 J0.612 K0.000 F250.000
G3 X23.412 Y-11.653 Z-0.200 I-25.493 J1.080 K0.000 F250.000
G3 X23.335 Y-11.635 Z-0.200 I-0.075 J-0.145 K0.000 F250.000
G0 Z1.000
G0 X23.312 Y-11.722 Z1.000
G0 X23.312 Y-11.722 Z0.500
G1 X23.312 Y-11.722 Z-0.200 F150.000
G3 X23.278 Y-11.743 Z-0.200 I-0.007 J-0.027 K0.000 F250.000
G3 X23.217 Y-12.696 Z-0.200 I2.569 J-0.643 K0.000 F250.000
G3 X23.510 Y-12.670 Z-0.200 I-0.266 J4.688 K0.000 F250.000
G2 X23.329 Y-11.737 Z-0.200 I0.933 J0.665 K0.000 F250.000
G3 X23.312 Y-11.722 Z-0.200 I-0.025 J-0.013 K0.000 F250.000
G0 Z1.000
G0 X23.279 Y-12.415 Z1.000
G0 X23.279 Y-12.415 Z0.500
G1 X23.279 Y-12.415 Z-0.200 F150.000
G3 X23.287 Y-12.611 Z-0.200 I0.779 J-0.066 K0.000 F250.000
G3 X23.354 Y-12.606 Z-0.200 I-0.098 J1.648 K0.000 F250.000
G2 X23.279 Y-12.415 Z-0.200 I0.349 J0.247 K0.000 F250.000
G0 Z1.000
G0 X26.314 Y-11.856 Z1.000
G0 X26.314 Y-11.856 Z0.500
G1 X26.314 Y-11.856 Z-0.200 F150.000
G3 X26.415 Y-11.307 Z-0.200 I-2.590 J0.761 K0.000 F250.000
G2 X26.314 Y-11.856 Z-0.200 I-10.030 J1.567 K0.000 F250.000
G0 Z1.000
G0 X26.332 Y-9.228 Z1.000
G0 X26.332 Y-9.228 Z0.500
G1 X26.332 Y-9.228 Z-0.200 F150.000
G2 X26.330 Y-9.127 Z-0.200 I4.317 J0.141 K0.000 F250.000
G3 X26.332 Y-9.228 Z-0.200 I0.074 J-0.049 K0.000 F250.000
G0 Z1.000
G0 Z1.000
G0 X26.332 Y-9.228
G0 X28.422 Y-9.229
G0 X28.422 Y-9.229 Z0.500
G1 X28.422 Y-9.229 Z-0.200 F150.000
G2 X28.286 Y-11.927 Z-0.200 I-27.061 J0.012 K0.000 F250.000
G3 X28.334 Y-12.355 Z-0.200 I0.699 J-0.138 K0.000 F250.000
G3 X28.721 Y-12.392 Z-0.200 I0.248 J0.542 K0.000 F250.000
G3 X32.036 Y-11.936 Z-0.200 I-1.530 J23.388 K0.000 F250.000
G3 X32.599 Y-11.329 Z-0.200 I-0.087 J0.645 K0.000 F250.000
G3 X32.709 Y-9.905 Z-0.200 I-4.813 J1.087 K0.000 F250.000
G2 X32.622 Y-7.782 Z-0.200 I39.991 J2.703 K0.000 F250.000
G3 X31.889 Y-7.549 Z-0.200 I-0.608 J-0.645 K0.000 F250.000
G3 X30.778 Y-7.699 Z-0.200 I0.019 J-4.319 K0.000 F250.000
G3 X30.593 Y-8.123 Z-0.200 I0.258 J-0.365 K0.000 F250.000
G3 X31.121 Y-8.239 Z-0.200 I0.402 J0.573 K0.000 F250.000
G1 X31.308 Y-8.221 Z-0.200 F250.000
G1 X31.308 Y-8.221 Z-0.200 F250.000
G2 X31.683 Y-8.431 Z-0.200 I0.107 J-0.249 K0.000 F250.000
G2 X31.716 Y-9.978 Z-0.200 I-6.018 J-0.901 K0.000 F250.000
G2 X31.590 Y-11.579 Z-0.200 I-12.776 J0.204 K0.000 F250.000
G2 X31.146 Y-11.875 Z-0.200 I-0.513 J0.288 K0.000 F250.000
G2 X29.523 Y-12.064 Z-0.200 I-10.467 J83.061 K0.000 F250.000
G2 X29.398 Y-11.751 Z-0.200 I0.071 J0.210 K0.000 F250.000
G3 X29.543 Y-8.284 Z-0.200 I-26.283 J2.835 K0.000 F250.000
G2 X29.422 Y-4.818 Z-0.200 I77.094 J4.426 K0.000 F250.000
G2 X29.489 Y-4.449 Z-0.200 I0.508 J0.098 K0.000 F250.000
G2 X31.351 Y-4.171 Z-0.200 I1.912 J-6.424 K0.000 F250.000
G2 X31.431 Y-4.504 Z-0.200 I-0.216 J-0.228 K0.000 F250.000
G3 X31.378 Y-5.078 Z-0.200 I24.020 J-2.491 K0.000 F250.000
G3 X32.501 Y-4.963 Z-0.200 I0.348 J2.139 K0.000 F250.000
G3 X32.577 Y-3.879 Z-0.200 I-7.315 J1.053 K0.000 F250.000
G3 X32.484 Y-3.796 Z-0.200 I-0.166 J-0.092 K0.000 F250.000
G3 X29.857 Y-4.018 Z-0.200 I2.460 J-44.739 K0.000 F250.000
G3 X28.502 Y-4.255 Z-0.200 I0.124 J-4.703 K0.000 F250.000
G3 X28.341 Y-4.549 Z-0.200 I0.198 J-0.299 K0.000 F250.000
G3 X28.389 Y-7.884 Z-0.200 I24.188 J-1.320 K0.000 F250.000
G2 X28.422 Y-9.229 Z-0.200 I-27.028 J-1.334 K0.000 F250.000
G0 Z1.000
G0 X28.488 Y-9.228 Z1.000
G0 X28.488 Y-9.228 Z0.500
G1 X28.488 Y-9.228 Z-0.200 F150.000
G2 X28.496 Y-9.644 Z-0.200 I-385.306 J-8.449 K0.000 F250.000
G2 X28.366 Y-11.929 Z-0.200 I-138.983 J6.810 K0.000 F250.000
G3 X28.419 Y-12.312 Z-0.200 I0.411 J-0.138 K0.000 F250.000
G3 X28.715 Y-12.313 Z-0.200 I0.150 J1.308 K0.000 F250.000
G3 X32.015 Y-11.859 Z-0.200 I-1.529 J23.344 K0.000 F250.000
G3 X32.521 Y-11.310 Z-0.200 I-0.069 J0.572 K0.000 F250.000
G3 X32.629 Y-9.908 Z-0.200 I-4.740 J1.069 K0.000 F250.000
G2 X32.542 Y-7.825 Z-0.200 I39.803 J2.693 K0.000 F250.000
G3 X31.896 Y-7.629 Z-0.200 I-0.525 J-0.566 K0.000 F250.000
G3 X30.813 Y-7.775 Z-0.200 I-0.026 J-3.894 K0.000 F250.000
G3 X30.666 Y-8.081 Z-0.200 I0.239 J-0.304 K0.000 F250.000
G3 X31.301 Y-8.142 Z-0.200 I0.423 J1.070 K0.000 F250.000
G1 X31.301 Y-8.142 Z-0.200 F250.000
G2 X31.762 Y-8.416 Z-0.200 I0.127 J-0.311 K0.000 F250.000
G2 X31.796 Y-9.981 Z-0.200 I-6.112 J-0.915 K0.000 F250.000
G2 X31.660 Y-11.617 Z-0.200 I-12.022 J0.173 K0.000 F250.000
G2 X31.155 Y-11.955 Z-0.200 I-0.587 J0.331 K0.000 F250.000
G2 X29.503 Y-12.141 Z-0.200 I-6.391 J49.255 K0.000 F250.000
G2 X29.318 Y-11.745 Z-0.200 I0.093 J0.285 K0.000 F250.000
G3 X29.463 Y-8.286 Z-0.200 I-26.214 J2.829 K0.000 F250.000
G2 X29.342 Y-4.816 Z-0.200 I76.707 J4.411 K0.000 F250.000
G2 X29.444 Y-4.383 Z-0.200 I0.540 J0.101 K0.000 F250.000
G2 X31.364 Y-4.092 Z-0.200 I1.928 J-6.240 K0.000 F250.000
G2 X31.521 Y-4.438 Z-0.200 I-0.118 J-0.262 K0.000 F250.000
G3 X31.464 Y-5.009 Z-0.200 I14.902 J-1.777 K0.000 F250.000
G3 X32.429 Y-4.909 Z-0.200 I0.264 J2.160 K0.000 F250.000
G3 X32.483 Y-3.888 Z-0.200 I-3.987 J0.723 K0.000 F250.000
G1 X32.463 Y-3.876 Z-0.200 F250.000
G3 X29.865 Y-4.098 Z-0.200 I2.554 J-45.348 K0.000 F250.000
G3 X28.497 Y-4.359 Z-0.200 I-0.078 J-3.303 K0.000 F250.000
G3 X28.376 Y-5.132 Z-0.200 I1.660 J-0.656 K0.000 F250.000
G2 X28.488 Y-9.228 Z-0.200 I-385.194 J-12.545 K0.000 F250.000
G0 Z1.000
G0 X28.567 Y-9.226 Z1.000
G0 X28.567 Y-9.226 Z0.500
G1 X28.567 Y-9.226 Z-0.200 F150.000
G2 X28.576 Y-9.645 Z-0.200 I-383.546 J-8.403 K0.000 F250.000
G2 X28.446 Y-11.930 Z-0.200 I-137.496 J6.724 K0.000 F250.000
G3 X28.453 Y-12.238 Z-0.200 I1.811 J-0.111 K0.000 F250.000
G3 X28.710 Y-12.233 Z-0.200 I0.096 J1.696 K0.000 F250.000
G3 X29.381 Y-12.171 Z-0.200 I-0.870 J13.199 K0.000 F250.000
G2 X29.251 Y-11.579 Z-0.200 I0.389 J0.395 K0.000 F250.000
G3 X29.383 Y-8.287 Z-0.200 I-23.717 J2.595 K0.000 F250.000
G2 X29.262 Y-4.814 Z-0.200 I76.333 J4.396 K0.000 F250.000
G2 X29.399 Y-4.317 Z-0.200 I0.597 J0.103 K0.000 F250.000
G2 X29.866 Y-4.178 Z-0.200 I0.731 J-1.601 K0.000 F250.000
G3 X28.555 Y-4.415 Z-0.200 I-0.063 J-3.393 K0.000 F250.000
G3 X28.456 Y-5.133 Z-0.200 I1.745 J-0.607 K0.000 F250.000
G2 X28.567 Y-9.226 Z-0.200 I-383.435 J-12.496 K0.000 F250.000
G0 Z1.000
G0 X28.902 Y-9.226 Z1.000
G0 X28.902 Y-9.226 Z0.500
G1 X28.902 Y-9.226 Z-0.200 F150.000
G2 X28.766 Y-11.907 Z-0.200 I-26.896 J0.018 K0.000 F250.000
G1 X28.912 Y-11.895 Z-0.200 F250.000
G3 X28.982 Y-6.100 Z-0.200 I-33.238 J3.297 K0.000 F250.000
G2 X28.949 Y-4.611 Z-0.200 I12.347 J1.022 K0.000 F250.000
G3 X28.814 Y-4.643 Z-0.200 I0.027 J-0.410 K0.000 F250.000
G3 X28.881 Y-8.148 Z-0.200 I26.576 J-1.243 K0.000 F250.000
G2 X28.902 Y-9.226 Z-0.200 I-26.875 J-1.060 K0.000 F250.000
G0 Z1.000
G0 X28.975 Y-9.226 Z1.000
G0 X28.975 Y-9.226 Z0.500
G1 X28.975 Y-9.226 Z-0.200 F150.000
G3 X28.870 Y-5.344 Z-0.200 I-83.489 J-0.321 K0.000 F250.000
G2 X28.862 Y-4.911 Z-0.200 I14.082 J0.482 K0.000 F250.000
G3 X28.978 Y-8.870 Z-0.200 I74.105 J0.184 K0.000 F250.000
G2 X28.976 Y-9.679 Z-0.200 I-26.990 J-0.346 K0.000 F250.000
G3 X28.975 Y-9.226 Z-0.200 I-83.490 J0.131 K0.000 F250.000
G0 Z1.000
G0 X29.127 Y-9.226 Z1.000
G0 X29.127 Y-9.226 Z0.500
G1 X29.127 Y-9.226 Z-0.200 F150.000
G3 X29.024 Y-5.108 Z-0.200 I-91.157 J-0.225 K0.000 F250.000
G2 X29.039 Y-4.510 Z-0.200 I3.342 J0.214 K0.000 F250.000
G3 X28.749 Y-4.583 Z-0.200 I0.070 J-0.887 K0.000 F250.000
G3 X28.699 Y-5.620 Z-0.200 I3.726 J-0.700 K0.000 F250.000
G2 X28.811 Y-9.990 Z-0.200 I-74.245 J-4.092 K0.000 F250.000
G3 X28.686 Y-11.935 Z-0.200 I52.689 J-4.368 K0.000 F250.000
G1 X28.685 Y-11.994 Z-0.200 F250.000
G3 X28.999 Y-11.968 Z-0.200 I-0.337 J6.022 K0.000 F250.000
G2 X29.125 Y-10.081 Z-0.200 I28.381 J-0.952 K0.000 F250.000
G3 X29.127 Y-9.226 Z-0.200 I-91.155 J0.630 K0.000 F250.000
G0 Z1.000
G0 X29.226 Y-9.227 Z1.000
G0 X29.226 Y-9.227 Z0.500
G1 X29.226 Y-9.227 Z-0.200 F150.000
G3 X29.142 Y-6.093 Z-0.200 I-35.452 J0.617 K0.000 F250.000
G2 X29.119 Y-4.517 Z-0.200 I9.637 J0.929 K0.000 F250.000
G1 X29.143 Y-4.412 Z-0.200 F250.000
G3 X28.684 Y-4.523 Z-0.200 I0.067 J-1.280 K0.000 F250.000
G3 X28.619 Y-5.621 Z-0.200 I3.503 J-0.758 K0.000 F250.000
G2 X28.731 Y-9.987 Z-0.200 I-74.273 J-4.094 K0.000 F250.000
G3 X28.606 Y-11.933 Z-0.200 I52.474 J-4.353 K0.000 F250.000
G3 X28.605 Y-12.078 Z-0.200 I2.143 J-0.076 K0.000 F250.000
G3 X29.096 Y-12.040 Z-0.200 I-0.368 J7.973 K0.000 F250.000
G2 X29.172 Y-10.662 Z-0.200 I5.864 J0.366 K0.000 F250.000
G3 X29.226 Y-9.227 Z-0.200 I-35.398 J2.052 K0.000 F250.000
G0 Z1.000
G0 X29.312 Y-9.228 Z1.000
G0 X29.312 Y-9.228 Z0.500
G1 X29.312 Y-9.228 Z-0.200 F150.000
G3 X29.303 Y-8.288 Z-0.200 I-23.783 J0.245 K0.000 F250.000
G2 X29.182 Y-4.812 Z-0.200 I75.971 J4.382 K0.000 F250.000
G2 X29.307 Y-4.311 Z-0.200 I0.644 J0.105 K0.000 F250.000
G3 X28.617 Y-4.469 Z-0.200 I-0.021 J-1.495 K0.000 F250.000
G3 X28.539 Y-5.622 Z-0.200 I3.428 J-0.811 K0.000 F250.000
G2 X28.651 Y-9.984 Z-0.200 I-74.302 J-4.095 K0.000 F250.000
G3 X28.526 Y-11.932 Z-0.200 I52.268 J-4.339 K0.000 F250.000
G3 X28.527 Y-12.160 Z-0.200 I3.385 J-0.088 K0.000 F250.000
G3 X28.704 Y-12.153 Z-0.200 I-0.059 J3.513 K0.000 F250.000
G3 X29.221 Y-12.108 Z-0.200 I-0.620 J10.169 K0.000 F250.000
G2 X29.172 Y-11.572 Z-0.200 I0.777 J0.342 K0.000 F250.000
G3 X29.312 Y-9.228 Z-0.200 I-23.643 J2.588 K0.000 F250.000
G0 Z1.000
G0 X30.742 Y-8.042 Z1.000
G0 X30.742 Y-8.042 Z0.500
G1 X30.742 Y-8.042 Z-0.200 F150.000
G3 X31.294 Y-8.062 Z-0.200 I0.323 J1.335 K0.000 F250.000
G1 X31.294 Y-8.062 Z-0.200 F250.000
G2 X31.803 Y-8.307 Z-0.200 I0.141 J-0.358 K0.000 F250.000
G2 X31.884 Y-9.681 Z-0.200 I-3.822 J-0.914 K0.000 F250.000
G2 X31.768 Y-11.547 Z-0.200 I-18.194 J0.194 K0.000 F250.000
G2 X31.536 Y-11.878 Z-0.200 I-0.558 J0.144 K0.000 F250.000
G3 X32.340 Y-11.600 Z-0.200 I0.003 J1.292 K0.000 F250.000
G3 X32.554 Y-10.396 Z-0.200 I-2.827 J1.124 K0.000 F250.000
G2 X32.463 Y-7.869 Z-0.200 I98.693 J4.793 K0.000 F250.000
G3 X31.903 Y-7.708 Z-0.200 I-0.443 J-0.488 K0.000 F250.000
G3 X30.864 Y-7.837 Z-0.200 I0.168 J-5.595 K0.000 F250.000
G3 X30.742 Y-8.042 Z-0.200 I0.258 J-0.292 K0.000 F250.000
G0 Z1.000
G0 X30.852 Y-7.988 Z1.000
G0 X30.852 Y-7.988 Z0.500
G1 X30.852 Y-7.988 Z-0.200 F150.000
G3 X31.286 Y-7.982 Z-0.200 I0.198 J1.504 K0.000 F250.000
G1 X31.286 Y-7.982 Z-0.200 F250.000
G2 X31.870 Y-8.264 Z-0.200 I0.152 J-0.430 K0.000 F250.000
G2 X31.964 Y-9.683 Z-0.200 I-3.743 J-0.960 K0.000 F250.000
G2 X31.845 Y-11.570 Z-0.200 I-17.890 J0.184 K0.000 F250.000
G2 X31.764 Y-11.753 Z-0.200 I-0.472 J0.098 K0.000 F250.000
G3 X32.296 Y-11.513 Z-0.200 I0.027 J0.649 K0.000 F250.000
G3 X32.469 Y-9.913 Z-0.200 I-3.842 J1.224 K0.000 F250.000
G2 X32.372 Y-7.905 Z-0.200 I97.974 J5.735 K0.000 F250.000
G3 X31.910 Y-7.788 Z-0.200 I-0.342 J-0.380 K0.000 F250.000
G3 X30.902 Y-7.914 Z-0.200 I0.007 J-4.145 K0.000 F250.000
G3 X30.852 Y-7.988 Z-0.200 I0.289 J-0.253 K0.000 F250.000
G0 Z1.000
G0 X31.560 Y-7.905 Z1.000
G0 X31.560 Y-7.905 Z0.500
G1 X31.560 Y-7.905 Z-0.200 F150.000
G2 X31.998 Y-8.372 Z-0.200 I-0.171 J-0.600 K0.000 F250.000
G2 X32.036 Y-9.989 Z-0.200 I-6.390 J-0.959 K0.000 F250.000
G2 X31.905 Y-11.639 Z-0.200 I-13.188 J0.217 K0.000 F250.000
G3 X32.223 Y-11.480 Z-0.200 I-0.030 J0.458 K0.000 F250.000
G3 X32.389 Y-9.915 Z-0.200 I-3.786 J1.193 K0.000 F250.000
G2 X32.305 Y-7.957 Z-0.200 I39.571 J2.679 K0.000 F250.000
G3 X31.917 Y-7.868 Z-0.200 I-0.278 J-0.320 K0.000 F250.000
G1 X31.560 Y-7.905 Z-0.200 F250.000
G0 Z1.000
G0 X31.846 Y-7.956 Z1.000
G0 X31.846 Y-7.956 Z0.500
G1 X31.846 Y-7.956 Z-0.200 F150.000
G2 X32.136 Y-8.991 Z-0.200 I-1.239 J-0.906 K0.000 F250.000
G2 X32.014 Y-11.523 Z-0.200 I-23.840 J-0.124 K0.000 F250.000
G3 X32.196 Y-11.293 Z-0.200 I-0.028 J0.209 K0.000 F250.000
G3 X32.309 Y-9.918 Z-0.200 I-4.060 J1.026 K0.000 F250.000
G2 X32.226 Y-8.002 Z-0.200 I39.650 J2.682 K0.000 F250.000
G3 X31.846 Y-7.956 Z-0.200 I-0.231 J-0.313 K0.000 F250.000
G0 Z1.000
G0 X31.999 Y-8.022 Z1.000
G0 X31.999 Y-8.022 Z0.500
G1 X31.999 Y-8.022 Z-0.200 F150.000
G2 X32.153 Y-8.336 Z-0.200 I-0.715 J-0.544 K0.000 F250.000
G2 X32.146 Y-8.047 Z-0.200 I20.435 J0.578 K0.000 F250.000
G3 X31.999 Y-8.022 Z-0.200 I-0.102 J-0.156 K0.000 F250.000
G0 Z1.000
G0 X32.207 Y-9.515 Z1.000
G0 X32.207 Y-9.515 Z0.500
G1 X32.207 Y-9.515 Z-0.200 F150.000
G2 X32.131 Y-11.223 Z-0.200 I-25.951 J0.308 K0.000 F250.000
G3 X32.207 Y-9.515 Z-0.200 I-4.959 J1.078 K0.000 F250.000
G0 Z1.000
G0 X31.906 Y-4.933 Z1.000
G0 X31.906 Y-4.933 Z0.500
G1 X31.906 Y-4.933 Z-0.200 F150.000
G3 X32.051 Y-4.920 Z-0.200 I-0.189 J2.876 K0.000 F250.000
G3 X32.355 Y-4.860 Z-0.200 I-0.024 J0.918 K0.000 F250.000
G3 X32.423 Y-3.957 Z-0.200 I-9.546 J1.173 K0.000 F250.000
G3 X31.370 Y-4.012 Z-0.200 I-0.004 J-10.038 K0.000 F250.000
G2 X31.590 Y-4.524 Z-0.200 I-0.155 J-0.369 K0.000 F250.000
G3 X31.551 Y-4.934 Z-0.200 I23.087 J-2.397 K0.000 F250.000
G3 X31.906 Y-4.933 Z-0.200 I0.166 J2.878 K0.000 F250.000
G0 Z1.000
G0 X31.900 Y-4.853 Z1.000
G0 X31.900 Y-4.853 Z0.500
G1 X31.900 Y-4.853 Z-0.200 F150.000
G3 X32.041 Y-4.840 Z-0.200 I-0.176 J2.656 K0.000 F250.000
G3 X32.282 Y-4.798 Z-0.200 I-0.092 J1.226 K0.000 F250.000
G3 X32.342 Y-4.038 Z-0.200 I-11.489 J1.292 K0.000 F250.000
G3 X31.598 Y-4.071 Z-0.200 I0.024 J-8.964 K0.000 F250.000
G2 X31.654 Y-4.679 Z-0.200 I-0.804 J-0.380 K0.000 F250.000
G1 X31.638 Y-4.858 Z-0.200 F250.000
G3 X31.900 Y-4.853 Z-0.200 I0.086 J2.660 K0.000 F250.000
G0 Z1.000
G0 X31.895 Y-4.773 Z1.000
G0 X31.895 Y-4.773 Z0.500
G1 X31.895 Y-4.773 Z-0.200 F150.000
G3 X32.032 Y-4.761 Z-0.200 I-0.181 J2.735 K0.000 F250.000
G1 X32.209 Y-4.730 Z-0.200 F250.000
G3 X32.258 Y-4.120 Z-0.200 I-12.013 J1.276 K0.000 F250.000
G3 X31.734 Y-4.142 Z-0.200 I0.020 J-6.759 K0.000 F250.000
G2 X31.725 Y-4.779 Z-0.200 I-1.636 J-0.296 K0.000 F250.000
G3 X31.895 Y-4.773 Z-0.200 I-0.011 J2.741 K0.000 F250.000
G0 Z1.000
G0 X31.891 Y-4.694 Z1.000
G0 X31.891 Y-4.694 Z0.500
G1 X31.891 Y-4.694 Z-0.200 F150.000
G3 X32.135 Y-4.662 Z-0.200 I-0.096 J1.666 K0.000 F250.000
G3 X32.173 Y-4.201 Z-0.200 I-12.790 J1.284 K0.000 F250.000
G3 X31.828 Y-4.215 Z-0.200 I0.026 J-4.983 K0.000 F250.000
G2 X31.813 Y-4.697 Z-0.200 I-1.467 J-0.195 K0.000 F250.000
G3 X31.891 Y-4.694 Z-0.200 I-0.018 J1.668 K0.000 F250.000
G0 Z1.000
G0 X31.902 Y-4.610 Z1.000
G0 X31.902 Y-4.610 Z0.500
G1 X31.902 Y-4.610 Z-0.200 F150.000
G3 X32.061 Y-4.593 Z-0.200 I-0.006 J0.822 K0.000 F250.000
G3 X32.087 Y-4.285 Z-0.200 I-9.284 J0.930 K0.000 F250.000
G1 X31.922 Y-4.291 Z-0.200 F250.000
G2 X31.902 Y-4.610 Z-0.200 I-1.450 J-0.069 K0.000 F250.000
G0 Z1.000
G0 Z1.000
G0 X31.902 Y-4.610
G0 X33.970 Y-4.777
G0 X33.970 Y-4.777 Z0.500
G1 X33.970 Y-4.777 Z-0.200 F150.000
G3 X33.976 Y-8.100 Z-0.200 I20.144 J-1.624 K0.000 F250.000
G2 X34.170 Y-11.708 Z-0.200 I-135.069 J-9.066 K0.000 F250.000
G3 X34.385 Y-11.709 Z-0.200 I0.113 J1.063 K0.000 F250.000
G3 X35.248 Y-11.561 Z-0.200 I0.068 J2.202 K0.000 F250.000
G2 X35.158 Y-4.746 Z-0.200 I698.312 J12.620 K0.000 F250.000
G2 X35.377 Y-4.818 Z-0.200 I0.097 J-0.074 K0.000 F250.000
G3 X37.246 Y-9.057 Z-0.200 I51.341 J20.105 K0.000 F250.000
G2 X38.160 Y-10.752 Z-0.200 I-25.010 J-14.583 K0.000 F250.000
G2 X38.299 Y-11.148 Z-0.200 I-4.373 J-1.751 K0.000 F250.000
G3 X38.386 Y-11.203 Z-0.200 I0.072 J0.016 K0.000 F250.000
G3 X39.263 Y-11.089 Z-0.200 I0.211 J1.805 K0.000 F250.000
G3 X39.368 Y-10.837 Z-0.200 I-0.204 J0.233 K0.000 F250.000
G3 X39.339 Y-7.547 Z-0.200 I-19.601 J1.472 K0.000 F250.000
G2 X39.321 Y-3.184 Z-0.200 I40.532 J2.352 K0.000 F250.000
G2 X39.347 Y-2.880 Z-0.200 I6.888 J-0.432 K0.000 F250.000
G3 X38.280 Y-3.031 Z-0.200 I0.073 J-4.365 K0.000 F250.000
G3 X38.241 Y-5.285 Z-0.200 I21.886 J-1.502 K0.000 F250.000
G2 X38.288 Y-9.687 Z-0.200 I-165.417 J-3.961 K0.000 F250.000
G2 X38.039 Y-9.672 Z-0.200 I-0.125 J0.008 K0.000 F250.000
G2 X35.523 Y-3.942 Z-0.200 I71.481 J34.800 K0.000 F250.000
G3 X35.228 Y-3.399 Z-0.200 I-2.421 J-0.965 K0.000 F250.000
G3 X34.107 Y-3.552 Z-0.200 I-0.299 J-2.000 K0.000 F250.000
G3 X33.970 Y-4.777 Z-0.200 I20.008 J-2.849 K0.000 F250.000
G0 Z1.000
G0 X34.050 Y-4.783 Z1.000
G0 X34.050 Y-4.783 Z0.500
G1 X34.050 Y-4.783 Z-0.200 F150.000
G3 X34.056 Y-8.095 Z-0.200 I20.129 J-1.616 K0.000 F250.000
G3 X34.256 Y-11.633 Z-0.200 I317.049 J16.098 K0.000 F250.000
G3 X35.168 Y-11.512 Z-0.200 I-0.127 J4.447 K0.000 F250.000
G3 X35.157 Y-10.687 Z-0.200 I-2485.996 J-32.933 K0.000 F250.000
G3 X35.113 Y-7.511 Z-0.200 I-6515.006 J-88.814 K0.000 F250.000
G1 X35.113 Y-7.511 Z-0.200 F250.000
G3 X35.105 Y-6.964 Z-0.200 I-2097.849 J-29.608 K0.000 F250.000
G1 X35.105 Y-6.964 Z-0.200 F250.000
G2 X35.083 Y-4.720 Z-0.200 I27.702 J1.395 K0.000 F250.000
G2 X35.451 Y-4.789 Z-0.200 I0.172 J-0.099 K0.000 F250.000
G3 X37.316 Y-9.019 Z-0.200 I51.275 J20.079 K0.000 F250.000
G2 X38.235 Y-10.725 Z-0.200 I-24.588 J-14.348 K0.000 F250.000
G2 X38.371 Y-11.113 Z-0.200 I-4.316 J-1.731 K0.000 F250.000
G3 X38.555 Y-11.122 Z-0.200 I0.099 J0.147 K0.000 F250.000
G3 X39.237 Y-11.012 Z-0.200 I0.147 J1.253 K0.000 F250.000
G3 X39.342 Y-10.254 Z-0.200 I-2.035 J0.667 K0.000 F250.000
G3 X39.259 Y-7.550 Z-0.200 I-45.137 J-0.028 K0.000 F250.000
G2 X39.241 Y-3.178 Z-0.200 I40.596 J2.355 K0.000 F250.000
G2 X39.258 Y-2.966 Z-0.200 I12.472 J-0.888 K0.000 F250.000
G3 X38.344 Y-3.090 Z-0.200 I-0.139 J-2.419 K0.000 F250.000
G3 X38.364 Y-9.733 Z-0.200 I365.433 J-2.224 K0.000 F250.000
G2 X37.969 Y-9.711 Z-0.200 I-0.194 J0.068 K0.000 F250.000
G2 X35.451 Y-3.976 Z-0.200 I71.394 J34.770 K0.000 F250.000
G3 X35.187 Y-3.477 Z-0.200 I-2.768 J-1.144 K0.000 F250.000
G3 X34.181 Y-3.592 Z-0.200 I-0.194 J-2.766 K0.000 F250.000
G3 X34.050 Y-4.783 Z-0.200 I19.998 J-2.807 K0.000 F250.000
G0 Z1.000
G0 X34.129 Y-4.789 Z1.000
G0 X34.129 Y-4.789 Z0.500
G1 X34.129 Y-4.789 Z-0.200 F150.000
G3 X34.136 Y-8.090 Z-0.200 I20.173 J-1.606 K0.000 F250.000
G2 X34.319 Y-11.552 Z-0.200 I-60.943 J-4.957 K0.000 F250.000
G3 X35.087 Y-11.451 Z-0.200 I-0.246 J4.871 K0.000 F250.000
G2 X35.007 Y-4.695 Z-0.200 I307.943 J7.024 K0.000 F250.000
G2 X35.526 Y-4.760 Z-0.200 I0.250 J-0.104 K0.000 F250.000
G3 X37.387 Y-8.982 Z-0.200 I51.210 J20.054 K0.000 F250.000
G2 X38.311 Y-10.698 Z-0.200 I-24.202 J-14.132 K0.000 F250.000
G2 X38.433 Y-11.043 Z-0.200 I-3.865 J-1.568 K0.000 F250.000
G3 X39.178 Y-10.951 Z-0.200 I0.175 J1.644 K0.000 F250.000
G3 X39.262 Y-10.251 Z-0.200 I-2.506 J0.656 K0.000 F250.000
G3 X39.179 Y-7.553 Z-0.200 I-45.104 J-0.032 K0.000 F250.000
G2 X39.161 Y-3.172 Z-0.200 I40.660 J2.358 K0.000 F250.000
G2 X39.170 Y-3.053 Z-0.200 I7.019 J-0.476 K0.000 F250.000
G3 X38.422 Y-3.142 Z-0.200 I0.243 J-5.190 K0.000 F250.000
G3 X38.443 Y-9.746 Z-0.200 I396.198 J-2.089 K0.000 F250.000
G2 X37.899 Y-9.750 Z-0.200 I-0.272 J0.076 K0.000 F250.000
G2 X35.426 Y-4.115 Z-0.200 I63.924 J31.417 K0.000 F250.000
G3 X35.143 Y-3.555 Z-0.200 I-3.615 J-1.475 K0.000 F250.000
G3 X34.252 Y-3.652 Z-0.200 I-0.124 J-2.990 K0.000 F250.000
G3 X34.129 Y-4.789 Z-0.200 I20.050 J-2.743 K0.000 F250.000
G0 Z1.000
G0 X34.208 Y-4.795 Z1.000
G0 X34.208 Y-4.795 Z0.500
G1 X34.208 Y-4.795 Z-0.200 F150.000
G3 X34.216 Y-8.086 Z-0.200 I20.245 J-1.595 K0.000 F250.000
G2 X34.396 Y-11.467 Z-0.200 I-65.233 J-5.171 K0.000 F250.000
G3 X35.006 Y-11.388 Z-0.200 I-0.350 J5.067 K0.000 F250.000
G3 X34.955 Y-7.663 Z-0.200 I-5226.844 J-70.179 K0.000 F250.000
G1 X34.955 Y-7.663 Z-0.200 F250.000
G2 X34.931 Y-4.669 Z-0.200 I34.805 J1.771 K0.000 F250.000
G2 X35.540 Y-4.609 Z-0.200 I0.317 J-0.101 K0.000 F250.000
G3 X35.096 Y-3.632 Z-0.200 I-5.315 J-1.825 K0.000 F250.000
G3 X34.322 Y-3.715 Z-0.200 I-0.060 J-3.090 K0.000 F250.000
G3 X34.208 Y-4.795 Z-0.200 I20.131 J-2.675 K0.000 F250.000
G0 Z1.000
G0 X34.291 Y-4.802 Z1.000
G0 X34.291 Y-4.802 Z0.500
G1 X34.291 Y-4.802 Z-0.200 F150.000
G3 X34.296 Y-8.081 Z-0.200 I21.591 J-1.610 K0.000 F250.000
G2 X34.474 Y-11.381 Z-0.200 I-65.291 J-5.175 K0.000 F250.000
G3 X34.925 Y-11.321 Z-0.200 I-0.407 J4.822 K0.000 F250.000
G3 X34.906 Y-9.946 Z-0.200 I-2811.649 J-37.487 K0.000 F250.000
G1 X34.906 Y-9.946 Z-0.200 F250.000
G1 X34.886 Y-8.488 Z-0.200 F250.000
G1 X34.886 Y-8.488 Z-0.200 F250.000
G1 X34.879 Y-7.984 Z-0.200 F250.000
G1 X34.879 Y-7.984 Z-0.200 F250.000
G3 X34.865 Y-6.967 Z-0.200 I-2576.289 J-35.998 K0.000 F250.000
G1 X34.865 Y-6.967 Z-0.200 F250.000
G2 X34.853 Y-4.651 Z-0.200 I20.552 J1.264 K0.000 F250.000
G2 X35.361 Y-4.381 Z-0.200 I0.387 J-0.115 K0.000 F250.000
G3 X35.049 Y-3.710 Z-0.200 I-5.296 J-2.054 K0.000 F250.000
G3 X34.392 Y-3.781 Z-0.200 I0.015 J-3.204 K0.000 F250.000
G3 X34.291 Y-4.802 Z-0.200 I21.490 J-2.631 K0.000 F250.000
G0 Z1.000
G0 X34.371 Y-4.808 Z1.000
G0 X34.371 Y-4.808 Z0.500
G1 X34.371 Y-4.808 Z-0.200 F150.000
G3 X34.376 Y-8.076 Z-0.200 I21.584 J-1.601 K0.000 F250.000
G2 X34.551 Y-11.293 Z-0.200 I-65.619 J-5.196 K0.000 F250.000
G3 X34.844 Y-11.255 Z-0.200 I-0.215 J2.799 K0.000 F250.000
G3 X34.806 Y-8.489 Z-0.200 I-4024.048 J-53.885 K0.000 F250.000
G1 X34.806 Y-8.489 Z-0.200 F250.000
G3 X34.795 Y-7.665 Z-0.200 I-5775.332 J-80.579 K0.000 F250.000
G1 X34.795 Y-7.665 Z-0.200 F250.000
G3 X34.787 Y-7.142 Z-0.200 I-3142.697 J-44.297 K0.000 F250.000
G1 X34.785 Y-6.968 Z-0.200 F250.000
G1 X34.785 Y-6.968 Z-0.200 F250.000
G2 X34.777 Y-4.625 Z-0.200 I18.896 J1.234 K0.000 F250.000
G2 X35.234 Y-4.281 Z-0.200 I0.468 J-0.146 K0.000 F250.000
G3 X35.002 Y-3.789 Z-0.200 I-5.156 J-2.140 K0.000 F250.000
G3 X34.463 Y-3.848 Z-0.200 I0.092 J-3.348 K0.000 F250.000
G3 X34.371 Y-4.808 Z-0.200 I21.491 J-2.561 K0.000 F250.000
G0 Z1.000
G0 X34.450 Y-4.813 Z1.000
G0 X34.450 Y-4.813 Z0.500
G1 X34.450 Y-4.813 Z-0.200 F150.000
G3 X34.456 Y-8.071 Z-0.200 I21.597 J-1.591 K0.000 F250.000
G2 X34.629 Y-11.204 Z-0.200 I-66.330 J-5.241 K0.000 F250.000
G3 X34.763 Y-11.185 Z-0.200 I-0.242 J2.264 K0.000 F250.000
G1 X34.757 Y-10.693 Z-0.200 F250.000
G1 X34.757 Y-10.693 Z-0.200 F250.000
G3 X34.671 Y-4.760 Z-0.200 I-16531.195 J-235.118 K0.000 F250.000
G2 X35.122 Y-4.221 Z-0.200 I0.567 J-0.015 K0.000 F250.000
G3 X34.954 Y-3.871 Z-0.200 I-5.697 J-2.525 K0.000 F250.000
G3 X34.535 Y-3.916 Z-0.200 I0.146 J-3.343 K0.000 F250.000
G3 X34.450 Y-4.813 Z-0.200 I21.512 J-2.488 K0.000 F250.000
G0 Z1.000
G0 X34.529 Y-4.819 Z1.000
G0 X34.529 Y-4.819 Z0.500
G1 X34.529 Y-4.819 Z-0.200 F150.000
G2 X34.606 Y-3.986 Z-0.200 I21.635 J-1.580 K0.000 F250.000
G2 X34.906 Y-3.953 Z-0.200 I0.511 J-3.283 K0.000 F250.000
G2 X35.013 Y-4.172 Z-0.200 I-4.276 J-2.219 K0.000 F250.000
G3 X34.591 Y-4.757 Z-0.200 I0.217 J-0.601 K0.000 F250.000
G2 X34.670 Y-10.212 Z-0.200 I-463426.832 J-6694.998 K0.000 F250.000
G3 X34.535 Y-8.066 Z-0.200 I-189.506 J-10.819 K0.000 F250.000
G2 X34.529 Y-4.819 Z-0.200 I21.628 J1.667 K0.000 F250.000
G0 Z1.000
G0 X34.631 Y-4.391 Z1.000
G0 X34.631 Y-4.391 Z0.500
G1 X34.631 Y-4.391 Z-0.200 F150.000
G2 X34.898 Y-4.116 Z-0.200 I0.942 J-0.648 K0.000 F250.000
G3 X34.772 Y-4.045 Z-0.200 I-0.077 J0.011 K0.000 F250.000
G1 X34.677 Y-4.058 Z-0.200 F250.000
G1 X34.631 Y-4.391 Z-0.200 F250.000
G0 Z1.000
G0 X34.747 Y-4.136 Z1.000
G0 X34.747 Y-4.136 Z0.500
G1 X34.747 Y-4.136 Z-0.200 F150.000
G1 X34.755 Y-4.128 Z-0.200 F250.000
G3 X34.747 Y-4.136 Z-0.200 I-0.003 J-0.005 K0.000 F250.000
G0 Z1.000
G0 X38.498 Y-4.146 Z1.000
G0 X38.498 Y-4.146 Z0.500
G1 X38.498 Y-4.146 Z-0.200 F150.000
G3 X38.523 Y-9.750 Z-0.200 I401.870 J-0.998 K0.000 F250.000
G2 X38.048 Y-10.005 Z-0.200 I-0.326 J0.038 K0.000 F250.000
G2 X38.492 Y-10.963 Z-0.200 I-3.679 J-2.288 K0.000 F250.000
G3 X39.117 Y-10.888 Z-0.200 I0.045 J2.291 K0.000 F250.000
G3 X39.183 Y-9.254 Z-0.200 I-7.389 J1.118 K0.000 F250.000
G2 X39.083 Y-3.139 Z-0.200 I51.497 J3.898 K0.000 F250.000
G3 X38.501 Y-3.206 Z-0.200 I0.300 J-5.174 K0.000 F250.000
G3 X38.498 Y-4.146 Z-0.200 I401.867 J-1.937 K0.000 F250.000
G0 Z1.000
G0 X38.577 Y-4.146 Z1.000
G0 X38.577 Y-4.146 Z0.500
G1 X38.577 Y-4.146 Z-0.200 F150.000
G3 X38.602 Y-9.763 Z-0.200 I438.277 J-0.896 K0.000 F250.000
G2 X38.201 Y-10.117 Z-0.200 I-0.398 J0.047 K0.000 F250.000
G2 X38.548 Y-10.882 Z-0.200 I-3.252 J-1.938 K0.000 F250.000
G3 X39.046 Y-10.823 Z-0.200 I-0.001 J2.148 K0.000 F250.000
G3 X39.103 Y-9.256 Z-0.200 I-7.503 J1.057 K0.000 F250.000
G2 X38.997 Y-3.226 Z-0.200 I53.244 J3.952 K0.000 F250.000
G3 X38.580 Y-3.270 Z-0.200 I0.387 J-5.649 K0.000 F250.000
G3 X38.577 Y-4.146 Z-0.200 I438.275 J-1.772 K0.000 F250.000
G0 Z1.000
G0 X38.656 Y-4.146 Z1.000
G0 X38.656 Y-4.146 Z0.500
G1 X38.656 Y-4.146 Z-0.200 F150.000
G3 X38.687 Y-9.713 Z-0.200 I334.753 J-0.898 K0.000 F250.000
G2 X38.326 Y-10.180 Z-0.200 I-0.494 J0.009 K0.000 F250.000
G2 X38.603 Y-10.799 Z-0.200 I-2.931 J-1.680 K0.000 F250.000
G3 X38.975 Y-10.755 Z-0.200 I-0.000 J1.605 K0.000 F250.000
G3 X38.939 Y-7.562 Z-0.200 I-19.600 J1.378 K0.000 F250.000
G2 X38.911 Y-3.313 Z-0.200 I43.551 J2.415 K0.000 F250.000
G3 X38.659 Y-3.341 Z-0.200 I0.260 J-3.417 K0.000 F250.000
G3 X38.656 Y-4.146 Z-0.200 I334.750 J-1.702 K0.000 F250.000
G0 Z1.000
G0 X38.735 Y-4.146 Z1.000
G0 X38.735 Y-4.146 Z0.500
G1 X38.735 Y-4.146 Z-0.200 F150.000
G3 X38.769 Y-9.665 Z-0.200 I305.155 J-0.872 K0.000 F250.000
G2 X38.435 Y-10.218 Z-0.200 I-0.593 J-0.018 K0.000 F250.000
G2 X38.657 Y-10.715 Z-0.200 I-2.447 J-1.394 K0.000 F250.000
G3 X38.902 Y-10.687 Z-0.200 I0.001 J1.056 K0.000 F250.000
G3 X38.860 Y-7.565 Z-0.200 I-20.050 J1.285 K0.000 F250.000
G2 X38.826 Y-3.403 Z-0.200 I45.680 J2.455 K0.000 F250.000
G1 X38.738 Y-3.413 Z-0.200 F250.000
G3 X38.735 Y-4.146 Z-0.200 I305.152 J-1.605 K0.000 F250.000
G0 Z1.000
G0 X38.847 Y-8.916 Z1.000
G0 X38.847 Y-8.916 Z0.500
G1 X38.847 Y-8.916 Z-0.200 F150.000
G2 X38.768 Y-10.015 Z-0.200 I-2.668 J-0.362 K0.000 F250.000
G2 X38.539 Y-10.251 Z-0.200 I-0.459 J0.215 K0.000 F250.000
G2 X38.712 Y-10.632 Z-0.200 I-1.881 J-1.084 K0.000 F250.000
G3 X38.844 Y-10.496 Z-0.200 I0.050 J0.083 K0.000 F250.000
G3 X38.847 Y-8.916 Z-0.200 I-12.669 J0.813 K0.000 F250.000
G0 Z1.000
G0 X38.782 Y-10.127 Z1.000
G0 X38.782 Y-10.127 Z0.500
G1 X38.782 Y-10.127 Z-0.200 F150.000
G2 X38.640 Y-10.278 Z-0.200 I-0.303 J0.143 K0.000 F250.000
G1 X38.760 Y-10.529 Z-0.200 F250.000
G3 X38.782 Y-10.127 Z-0.200 I-2.665 J0.351 K0.000 F250.000
G0 Z1.000
G0 Z1.000
G0 X38.782 Y-10.127
G0 X40.017 Y-10.129
G0 X40.017 Y-10.129 Z0.500
G1 X40.017 Y-10.129 Z-0.200 F150.000
G1 X40.025 Y-2.776 Z-0.200 F250.000
G3 X39.982 Y-2.568 Z-0.200 I-0.520 J-0.001 K0.000 F250.000
G3 X39.269 Y-2.181 Z-0.200 I-0.636 J-0.322 K0.000 F250.000
G1 X39.252 Y-2.190 Z-0.200 F250.000
G1 X39.252 Y-2.181 Z-0.200 F250.000
G1 X39.172 Y-2.187 Z-0.200 F250.000
G1 X23.036 Y-4.046 Z-0.200 F250.000
G3 X22.211 Y-4.777 Z-0.200 I0.084 J-0.926 K0.000 F250.000
G1 X22.202 Y-13.245 Z-0.200 F250.000
G3 X22.249 Y-13.461 Z-0.200 I0.521 J0.001 K0.000 F250.000
G3 X23.045 Y-13.834 Z-0.200 I0.649 J0.347 K0.000 F250.000
G1 X39.184 Y-11.961 Z-0.200 F250.000
G3 X40.016 Y-11.220 Z-0.200 I-0.162 J1.019 K0.000 F250.000
G1 X40.017 Y-10.129 Z-0.200 F250.000
G0 Z1.000
G0 X40.076 Z1.000
G0 X40.076 Z0.500
G1 X40.076 Y-10.129 Z-0.200 F150.000
G1 X40.076 Y-2.756 Z-0.200 F250.000
G3 X39.580 Y-2.162 Z-0.200 I-0.618 J-0.012 K0.000 F250.000
G3 X39.189 Y-2.134 Z-0.200 I-0.271 J-1.038 K0.000 F250.000
G1 X23.065 Y-3.983 Z-0.200 F250.000
G3 X22.150 Y-4.833 Z-0.200 I0.034 J-0.953 K0.000 F250.000
G1 X22.150 Y-13.265 Z-0.200 F250.000
G3 X22.725 Y-13.877 Z-0.200 I0.635 J0.020 K0.000 F250.000
G1 X23.043 Y-13.886 Z-0.200 F250.000
G1 X39.163 Y-12.038 Z-0.200 F250.000
G3 X40.076 Y-11.188 Z-0.200 I-0.034 J0.952 K0.000 F250.000
G1 X40.076 Y-10.129 Z-0.200 F250.000
G0 Z1.000
G0 X39.820 Y-11.665 Z1.000
G0 X39.820 Y-11.665 Z0.500
G1 X39.820 Y-11.665 Z-0.200 F150.000
G1 X39.807 Y-11.679 Z-0.200 F250.000
G3 X39.820 Y-11.665 Z-0.200 I-0.024 J0.037 K0.000 F250.000
G0 Z1.000
G0 Z1.000
G0 X39.820 Y-11.665
G0 X40.312 Y-12.080
G0 X40.312 Y-12.080 Z0.500
G1 X40.312 Y-12.080 Z-0.200 F150.000
G3 X40.548 Y-11.585 Z-0.200 I-0.823 J0.695 K0.000 F250.000
G1 X40.552 Y-2.235 Z-0.200 F250.000
G3 X39.775 Y-1.620 Z-0.200 I-0.776 J-0.182 K0.000 F250.000
G1 X39.773 Y-1.626 Z-0.200 F250.000
G3 X39.680 Y-1.622 Z-0.200 I-0.051 J-0.110 K0.000 F250.000
G1 X22.455 Y-3.591 Z-0.200 F250.000
G3 X21.684 Y-4.283 Z-0.200 I0.071 J-0.853 K0.000 F250.000
G1 X21.684 Y-13.737 Z-0.200 F250.000
G1 X21.708 Y-13.896 Z-0.200 F250.000
G3 X22.614 Y-14.401 Z-0.200 I0.766 J0.309 K0.000 F250.000
G1 X39.717 Y-12.438 Z-0.200 F250.000
G3 X40.312 Y-12.080 Z-0.200 I-0.227 J1.052 K0.000 F250.000
G0 Z1.000
G0 X40.434 Y-12.184 Z1.000
G0 X40.434 Y-12.184 Z0.500
G1 X40.434 Y-12.184 Z-0.200 F150.000
G2 X40.108 Y-12.460 Z-0.200 I-1.020 J0.875 K0.000 F250.000
G3 X40.660 Y-11.813 Z-0.200 I-0.347 J0.854 K0.000 F250.000
G2 X40.434 Y-12.184 Z-0.200 I-1.246 J0.504 K0.000 F250.000
G0 Z1.000
G0 X40.373 Y-12.133 Z1.000
G0 X40.373 Y-12.133 Z0.500
G1 X40.373 Y-12.133 Z-0.200 F150.000
G3 X40.627 Y-11.594 Z-0.200 I-0.882 J0.746 K0.000 F250.000
G1 X40.632 Y-2.235 Z-0.200 F250.000
G1 X40.613 Y-2.121 Z-0.200 F250.000
G3 X39.790 Y-1.541 Z-0.200 I-0.863 J-0.351 K0.000 F250.000
G1 X39.788 Y-1.549 Z-0.200 F250.000
G3 X39.676 Y-1.542 Z-0.200 I-0.067 J-0.169 K0.000 F250.000
G1 X22.445 Y-3.512 Z-0.200 F250.000
G3 X21.607 Y-4.263 Z-0.200 I0.081 J-0.935 K0.000 F250.000
G1 X21.604 Y-13.737 Z-0.200 F250.000
G1 X21.629 Y-13.909 Z-0.200 F250.000
G3 X22.612 Y-14.481 Z-0.200 I0.841 J0.315 K0.000 F250.000
G1 X39.726 Y-12.517 Z-0.200 F250.000
G3 X40.373 Y-12.133 Z-0.200 I-0.235 J1.131 K0.000 F250.000
G0 Z1.000
G0 X40.514 Y-12.255 Z1.000
G0 X40.514 Y-12.255 Z0.500
G1 X40.514 Y-12.255 Z-0.200 F150.000
G3 X40.731 Y-11.878 Z-0.200 I-0.881 J0.759 K0.000 F250.000
G3 X40.765 Y-11.053 Z-0.200 I-2.881 J0.531 K0.000 F250.000
G2 X40.838 Y-10.927 Z-0.200 I0.100 J0.026 K0.000 F250.000
G1 X40.765 Y-10.783 Z-0.200 F250.000
G2 X40.799 Y-10.357 Z-0.200 I0.673 J0.160 K0.000 F250.000
G1 X40.945 Y-10.283 Z-0.200 F250.000
G1 X61.820 Y-10.283 Z-0.200 F250.000
G1 X61.820 Y-10.143 Z-0.200 F250.000
G1 X40.945 Y-10.143 Z-0.200 F250.000
G2 X40.765 Y-9.963 Z-0.200 I-0.000 J0.180 K0.000 F250.000
G1 X40.765 Y-9.466 Z-0.200 F250.000
G2 X40.838 Y-9.340 Z-0.200 I0.100 J0.026 K0.000 F250.000
G1 X40.765 Y-9.196 Z-0.200 F250.000
G2 X40.799 Y-8.770 Z-0.200 I0.673 J0.160 K0.000 F250.000
G1 X40.945 Y-8.695 Z-0.200 F250.000
G1 X61.820 Y-8.695 Z-0.200 F250.000
G1 X61.820 Y-8.556 Z-0.200 F250.000
G1 X40.945 Y-8.556 Z-0.200 F250.000
G2 X40.765 Y-8.376 Z-0.200 I-0.000 J0.180 K0.000 F250.000
G1 X40.765 Y-7.878 Z-0.200 F250.000
G2 X40.838 Y-7.752 Z-0.200 I0.100 J0.026 K0.000 F250.000
G1 X40.765 Y-7.608 Z-0.200 F250.000
G2 X40.799 Y-7.182 Z-0.200 I0.673 J0.160 K0.000 F250.000
G1 X40.945 Y-7.108 Z-0.200 F250.000
G1 X61.820 Y-7.108 Z-0.200 F250.000
G1 X61.820 Y-6.968 Z-0.200 F250.000
G1 X40.945 Y-6.968 Z-0.200 F250.000
G2 X40.765 Y-6.788 Z-0.200 I-0.000 J0.180 K0.000 F250.000
G1 X40.765 Y-6.291 Z-0.200 F250.000
G2 X40.838 Y-6.165 Z-0.200 I0.100 J0.026 K0.000 F250.000
G1 X40.765 Y-6.021 Z-0.200 F250.000
G2 X40.799 Y-5.595 Z-0.200 I0.673 J0.160 K0.000 F250.000
G1 X40.945 Y-5.520 Z-0.200 F250.000
G1 X61.820 Y-5.520 Z-0.200 F250.000
G1 X61.820 Y-5.381 Z-0.200 F250.000
G1 X40.945 Y-5.381 Z-0.200 F250.000
G2 X40.765 Y-5.201 Z-0.200 I-0.000 J0.180 K0.000 F250.000
G1 X40.765 Y-2.120 Z-0.200 F250.000
G3 X40.193 Y-1.418 Z-0.200 I-0.720 J-0.004 K0.000 F250.000
G3 X39.778 Y-1.388 Z-0.200 I-0.289 J-1.094 K0.000 F250.000
G1 X22.496 Y-3.366 Z-0.200 F250.000
G3 X21.498 Y-4.140 Z-0.200 I0.097 J-1.156 K0.000 F250.000
G3 X21.464 Y-5.201 Z-0.200 I3.697 J-0.649 K0.000 F250.000
G2 X21.284 Y-5.381 Z-0.200 I-0.180 J-0.000 K0.000 F250.000
G1 X0.180 Y-5.381 Z-0.200 F250.000
G1 X0.180 Y-5.520 Z-0.200 F250.000
G1 X21.284 Y-5.520 Z-0.200 F250.000
G2 X21.464 Y-5.700 Z-0.200 I0.000 J-0.180 K0.000 F250.000
G2 X21.430 Y-6.127 Z-0.200 I-0.673 J-0.160 K0.000 F250.000
G1 X21.391 Y-6.146 Z-0.200 F250.000
G1 X21.464 Y-6.291 Z-0.200 F250.000
G1 X21.464 Y-6.788 Z-0.200 F250.000
G2 X21.284 Y-6.968 Z-0.200 I-0.180 J-0.000 K0.000 F250.000
G1 X0.180 Y-6.968 Z-0.200 F250.000
G1 X0.180 Y-7.108 Z-0.200 F250.000
G1 X21.284 Y-7.108 Z-0.200 F250.000
G2 X21.464 Y-7.288 Z-0.200 I0.000 J-0.180 K0.000 F250.000
G2 X21.430 Y-7.714 Z-0.200 I-0.673 J-0.160 K0.000 F250.000
G1 X21.391 Y-7.734 Z-0.200 F250.000
G1 X21.464 Y-7.878 Z-0.200 F250.000
G1 X21.464 Y-8.376 Z-0.200 F250.000
G2 X21.284 Y-8.556 Z-0.200 I-0.180 J-0.000 K0.000 F250.000
G1 X0.180 Y-8.556 Z-0.200 F250.000
G1 X0.180 Y-8.695 Z-0.200 F250.000
G1 X21.284 Y-8.695 Z-0.200 F250.000
G2 X21.464 Y-8.875 Z-0.200 I0.000 J-0.180 K0.000 F250.000
G2 X21.430 Y-9.302 Z-0.200 I-0.673 J-0.160 K0.000 F250.000
G1 X21.391 Y-9.321 Z-0.200 F250.000
G1 X21.464 Y-9.466 Z-0.200 F250.000
G1 X21.464 Y-9.963 Z-0.200 F250.000
G2 X21.284 Y-10.143 Z-0.200 I-0.180 J-0.000 K0.000 F250.000
G1 X0.180 Y-10.143 Z-0.200 F250.000
G1 X0.180 Y-10.283 Z-0.200 F250.000
G1 X21.284 Y-10.283 Z-0.200 F250.000
G2 X21.464 Y-10.463 Z-0.200 I0.000 J-0.180 K0.000 F250.000
G2 X21.430 Y-10.889 Z-0.200 I-0.673 J-0.160 K0.000 F250.000
G1 X21.391 Y-10.909 Z-0.200 F250.000
G1 X21.464 Y-11.053 Z-0.200 F250.000
G1 X21.464 Y-13.899 Z-0.200 F250.000
G3 X22.325 Y-14.639 Z-0.200 I0.773 J0.029 K0.000 F250.000
G3 X22.448 Y-14.632 Z-0.200 I-0.006 J1.110 K0.000 F250.000
G1 X39.731 Y-12.654 Z-0.200 F250.000
G3 X40.514 Y-12.255 Z-0.200 I-0.097 J1.158 K0.000 F250.000
G0 Z1.000
G0 X40.575 Y-12.307 Z1.000
G0 X40.575 Y-12.307 Z0.500
G1 X40.575 Y-12.307 Z-0.200 F150.000
G3 X40.809 Y-11.900 Z-0.200 I-0.941 J0.812 K0.000 F250.000
G3 X40.845 Y-11.053 Z-0.200 I-2.957 J0.550 K0.000 F250.000
G2 X40.945 Y-10.953 Z-0.200 I0.100 J0.000 K0.000 F250.000
G1 X61.900 Y-10.953 Z-0.200 F250.000
G1 X61.900 Y-10.883 Z-0.200 F250.000
G1 X40.945 Y-10.883 Z-0.200 F250.000
G2 X40.845 Y-10.783 Z-0.200 I-0.000 J0.100 K0.000 F250.000
G1 X40.845 Y-10.463 Z-0.200 F250.000
G2 X40.945 Y-10.363 Z-0.200 I0.100 J0.000 K0.000 F250.000
G1 X61.900 Y-10.363 Z-0.200 F250.000
G1 X61.900 Y-10.063 Z-0.200 F250.000
G1 X40.945 Y-10.063 Z-0.200 F250.000
G2 X40.845 Y-9.963 Z-0.200 I-0.000 J0.100 K0.000 F250.000
G1 X40.845 Y-9.466 Z-0.200 F250.000
G2 X40.945 Y-9.366 Z-0.200 I0.100 J0.000 K0.000 F250.000
G1 X61.900 Y-9.366 Z-0.200 F250.000
G1 X61.900 Y-9.296 Z-0.200 F250.000
G1 X40.945 Y-9.296 Z-0.200 F250.000
G2 X40.845 Y-9.196 Z-0.200 I-0.000 J0.100 K0.000 F250.000
G1 X40.845 Y-8.875 Z-0.200 F250.000
G2 X40.945 Y-8.775 Z-0.200 I0.100 J0.000 K0.000 F250.000
G1 X61.900 Y-8.775 Z-0.200 F250.000
G1 X61.900 Y-8.476 Z-0.200 F250.000
G1 X40.945 Y-8.476 Z-0.200 F250.000
G2 X40.845 Y-8.376 Z-0.200 I-0.000 J0.100 K0.000 F250.000
G1 X40.845 Y-7.878 Z-0.200 F250.000
G2 X40.945 Y-7.778 Z-0.200 I0.100 J0.000 K0.000 F250.000
G1 X61.900 Y-7.778 Z-0.200 F250.000
G1 X61.900 Y-7.708 Z-0.200 F250.000
G1 X40.945 Y-7.708 Z-0.200 F250.000
G2 X40.845 Y-7.608 Z-0.200 I-0.000 J0.100 K0.000 F250.000
G1 X40.845 Y-7.288 Z-0.200 F250.000
G2 X40.945 Y-7.188 Z-0.200 I0.100 J0.000 K0.000 F250.000
G1 X61.900 Y-7.188 Z-0.200 F250.000
G1 X61.900 Y-6.888 Z-0.200 F250.000
G1 X40.945 Y-6.888 Z-0.200 F250.000
G2 X40.845 Y-6.788 Z-0.200 I-0.000 J0.100 K0.000 F250.000
G1 X40.845 Y-6.291 Z-0.200 F250.000
G2 X40.945 Y-6.191 Z-0.200 I0.100 J0.000 K0.000 F250.000
G1 X61.900 Y-6.191 Z-0.200 F250.000
G1 X61.900 Y-6.121 Z-0.200 F250.000
G1 X40.945 Y-6.121 Z-0.200 F250.000
G2 X40.845 Y-6.021 Z-0.200 I-0.000 J0.100 K0.000 F250.000
G1 X40.845 Y-5.700 Z-0.200 F250.000
G2 X40.945 Y-5.600 Z-0.200 I0.100 J0.000 K0.000 F250.000
G1 X61.900 Y-5.600 Z-0.200 F250.000
G1 X61.900 Y-5.301 Z-0.200 F250.000
G1 X40.945 Y-5.301 Z-0.200 F250.000
G2 X40.845 Y-5.201 Z-0.200 I-0.000 J0.100 K0.000 F250.000
G1 X40.845 Y-2.117 Z-0.200 F250.000
G3 X40.213 Y-1.340 Z-0.200 I-0.800 J-0.005 K0.000 F250.000
G3 X39.770 Y-1.308 Z-0.200 I-0.307 J-1.167 K0.000 F250.000
G1 X22.483 Y-3.287 Z-0.200 F250.000
G3 X21.420 Y-4.117 Z-0.200 I0.111 J-1.236 K0.000 F250.000
G3 X21.384 Y-5.201 Z-0.200 I3.773 J-0.668 K0.000 F250.000
G2 X21.284 Y-5.301 Z-0.200 I-0.100 J-0.000 K0.000 F250.000
G1 X0.100 Y-5.301 Z-0.200 F250.000
G1 X0.100 Y-5.600 Z-0.200 F250.000
G1 X21.284 Y-5.600 Z-0.200 F250.000
G2 X21.384 Y-5.700 Z-0.200 I0.000 J-0.100 K0.000 F250.000
G1 X21.384 Y-6.021 Z-0.200 F250.000
G2 X21.284 Y-6.121 Z-0.200 I-0.100 J-0.000 K0.000 F250.000
G1 X0.100 Y-6.121 Z-0.200 F250.000
G1 X0.100 Y-6.191 Z-0.200 F250.000
G1 X21.284 Y-6.191 Z-0.200 F250.000
G2 X21.384 Y-6.291 Z-0.200 I0.000 J-0.100 K0.000 F250.000
G1 X21.384 Y-6.788 Z-0.200 F250.000
G2 X21.284 Y-6.888 Z-0.200 I-0.100 J-0.000 K0.000 F250.000
G1 X0.100 Y-6.888 Z-0.200 F250.000
G1 X0.100 Y-7.188 Z-0.200 F250.000
G1 X21.284 Y-7.188 Z-0.200 F250.000
G2 X21.384 Y-7.288 Z-0.200 I0.000 J-0.100 K0.000 F250.000
G1 X21.384 Y-7.608 Z-0.200 F250.000
G2 X21.284 Y-7.708 Z-0.200 I-0.100 J-0.000 K0.000 F250.000
G1 X0.100 Y-7.708 Z-0.200 F250.000
G1 X0.100 Y-7.778 Z-0.200 F250.000
G1 X21.284 Y-7.778 Z-0.200 F250.000
G2 X21.384 Y-7.878 Z-0.200 I0.000 J-0.100 K0.000 F250.000
G1 X21.384 Y-8.376 Z-0.200 F250.000
G2 X21.284 Y-8.476 Z-0.200 I-0.100 J-0.000 K0.000 F250.000
G1 X0.100 Y-8.476 Z-0.200 F250.000
G1 X0.100 Y-8.775 Z-0.200 F250.000
G1 X21.284 Y-8.775 Z-0.200 F250.000
G2 X21.384 Y-8.875 Z-0.200 I0.000 J-0.100 K0.000 F250.000
G1 X21.384 Y-9.196 Z-0.200 F250.000
G2 X21.284 Y-9.296 Z-0.200 I-0.100 J-0.000 K0.000 F250.000
G1 X0.100 Y-9.296 Z-0.200 F250.000
G1 X0.100 Y-9.366 Z-0.200 F250.000
G1 X21.284 Y-9.366 Z-0.200 F250.000
G2 X21.384 Y-9.466 Z-0.200 I0.000 J-0.100 K0.000 F250.000
G1 X21.384 Y-9.963 Z-0.200 F250.000
G2 X21.284 Y-10.063 Z-0.200 I-0.100 J-0.000 K0.000 F250.000
G1 X0.100 Y-10.063 Z-0.200 F250.000
G1 X0.100 Y-10.363 Z-0.200 F250.000
G1 X21.284 Y-10.363 Z-0.200 F250.000
G2 X21.384 Y-10.463 Z-0.200 I0.000 J-0.100 K0.000 F250.000
G1 X21.384 Y-10.783 Z-0.200 F250.000
G2 X21.284 Y-10.883 Z-0.200 I-0.100 J-0.000 K0.000 F250.000
G1 X0.100 Y-10.883 Z-0.200 F250.000
G1 X0.100 Y-10.953 Z-0.200 F250.000
G1 X21.284 Y-10.953 Z-0.200 F250.000
G2 X21.384 Y-11.053 Z-0.200 I0.000 J-0.100 K0.000 F250.000
G1 X21.384 Y-13.902 Z-0.200 F250.000
G3 X22.321 Y-14.720 Z-0.200 I0.852 J0.031 K0.000 F250.000
G3 X22.456 Y-14.711 Z-0.200 I-0.005 J1.212 K0.000 F250.000
G1 X39.744 Y-12.733 Z-0.200 F250.000
G3 X40.575 Y-12.307 Z-0.200 I-0.111 J1.238 K0.000 F250.000
G0 Z1.000
G0 X40.707 Y-10.970 Z1.000
G0 X40.707 Y-10.970 Z0.500
G1 X40.707 Y-10.970 Z-0.200 F150.000
G3 X40.707 Y-10.867 Z-0.200 I-0.068 J0.051 K0.000 F250.000
G1 X40.707 Y-10.970 Z-0.200 F250.000
G0 Z1.000
G0 X40.707 Y-10.378 Z1.000
G0 X40.707 Y-10.378 Z0.500
G1 X40.707 Y-10.378 Z-0.200 F150.000
G2 X40.907 Y-10.213 Z-0.200 I0.207 J-0.047 K0.000 F250.000
G2 X40.708 Y-10.049 Z-0.200 I-0.010 J0.191 K0.000 F250.000
G1 X40.707 Y-10.378 Z-0.200 F250.000
G0 Z1.000
G0 X40.757 Y-10.221 Z1.000
G0 X40.757 Y-10.221 Z0.500
G1 X40.757 Y-10.221 Z-0.200 F150.000
G3 X40.757 Y-10.199 Z-0.200 I0.000 J0.011 K0.000 F250.000
G1 X40.757 Y-10.221 Z-0.200 F250.000
G0 Z1.000
G0 X40.708 Y-9.379 Z1.000
G0 X40.708 Y-9.379 Z0.500
G1 X40.708 Y-9.379 Z-0.200 F150.000
G3 X40.708 Y-9.283 Z-0.200 I-0.062 J0.048 K0.000 F250.000
G1 X40.708 Y-9.379 Z-0.200 F250.000
G0 Z1.000
G0 X40.708 Y-8.787 Z1.000
G0 X40.708 Y-8.787 Z0.500
G1 X40.708 Y-8.787 Z-0.200 F150.000
G2 X40.907 Y-8.626 Z-0.200 I0.206 J-0.050 K0.000 F250.000
G2 X40.709 Y-8.465 Z-0.200 I-0.011 J0.189 K0.000 F250.000
G1 X40.708 Y-8.787 Z-0.200 F250.000
G0 Z1.000
G0 X40.758 Y-8.632 Z1.000
G0 X40.758 Y-8.632 Z0.500
G1 X40.758 Y-8.632 Z-0.200 F150.000
G3 X40.768 Y-8.622 Z-0.200 I0.000 J0.010 K0.000 F250.000
G3 X40.758 Y-8.613 Z-0.200 I-0.010 J0.000 K0.000 F250.000
G1 X40.758 Y-8.632 Z-0.200 F250.000
G0 Z1.000
G0 X40.709 Y-7.788 Z1.000
G0 X40.709 Y-7.788 Z0.500
G1 X40.709 Y-7.788 Z-0.200 F150.000
G3 X40.709 Y-7.699 Z-0.200 I-0.056 J0.044 K0.000 F250.000
G1 X40.709 Y-7.788 Z-0.200 F250.000
G0 Z1.000
G0 X40.709 Y-7.196 Z1.000
G0 X40.709 Y-7.196 Z0.500
G1 X40.709 Y-7.196 Z-0.200 F150.000
G2 X40.907 Y-7.038 Z-0.200 I0.205 J-0.053 K0.000 F250.000
G2 X40.710 Y-6.881 Z-0.200 I-0.012 J0.187 K0.000 F250.000
G1 X40.709 Y-7.196 Z-0.200 F250.000
G0 Z1.000
G0 X40.759 Y-7.043 Z1.000
G0 X40.759 Y-7.043 Z0.500
G1 X40.759 Y-7.043 Z-0.200 F150.000
G3 X40.759 Y-7.026 Z-0.200 I0.000 J0.009 K0.000 F250.000
G1 X40.759 Y-7.043 Z-0.200 F250.000
G0 Z1.000
G0 X40.710 Y-6.197 Z1.000
G0 X40.710 Y-6.197 Z0.500
G1 X40.710 Y-6.197 Z-0.200 F150.000
G3 X40.710 Y-6.115 Z-0.200 I-0.050 J0.041 K0.000 F250.000
G1 X40.710 Y-6.197 Z-0.200 F250.000
G0 Z1.000
G0 X40.710 Y-5.605 Z1.000
G0 X40.710 Y-5.605 Z0.500
G1 X40.710 Y-5.605 Z-0.200 F150.000
G2 X40.907 Y-5.451 Z-0.200 I0.204 J-0.057 K0.000 F250.000
G2 X40.710 Y-5.297 Z-0.200 I-0.014 J0.185 K0.000 F250.000
G1 X40.710 Y-5.605 Z-0.200 F250.000
G0 Z1.000
G0 X40.760 Y-5.455 Z1.000
G0 X40.760 Y-5.455 Z0.500
G1 X40.760 Y-5.455 Z-0.200 F150.000
G3 X40.760 Y-5.439 Z-0.200 I0.000 J0.008 K0.000 F250.000
G1 X40.760 Y-5.455 Z-0.200 F250.000
G0 Z1.000
G0 X40.682 Y-2.080 Z1.000
G0 X40.682 Y-2.080 Z0.500
G1 X40.682 Y-2.080 Z-0.200 F150.000
G3 X40.173 Y-1.497 Z-0.200 I-0.636 J-0.041 K0.000 F250.000
G3 X39.819 Y-1.465 Z-0.200 I-0.261 J-0.930 K0.000 F250.000
G2 X40.682 Y-2.080 Z-0.200 I-0.063 J-1.003 K0.000 F250.000
G0 Z1.000
G0 X39.803 Y-1.471 Z1.000
G0 X39.803 Y-1.471 Z0.500
G1 X39.803 Y-1.471 Z-0.200 F150.000
G1 X39.804 Y-1.466 Z-0.200 F250.000
G1 X39.787 Y-1.468 Z-0.200 F250.000
G1 X39.803 Y-1.471 Z-0.200 F250.000
G0 Z1.000
G0 X21.529 Y-5.258 Z1.000
G0 X21.529 Y-5.258 Z0.500
G1 X21.529 Y-5.258 Z-0.200 F150.000
G2 X21.322 Y-5.451 Z-0.200 I-0.216 J0.024 K0.000 F250.000
G2 X21.528 Y-5.643 Z-0.200 I-0.002 J-0.209 K0.000 F250.000
G1 X21.529 Y-5.258 Z-0.200 F250.000
G0 Z1.000
G0 X21.472 Y-5.443 Z1.000
G0 X21.472 Y-5.443 Z0.500
G1 X21.472 Y-5.443 Z-0.200 F150.000
G3 X21.472 Y-5.464 Z-0.200 I0.000 J-0.011 K0.000 F250.000
G1 X21.472 Y-5.443 Z-0.200 F250.000
G0 Z1.000
G0 X21.528 Y-6.079 Z1.000
G0 X21.528 Y-6.079 Z0.500
G1 X21.528 Y-6.079 Z-0.200 F150.000
G2 X21.504 Y-6.156 Z-0.200 I-0.078 J-0.017 K0.000 F250.000
G2 X21.528 Y-6.232 Z-0.200 I-0.054 J-0.059 K0.000 F250.000
G1 X21.528 Y-6.079 Z-0.200 F250.000
G0 Z1.000
G0 X21.528 Y-6.848 Z1.000
G0 X21.528 Y-6.848 Z0.500
G1 X21.528 Y-6.848 Z-0.200 F150.000
G2 X21.322 Y-7.038 Z-0.200 I-0.214 J0.026 K0.000 F250.000
G2 X21.528 Y-7.227 Z-0.200 I-0.001 J-0.207 K0.000 F250.000
G1 X21.528 Y-6.848 Z-0.200 F250.000
G0 Z1.000
G0 X21.472 Y-7.030 Z1.000
G0 X21.472 Y-7.030 Z0.500
G1 X21.472 Y-7.030 Z-0.200 F150.000
G3 X21.472 Y-7.052 Z-0.200 I0.000 J-0.011 K0.000 F250.000
G1 X21.472 Y-7.030 Z-0.200 F250.000
G0 Z1.000
G0 X21.527 Y-7.670 Z1.000
G0 X21.527 Y-7.670 Z0.500
G1 X21.527 Y-7.670 Z-0.200 F150.000
G3 X21.527 Y-7.816 Z-0.200 I0.103 J-0.073 K0.000 F250.000
G1 X21.527 Y-7.670 Z-0.200 F250.000
G0 Z1.000
G0 X21.527 Y-8.439 Z1.000
G0 X21.527 Y-8.439 Z0.500
G1 X21.527 Y-8.439 Z-0.200 F150.000
G2 X21.322 Y-8.626 Z-0.200 I-0.213 J0.029 K0.000 F250.000
G2 X21.527 Y-8.811 Z-0.200 I0.001 J-0.205 K0.000 F250.000
G1 X21.527 Y-8.439 Z-0.200 F250.000
G0 Z1.000
G0 X21.472 Y-8.617 Z1.000
G0 X21.472 Y-8.617 Z0.500
G1 X21.472 Y-8.617 Z-0.200 F150.000
G3 X21.472 Y-8.640 Z-0.200 I0.000 J-0.012 K0.000 F250.000
G1 X21.472 Y-8.617 Z-0.200 F250.000
G0 Z1.000
G0 X21.526 Y-9.261 Z1.000
G0 X21.526 Y-9.261 Z0.500
G1 X21.526 Y-9.261 Z-0.200 F150.000
G3 X21.526 Y-9.400 Z-0.200 I0.097 J-0.069 K0.000 F250.000
G1 X21.526 Y-9.261 Z-0.200 F250.000
G0 Z1.000
G0 X21.526 Y-10.030 Z1.000
G0 X21.526 Y-10.030 Z0.500
G1 X21.526 Y-10.030 Z-0.200 F150.000
G2 X21.322 Y-10.213 Z-0.200 I-0.212 J0.032 K0.000 F250.000
G2 X21.526 Y-10.395 Z-0.200 I0.002 J-0.203 K0.000 F250.000
G1 X21.526 Y-10.030 Z-0.200 F250.000
G0 Z1.000
G0 X21.473 Y-10.204 Z1.000
G0 X21.473 Y-10.204 Z0.500
G1 X21.473 Y-10.204 Z-0.200 F150.000
G3 X21.473 Y-10.228 Z-0.200 I0.000 J-0.012 K0.000 F250.000
G1 X21.473 Y-10.204 Z-0.200 F250.000
G0 Z1.000
G0 X21.525 Y-10.852 Z1.000
G0 X21.525 Y-10.852 Z0.500
G1 X21.525 Y-10.852 Z-0.200 F150.000
G3 X21.525 Y-10.984 Z-0.200 I0.091 J-0.066 K0.000 F250.000
G1 X21.525 Y-10.852 Z-0.200 F250.000
G0 Z1.000
G0 X21.544 Y-13.877 Z1.000
G0 X21.544 Y-13.877 Z0.500
G1 X21.544 Y-13.877 Z-0.200 F150.000
G3 X22.088 Y-14.532 Z-0.200 I0.647 J-0.016 K0.000 F250.000
G3 X22.440 Y-14.552 Z-0.200 I0.233 J0.982 K0.000 F250.000
G1 X22.440 Y-14.552 Z-0.200 F250.000
G2 X21.544 Y-13.877 Z-0.200 I-0.042 J0.876 K0.000 F250.000
G0 Z1.000
G0 Z1.000
(Finish operation: Pocket_Shape)
(Begin postamble)
M5
G17 G90
M2
