(Exported by FreeCAD)
(Post Processor: grbl_post)
(Output Time:2022-12-07 21:34:38.974157)
(Begin preamble)
G17 G90
G21
(Begin operation: G54)
(Path: G54)
G54
G0 Z5.000
(Finish operation: G54)
(Begin operation: ballend-010mm001)
(Path: ballend-010mm001)
(ballend-010mm001)
(Begin toolchange)
( M6 T3 )
M3 S10000
(Finish operation: ballend-010mm001)
(Begin operation: Pocket_Shape)
(Path: Pocket_Shape)
(Pocket_Shape)
G0 Z2.000
G0 X16.391 Y-1.209
G0 Z1.000
G1 X16.391 Y-1.209 Z-0.200 F50.000
G3 X15.457 Y-1.666 Z-0.200 I-0.390 J-0.387 K0.000 F150.000
G3 X16.512 Y-1.912 Z-0.200 I0.539 J-0.072 K0.000 F150.000
G3 X16.422 Y-1.243 Z-0.200 I-0.700 J0.246 K0.000 F150.000
G3 X16.391 Y-1.209 Z-0.200 I-0.421 J-0.352 K0.000 F150.000
G0 Z2.000
G0 X16.374 Y-1.226 Z2.000
G0 X16.374 Y-1.226 Z1.000
G1 X16.374 Y-1.226 Z-0.200 F50.000
G3 X16.186 Y-1.105 Z-0.200 I-0.369 J-0.368 K0.000 F150.000
G2 X16.451 Y-1.922 Z-0.200 I-0.337 J-0.561 K0.000 F150.000
G2 X16.248 Y-2.198 Z-0.200 I-0.471 J0.135 K0.000 F150.000
G3 X16.521 Y-1.666 Z-0.200 I-0.265 J0.472 K0.000 F150.000
G3 X16.374 Y-1.226 Z-0.200 I-0.516 J0.073 K0.000 F150.000
G0 Z2.000
G0 X16.343 Y-1.251 Z2.000
G0 X16.343 Y-1.251 Z1.000
G1 X16.343 Y-1.251 Z-0.200 F50.000
G3 X15.779 Y-1.148 Z-0.200 I-0.342 J-0.278 K0.000 F150.000
G3 X15.576 Y-1.914 Z-0.200 I0.407 J-0.518 K0.000 F150.000
G3 X16.335 Y-2.088 Z-0.200 I0.426 J0.115 K0.000 F150.000
G3 X16.428 Y-1.418 Z-0.200 I-0.584 J0.422 K0.000 F150.000
G3 X16.343 Y-1.251 Z-0.200 I-0.427 J-0.111 K0.000 F150.000
G0 Z2.000
G0 X15.952 Y-1.078 Z2.000
G0 X15.952 Y-1.078 Z1.000
G1 X15.952 Y-1.078 Z-0.200 F50.000
G3 X15.839 Y-1.103 Z-0.200 I-0.012 J-0.216 K0.000 F150.000
G1 X15.952 Y-1.078 Z-0.200 F150.000
G0 Z2.000
G0 X15.758 Y-1.133 Z2.000
G0 X15.758 Y-1.133 Z1.000
G1 X15.758 Y-1.133 Z-0.200 F50.000
G3 X15.482 Y-1.666 Z-0.200 I0.262 J-0.473 K0.000 F150.000
G3 X15.846 Y-2.231 Z-0.200 I0.500 J-0.078 K0.000 F150.000
G2 X15.551 Y-1.918 Z-0.200 I0.081 J0.372 K0.000 F150.000
G2 X15.758 Y-1.133 Z-0.200 I0.633 J0.252 K0.000 F150.000
G0 Z2.000
G0 X16.075 Y-2.251 Z2.000
G0 X16.075 Y-2.251 Z1.000
G1 X16.075 Y-2.251 Z-0.200 F50.000
G3 X16.162 Y-2.230 Z-0.200 I0.005 J0.169 K0.000 F150.000
G1 X16.075 Y-2.251 Z-0.200 F150.000
G0 Z2.000
G0 Z2.000
G0 X16.075 Y-2.251
G0 X16.934 Y-2.045
G0 X16.934 Y-2.045 Z1.000
G1 X16.934 Y-2.045 Z-0.200 F50.000
G3 X17.343 Y-2.282 Z-0.200 I0.362 J0.153 K0.000 F150.000
G3 X17.784 Y-1.821 Z-0.200 I0.050 J0.393 K0.000 F150.000
G1 X17.784 Y-1.072 Z-0.200 F150.000
G1 X17.709 Y-1.072 Z-0.200 F150.000
G2 X17.687 Y-1.996 Z-0.200 I-4.035 J-0.367 K0.000 F150.000
G2 X16.974 Y-1.803 Z-0.200 I-0.350 J0.119 K0.000 F150.000
G1 X16.974 Y-1.072 Z-0.200 F150.000
G1 X16.899 Y-1.072 Z-0.200 F150.000
G3 X16.934 Y-2.045 Z-0.200 I3.141 J-0.374 K0.000 F150.000
G0 Z2.000
G0 X16.958 Y-2.037 Z2.000
G0 X16.958 Y-2.037 Z1.000
G1 X16.958 Y-2.037 Z-0.200 F50.000
G3 X17.151 Y-2.222 Z-0.200 I0.219 J0.035 K0.000 F150.000
G2 X16.982 Y-2.033 Z-0.200 I0.094 J0.255 K0.000 F150.000
G2 X16.949 Y-1.097 Z-0.200 I3.321 J0.583 K0.000 F150.000
G1 X16.924 Y-1.097 Z-0.200 F150.000
G3 X16.958 Y-2.037 Z-0.200 I3.032 J-0.361 K0.000 F150.000
G0 Z2.000
G0 X17.584 Y-2.196 Z2.000
G0 X17.584 Y-2.196 Z1.000
G1 X17.584 Y-2.196 Z-0.200 F50.000
G3 X17.727 Y-2.029 Z-0.200 I-0.084 J0.217 K0.000 F150.000
G3 X17.759 Y-1.097 Z-0.200 I-3.098 J0.571 K0.000 F150.000
G1 X17.734 Y-1.097 Z-0.200 F150.000
G2 X17.710 Y-2.007 Z-0.200 I-3.772 J-0.355 K0.000 F150.000
G2 X17.584 Y-2.196 Z-0.200 I-0.269 J0.042 K0.000 F150.000
G0 Z2.000
G0 Z2.000
G0 X17.584 Y-2.196
G0 X18.488
G0 X18.488 Z1.000
G1 X18.488 Y-2.196 Z-0.200 F50.000
G1 X18.488 Y-2.258 Z-0.200 F150.000
G1 X18.563 Y-2.258 Z-0.200 F150.000
G1 X18.563 Y-1.168 Z-0.200 F150.000
G2 X18.613 Y-1.118 Z-0.200 I0.050 J-0.000 K0.000 F150.000
G1 X19.020 Y-1.118 Z-0.200 F150.000
G1 X19.020 Y-1.072 Z-0.200 F150.000
G1 X18.032 Y-1.072 Z-0.200 F150.000
G1 X18.032 Y-1.118 Z-0.200 F150.000
G1 X18.438 Y-1.118 Z-0.200 F150.000
G2 X18.488 Y-1.168 Z-0.200 I-0.000 J-0.050 K0.000 F150.000
G1 X18.488 Y-2.196 Z-0.200 F150.000
G0 Z2.000
G0 X18.526 Y-1.138 Z2.000
G0 X18.526 Y-1.138 Z1.000
G1 X18.526 Y-1.138 Z-0.200 F50.000
G1 X18.532 Y-1.122 Z-0.200 F150.000
G1 X18.519 Y-1.122 Z-0.200 F150.000
G1 X18.526 Y-1.138 Z-0.200 F150.000
G0 Z2.000
G0 Z2.000
G0 X18.526 Y-1.138
G0 X26.872 Y-1.676
G0 X26.872 Y-1.676 Z1.000
G1 X26.872 Y-1.676 Z-0.200 F50.000
G1 X26.872 Y-1.770 Z-0.200 F150.000
G1 X27.174 Y-1.770 Z-0.200 F150.000
G2 X27.224 Y-1.820 Z-0.200 I-0.000 J-0.050 K0.000 F150.000
G1 X27.224 Y-2.122 Z-0.200 F150.000
G1 X27.317 Y-2.122 Z-0.200 F150.000
G1 X27.317 Y-1.820 Z-0.200 F150.000
G2 X27.367 Y-1.770 Z-0.200 I0.050 J-0.000 K0.000 F150.000
G1 X27.667 Y-1.770 Z-0.200 F150.000
G1 X27.667 Y-1.676 Z-0.200 F150.000
G1 X27.367 Y-1.676 Z-0.200 F150.000
G2 X27.317 Y-1.626 Z-0.200 I0.000 J0.050 K0.000 F150.000
G1 X27.317 Y-1.326 Z-0.200 F150.000
G1 X27.224 Y-1.326 Z-0.200 F150.000
G1 X27.224 Y-1.626 Z-0.200 F150.000
G2 X27.174 Y-1.676 Z-0.200 I-0.050 J0.000 K0.000 F150.000
G1 X26.872 Y-1.676 Z-0.200 F150.000
G0 Z2.000
G0 X27.181 Y-1.723 Z2.000
G0 X27.181 Y-1.723 Z1.000
G1 X27.181 Y-1.723 Z-0.200 F50.000
G2 X27.270 Y-1.812 Z-0.200 I0.000 J-0.089 K0.000 F150.000
G2 X27.359 Y-1.723 Z-0.200 I0.089 J-0.000 K0.000 F150.000
G2 X27.270 Y-1.634 Z-0.200 I-0.000 J0.089 K0.000 F150.000
G2 X27.181 Y-1.723 Z-0.200 I-0.089 J0.000 K0.000 F150.000
G0 Z2.000
G0 X27.241 Z2.000
G0 X27.241 Z1.000
G1 X27.241 Y-1.723 Z-0.200 F50.000
G2 X27.270 Y-1.751 Z-0.200 I0.000 J-0.029 K0.000 F150.000
G2 X27.299 Y-1.723 Z-0.200 I0.029 J-0.000 K0.000 F150.000
G2 X27.270 Y-1.695 Z-0.200 I-0.000 J0.029 K0.000 F150.000
G2 X27.241 Y-1.723 Z-0.200 I-0.029 J0.000 K0.000 F150.000
G0 Z2.000
G0 Z2.000
G0 X27.241 Y-1.723
G0 X30.136 Y-3.393
G0 X30.136 Y-3.393 Z1.000
G1 X30.136 Y-3.393 Z-0.200 F50.000
G3 X30.110 Y-3.719 Z-0.200 I0.330 J-0.190 K0.000 F150.000
G3 X30.758 Y-3.828 Z-0.200 I0.350 J0.103 K0.000 F150.000
G2 X30.810 Y-3.885 Z-0.200 I0.002 J-0.050 K0.000 F150.000
G2 X30.569 Y-4.359 Z-0.200 I-0.456 J-0.066 K0.000 F150.000
G2 X30.179 Y-4.353 Z-0.200 I-0.187 J0.471 K0.000 F150.000
G1 X30.179 Y-4.402 Z-0.200 F150.000
G3 X30.621 Y-4.389 Z-0.200 I0.206 J0.516 K0.000 F150.000
G3 X30.883 Y-3.825 Z-0.200 I-0.375 J0.517 K0.000 F150.000
G3 X30.774 Y-3.358 Z-0.200 I-0.790 J0.061 K0.000 F150.000
G3 X30.136 Y-3.393 Z-0.200 I-0.307 J-0.226 K0.000 F150.000
G0 Z2.000
G0 X30.206 Y-3.428 Z2.000
G0 X30.206 Y-3.428 Z1.000
G1 X30.206 Y-3.428 Z-0.200 F50.000
G3 X30.312 Y-3.900 Z-0.200 I0.347 J-0.170 K0.000 F150.000
G3 X30.779 Y-3.600 Z-0.200 I0.163 J0.260 K0.000 F150.000
G3 X30.334 Y-3.280 Z-0.200 I-0.303 J0.048 K0.000 F150.000
G3 X30.206 Y-3.428 Z-0.200 I0.220 J-0.318 K0.000 F150.000
G0 Z2.000
G0 X30.816 Y-3.689 Z2.000
G0 X30.816 Y-3.689 Z1.000
G1 X30.816 Y-3.689 Z-0.200 F50.000
G2 X30.784 Y-3.788 Z-0.200 I-0.175 J0.003 K0.000 F150.000
G2 X30.831 Y-3.813 Z-0.200 I0.013 J-0.032 K0.000 F150.000
G1 X30.816 Y-3.689 Z-0.200 F150.000
G0 Z2.000
G0 Z2.000
G0 X30.816 Y-3.689
G0 X31.255 Y-3.522
G0 X31.255 Y-3.522 Z1.000
G1 X31.255 Y-3.522 Z-0.200 F50.000
G1 X31.596 Y-4.417 Z-0.200 F150.000
G1 X31.725 Y-4.417 Z-0.200 F150.000
G1 X32.177 Y-3.231 Z-0.200 F150.000
G1 X32.103 Y-3.231 Z-0.200 F150.000
G1 X31.707 Y-4.281 Z-0.200 F150.000
G2 X31.613 Y-4.281 Z-0.200 I-0.047 J0.018 K0.000 F150.000
G1 X31.218 Y-3.231 Z-0.200 F150.000
G1 X31.144 Y-3.231 Z-0.200 F150.000
G1 X31.255 Y-3.522 Z-0.200 F150.000
G0 Z2.000
G0 X31.627 Y-4.357 Z2.000
G0 X31.627 Y-4.357 Z1.000
G1 X31.627 Y-4.357 Z-0.200 F50.000
G3 X31.695 Y-4.355 Z-0.200 I0.034 J0.008 K0.000 F150.000
G1 X31.627 Y-4.357 Z-0.200 F150.000
G0 Z2.000
G0 Z2.000
G0 X31.627 Y-4.357
G0 X31.315 Y-2.560
G0 X31.315 Y-2.560 Z1.000
G1 X31.315 Y-2.560 Z-0.200 F50.000
G3 X31.614 Y-2.447 Z-0.200 I-0.145 J0.834 K0.000 F150.000
G1 X31.614 Y-2.342 Z-0.200 F150.000
G2 X30.631 Y-1.177 Z-0.200 I-0.448 J0.619 K0.000 F150.000
G2 X31.614 Y-1.104 Z-0.200 I0.532 J-0.522 K0.000 F150.000
G1 X31.614 Y-1.000 Z-0.200 F150.000
G3 X30.307 Y-1.677 Z-0.200 I-0.440 J-0.752 K0.000 F150.000
G1 X30.279 Y-1.685 Z-0.200 F150.000
G1 X28.163 Y-1.685 Z-0.200 F150.000
G2 X28.085 Y-1.493 Z-0.200 I0.077 J0.143 K0.000 F150.000
G3 X26.437 Y-1.913 Z-0.200 I-0.819 J-0.231 K0.000 F150.000
G3 X27.564 Y-2.520 Z-0.200 I0.829 J0.188 K0.000 F150.000
G3 X28.114 Y-1.799 Z-0.200 I-0.301 J0.799 K0.000 F150.000
G2 X28.162 Y-1.763 Z-0.200 I0.048 J-0.014 K0.000 F150.000
G1 X30.278 Y-1.763 Z-0.200 F150.000
G2 X30.327 Y-1.803 Z-0.200 I-0.000 J-0.050 K0.000 F150.000
G3 X31.315 Y-2.560 Z-0.200 I0.843 J0.077 K0.000 F150.000
G0 Z2.000
G0 X30.357 Y-1.757 Z2.000
G0 X30.357 Y-1.757 Z1.000
G1 X30.357 Y-1.757 Z-0.200 F50.000
G2 X30.357 Y-1.685 Z-0.200 I0.178 J0.036 K0.000 F150.000
G2 X30.309 Y-1.726 Z-0.200 I-0.048 J0.008 K0.000 F150.000
G2 X30.357 Y-1.757 Z-0.200 I0.005 J-0.044 K0.000 F150.000
G0 Z2.000
G0 X28.130 Y-1.721 Z2.000
G0 X28.130 Y-1.721 Z1.000
G1 X28.130 Y-1.721 Z-0.200 F50.000
G2 X28.078 Y-1.679 Z-0.200 I-0.000 J0.052 K0.000 F150.000
G2 X28.085 Y-1.761 Z-0.200 I-0.139 J-0.053 K0.000 F150.000
G2 X28.130 Y-1.721 Z-0.200 I0.049 J-0.010 K0.000 F150.000
G0 Z2.000
G0 X28.038 Y-1.721 Z2.000
G0 X28.038 Y-1.721 Z1.000
G1 X28.038 Y-1.721 Z-0.200 F50.000
G3 X27.561 Y-1.011 Z-0.200 I-0.771 J-0.002 K0.000 F150.000
G3 X26.971 Y-2.436 Z-0.200 I-0.294 J-0.713 K0.000 F150.000
G3 X28.038 Y-1.721 Z-0.200 I0.296 J0.712 K0.000 F150.000
G0 Z2.000
G0 Z2.000
G0 X28.038 Y-1.721
G0 X34.330
G0 X34.330 Z1.000
G1 X34.330 Y-1.721 Z-0.200 F50.000
G1 X34.330 Y-1.774 Z-0.200 F150.000
G1 X35.234 Y-1.774 Z-0.200 F150.000
G1 X35.234 Y-1.674 Z-0.200 F150.000
G1 X34.330 Y-1.674 Z-0.200 F150.000
G1 X34.330 Y-1.721 Z-0.200 F150.000
G0 Z2.000
G0 X34.380 Y-1.724 Z2.000
G0 X34.380 Y-1.724 Z1.000
G1 X34.380 Y-1.724 Z-0.200 F50.000
G1 X34.380 Y-1.724 Z-0.200 F150.000
G1 X35.184 Y-1.724 Z-0.200 F150.000
G1 X35.184 Y-1.724 Z-0.200 F150.000
G1 X34.380 Y-1.724 Z-0.200 F150.000
G0 Z2.000
G0 Z2.000
G0 X34.380 Y-1.724
G0 X33.927 Y-1.769
G0 X33.927 Y-1.769 Z1.000
G1 X33.927 Y-1.769 Z-0.200 F50.000
G2 X33.920 Y-1.686 Z-0.200 I0.139 J0.053 K0.000 F150.000
G2 X33.875 Y-1.727 Z-0.200 I-0.049 J0.010 K0.000 F150.000
G2 X33.927 Y-1.769 Z-0.200 I0.000 J-0.052 K0.000 F150.000
G0 Z2.000
G0 X33.889 Y-1.801 Z2.000
G0 X33.889 Y-1.801 Z1.000
G1 X33.889 Y-1.801 Z-0.200 F50.000
G2 X33.920 Y-1.955 Z-0.200 I-0.124 J-0.105 K0.000 F150.000
G3 X35.057 Y-2.512 Z-0.200 I0.819 J0.231 K0.000 F150.000
G3 X34.441 Y-0.928 Z-0.200 I-0.319 J0.788 K0.000 F150.000
G3 X33.891 Y-1.649 Z-0.200 I0.301 J-0.799 K0.000 F150.000
G2 X33.843 Y-1.685 Z-0.200 I-0.048 J0.014 K0.000 F150.000
G1 X31.656 Y-1.685 Z-0.200 F150.000
G2 X31.540 Y-1.482 Z-0.200 I0.093 J0.187 K0.000 F150.000
G3 X30.766 Y-1.885 Z-0.200 I-0.366 J-0.242 K0.000 F150.000
G3 X31.634 Y-1.768 Z-0.200 I0.416 J0.190 K0.000 F150.000
G1 X31.656 Y-1.763 Z-0.200 F150.000
G1 X33.842 Y-1.763 Z-0.200 F150.000
G2 X33.889 Y-1.801 Z-0.200 I-0.077 J-0.143 K0.000 F150.000
G0 Z2.000
G0 X33.970 Y-1.793 Z2.000
G0 X33.970 Y-1.793 Z1.000
G1 X33.970 Y-1.793 Z-0.200 F50.000
G3 X34.734 Y-2.495 Z-0.200 I0.768 J0.069 K0.000 F150.000
G3 X34.748 Y-0.953 Z-0.200 I0.005 J0.771 K0.000 F150.000
G3 X33.970 Y-1.793 Z-0.200 I-0.010 J-0.771 K0.000 F150.000
G0 Z2.000
G0 X31.621 Y-1.721 Z2.000
G0 X31.621 Y-1.721 Z1.000
G1 X31.621 Y-1.721 Z-0.200 F50.000
G2 X31.497 Y-1.508 Z-0.200 I0.134 J0.221 K0.000 F150.000
G3 X30.813 Y-1.866 Z-0.200 I-0.323 J-0.216 K0.000 F150.000
G3 X31.422 Y-2.024 Z-0.200 I0.362 J0.144 K0.000 F150.000
G3 X31.561 Y-1.780 Z-0.200 I-0.274 J0.318 K0.000 F150.000
G2 X31.621 Y-1.721 Z-0.200 I0.072 J-0.012 K0.000 F150.000
G0 Z2.000
G0 X31.543 Y-1.728 Z2.000
G0 X31.543 Y-1.728 Z1.000
G1 X31.543 Y-1.728 Z-0.200 F50.000
G3 X31.177 Y-1.386 Z-0.200 I-0.387 J-0.048 K0.000 F150.000
G3 X30.837 Y-1.722 Z-0.200 I-0.003 J-0.337 K0.000 F150.000
G3 X31.173 Y-2.061 Z-0.200 I0.337 J-0.002 K0.000 F150.000
G3 X31.543 Y-1.728 Z-0.200 I-0.061 J0.440 K0.000 F150.000
G0 Z2.000
G0 X31.467 Y-1.728 Z2.000
G0 X31.467 Y-1.728 Z1.000
G1 X31.467 Y-1.728 Z-0.200 F50.000
G3 X30.907 Y-1.622 Z-0.200 I-0.290 J-0.000 K0.000 F150.000
G3 X31.355 Y-1.948 Z-0.200 I0.268 J-0.102 K0.000 F150.000
G3 X31.467 Y-1.748 Z-0.200 I-0.226 J0.257 K0.000 F150.000
G3 X31.467 Y-1.728 Z-0.200 I-0.289 J0.020 K0.000 F150.000
G0 Z2.000
G0 X31.262 Y-1.725 Z2.000
G0 X31.262 Y-1.725 Z1.000
G1 X31.262 Y-1.725 Z-0.200 F50.000
G3 X31.191 Y-1.641 Z-0.200 I-0.083 J0.001 K0.000 F150.000
G3 X31.149 Y-1.802 Z-0.200 I-0.015 J-0.082 K0.000 F150.000
G1 X31.172 Y-1.806 Z-0.200 F150.000
G3 X31.262 Y-1.725 Z-0.200 I0.007 J0.083 K0.000 F150.000
G0 Z2.000
G0 X31.208 Y-1.725 Z2.000
G0 X31.208 Y-1.725 Z1.000
G1 X31.208 Y-1.725 Z-0.200 F50.000
G3 X31.198 Y-1.701 Z-0.200 I-0.031 J-0.000 K0.000 F150.000
G3 X31.151 Y-1.744 Z-0.200 I-0.023 J-0.021 K0.000 F150.000
G3 X31.171 Y-1.755 Z-0.200 I0.024 J0.018 K0.000 F150.000
G3 X31.208 Y-1.725 Z-0.200 I0.006 J0.030 K0.000 F150.000
G0 Z2.000
G0 X31.178 Y-1.719 Z2.000
G0 X31.178 Y-1.719 Z1.000
G1 X31.178 Y-1.719 Z-0.200 F50.000
G3 X31.170 Y-1.726 Z-0.200 I-0.003 J-0.005 K0.000 F150.000
G1 X31.175 Y-1.729 Z-0.200 F150.000
G3 X31.178 Y-1.719 Z-0.200 I0.001 J0.005 K0.000 F150.000
G0 Z2.000
G0 X31.207 Y-1.593 Z2.000
G0 X31.207 Y-1.593 Z1.000
G1 X31.207 Y-1.593 Z-0.200 F50.000
G3 X31.129 Y-1.849 Z-0.200 I-0.031 J-0.130 K0.000 F150.000
G1 X31.172 Y-1.857 Z-0.200 F150.000
G3 X31.207 Y-1.593 Z-0.200 I0.010 J0.133 K0.000 F150.000
G0 Z2.000
G0 X31.223 Y-1.545 Z2.000
G0 X31.223 Y-1.545 Z1.000
G1 X31.223 Y-1.545 Z-0.200 F50.000
G3 X31.110 Y-1.896 Z-0.200 I-0.048 J-0.179 K0.000 F150.000
G1 X31.172 Y-1.908 Z-0.200 F150.000
G3 X31.223 Y-1.545 Z-0.200 I0.012 J0.183 K0.000 F150.000
G0 Z2.000
G0 X31.239 Y-1.497 Z2.000
G0 X31.239 Y-1.497 Z1.000
G1 X31.239 Y-1.497 Z-0.200 F50.000
G3 X31.091 Y-1.944 Z-0.200 I-0.064 J-0.227 K0.000 F150.000
G1 X31.173 Y-1.959 Z-0.200 F150.000
G3 X31.239 Y-1.497 Z-0.200 I0.012 J0.234 K0.000 F150.000
G0 Z2.000
G0 Z2.000
G0 X31.239 Y-1.497
G0 X44.260
G0 X44.260 Z1.000
G1 X44.260 Y-1.497 Z-0.200 F50.000
G1 X44.260 Y-2.258 Z-0.200 F150.000
G1 X44.334 Y-2.258 Z-0.200 F150.000
G1 X44.334 Y-1.072 Z-0.200 F150.000
G1 X44.260 Y-1.072 Z-0.200 F150.000
G1 X44.260 Y-1.497 Z-0.200 F150.000
G0 Z2.000
G0 X44.285 Z2.000
G0 X44.285 Z1.000
G1 X44.285 Y-1.497 Z-0.200 F50.000
G1 X44.285 Y-2.233 Z-0.200 F150.000
G1 X44.309 Y-2.233 Z-0.200 F150.000
G1 X44.309 Y-1.097 Z-0.200 F150.000
G1 X44.285 Y-1.097 Z-0.200 F150.000
G1 X44.285 Y-1.497 Z-0.200 F150.000
G0 Z2.000
G0 Z2.000
G0 X44.285 Y-1.497
G0 X44.781
G0 X44.781 Z1.000
G1 X44.781 Y-1.497 Z-0.200 F50.000
G1 X44.781 Y-2.258 Z-0.200 F150.000
G1 X44.849 Y-2.258 Z-0.200 F150.000
G1 X44.849 Y-1.232 Z-0.200 F150.000
G2 X44.944 Y-1.209 Z-0.200 I0.050 J0.000 K0.000 F150.000
G1 X45.500 Y-2.258 Z-0.200 F150.000
G1 X45.654 Y-2.258 Z-0.200 F150.000
G1 X45.654 Y-1.072 Z-0.200 F150.000
G1 X45.585 Y-1.072 Z-0.200 F150.000
G1 X45.585 Y-2.098 Z-0.200 F150.000
G2 X45.491 Y-2.121 Z-0.200 I-0.050 J-0.000 K0.000 F150.000
G1 X44.935 Y-1.072 Z-0.200 F150.000
G1 X44.781 Y-1.072 Z-0.200 F150.000
G1 X44.781 Y-1.497 Z-0.200 F150.000
G0 Z2.000
G0 X44.831 Y-1.161 Z2.000
G0 X44.831 Y-1.161 Z1.000
G1 X44.831 Y-1.161 Z-0.200 F50.000
G2 X44.915 Y-1.141 Z-0.200 I0.049 J-0.022 K0.000 F150.000
G3 X44.831 Y-1.122 Z-0.200 I-0.047 J-0.013 K0.000 F150.000
G1 X44.831 Y-1.161 Z-0.200 F150.000
G0 Z2.000
G0 X45.519 Y-2.188 Z2.000
G0 X45.519 Y-2.188 Z1.000
G1 X45.519 Y-2.188 Z-0.200 F50.000
G3 X45.604 Y-2.208 Z-0.200 I0.047 J0.013 K0.000 F150.000
G1 X45.604 Y-2.169 Z-0.200 F150.000
G2 X45.519 Y-2.188 Z-0.200 I-0.049 J0.022 K0.000 F150.000
G0 Z2.000
G0 Z2.000
G0 X45.519 Y-2.188
G0 X45.953 Y-10.550
G0 X45.953 Y-10.550 Z1.000
G1 X45.953 Y-10.550 Z-0.200 F50.000
G1 X45.953 Y-11.400 Z-0.200 F150.000
G2 X45.903 Y-11.450 Z-0.200 I-0.050 J0.000 K0.000 F150.000
G1 X43.101 Y-11.450 Z-0.200 F150.000
G2 X43.051 Y-11.400 Z-0.200 I0.000 J0.050 K0.000 F150.000
G1 X43.051 Y-10.552 Z-0.200 F150.000
G1 X42.952 Y-10.552 Z-0.200 F150.000
G1 X42.952 Y-11.551 Z-0.200 F150.000
G1 X45.900 Y-11.551 Z-0.200 F150.000
G2 X45.950 Y-11.601 Z-0.200 I-0.000 J-0.050 K0.000 F150.000
G1 X45.950 Y-17.550 Z-0.200 F150.000
G1 X46.051 Y-17.550 Z-0.200 F150.000
G1 X46.049 Y-11.601 Z-0.200 F150.000
G2 X46.099 Y-11.551 Z-0.200 I0.050 J0.000 K0.000 F150.000
G1 X49.144 Y-11.551 Z-0.200 F150.000
G1 X49.144 Y-10.552 Z-0.200 F150.000
G1 X49.043 Y-10.552 Z-0.200 F150.000
G1 X49.043 Y-11.400 Z-0.200 F150.000
G2 X48.993 Y-11.450 Z-0.200 I-0.050 J0.000 K0.000 F150.000
G1 X46.101 Y-11.450 Z-0.200 F150.000
G2 X46.051 Y-11.400 Z-0.200 I0.000 J0.050 K0.000 F150.000
G1 X46.051 Y-10.550 Z-0.200 F150.000
G1 X45.953 Y-10.550 Z-0.200 F150.000
G0 Z2.000
G0 X46.002 Y-11.402 Z2.000
G0 X46.002 Y-11.402 Z1.000
G1 X46.002 Y-11.402 Z-0.200 F50.000
G2 X45.903 Y-11.500 Z-0.200 I-0.099 J0.000 K0.000 F150.000
G1 X43.101 Y-11.500 Z-0.200 F150.000
G2 X43.002 Y-11.403 Z-0.200 I-0.001 J0.098 K0.000 F150.000
G1 X43.002 Y-11.501 Z-0.200 F150.000
G1 X45.900 Y-11.501 Z-0.200 F150.000
G2 X46.000 Y-11.600 Z-0.200 I0.000 J-0.099 K0.000 F150.000
G2 X46.099 Y-11.501 Z-0.200 I0.099 J-0.000 K0.000 F150.000
G1 X49.094 Y-11.501 Z-0.200 F150.000
G1 X49.094 Y-10.602 Z-0.200 F150.000
G1 X49.093 Y-10.602 Z-0.200 F150.000
G1 X49.093 Y-11.400 Z-0.200 F150.000
G2 X48.993 Y-11.500 Z-0.200 I-0.100 J-0.000 K0.000 F150.000
G1 X46.101 Y-11.500 Z-0.200 F150.000
G2 X46.002 Y-11.402 Z-0.200 I-0.000 J0.099 K0.000 F150.000
G0 Z2.000
G0 Y-11.462 Z2.000
G0 Y-11.462 Z1.000
G1 X46.002 Y-11.462 Z-0.200 F50.000
G2 X45.961 Y-11.501 Z-0.200 I-0.040 J0.001 K0.000 F150.000
G2 X46.000 Y-11.540 Z-0.200 I0.000 J-0.039 K0.000 F150.000
G2 X46.041 Y-11.501 Z-0.200 I0.040 J-0.001 K0.000 F150.000
G2 X46.002 Y-11.462 Z-0.200 I-0.000 J0.039 K0.000 F150.000
G0 Z2.000
G0 X46.000 Y-14.634 Z2.000
G0 X46.000 Y-14.634 Z1.000
G1 X46.000 Y-14.634 Z-0.200 F50.000
G1 X46.000 Y-17.500 Z-0.200 F150.000
G1 X46.001 Y-17.500 Z-0.200 F150.000
G1 X46.000 Y-14.634 Z-0.200 F150.000
G0 Z2.000
G0 Z2.000
(Finish operation: Pocket_Shape)
(Begin operation: ballend-015mm001)
(Path: ballend-015mm001)
(ballend-015mm001)
(Begin toolchange)
( M6 T11 )
M3 S10000
(Finish operation: ballend-015mm001)
(Begin operation: Pocket_Shape001)
(Path: Pocket_Shape001)
(Pocket_Shape001)
G0 Z2.000
G0 X8.004 Y-5.771
G0 Z1.000
G1 X8.004 Y-5.771 Z-0.150 F50.000
G1 X7.768 Y-5.771 Z-0.150 F150.000
G1 X7.075 Y-7.633 Z-0.150 F150.000
G2 X6.934 Y-7.633 Z-0.150 I-0.070 J0.026 K0.000 F150.000
G1 X6.241 Y-5.771 Z-0.150 F150.000
G1 X6.005 Y-5.771 Z-0.150 F150.000
G1 X6.802 Y-7.898 Z-0.150 F150.000
G1 X7.207 Y-7.898 Z-0.150 F150.000
G1 X8.004 Y-5.771 Z-0.150 F150.000
G0 Z2.000
G0 X7.896 Y-5.846 Z2.000
G0 X7.896 Y-5.846 Z1.000
G1 X7.896 Y-5.846 Z-0.150 F50.000
G1 X7.820 Y-5.846 Z-0.150 F150.000
G1 X7.145 Y-7.659 Z-0.150 F150.000
G2 X6.864 Y-7.659 Z-0.150 I-0.141 J0.052 K0.000 F150.000
G1 X6.189 Y-5.846 Z-0.150 F150.000
G1 X6.113 Y-5.846 Z-0.150 F150.000
G1 X6.854 Y-7.823 Z-0.150 F150.000
G1 X7.155 Y-7.823 Z-0.150 F150.000
G1 X7.896 Y-5.846 Z-0.150 F150.000
G0 Z2.000
G0 X7.163 Y-7.694 Z2.000
G0 X7.163 Y-7.694 Z1.000
G1 X7.163 Y-7.694 Z-0.150 F50.000
G2 X7.029 Y-7.785 Z-0.150 I-0.130 J0.047 K0.000 F150.000
G3 X7.163 Y-7.694 Z-0.150 I0.050 J0.071 K0.000 F150.000
G0 Z2.000
G0 X6.972 Y-7.785 Z2.000
G0 X6.972 Y-7.785 Z1.000
G1 X6.972 Y-7.785 Z-0.150 F50.000
G2 X6.848 Y-7.699 Z-0.150 I0.003 J0.137 K0.000 F150.000
G3 X6.972 Y-7.785 Z-0.150 I0.079 J-0.020 K0.000 F150.000
G1 X6.972 Y-7.785 Z-0.200 F50.000
G2 X6.848 Y-7.699 Z-0.200 I0.003 J0.137 K0.000 F150.000
G3 X6.972 Y-7.785 Z-0.200 I0.079 J-0.020 K0.000 F150.000
G0 Z2.000
G0 X6.978 Y-7.755 Z2.000
G0 X6.978 Y-7.755 Z1.000
G1 X6.978 Y-7.755 Z-0.200 F50.000
G2 X6.864 Y-7.659 Z-0.200 I0.026 J0.148 K0.000 F150.000
G1 X6.189 Y-5.846 Z-0.200 F150.000
G1 X6.113 Y-5.846 Z-0.200 F150.000
G1 X6.854 Y-7.823 Z-0.200 F150.000
G1 X7.155 Y-7.823 Z-0.200 F150.000
G1 X7.896 Y-5.846 Z-0.200 F150.000
G1 X7.820 Y-5.846 Z-0.200 F150.000
G1 X7.145 Y-7.659 Z-0.200 F150.000
G2 X6.978 Y-7.755 Z-0.200 I-0.141 J0.052 K0.000 F150.000
G0 Z2.000
G0 X7.029 Y-7.785 Z2.000
G0 X7.029 Y-7.785 Z1.000
G1 X7.029 Y-7.785 Z-0.200 F50.000
G3 X7.163 Y-7.694 Z-0.200 I0.050 J0.071 K0.000 F150.000
G2 X7.029 Y-7.785 Z-0.200 I-0.130 J0.047 K0.000 F150.000
G0 Z2.000
G0 X7.015 Y-7.681 Z2.000
G0 X7.015 Y-7.681 Z1.000
G1 X7.015 Y-7.681 Z-0.200 F50.000
G2 X6.934 Y-7.633 Z-0.200 I-0.010 J0.074 K0.000 F150.000
G1 X6.241 Y-5.771 Z-0.200 F150.000
G1 X6.005 Y-5.771 Z-0.200 F150.000
G1 X6.802 Y-7.898 Z-0.200 F150.000
G1 X7.207 Y-7.898 Z-0.200 F150.000
G1 X8.004 Y-5.771 Z-0.200 F150.000
G1 X7.768 Y-5.771 Z-0.200 F150.000
G1 X7.075 Y-7.633 Z-0.200 F150.000
G2 X7.015 Y-7.681 Z-0.200 I-0.070 J0.026 K0.000 F150.000
G0 Z2.000
G0 Z2.000
G0 X7.015 Y-7.681
G0 X8.579 Y-7.226
G0 X8.579 Y-7.226 Z1.000
G1 X8.579 Y-7.226 Z-0.150 F50.000
G3 X8.799 Y-7.665 Z-0.150 I1.305 J0.380 K0.000 F150.000
G3 X10.305 Y-7.550 Z-0.150 I0.706 J0.667 K0.000 F150.000
G3 X10.419 Y-6.375 Z-0.150 I-1.447 J0.733 K0.000 F150.000
G3 X9.512 Y-5.717 Z-0.150 I-0.854 J-0.223 K0.000 F150.000
G3 X8.576 Y-6.475 Z-0.150 I-0.051 J-0.894 K0.000 F150.000
G3 X8.579 Y-7.226 Z-0.150 I1.308 J-0.371 K0.000 F150.000
G0 Z2.000
G0 X8.701 Y-7.192 Z2.000
G0 X8.701 Y-7.192 Z1.000
G1 X8.701 Y-7.192 Z-0.150 F50.000
G3 X8.857 Y-7.548 Z-0.150 I1.288 J0.353 K0.000 F150.000
G2 X8.869 Y-6.106 Z-0.150 I1.283 J0.710 K0.000 F150.000
G1 X8.895 Y-6.074 Z-0.150 F150.000
G3 X8.701 Y-7.192 Z-0.150 I1.094 J-0.765 K0.000 F150.000
G0 Z2.000
G0 X8.755 Y-7.179 Z2.000
G0 X8.755 Y-7.179 Z1.000
G1 X8.755 Y-7.179 Z-0.150 F50.000
G3 X8.897 Y-7.545 Z-0.150 I1.458 J0.358 K0.000 F150.000
G3 X10.225 Y-7.345 Z-0.150 I0.614 J0.430 K0.000 F150.000
G3 X10.120 Y-6.132 Z-0.150 I-1.399 J0.490 K0.000 F150.000
G3 X8.795 Y-6.326 Z-0.150 I-0.615 J-0.423 K0.000 F150.000
G3 X8.755 Y-7.179 Z-0.150 I1.418 J-0.495 K0.000 F150.000
G0 Z2.000
G0 X8.827 Y-7.161 Z2.000
G0 X8.827 Y-7.161 Z1.000
G1 X8.827 Y-7.161 Z-0.150 F50.000
G3 X8.965 Y-7.513 Z-0.150 I1.386 J0.341 K0.000 F150.000
G3 X10.158 Y-7.310 Z-0.150 I0.546 J0.400 K0.000 F150.000
G3 X10.052 Y-6.164 Z-0.150 I-1.333 J0.454 K0.000 F150.000
G3 X8.861 Y-6.361 Z-0.150 I-0.547 J-0.393 K0.000 F150.000
G3 X8.827 Y-7.161 Z-0.150 I1.352 J-0.459 K0.000 F150.000
G0 Z2.000
G0 X8.654 Y-7.213 Z2.000
G0 X8.654 Y-7.213 Z1.000
G1 X8.654 Y-7.213 Z-0.150 F50.000
G3 X8.857 Y-7.616 Z-0.150 I1.229 J0.368 K0.000 F150.000
G3 X10.349 Y-7.267 Z-0.150 I0.646 J0.604 K0.000 F150.000
G3 X10.346 Y-6.396 Z-0.150 I-1.634 J0.430 K0.000 F150.000
G3 X9.512 Y-5.793 Z-0.150 I-0.782 J-0.204 K0.000 F150.000
G3 X8.650 Y-6.488 Z-0.150 I-0.051 J-0.819 K0.000 F150.000
G3 X8.654 Y-7.213 Z-0.150 I1.232 J-0.357 K0.000 F150.000
G0 Z2.000
G0 X8.882 Y-7.585 Z2.000
G0 X8.882 Y-7.585 Z1.000
G1 X8.882 Y-7.585 Z-0.150 F50.000
G3 X8.887 Y-7.592 Z-0.150 I0.015 J0.006 K0.000 F150.000
G1 X8.882 Y-7.585 Z-0.150 F150.000
G0 Z2.000
G0 X10.128 Y-7.596 Z2.000
G0 X10.128 Y-7.596 Z1.000
G1 X10.128 Y-7.596 Z-0.150 F50.000
G3 X10.310 Y-6.406 Z-0.150 I-1.032 J0.767 K0.000 F150.000
G3 X10.118 Y-6.068 Z-0.150 I-0.552 J-0.091 K0.000 F150.000
G2 X10.128 Y-7.596 Z-0.150 I-1.195 J-0.772 K0.000 F150.000
G1 X10.128 Y-7.596 Z-0.200 F50.000
G3 X10.310 Y-6.406 Z-0.200 I-1.032 J0.767 K0.000 F150.000
G3 X10.118 Y-6.068 Z-0.200 I-0.552 J-0.091 K0.000 F150.000
G2 X10.128 Y-7.596 Z-0.200 I-1.195 J-0.772 K0.000 F150.000
G0 Z2.000
G0 X10.102 Y-7.576 Z2.000
G0 X10.102 Y-7.576 Z1.000
G1 X10.102 Y-7.576 Z-0.200 F50.000
G3 X10.225 Y-7.345 Z-0.200 I-0.591 J0.461 K0.000 F150.000
G3 X10.120 Y-6.132 Z-0.200 I-1.399 J0.490 K0.000 F150.000
G3 X8.795 Y-6.326 Z-0.200 I-0.615 J-0.423 K0.000 F150.000
G3 X8.897 Y-7.545 Z-0.200 I1.418 J-0.495 K0.000 F150.000
G3 X10.102 Y-7.576 Z-0.200 I0.614 J0.430 K0.000 F150.000
G0 Z2.000
G0 X10.147 Y-7.618 Z2.000
G0 X10.147 Y-7.618 Z1.000
G1 X10.147 Y-7.618 Z-0.200 F50.000
G3 X10.349 Y-7.267 Z-0.200 I-0.644 J0.606 K0.000 F150.000
G3 X10.346 Y-6.396 Z-0.200 I-1.634 J0.430 K0.000 F150.000
G3 X9.512 Y-5.793 Z-0.200 I-0.782 J-0.204 K0.000 F150.000
G3 X8.650 Y-6.488 Z-0.200 I-0.051 J-0.819 K0.000 F150.000
G3 X8.857 Y-7.616 Z-0.200 I1.232 J-0.357 K0.000 F150.000
G3 X10.147 Y-7.618 Z-0.200 I0.646 J0.604 K0.000 F150.000
G0 Z2.000
G0 X10.204 Y-7.674 Z2.000
G0 X10.204 Y-7.674 Z1.000
G1 X10.204 Y-7.674 Z-0.200 F50.000
G3 X10.305 Y-7.550 Z-0.200 I-0.698 J0.675 K0.000 F150.000
G3 X10.419 Y-6.375 Z-0.200 I-1.447 J0.733 K0.000 F150.000
G3 X9.512 Y-5.717 Z-0.200 I-0.854 J-0.223 K0.000 F150.000
G3 X8.576 Y-6.475 Z-0.200 I-0.051 J-0.894 K0.000 F150.000
G3 X8.799 Y-7.665 Z-0.200 I1.308 J-0.371 K0.000 F150.000
G3 X10.204 Y-7.674 Z-0.200 I0.706 J0.667 K0.000 F150.000
G0 Z2.000
G0 X10.037 Y-7.538 Z2.000
G0 X10.037 Y-7.538 Z1.000
G1 X10.037 Y-7.538 Z-0.200 F50.000
G3 X10.158 Y-7.310 Z-0.200 I-0.526 J0.425 K0.000 F150.000
G3 X10.052 Y-6.164 Z-0.200 I-1.333 J0.454 K0.000 F150.000
G3 X8.861 Y-6.361 Z-0.200 I-0.547 J-0.393 K0.000 F150.000
G3 X8.965 Y-7.513 Z-0.200 I1.352 J-0.459 K0.000 F150.000
G3 X10.037 Y-7.538 Z-0.200 I0.546 J0.400 K0.000 F150.000
G0 Z2.000
G0 X8.887 Y-7.592 Z2.000
G0 X8.887 Y-7.592 Z1.000
G1 X8.887 Y-7.592 Z-0.200 F50.000
G1 X8.882 Y-7.585 Z-0.200 F150.000
G3 X8.887 Y-7.592 Z-0.200 I0.015 J0.006 K0.000 F150.000
G0 Z2.000
G0 X8.857 Y-7.548 Z2.000
G0 X8.857 Y-7.548 Z1.000
G1 X8.857 Y-7.548 Z-0.200 F50.000
G2 X8.869 Y-6.106 Z-0.200 I1.283 J0.710 K0.000 F150.000
G1 X8.895 Y-6.074 Z-0.200 F150.000
G3 X8.857 Y-7.548 Z-0.200 I1.094 J-0.765 K0.000 F150.000
G0 Z2.000
G0 Z2.000
G0 X8.857 Y-7.548
G0 X11.250
G0 X11.250 Z1.000
G1 X11.250 Y-7.548 Z-0.150 F50.000
G1 X11.250 Y-7.898 Z-0.150 F150.000
G1 X11.474 Y-7.898 Z-0.150 F150.000
G1 X11.474 Y-4.885 Z-0.150 F150.000
G1 X11.250 Y-4.885 Z-0.150 F150.000
G1 X11.250 Y-7.548 Z-0.150 F150.000
G0 Z2.000
G0 X11.325 Z2.000
G0 X11.325 Z1.000
G1 X11.325 Y-7.548 Z-0.150 F50.000
G1 X11.325 Y-7.823 Z-0.150 F150.000
G1 X11.399 Y-7.823 Z-0.150 F150.000
G1 X11.399 Y-4.960 Z-0.150 F150.000
G1 X11.325 Y-4.960 Z-0.150 F150.000
G1 X11.325 Y-7.548 Z-0.150 F150.000
G1 X11.325 Y-7.548 Z-0.200 F50.000
G1 X11.325 Y-7.823 Z-0.200 F150.000
G1 X11.399 Y-7.823 Z-0.200 F150.000
G1 X11.399 Y-4.960 Z-0.200 F150.000
G1 X11.325 Y-4.960 Z-0.200 F150.000
G1 X11.325 Y-7.548 Z-0.200 F150.000
G0 Z2.000
G0 X11.250 Z2.000
G0 X11.250 Z1.000
G1 X11.250 Y-7.548 Z-0.200 F50.000
G1 X11.250 Y-7.898 Z-0.200 F150.000
G1 X11.474 Y-7.898 Z-0.200 F150.000
G1 X11.474 Y-4.885 Z-0.200 F150.000
G1 X11.250 Y-4.885 Z-0.200 F150.000
G1 X11.250 Y-7.548 Z-0.200 F150.000
G0 Z2.000
G0 Z2.000
G0 X11.250 Y-7.548
G0 X12.386 Y-7.383
G0 X12.386 Y-7.383 Z1.000
G1 X12.386 Y-7.383 Z-0.150 F50.000
G3 X13.093 Y-7.956 Z-0.150 I0.664 J0.097 K0.000 F150.000
G3 X13.769 Y-7.574 Z-0.150 I0.021 J0.751 K0.000 F150.000
G2 X13.901 Y-7.623 Z-0.150 I0.057 J-0.049 K0.000 F150.000
G1 X13.901 Y-7.898 Z-0.150 F150.000
G1 X14.125 Y-7.898 Z-0.150 F150.000
G1 X14.125 Y-5.771 Z-0.150 F150.000
G1 X13.901 Y-5.771 Z-0.150 F150.000
G1 X13.900 Y-6.997 Z-0.150 F150.000
G2 X12.807 Y-7.666 Z-0.150 I-0.704 J-0.078 K0.000 F150.000
G2 X12.592 Y-7.060 Z-0.150 I0.572 J0.543 K0.000 F150.000
G1 X12.592 Y-5.771 Z-0.150 F150.000
G1 X12.368 Y-5.771 Z-0.150 F150.000
G3 X12.379 Y-7.270 Z-0.150 I14.183 J-0.651 K0.000 F150.000
G3 X12.386 Y-7.383 Z-0.150 I0.671 J-0.016 K0.000 F150.000
G0 Z2.000
G0 X12.460 Y-7.372 Z2.000
G0 X12.460 Y-7.372 Z1.000
G1 X12.460 Y-7.372 Z-0.150 F50.000
G3 X13.257 Y-7.865 Z-0.150 I0.608 J0.091 K0.000 F150.000
G1 X13.356 Y-7.829 Z-0.150 F150.000
G2 X12.552 Y-7.369 Z-0.150 I-0.207 J0.571 K0.000 F150.000
G1 X12.517 Y-7.060 Z-0.150 F150.000
G1 X12.517 Y-5.846 Z-0.150 F150.000
G1 X12.443 Y-5.846 Z-0.150 F150.000
G3 X12.453 Y-7.261 Z-0.150 I13.390 J-0.612 K0.000 F150.000
G3 X12.460 Y-7.372 Z-0.150 I0.614 J-0.019 K0.000 F150.000
G0 Z2.000
G0 X13.842 Y-7.483 Z2.000
G0 X13.842 Y-7.483 Z1.000
G1 X13.842 Y-7.483 Z-0.150 F50.000
G1 X13.902 Y-7.494 Z-0.150 F150.000
G2 X13.976 Y-7.823 Z-0.150 I-0.252 J-0.229 K0.000 F150.000
G1 X14.050 Y-7.823 Z-0.150 F150.000
G1 X14.050 Y-5.846 Z-0.150 F150.000
G1 X13.976 Y-5.846 Z-0.150 F150.000
G1 X13.975 Y-7.007 Z-0.150 F150.000
G2 X13.842 Y-7.483 Z-0.150 I-0.763 J-0.043 K0.000 F150.000
G0 Z2.000
G0 X13.945 Y-7.440 Z2.000
G0 X13.945 Y-7.440 Z1.000
G1 X13.945 Y-7.440 Z-0.150 F50.000
G3 X13.975 Y-7.462 Z-0.150 I0.033 J0.013 K0.000 F150.000
G1 X13.975 Y-7.392 Z-0.150 F150.000
G3 X13.945 Y-7.440 Z-0.150 I0.003 J-0.035 K0.000 F150.000
G1 X13.945 Y-7.440 Z-0.200 F50.000
G3 X13.975 Y-7.462 Z-0.200 I0.033 J0.013 K0.000 F150.000
G1 X13.975 Y-7.392 Z-0.200 F150.000
G3 X13.945 Y-7.440 Z-0.200 I0.003 J-0.035 K0.000 F150.000
G0 Z2.000
G0 X13.886 Y-7.409 Z2.000
G0 X13.886 Y-7.409 Z1.000
G1 X13.886 Y-7.409 Z-0.200 F50.000
G2 X13.842 Y-7.483 Z-0.200 I-0.675 J0.359 K0.000 F150.000
G1 X13.902 Y-7.494 Z-0.200 F150.000
G2 X13.976 Y-7.823 Z-0.200 I-0.252 J-0.229 K0.000 F150.000
G1 X14.050 Y-7.823 Z-0.200 F150.000
G1 X14.050 Y-5.846 Z-0.200 F150.000
G1 X13.976 Y-5.846 Z-0.200 F150.000
G1 X13.975 Y-7.007 Z-0.200 F150.000
G2 X13.886 Y-7.409 Z-0.200 I-0.763 J-0.043 K0.000 F150.000
G0 Z2.000
G0 X13.834 Y-7.384 Z2.000
G0 X13.834 Y-7.384 Z1.000
G1 X13.834 Y-7.384 Z-0.200 F50.000
G2 X12.807 Y-7.666 Z-0.200 I-0.637 J0.309 K0.000 F150.000
G2 X12.592 Y-7.060 Z-0.200 I0.572 J0.543 K0.000 F150.000
G1 X12.592 Y-5.771 Z-0.200 F150.000
G1 X12.368 Y-5.771 Z-0.200 F150.000
G3 X12.379 Y-7.270 Z-0.200 I14.183 J-0.651 K0.000 F150.000
G3 X13.093 Y-7.956 Z-0.200 I0.671 J-0.016 K0.000 F150.000
G3 X13.769 Y-7.574 Z-0.200 I0.021 J0.751 K0.000 F150.000
G2 X13.901 Y-7.623 Z-0.200 I0.057 J-0.049 K0.000 F150.000
G1 X13.901 Y-7.898 Z-0.200 F150.000
G1 X14.125 Y-7.898 Z-0.200 F150.000
G1 X14.125 Y-5.771 Z-0.200 F150.000
G1 X13.901 Y-5.771 Z-0.200 F150.000
G1 X13.900 Y-6.997 Z-0.200 F150.000
G2 X13.834 Y-7.384 Z-0.200 I-0.704 J-0.078 K0.000 F150.000
G0 Z2.000
G0 X13.356 Y-7.829 Z2.000
G0 X13.356 Y-7.829 Z1.000
G1 X13.356 Y-7.829 Z-0.200 F50.000
G2 X12.552 Y-7.369 Z-0.200 I-0.207 J0.571 K0.000 F150.000
G1 X12.517 Y-7.060 Z-0.200 F150.000
G1 X12.517 Y-5.846 Z-0.200 F150.000
G1 X12.443 Y-5.846 Z-0.200 F150.000
G3 X12.453 Y-7.261 Z-0.200 I13.390 J-0.612 K0.000 F150.000
G3 X13.257 Y-7.865 Z-0.200 I0.614 J-0.019 K0.000 F150.000
G1 X13.356 Y-7.829 Z-0.200 F150.000
G0 Z2.000
G0 Z2.000
G0 X13.356 Y-7.829
G0 X15.031
G0 X15.031 Z1.000
G1 X15.031 Y-7.829 Z-0.150 F50.000
G1 X15.031 Y-7.898 Z-0.150 F150.000
G1 X15.257 Y-7.898 Z-0.150 F150.000
G2 X15.269 Y-6.519 Z-0.150 I9.897 J0.607 K0.000 F150.000
G2 X16.382 Y-6.094 Z-0.150 I0.648 J-0.028 K0.000 F150.000
G2 X16.505 Y-6.611 Z-0.150 I-0.773 J-0.456 K0.000 F150.000
G1 X16.505 Y-7.898 Z-0.150 F150.000
G1 X16.731 Y-7.898 Z-0.150 F150.000
G1 X16.731 Y-6.676 Z-0.150 F150.000
G2 X16.925 Y-6.103 Z-0.150 I0.843 J0.034 K0.000 F150.000
G2 X17.856 Y-6.095 Z-0.150 I0.469 J-0.411 K0.000 F150.000
G2 X17.978 Y-6.611 Z-0.150 I-0.779 J-0.457 K0.000 F150.000
G1 X17.978 Y-7.898 Z-0.150 F150.000
G1 X18.204 Y-7.898 Z-0.150 F150.000
G1 X18.204 Y-6.603 Z-0.150 F150.000
G3 X18.026 Y-5.938 Z-0.150 I-0.989 J0.092 K0.000 F150.000
G3 X16.803 Y-6.177 Z-0.150 I-0.530 J-0.537 K0.000 F150.000
G2 X16.675 Y-6.166 Z-0.150 I-0.061 J0.044 K0.000 F150.000
G3 X15.871 Y-5.736 Z-0.150 I-0.612 J-0.178 K0.000 F150.000
G3 X15.390 Y-6.097 Z-0.150 I0.158 J-0.712 K0.000 F150.000
G2 X15.257 Y-6.050 Z-0.150 I-0.058 J0.047 K0.000 F150.000
G1 X15.257 Y-5.771 Z-0.150 F150.000
G1 X15.031 Y-5.771 Z-0.150 F150.000
G1 X15.031 Y-7.829 Z-0.150 F150.000
G0 Z2.000
G0 X15.106 Y-7.823 Z2.000
G0 X15.106 Y-7.823 Z1.000
G1 X15.106 Y-7.823 Z-0.150 F50.000
G1 X15.182 Y-7.823 Z-0.150 F150.000
G2 X15.195 Y-6.503 Z-0.150 I8.899 J0.571 K0.000 F150.000
G2 X15.313 Y-6.190 Z-0.150 I0.662 J-0.071 K0.000 F150.000
G2 X15.182 Y-6.050 Z-0.150 I0.006 J0.137 K0.000 F150.000
G1 X15.182 Y-5.846 Z-0.150 F150.000
G1 X15.106 Y-5.846 Z-0.150 F150.000
G1 X15.106 Y-7.823 Z-0.150 F150.000
G0 Z2.000
G0 X16.580 Z2.000
G0 X16.580 Z1.000
G1 X16.580 Y-7.823 Z-0.150 F50.000
G1 X16.656 Y-7.823 Z-0.150 F150.000
G1 X16.657 Y-6.665 Z-0.150 F150.000
G2 X16.739 Y-6.275 Z-0.150 I0.598 J0.078 K0.000 F150.000
G2 X16.529 Y-6.034 Z-0.150 I0.071 J0.274 K0.000 F150.000
G3 X15.799 Y-5.842 Z-0.150 I-0.475 J-0.322 K0.000 F150.000
G2 X16.546 Y-6.293 Z-0.150 I0.180 J-0.546 K0.000 F150.000
G1 X16.580 Y-6.611 Z-0.150 F150.000
G1 X16.580 Y-7.823 Z-0.150 F150.000
G0 Z2.000
G0 X16.627 Y-6.350 Z2.000
G0 X16.627 Y-6.350 Z1.000
G1 X16.627 Y-6.350 Z-0.150 F50.000
G3 X16.623 Y-6.315 Z-0.150 I-0.005 J0.017 K0.000 F150.000
G1 X16.627 Y-6.350 Z-0.150 F150.000
G0 Z2.000
G0 X17.276 Y-5.842 Z2.000
G0 X17.276 Y-5.842 Z1.000
G1 X17.276 Y-5.842 Z-0.150 F50.000
G2 X18.019 Y-6.293 Z-0.150 I0.178 J-0.545 K0.000 F150.000
G1 X18.053 Y-6.611 Z-0.150 F150.000
G1 X18.053 Y-7.823 Z-0.150 F150.000
G1 X18.129 Y-7.823 Z-0.150 F150.000
G1 X18.129 Y-6.607 Z-0.150 F150.000
G3 X17.967 Y-5.985 Z-0.150 I-0.913 J0.094 K0.000 F150.000
G3 X17.276 Y-5.842 Z-0.150 I-0.449 J-0.426 K0.000 F150.000
G0 Z2.000
G0 X15.212 Y-6.237 Z2.000
G0 X15.212 Y-6.237 Z1.000
G1 X15.212 Y-6.237 Z-0.150 F50.000
G3 X15.181 Y-6.211 Z-0.150 I-0.032 J-0.006 K0.000 F150.000
G1 X15.181 Y-6.276 Z-0.150 F150.000
G3 X15.212 Y-6.237 Z-0.150 I-0.001 J0.032 K0.000 F150.000
G1 X15.212 Y-6.237 Z-0.200 F50.000
G3 X15.181 Y-6.211 Z-0.200 I-0.032 J-0.006 K0.000 F150.000
G1 X15.181 Y-6.276 Z-0.200 F150.000
G3 X15.212 Y-6.237 Z-0.200 I-0.001 J0.032 K0.000 F150.000
G0 Z2.000
G0 X15.267 Y-6.266 Z2.000
G0 X15.267 Y-6.266 Z1.000
G1 X15.267 Y-6.266 Z-0.200 F50.000
G2 X15.313 Y-6.190 Z-0.200 I0.590 J-0.308 K0.000 F150.000
G2 X15.182 Y-6.050 Z-0.200 I0.006 J0.137 K0.000 F150.000
G1 X15.182 Y-5.846 Z-0.200 F150.000
G1 X15.106 Y-5.846 Z-0.200 F150.000
G1 X15.106 Y-7.823 Z-0.200 F150.000
G1 X15.182 Y-7.823 Z-0.200 F150.000
G2 X15.195 Y-6.503 Z-0.200 I8.899 J0.571 K0.000 F150.000
G2 X15.267 Y-6.266 Z-0.200 I0.662 J-0.071 K0.000 F150.000
G0 Z2.000
G0 X15.321 Y-6.290 Z2.000
G0 X15.321 Y-6.290 Z1.000
G1 X15.321 Y-6.290 Z-0.200 F50.000
G2 X16.382 Y-6.094 Z-0.200 I0.596 J-0.257 K0.000 F150.000
G2 X16.505 Y-6.611 Z-0.200 I-0.773 J-0.456 K0.000 F150.000
G1 X16.505 Y-7.898 Z-0.200 F150.000
G1 X16.731 Y-7.898 Z-0.200 F150.000
G1 X16.731 Y-6.676 Z-0.200 F150.000
G2 X16.925 Y-6.103 Z-0.200 I0.843 J0.034 K0.000 F150.000
G2 X17.856 Y-6.095 Z-0.200 I0.469 J-0.411 K0.000 F150.000
G2 X17.978 Y-6.611 Z-0.200 I-0.779 J-0.457 K0.000 F150.000
G1 X17.978 Y-7.898 Z-0.200 F150.000
G1 X18.204 Y-7.898 Z-0.200 F150.000
G1 X18.204 Y-6.603 Z-0.200 F150.000
G3 X18.026 Y-5.938 Z-0.200 I-0.989 J0.092 K0.000 F150.000
G3 X16.803 Y-6.177 Z-0.200 I-0.530 J-0.537 K0.000 F150.000
G2 X16.675 Y-6.166 Z-0.200 I-0.061 J0.044 K0.000 F150.000
G3 X15.871 Y-5.736 Z-0.200 I-0.612 J-0.178 K0.000 F150.000
G3 X15.390 Y-6.097 Z-0.200 I0.158 J-0.712 K0.000 F150.000
G2 X15.257 Y-6.050 Z-0.200 I-0.058 J0.047 K0.000 F150.000
G1 X15.257 Y-5.771 Z-0.200 F150.000
G1 X15.031 Y-5.771 Z-0.200 F150.000
G1 X15.031 Y-7.898 Z-0.200 F150.000
G1 X15.257 Y-7.898 Z-0.200 F150.000
G2 X15.269 Y-6.519 Z-0.200 I9.897 J0.607 K0.000 F150.000
G2 X15.321 Y-6.290 Z-0.200 I0.648 J-0.028 K0.000 F150.000
G0 Z2.000
G0 X15.799 Y-5.842 Z2.000
G0 X15.799 Y-5.842 Z1.000
G1 X15.799 Y-5.842 Z-0.200 F50.000
G2 X16.546 Y-6.293 Z-0.200 I0.180 J-0.546 K0.000 F150.000
G1 X16.580 Y-6.611 Z-0.200 F150.000
G1 X16.580 Y-7.823 Z-0.200 F150.000
G1 X16.656 Y-7.823 Z-0.200 F150.000
G1 X16.657 Y-6.665 Z-0.200 F150.000
G2 X16.739 Y-6.275 Z-0.200 I0.598 J0.078 K0.000 F150.000
G2 X16.529 Y-6.034 Z-0.200 I0.071 J0.274 K0.000 F150.000
G3 X15.799 Y-5.842 Z-0.200 I-0.475 J-0.322 K0.000 F150.000
G0 Z2.000
G0 X16.623 Y-6.315 Z2.000
G0 X16.623 Y-6.315 Z1.000
G1 X16.623 Y-6.315 Z-0.200 F50.000
G1 X16.627 Y-6.350 Z-0.200 F150.000
G3 X16.623 Y-6.315 Z-0.200 I-0.005 J0.017 K0.000 F150.000
G0 Z2.000
G0 X17.276 Y-5.842 Z2.000
G0 X17.276 Y-5.842 Z1.000
G1 X17.276 Y-5.842 Z-0.200 F50.000
G2 X18.019 Y-6.293 Z-0.200 I0.178 J-0.545 K0.000 F150.000
G1 X18.053 Y-6.611 Z-0.200 F150.000
G1 X18.053 Y-7.823 Z-0.200 F150.000
G1 X18.129 Y-7.823 Z-0.200 F150.000
G1 X18.129 Y-6.607 Z-0.200 F150.000
G3 X17.967 Y-5.985 Z-0.200 I-0.913 J0.094 K0.000 F150.000
G3 X17.276 Y-5.842 Z-0.200 I-0.449 J-0.426 K0.000 F150.000
G0 Z2.000
G0 Z2.000
G0 X17.276 Y-5.842
G0 X19.003 Y-6.391
G0 X19.003 Y-6.391 Z1.000
G1 X19.003 Y-6.391 Z-0.150 F50.000
G3 X18.973 Y-6.508 Z-0.150 I0.924 J-0.294 K0.000 F150.000
G3 X19.233 Y-7.662 Z-0.150 I1.240 J-0.327 K0.000 F150.000
G3 X20.045 Y-7.957 Z-0.150 I0.738 J0.767 K0.000 F150.000
G3 X20.810 Y-7.805 Z-0.150 I-0.001 J2.009 K0.000 F150.000
G1 X20.810 Y-7.613 Z-0.150 F150.000
G2 X19.734 Y-7.742 Z-0.150 I-0.702 J1.303 K0.000 F150.000
G2 X19.190 Y-6.882 Z-0.150 I0.254 J0.763 K0.000 F150.000
G1 X19.253 Y-6.849 Z-0.150 F150.000
G1 X20.897 Y-6.849 Z-0.150 F150.000
G3 X20.846 Y-6.349 Z-0.150 I-1.558 J0.093 K0.000 F150.000
G3 X19.979 Y-5.717 Z-0.150 I-0.822 J-0.216 K0.000 F150.000
G3 X19.003 Y-6.391 Z-0.150 I-0.052 J-0.968 K0.000 F150.000
G0 Z2.000
G0 X19.074 Y-6.414 Z2.000
G0 X19.074 Y-6.414 Z1.000
G1 X19.074 Y-6.414 Z-0.150 F50.000
G3 X19.047 Y-6.521 Z-0.150 I0.852 J-0.271 K0.000 F150.000
G3 X19.286 Y-7.608 Z-0.150 I1.168 J-0.313 K0.000 F150.000
G3 X20.636 Y-7.789 Z-0.150 I0.840 J1.145 K0.000 F150.000
G1 X20.735 Y-7.753 Z-0.150 F150.000
G1 X20.735 Y-7.721 Z-0.150 F150.000
G2 X19.427 Y-7.663 Z-0.150 I-0.603 J1.180 K0.000 F150.000
G2 X19.121 Y-6.852 Z-0.150 I0.634 J0.702 K0.000 F150.000
G2 X19.244 Y-6.776 Z-0.150 I0.126 J-0.065 K0.000 F150.000
G2 X19.119 Y-6.598 Z-0.150 I0.014 J0.143 K0.000 F150.000
G2 X20.707 Y-6.349 Z-0.150 I0.818 J-0.027 K0.000 F150.000
G2 X20.727 Y-6.709 Z-0.150 I-0.485 J-0.207 K0.000 F150.000
G1 X20.612 Y-6.774 Z-0.150 F150.000
G1 X20.822 Y-6.774 Z-0.150 F150.000
G3 X20.774 Y-6.369 Z-0.150 I-1.374 J0.040 K0.000 F150.000
G3 X19.980 Y-5.793 Z-0.150 I-0.749 J-0.196 K0.000 F150.000
G3 X19.074 Y-6.414 Z-0.150 I-0.054 J-0.892 K0.000 F150.000
G0 Z2.000
G0 X19.214 Y-6.449 Z2.000
G0 X19.214 Y-6.449 Z1.000
G1 X19.214 Y-6.449 Z-0.150 F50.000
G3 X19.192 Y-6.616 Z-0.150 I0.723 J-0.179 K0.000 F150.000
G3 X19.265 Y-6.708 Z-0.150 I0.073 J-0.017 K0.000 F150.000
G1 X20.599 Y-6.706 Z-0.150 F150.000
G1 X20.659 Y-6.676 Z-0.150 F150.000
G3 X20.633 Y-6.361 Z-0.150 I-0.393 J0.126 K0.000 F150.000
G3 X19.214 Y-6.449 Z-0.150 I-0.696 J-0.267 K0.000 F150.000
G0 Z2.000
G0 X19.098 Y-6.770 Z2.000
G0 X19.098 Y-6.770 Z1.000
G1 X19.098 Y-6.770 Z-0.150 F50.000
G1 X19.097 Y-6.772 Z-0.150 F150.000
G3 X19.098 Y-6.770 Z-0.150 I-0.000 J0.001 K0.000 F150.000
G1 X19.098 Y-6.770 Z-0.200 F50.000
G1 X19.097 Y-6.772 Z-0.200 F150.000
G3 X19.098 Y-6.770 Z-0.200 I-0.000 J0.001 K0.000 F150.000
G0 Z2.000
G0 X19.149 Y-6.726 Z2.000
G0 X19.149 Y-6.726 Z1.000
G1 X19.149 Y-6.726 Z-0.200 F50.000
G2 X19.119 Y-6.598 Z-0.200 I0.109 J0.093 K0.000 F150.000
G2 X20.707 Y-6.349 Z-0.200 I0.818 J-0.027 K0.000 F150.000
G2 X20.727 Y-6.709 Z-0.200 I-0.485 J-0.207 K0.000 F150.000
G1 X20.612 Y-6.774 Z-0.200 F150.000
G1 X20.822 Y-6.774 Z-0.200 F150.000
G3 X20.774 Y-6.369 Z-0.200 I-1.374 J0.040 K0.000 F150.000
G3 X19.980 Y-5.793 Z-0.200 I-0.749 J-0.196 K0.000 F150.000
G3 X19.047 Y-6.521 Z-0.200 I-0.054 J-0.892 K0.000 F150.000
G3 X19.286 Y-7.608 Z-0.200 I1.168 J-0.313 K0.000 F150.000
G3 X20.636 Y-7.789 Z-0.200 I0.840 J1.145 K0.000 F150.000
G1 X20.735 Y-7.753 Z-0.200 F150.000
G1 X20.735 Y-7.721 Z-0.200 F150.000
G2 X19.427 Y-7.663 Z-0.200 I-0.603 J1.180 K0.000 F150.000
G2 X19.121 Y-6.852 Z-0.200 I0.634 J0.702 K0.000 F150.000
G2 X19.244 Y-6.776 Z-0.200 I0.126 J-0.065 K0.000 F150.000
G2 X19.149 Y-6.726 Z-0.200 I0.014 J0.143 K0.000 F150.000
G0 Z2.000
G0 X19.206 Y-6.680 Z2.000
G0 X19.206 Y-6.680 Z1.000
G1 X19.206 Y-6.680 Z-0.200 F50.000
G3 X19.265 Y-6.708 Z-0.200 I0.059 J0.047 K0.000 F150.000
G1 X20.599 Y-6.706 Z-0.200 F150.000
G1 X20.659 Y-6.676 Z-0.200 F150.000
G3 X20.633 Y-6.361 Z-0.200 I-0.393 J0.126 K0.000 F150.000
G3 X19.192 Y-6.616 Z-0.200 I-0.696 J-0.267 K0.000 F150.000
G3 X19.206 Y-6.680 Z-0.200 I0.073 J-0.017 K0.000 F150.000
G0 Z2.000
G0 X19.253 Y-6.849 Z2.000
G0 X19.253 Y-6.849 Z1.000
G1 X19.253 Y-6.849 Z-0.200 F50.000
G1 X20.897 Y-6.849 Z-0.200 F150.000
G3 X20.846 Y-6.349 Z-0.200 I-1.558 J0.093 K0.000 F150.000
G3 X19.979 Y-5.717 Z-0.200 I-0.822 J-0.216 K0.000 F150.000
G3 X18.973 Y-6.508 Z-0.200 I-0.052 J-0.968 K0.000 F150.000
G3 X19.233 Y-7.662 Z-0.200 I1.240 J-0.327 K0.000 F150.000
G3 X20.045 Y-7.957 Z-0.200 I0.738 J0.767 K0.000 F150.000
G3 X20.810 Y-7.805 Z-0.200 I-0.001 J2.009 K0.000 F150.000
G1 X20.810 Y-7.613 Z-0.200 F150.000
G2 X19.734 Y-7.742 Z-0.200 I-0.702 J1.303 K0.000 F150.000
G2 X19.190 Y-6.882 Z-0.200 I0.254 J0.763 K0.000 F150.000
G1 X19.253 Y-6.849 Z-0.200 F150.000
G0 Z2.000
G0 Z2.000
G0 X19.253 Y-6.849
G0 X16.827 Y-12.804
G0 X16.827 Y-12.804 Z1.000
G1 X16.827 Y-12.804 Z-0.150 F50.000
G3 X16.789 Y-12.790 Z-0.150 I-0.373 J-0.916 K0.000 F150.000
G3 X15.747 Y-13.063 Z-0.150 I-0.293 J-1.006 K0.000 F150.000
G3 X15.884 Y-14.802 Z-0.150 I0.982 J-0.798 K0.000 F150.000
G3 X16.987 Y-14.952 Z-0.150 I0.742 J1.321 K0.000 F150.000
G3 X17.341 Y-14.843 Z-0.150 I-0.386 J1.879 K0.000 F150.000
G1 X17.341 Y-14.651 Z-0.150 F150.000
G2 X16.210 Y-14.762 Z-0.150 I-0.695 J1.271 K0.000 F150.000
G2 X15.721 Y-13.921 Z-0.150 I0.314 J0.745 K0.000 F150.000
G1 X15.784 Y-13.888 Z-0.150 F150.000
G1 X17.428 Y-13.888 Z-0.150 F150.000
G3 X16.827 Y-12.804 Z-0.150 I-0.975 J0.167 K0.000 F150.000
G0 Z2.000
G0 X16.799 Y-12.874 Z2.000
G0 X16.799 Y-12.874 Z1.000
G1 X16.799 Y-12.874 Z-0.150 F50.000
G3 X16.769 Y-12.863 Z-0.150 I-0.327 J-0.826 K0.000 F150.000
G3 X15.800 Y-13.116 Z-0.150 I-0.273 J-0.935 K0.000 F150.000
G3 X15.928 Y-14.741 Z-0.150 I0.929 J-0.745 K0.000 F150.000
G3 X16.971 Y-14.879 Z-0.150 I0.699 J1.265 K0.000 F150.000
G3 X17.266 Y-14.791 Z-0.150 I-0.306 J1.564 K0.000 F150.000
G1 X17.266 Y-14.760 Z-0.150 F150.000
G2 X16.173 Y-14.827 Z-0.150 I-0.629 J1.306 K0.000 F150.000
G2 X15.652 Y-13.891 Z-0.150 I0.348 J0.807 K0.000 F150.000
G2 X15.775 Y-13.814 Z-0.150 I0.126 J-0.065 K0.000 F150.000
G2 X15.650 Y-13.637 Z-0.150 I0.014 J0.143 K0.000 F150.000
G2 X17.238 Y-13.388 Z-0.150 I0.818 J-0.027 K0.000 F150.000
G2 X17.257 Y-13.748 Z-0.150 I-0.485 J-0.207 K0.000 F150.000
G1 X17.142 Y-13.813 Z-0.150 F150.000
G1 X17.353 Y-13.813 Z-0.150 F150.000
G3 X16.799 Y-12.874 Z-0.150 I-0.882 J0.112 K0.000 F150.000
G0 Z2.000
G0 X16.755 Y-12.978 Z2.000
G0 X16.755 Y-12.978 Z1.000
G1 X16.755 Y-12.978 Z-0.150 F50.000
G3 X15.723 Y-13.654 Z-0.150 I-0.288 J-0.687 K0.000 F150.000
G3 X15.796 Y-13.747 Z-0.150 I0.073 J-0.017 K0.000 F150.000
G1 X17.129 Y-13.745 Z-0.150 F150.000
G1 X17.190 Y-13.714 Z-0.150 F150.000
G3 X17.164 Y-13.399 Z-0.150 I-0.393 J0.126 K0.000 F150.000
G3 X16.755 Y-12.978 Z-0.150 I-0.696 J-0.267 K0.000 F150.000
G0 Z2.000
G0 X15.628 Y-13.808 Z2.000
G0 X15.628 Y-13.808 Z1.000
G1 X15.628 Y-13.808 Z-0.150 F50.000
G1 X15.628 Y-13.811 Z-0.150 F150.000
G3 X15.628 Y-13.808 Z-0.150 I-0.000 J0.001 K0.000 F150.000
G1 X15.628 Y-13.808 Z-0.200 F50.000
G1 X15.628 Y-13.811 Z-0.200 F150.000
G3 X15.628 Y-13.808 Z-0.200 I-0.000 J0.001 K0.000 F150.000
G0 Z2.000
G0 X15.680 Y-13.764 Z2.000
G0 X15.680 Y-13.764 Z1.000
G1 X15.680 Y-13.764 Z-0.200 F50.000
G2 X15.650 Y-13.637 Z-0.200 I0.109 J0.093 K0.000 F150.000
G2 X17.238 Y-13.388 Z-0.200 I0.818 J-0.027 K0.000 F150.000
G2 X17.257 Y-13.748 Z-0.200 I-0.485 J-0.207 K0.000 F150.000
G1 X17.142 Y-13.813 Z-0.200 F150.000
G1 X17.353 Y-13.813 Z-0.200 F150.000
G3 X16.769 Y-12.863 Z-0.200 I-0.882 J0.112 K0.000 F150.000
G3 X15.800 Y-13.116 Z-0.200 I-0.273 J-0.935 K0.000 F150.000
G3 X15.928 Y-14.741 Z-0.200 I0.929 J-0.745 K0.000 F150.000
G3 X16.971 Y-14.879 Z-0.200 I0.699 J1.265 K0.000 F150.000
G3 X17.266 Y-14.791 Z-0.200 I-0.306 J1.564 K0.000 F150.000
G1 X17.266 Y-14.760 Z-0.200 F150.000
G2 X16.173 Y-14.827 Z-0.200 I-0.629 J1.306 K0.000 F150.000
G2 X15.652 Y-13.891 Z-0.200 I0.348 J0.807 K0.000 F150.000
G2 X15.775 Y-13.814 Z-0.200 I0.126 J-0.065 K0.000 F150.000
G2 X15.680 Y-13.764 Z-0.200 I0.014 J0.143 K0.000 F150.000
G0 Z2.000
G0 X15.737 Y-13.719 Z2.000
G0 X15.737 Y-13.719 Z1.000
G1 X15.737 Y-13.719 Z-0.200 F50.000
G3 X15.796 Y-13.747 Z-0.200 I0.059 J0.047 K0.000 F150.000
G1 X17.129 Y-13.745 Z-0.200 F150.000
G1 X17.190 Y-13.714 Z-0.200 F150.000
G3 X17.164 Y-13.399 Z-0.200 I-0.393 J0.126 K0.000 F150.000
G3 X15.723 Y-13.654 Z-0.200 I-0.696 J-0.267 K0.000 F150.000
G3 X15.737 Y-13.719 Z-0.200 I0.073 J-0.017 K0.000 F150.000
G0 Z2.000
G0 X15.784 Y-13.888 Z2.000
G0 X15.784 Y-13.888 Z1.000
G1 X15.784 Y-13.888 Z-0.200 F50.000
G1 X17.428 Y-13.888 Z-0.200 F150.000
G3 X16.789 Y-12.790 Z-0.200 I-0.975 J0.167 K0.000 F150.000
G3 X15.747 Y-13.063 Z-0.200 I-0.293 J-1.006 K0.000 F150.000
G3 X15.884 Y-14.802 Z-0.200 I0.982 J-0.798 K0.000 F150.000
G3 X16.987 Y-14.952 Z-0.200 I0.742 J1.321 K0.000 F150.000
G3 X17.341 Y-14.843 Z-0.200 I-0.386 J1.879 K0.000 F150.000
G1 X17.341 Y-14.651 Z-0.200 F150.000
G2 X16.210 Y-14.762 Z-0.200 I-0.695 J1.271 K0.000 F150.000
G2 X15.721 Y-13.921 Z-0.200 I0.314 J0.745 K0.000 F150.000
G1 X15.784 Y-13.888 Z-0.200 F150.000
G0 Z2.000
G0 Z2.000
G0 X15.784 Y-13.888
G0 X14.735
G0 X14.735 Z1.000
G1 X14.735 Y-13.888 Z-0.150 F50.000
G1 X14.735 Y-13.642 Z-0.150 F150.000
G3 X14.549 Y-12.971 Z-0.150 I-0.948 J0.099 K0.000 F150.000
G3 X13.336 Y-13.137 Z-0.150 I-0.540 J-0.564 K0.000 F150.000
G2 X13.204 Y-13.089 Z-0.150 I-0.057 J0.049 K0.000 F150.000
G1 X13.204 Y-12.810 Z-0.150 F150.000
G1 X12.978 Y-12.810 Z-0.150 F150.000
G1 X12.978 Y-14.936 Z-0.150 F150.000
G1 X13.204 Y-14.936 Z-0.150 F150.000
G1 X13.205 Y-13.715 Z-0.150 F150.000
G2 X14.124 Y-12.957 Z-0.150 I0.709 J0.077 K0.000 F150.000
G2 X14.477 Y-13.350 Z-0.150 I-0.156 J-0.495 K0.000 F150.000
G1 X14.511 Y-13.650 Z-0.150 F150.000
G1 X14.511 Y-14.936 Z-0.150 F150.000
G1 X14.735 Y-14.936 Z-0.150 F150.000
G1 X14.735 Y-13.888 Z-0.150 F150.000
G0 Z2.000
G0 X14.660 Z2.000
G0 X14.660 Z1.000
G1 X14.660 Y-13.888 Z-0.150 F50.000
G1 X14.660 Y-13.646 Z-0.150 F150.000
G3 X14.490 Y-13.017 Z-0.150 I-0.876 J0.100 K0.000 F150.000
G3 X13.756 Y-12.882 Z-0.150 I-0.473 J-0.507 K0.000 F150.000
G2 X14.551 Y-13.341 Z-0.150 I0.201 J-0.571 K0.000 F150.000
G1 X14.586 Y-13.650 Z-0.150 F150.000
G1 X14.586 Y-14.861 Z-0.150 F150.000
G1 X14.660 Y-14.861 Z-0.150 F150.000
G1 X14.660 Y-13.888 Z-0.150 F150.000
G0 Z2.000
G0 X13.131 Y-13.886 Z2.000
G0 X13.131 Y-13.886 Z1.000
G1 X13.131 Y-13.886 Z-0.150 F50.000
G1 X13.131 Y-13.705 Z-0.150 F150.000
G2 X13.263 Y-13.229 Z-0.150 I0.757 J0.046 K0.000 F150.000
G1 X13.203 Y-13.218 Z-0.150 F150.000
G2 X13.129 Y-12.885 Z-0.150 I0.255 J0.231 K0.000 F150.000
G1 X13.053 Y-12.885 Z-0.150 F150.000
G1 X13.053 Y-14.861 Z-0.150 F150.000
G1 X13.129 Y-14.861 Z-0.150 F150.000
G1 X13.131 Y-13.886 Z-0.150 F150.000
G0 Z2.000
G0 X13.128 Y-13.321 Z2.000
G0 X13.128 Y-13.321 Z1.000
G1 X13.128 Y-13.321 Z-0.150 F50.000
G3 X13.128 Y-13.248 Z-0.150 I-0.002 J0.036 K0.000 F150.000
G1 X13.128 Y-13.321 Z-0.150 F150.000
G1 X13.128 Y-13.321 Z-0.200 F50.000
G3 X13.128 Y-13.248 Z-0.200 I-0.002 J0.036 K0.000 F150.000
G1 X13.128 Y-13.321 Z-0.200 F150.000
G0 Z2.000
G0 X13.195 Y-13.350 Z2.000
G0 X13.195 Y-13.350 Z1.000
G1 X13.195 Y-13.350 Z-0.200 F50.000
G2 X13.263 Y-13.229 Z-0.200 I0.693 J-0.308 K0.000 F150.000
G1 X13.203 Y-13.218 Z-0.200 F150.000
G2 X13.129 Y-12.885 Z-0.200 I0.255 J0.231 K0.000 F150.000
G1 X13.053 Y-12.885 Z-0.200 F150.000
G1 X13.053 Y-14.861 Z-0.200 F150.000
G1 X13.129 Y-14.861 Z-0.200 F150.000
G1 X13.131 Y-13.705 Z-0.200 F150.000
G2 X13.195 Y-13.350 Z-0.200 I0.757 J0.046 K0.000 F150.000
G0 Z2.000
G0 X13.252 Y-13.373 Z2.000
G0 X13.252 Y-13.373 Z1.000
G1 X13.252 Y-13.373 Z-0.200 F50.000
G2 X14.124 Y-12.957 Z-0.200 I0.662 J-0.265 K0.000 F150.000
G2 X14.477 Y-13.350 Z-0.200 I-0.156 J-0.495 K0.000 F150.000
G1 X14.511 Y-13.650 Z-0.200 F150.000
G1 X14.511 Y-14.936 Z-0.200 F150.000
G1 X14.735 Y-14.936 Z-0.200 F150.000
G1 X14.735 Y-13.642 Z-0.200 F150.000
G3 X14.549 Y-12.971 Z-0.200 I-0.948 J0.099 K0.000 F150.000
G3 X13.336 Y-13.137 Z-0.200 I-0.540 J-0.564 K0.000 F150.000
G2 X13.204 Y-13.089 Z-0.200 I-0.057 J0.049 K0.000 F150.000
G1 X13.204 Y-12.810 Z-0.200 F150.000
G1 X12.978 Y-12.810 Z-0.200 F150.000
G1 X12.978 Y-14.936 Z-0.200 F150.000
G1 X13.204 Y-14.936 Z-0.200 F150.000
G1 X13.205 Y-13.715 Z-0.200 F150.000
G2 X13.252 Y-13.373 Z-0.200 I0.709 J0.077 K0.000 F150.000
G0 Z2.000
G0 X13.756 Y-12.882 Z2.000
G0 X13.756 Y-12.882 Z1.000
G1 X13.756 Y-12.882 Z-0.200 F50.000
G2 X14.551 Y-13.341 Z-0.200 I0.201 J-0.571 K0.000 F150.000
G1 X14.586 Y-13.650 Z-0.200 F150.000
G1 X14.586 Y-14.861 Z-0.200 F150.000
G1 X14.660 Y-14.861 Z-0.200 F150.000
G1 X14.660 Y-13.646 Z-0.200 F150.000
G3 X14.490 Y-13.017 Z-0.200 I-0.876 J0.100 K0.000 F150.000
G3 X13.756 Y-12.882 Z-0.200 I-0.473 J-0.507 K0.000 F150.000
G0 Z2.000
G0 Z2.000
G0 X13.756 Y-12.882
G0 X12.150 Y-13.376
G0 X12.150 Y-13.376 Z1.000
G1 X12.150 Y-13.376 Z-0.150 F50.000
G3 X11.254 Y-12.756 Z-0.150 I-0.843 J-0.260 K0.000 F150.000
G3 X10.318 Y-13.514 Z-0.150 I-0.051 J-0.894 K0.000 F150.000
G3 X10.542 Y-14.704 Z-0.150 I1.308 J-0.371 K0.000 F150.000
G3 X12.048 Y-14.589 Z-0.150 I0.706 J0.667 K0.000 F150.000
G3 X12.161 Y-13.414 Z-0.150 I-1.447 J0.733 K0.000 F150.000
G3 X12.150 Y-13.376 Z-0.150 I-0.854 J-0.223 K0.000 F150.000
G0 Z2.000
G0 X12.078 Y-13.399 Z2.000
G0 X12.078 Y-13.399 Z1.000
G1 X12.078 Y-13.399 Z-0.150 F50.000
G3 X11.255 Y-12.831 Z-0.150 I-0.772 J-0.239 K0.000 F150.000
G3 X10.393 Y-13.527 Z-0.150 I-0.051 J-0.819 K0.000 F150.000
G3 X10.599 Y-14.654 Z-0.150 I1.232 J-0.357 K0.000 F150.000
G3 X12.092 Y-14.306 Z-0.150 I0.646 J0.604 K0.000 F150.000
G3 X12.089 Y-13.434 Z-0.150 I-1.634 J0.430 K0.000 F150.000
G3 X12.078 Y-13.399 Z-0.150 I-0.782 J-0.204 K0.000 F150.000
G0 Z2.000
G0 X12.045 Y-13.407 Z2.000
G0 X12.045 Y-13.407 Z1.000
G1 X12.045 Y-13.407 Z-0.150 F50.000
G3 X11.860 Y-13.107 Z-0.150 I-0.545 J-0.129 K0.000 F150.000
G2 X11.870 Y-14.635 Z-0.150 I-1.189 J-0.772 K0.000 F150.000
G3 X12.052 Y-13.445 Z-0.150 I-1.032 J0.767 K0.000 F150.000
G3 X12.045 Y-13.407 Z-0.150 I-0.552 J-0.091 K0.000 F150.000
G0 Z2.000
G0 X11.976 Y-13.430 Z2.000
G0 X11.976 Y-13.430 Z1.000
G1 X11.976 Y-13.430 Z-0.150 F50.000
G3 X11.862 Y-13.171 Z-0.150 I-1.420 J-0.469 K0.000 F150.000
G3 X10.537 Y-13.365 Z-0.150 I-0.615 J-0.423 K0.000 F150.000
G3 X10.639 Y-14.583 Z-0.150 I1.418 J-0.495 K0.000 F150.000
G3 X12.000 Y-14.287 Z-0.150 I0.618 J0.436 K0.000 F150.000
G3 X11.976 Y-13.430 Z-0.150 I-1.445 J0.388 K0.000 F150.000
G0 Z2.000
G0 X11.905 Y-13.453 Z2.000
G0 X11.905 Y-13.453 Z1.000
G1 X11.905 Y-13.453 Z-0.150 F50.000
G3 X11.794 Y-13.203 Z-0.150 I-1.349 J-0.445 K0.000 F150.000
G3 X10.604 Y-13.400 Z-0.150 I-0.547 J-0.393 K0.000 F150.000
G3 X10.573 Y-14.255 Z-0.150 I1.287 J-0.475 K0.000 F150.000
G3 X11.928 Y-14.265 Z-0.150 I0.679 J0.116 K0.000 F150.000
G3 X11.905 Y-13.453 Z-0.150 I-1.372 J0.366 K0.000 F150.000
G0 Z2.000
G0 X10.637 Y-13.113 Z2.000
G0 X10.637 Y-13.113 Z1.000
G1 X10.637 Y-13.113 Z-0.150 F50.000
G3 X10.600 Y-14.587 Z-0.150 I1.094 J-0.765 K0.000 F150.000
G2 X10.612 Y-13.145 Z-0.150 I1.283 J0.710 K0.000 F150.000
G1 X10.637 Y-13.113 Z-0.150 F150.000
G0 Z2.000
G0 X10.624 Y-14.624 Z2.000
G0 X10.624 Y-14.624 Z1.000
G1 X10.624 Y-14.624 Z-0.150 F50.000
G3 X10.629 Y-14.631 Z-0.150 I0.015 J0.006 K0.000 F150.000
G1 X10.624 Y-14.624 Z-0.150 F150.000
G1 X10.624 Y-14.624 Z-0.200 F50.000
G3 X10.629 Y-14.631 Z-0.200 I0.015 J0.006 K0.000 F150.000
G1 X10.624 Y-14.624 Z-0.200 F150.000
G0 Z2.000
G0 X10.653 Y-14.602 Z2.000
G0 X10.653 Y-14.602 Z1.000
G1 X10.653 Y-14.602 Z-0.200 F50.000
G3 X12.000 Y-14.287 Z-0.200 I0.604 J0.455 K0.000 F150.000
G3 X11.862 Y-13.171 Z-0.200 I-1.445 J0.388 K0.000 F150.000
G3 X10.537 Y-13.365 Z-0.200 I-0.615 J-0.423 K0.000 F150.000
G3 X10.639 Y-14.583 Z-0.200 I1.418 J-0.495 K0.000 F150.000
G3 X10.653 Y-14.602 Z-0.200 I0.618 J0.436 K0.000 F150.000
G0 Z2.000
G0 X10.600 Y-14.587 Z2.000
G0 X10.600 Y-14.587 Z1.000
G1 X10.600 Y-14.587 Z-0.200 F50.000
G2 X10.612 Y-13.145 Z-0.200 I1.283 J0.710 K0.000 F150.000
G1 X10.637 Y-13.113 Z-0.200 F150.000
G3 X10.600 Y-14.587 Z-0.200 I1.094 J-0.765 K0.000 F150.000
G0 Z2.000
G0 X10.567 Y-14.609 Z2.000
G0 X10.567 Y-14.609 Z1.000
G1 X10.567 Y-14.609 Z-0.200 F50.000
G3 X10.599 Y-14.654 Z-0.200 I1.058 J0.725 K0.000 F150.000
G3 X12.092 Y-14.306 Z-0.200 I0.646 J0.604 K0.000 F150.000
G3 X12.089 Y-13.434 Z-0.200 I-1.634 J0.430 K0.000 F150.000
G3 X11.255 Y-12.831 Z-0.200 I-0.782 J-0.204 K0.000 F150.000
G3 X10.393 Y-13.527 Z-0.200 I-0.051 J-0.819 K0.000 F150.000
G3 X10.567 Y-14.609 Z-0.200 I1.232 J-0.357 K0.000 F150.000
G0 Z2.000
G0 X10.504 Y-14.652 Z2.000
G0 X10.504 Y-14.652 Z1.000
G1 X10.504 Y-14.652 Z-0.200 F50.000
G3 X10.542 Y-14.704 Z-0.200 I1.122 J0.767 K0.000 F150.000
G3 X12.048 Y-14.589 Z-0.200 I0.706 J0.667 K0.000 F150.000
G3 X12.161 Y-13.414 Z-0.200 I-1.447 J0.733 K0.000 F150.000
G3 X11.254 Y-12.756 Z-0.200 I-0.854 J-0.223 K0.000 F150.000
G3 X10.318 Y-13.514 Z-0.200 I-0.051 J-0.894 K0.000 F150.000
G3 X10.504 Y-14.652 Z-0.200 I1.308 J-0.371 K0.000 F150.000
G0 Z2.000
G0 X10.684 Y-14.529 Z2.000
G0 X10.684 Y-14.529 Z1.000
G1 X10.684 Y-14.529 Z-0.200 F50.000
G3 X11.928 Y-14.265 Z-0.200 I0.568 J0.389 K0.000 F150.000
G3 X11.794 Y-13.203 Z-0.200 I-1.372 J0.366 K0.000 F150.000
G3 X10.604 Y-13.400 Z-0.200 I-0.547 J-0.393 K0.000 F150.000
G3 X10.573 Y-14.255 Z-0.200 I1.287 J-0.475 K0.000 F150.000
G3 X10.684 Y-14.529 Z-0.200 I0.679 J0.116 K0.000 F150.000
G0 Z2.000
G0 X11.870 Y-14.635 Z2.000
G0 X11.870 Y-14.635 Z1.000
G1 X11.870 Y-14.635 Z-0.200 F50.000
G3 X12.052 Y-13.445 Z-0.200 I-1.032 J0.767 K0.000 F150.000
G3 X11.860 Y-13.107 Z-0.200 I-0.552 J-0.091 K0.000 F150.000
G2 X11.870 Y-14.635 Z-0.200 I-1.189 J-0.772 K0.000 F150.000
G0 Z2.000
G0 Z2.000
G0 X11.870 Y-14.635
G0 X9.804 Y-14.773
G0 X9.804 Y-14.773 Z1.000
G1 X9.804 Y-14.773 Z-0.150 F50.000
G2 X9.251 Y-14.741 Z-0.150 I-0.156 J2.069 K0.000 F150.000
G2 X9.061 Y-14.534 Z-0.150 I0.071 J0.256 K0.000 F150.000
G1 X9.033 Y-14.261 Z-0.150 F150.000
G1 X9.033 Y-13.026 Z-0.150 F150.000
G2 X9.108 Y-12.951 Z-0.150 I0.075 J-0.000 K0.000 F150.000
G1 X9.804 Y-12.951 Z-0.150 F150.000
G1 X9.804 Y-12.810 Z-0.150 F150.000
G1 X9.108 Y-12.810 Z-0.150 F150.000
G2 X9.033 Y-12.735 Z-0.150 I0.000 J0.075 K0.000 F150.000
G1 X9.033 Y-12.163 Z-0.150 F150.000
G1 X8.807 Y-12.163 Z-0.150 F150.000
G1 X8.807 Y-12.735 Z-0.150 F150.000
G2 X8.732 Y-12.810 Z-0.150 I-0.075 J0.000 K0.000 F150.000
G1 X8.533 Y-12.810 Z-0.150 F150.000
G1 X8.533 Y-12.951 Z-0.150 F150.000
G2 X8.785 Y-12.972 Z-0.150 I0.100 J-0.316 K0.000 F150.000
G1 X8.807 Y-13.026 Z-0.150 F150.000
G3 X8.817 Y-14.445 Z-0.150 I13.976 J-0.617 K0.000 F150.000
G3 X9.138 Y-14.895 Z-0.150 I0.416 J-0.043 K0.000 F150.000
G3 X9.804 Y-14.936 Z-0.150 I0.514 J2.907 K0.000 F150.000
G1 X9.804 Y-14.773 Z-0.150 F150.000
G0 Z2.000
G0 X9.729 Y-14.848 Z2.000
G0 X9.729 Y-14.848 Z1.000
G1 X9.729 Y-14.848 Z-0.150 F50.000
G2 X9.112 Y-14.751 Z-0.150 I-0.187 J0.818 K0.000 F150.000
G2 X8.958 Y-14.261 Z-0.150 I0.395 J0.393 K0.000 F150.000
G1 X8.958 Y-13.026 Z-0.150 F150.000
G2 X9.097 Y-12.881 Z-0.150 I0.142 J0.003 K0.000 F150.000
G2 X8.958 Y-12.735 Z-0.150 I0.004 J0.142 K0.000 F150.000
G1 X8.958 Y-12.238 Z-0.150 F150.000
G1 X8.882 Y-12.238 Z-0.150 F150.000
G1 X8.882 Y-12.735 Z-0.150 F150.000
G2 X8.744 Y-12.880 Z-0.150 I-0.142 J-0.003 K0.000 F150.000
G2 X8.882 Y-13.026 Z-0.150 I-0.004 J-0.142 K0.000 F150.000
G3 X8.891 Y-14.436 Z-0.150 I13.888 J-0.616 K0.000 F150.000
G3 X9.156 Y-14.822 Z-0.150 I0.345 J-0.047 K0.000 F150.000
G3 X9.729 Y-14.861 Z-0.150 I0.460 J2.499 K0.000 F150.000
G1 X9.729 Y-14.848 Z-0.150 F150.000
G0 Z2.000
G0 X8.929 Y-12.907 Z2.000
G0 X8.929 Y-12.907 Z1.000
G1 X8.929 Y-12.907 Z-0.150 F50.000
G3 X8.923 Y-12.851 Z-0.150 I-0.011 J0.027 K0.000 F150.000
G3 X8.917 Y-12.909 Z-0.150 I-0.001 J-0.030 K0.000 F150.000
G3 X8.929 Y-12.907 Z-0.150 I0.001 J0.030 K0.000 F150.000
G1 X8.929 Y-12.907 Z-0.200 F50.000
G3 X8.923 Y-12.851 Z-0.200 I-0.011 J0.027 K0.000 F150.000
G3 X8.917 Y-12.909 Z-0.200 I-0.001 J-0.030 K0.000 F150.000
G3 X8.929 Y-12.907 Z-0.200 I0.001 J0.030 K0.000 F150.000
G0 Z2.000
G0 X8.983 Y-12.943 Z2.000
G0 X8.983 Y-12.943 Z1.000
G1 X8.983 Y-12.943 Z-0.200 F50.000
G2 X9.097 Y-12.881 Z-0.200 I0.118 J-0.079 K0.000 F150.000
G2 X8.958 Y-12.735 Z-0.200 I0.004 J0.142 K0.000 F150.000
G1 X8.958 Y-12.238 Z-0.200 F150.000
G1 X8.882 Y-12.238 Z-0.200 F150.000
G1 X8.882 Y-12.735 Z-0.200 F150.000
G2 X8.744 Y-12.880 Z-0.200 I-0.142 J-0.003 K0.000 F150.000
G2 X8.882 Y-13.026 Z-0.200 I-0.004 J-0.142 K0.000 F150.000
G3 X8.891 Y-14.436 Z-0.200 I13.888 J-0.616 K0.000 F150.000
G3 X9.156 Y-14.822 Z-0.200 I0.345 J-0.047 K0.000 F150.000
G3 X9.729 Y-14.861 Z-0.200 I0.460 J2.499 K0.000 F150.000
G1 X9.729 Y-14.848 Z-0.200 F150.000
G2 X9.112 Y-14.751 Z-0.200 I-0.187 J0.818 K0.000 F150.000
G2 X8.958 Y-14.261 Z-0.200 I0.395 J0.393 K0.000 F150.000
G1 X8.958 Y-13.026 Z-0.200 F150.000
G2 X8.983 Y-12.943 Z-0.200 I0.142 J0.003 K0.000 F150.000
G0 Z2.000
G0 X9.046 Y-12.984 Z2.000
G0 X9.046 Y-12.984 Z1.000
G1 X9.046 Y-12.984 Z-0.200 F50.000
G2 X9.108 Y-12.951 Z-0.200 I0.063 J-0.041 K0.000 F150.000
G1 X9.804 Y-12.951 Z-0.200 F150.000
G1 X9.804 Y-12.810 Z-0.200 F150.000
G1 X9.108 Y-12.810 Z-0.200 F150.000
G2 X9.033 Y-12.735 Z-0.200 I0.000 J0.075 K0.000 F150.000
G1 X9.033 Y-12.163 Z-0.200 F150.000
G1 X8.807 Y-12.163 Z-0.200 F150.000
G1 X8.807 Y-12.735 Z-0.200 F150.000
G2 X8.732 Y-12.810 Z-0.200 I-0.075 J0.000 K0.000 F150.000
G1 X8.533 Y-12.810 Z-0.200 F150.000
G1 X8.533 Y-12.951 Z-0.200 F150.000
G2 X8.785 Y-12.972 Z-0.200 I0.100 J-0.316 K0.000 F150.000
G1 X8.807 Y-13.026 Z-0.200 F150.000
G3 X8.817 Y-14.445 Z-0.200 I13.976 J-0.617 K0.000 F150.000
G3 X9.138 Y-14.895 Z-0.200 I0.416 J-0.043 K0.000 F150.000
G3 X9.804 Y-14.936 Z-0.200 I0.514 J2.907 K0.000 F150.000
G1 X9.804 Y-14.773 Z-0.200 F150.000
G2 X9.251 Y-14.741 Z-0.200 I-0.156 J2.069 K0.000 F150.000
G2 X9.061 Y-14.534 Z-0.200 I0.071 J0.256 K0.000 F150.000
G1 X9.033 Y-14.261 Z-0.200 F150.000
G1 X9.033 Y-13.026 Z-0.200 F150.000
G2 X9.046 Y-12.984 Z-0.200 I0.075 J-0.000 K0.000 F150.000
G0 Z2.000
G0 Z2.000
G0 X9.046 Y-12.984
G0 X41.817 Y-6.911
G0 X41.817 Y-6.911 Z1.000
G1 X41.817 Y-6.911 Z-0.150 F50.000
G3 X42.715 Y-7.570 Z-0.150 I0.799 J0.148 K0.000 F150.000
G3 X43.476 Y-7.174 Z-0.150 I0.070 J0.794 K0.000 F150.000
G3 X43.469 Y-6.092 Z-0.150 I-1.286 J0.533 K0.000 F150.000
G1 X43.346 Y-6.092 Z-0.150 F150.000
G2 X43.330 Y-7.161 Z-0.150 I-0.918 J-0.521 K0.000 F150.000
G2 X42.729 Y-7.394 Z-0.150 I-0.532 J0.480 K0.000 F150.000
G1 X42.695 Y-7.331 Z-0.150 F150.000
G1 X42.695 Y-6.022 Z-0.150 F150.000
G3 X41.922 Y-6.341 Z-0.150 I-0.114 J-0.820 K0.000 F150.000
G3 X41.817 Y-6.911 Z-0.150 I0.694 J-0.423 K0.000 F150.000
G0 Z2.000
G0 X41.926 Y-6.892 Z2.000
G0 X41.926 Y-6.892 Z1.000
G1 X41.926 Y-6.892 Z-0.150 F50.000
G3 X42.520 Y-7.395 Z-0.150 I0.601 J0.108 K0.000 F150.000
G3 X42.611 Y-7.321 Z-0.150 I0.016 J0.073 K0.000 F150.000
G1 X42.610 Y-6.248 Z-0.150 F150.000
G3 X42.522 Y-6.174 Z-0.150 I-0.075 J-0.000 K0.000 F150.000
G3 X41.926 Y-6.892 Z-0.150 I0.005 J-0.610 K0.000 F150.000
G0 Z2.000
G0 X42.322 Y-7.422 Z2.000
G0 X42.322 Y-7.422 Z1.000
G1 X42.322 Y-7.422 Z-0.150 F50.000
G3 X43.122 Y-7.402 Z-0.150 I0.377 J0.943 K0.000 F150.000
G2 X42.700 Y-7.464 Z-0.150 I-0.290 J0.513 K0.000 F150.000
G1 X42.653 Y-7.412 Z-0.150 F150.000
G2 X42.504 Y-7.468 Z-0.150 I-0.117 J0.086 K0.000 F150.000
G1 X42.322 Y-7.422 Z-0.150 F150.000
G0 Z2.000
G0 X43.150 Y-7.388 Z2.000
G0 X43.150 Y-7.388 Z1.000
G1 X43.150 Y-7.388 Z-0.150 F50.000
G3 X43.277 Y-7.303 Z-0.150 I-0.115 J0.311 K0.000 F150.000
G1 X43.150 Y-7.388 Z-0.150 F150.000
G0 Z2.000
G0 X42.620 Y-6.136 Z2.000
G0 X42.620 Y-6.136 Z1.000
G1 X42.620 Y-6.136 Z-0.150 F50.000
G1 X42.620 Y-6.098 Z-0.150 F150.000
G1 X42.551 Y-6.107 Z-0.150 F150.000
G2 X42.620 Y-6.136 Z-0.150 I0.023 J-0.043 K0.000 F150.000
G1 X42.620 Y-6.136 Z-0.200 F50.000
G1 X42.620 Y-6.098 Z-0.200 F150.000
G1 X42.551 Y-6.107 Z-0.200 F150.000
G2 X42.620 Y-6.136 Z-0.200 I0.023 J-0.043 K0.000 F150.000
G0 Z2.000
G0 X42.580 Y-6.188 Z2.000
G0 X42.580 Y-6.188 Z1.000
G1 X42.580 Y-6.188 Z-0.200 F50.000
G3 X42.522 Y-6.174 Z-0.200 I-0.045 J-0.060 K0.000 F150.000
G3 X42.520 Y-7.395 Z-0.200 I0.005 J-0.610 K0.000 F150.000
G3 X42.611 Y-7.321 Z-0.200 I0.016 J0.073 K0.000 F150.000
G1 X42.610 Y-6.248 Z-0.200 F150.000
G3 X42.580 Y-6.188 Z-0.200 I-0.075 J-0.000 K0.000 F150.000
G0 Z2.000
G0 X42.695 Z2.000
G0 X42.695 Z1.000
G1 X42.695 Y-6.188 Z-0.200 F50.000
G1 X42.695 Y-6.022 Z-0.200 F150.000
G3 X41.922 Y-6.341 Z-0.200 I-0.114 J-0.820 K0.000 F150.000
G3 X42.715 Y-7.570 Z-0.200 I0.694 J-0.423 K0.000 F150.000
G3 X43.476 Y-7.174 Z-0.200 I0.070 J0.794 K0.000 F150.000
G3 X43.469 Y-6.092 Z-0.200 I-1.286 J0.533 K0.000 F150.000
G1 X43.346 Y-6.092 Z-0.200 F150.000
G2 X43.330 Y-7.161 Z-0.200 I-0.918 J-0.521 K0.000 F150.000
G2 X42.729 Y-7.394 Z-0.200 I-0.532 J0.480 K0.000 F150.000
G1 X42.695 Y-7.331 Z-0.200 F150.000
G1 X42.695 Y-6.188 Z-0.200 F150.000
G0 Z2.000
G0 X42.653 Y-7.412 Z2.000
G0 X42.653 Y-7.412 Z1.000
G1 X42.653 Y-7.412 Z-0.200 F50.000
G2 X42.504 Y-7.468 Z-0.200 I-0.117 J0.086 K0.000 F150.000
G1 X42.322 Y-7.422 Z-0.200 F150.000
G3 X43.122 Y-7.402 Z-0.200 I0.377 J0.943 K0.000 F150.000
G2 X42.700 Y-7.464 Z-0.200 I-0.290 J0.513 K0.000 F150.000
G1 X42.653 Y-7.412 Z-0.200 F150.000
G0 Z2.000
G0 X43.150 Y-7.388 Z2.000
G0 X43.150 Y-7.388 Z1.000
G1 X43.150 Y-7.388 Z-0.200 F50.000
G3 X43.277 Y-7.303 Z-0.200 I-0.115 J0.311 K0.000 F150.000
G1 X43.150 Y-7.388 Z-0.200 F150.000
G0 Z2.000
G0 Z2.000
G0 X43.150 Y-7.388
G0 Y-8.210
G0 Y-8.210 Z1.000
G1 X43.150 Y-8.210 Z-0.150 F50.000
G1 X41.857 Y-8.210 Z-0.150 F150.000
G1 X41.857 Y-8.361 Z-0.150 F150.000
G2 X42.113 Y-8.383 Z-0.150 I0.102 J-0.320 K0.000 F150.000
G2 X41.984 Y-8.584 Z-0.150 I-0.150 J-0.045 K0.000 F150.000
G3 X42.321 Y-9.650 Z-0.150 I0.470 J-0.438 K0.000 F150.000
G3 X43.030 Y-9.651 Z-0.150 I0.356 J1.283 K0.000 F150.000
G3 X43.245 Y-8.494 Z-0.150 I-0.125 J0.622 K0.000 F150.000
G2 X43.292 Y-8.361 Z-0.150 I0.047 J0.058 K0.000 F150.000
G2 X43.772 Y-8.415 Z-0.150 I0.072 J-1.518 K0.000 F150.000
G2 X44.138 Y-9.032 Z-0.150 I-0.239 J-0.559 K0.000 F150.000
G2 X44.034 Y-9.477 Z-0.150 I-0.930 J-0.017 K0.000 F150.000
G1 X44.160 Y-9.477 Z-0.150 F150.000
G3 X44.054 Y-8.419 Z-0.150 I-1.105 J0.423 K0.000 F150.000
G3 X43.762 Y-8.256 Z-0.150 I-0.456 J-0.470 K0.000 F150.000
G1 X43.383 Y-8.210 Z-0.150 F150.000
G1 X43.150 Y-8.210 Z-0.150 F150.000
G0 Z2.000
G0 Y-8.285 Z2.000
G0 Y-8.285 Z1.000
G1 X43.150 Y-8.285 Z-0.150 F50.000
G1 X41.932 Y-8.285 Z-0.150 F150.000
G1 X41.932 Y-8.286 Z-0.150 F150.000
G2 X42.199 Y-8.395 Z-0.150 I0.090 J-0.162 K0.000 F150.000
G2 X43.157 Y-8.390 Z-0.150 I0.484 J-1.032 K0.000 F150.000
G2 X43.395 Y-8.287 Z-0.150 I0.169 J-0.064 K0.000 F150.000
G1 X43.378 Y-8.285 Z-0.150 F150.000
G1 X43.150 Y-8.285 Z-0.150 F150.000
G0 Z2.000
G0 X43.155 Y-8.322 Z2.000
G0 X43.155 Y-8.322 Z1.000
G1 X43.155 Y-8.322 Z-0.150 F50.000
G1 X43.106 Y-8.322 Z-0.150 F150.000
G3 X43.155 Y-8.322 Z-0.150 I0.025 J0.005 K0.000 F150.000
G0 Z2.000
G0 X43.104 Y-8.438 Z2.000
G0 X43.104 Y-8.438 Z1.000
G1 X43.104 Y-8.438 Z-0.150 F50.000
G3 X43.038 Y-8.414 Z-0.150 I-0.224 J-0.513 K0.000 F150.000
G3 X42.375 Y-8.396 Z-0.150 I-0.366 J-1.243 K0.000 F150.000
G3 X42.114 Y-9.378 Z-0.150 I0.098 J-0.552 K0.000 F150.000
G1 X42.315 Y-9.484 Z-0.150 F150.000
G3 X42.979 Y-9.501 Z-0.150 I0.365 J1.258 K0.000 F150.000
G3 X43.104 Y-8.438 Z-0.150 I-0.099 J0.551 K0.000 F150.000
G0 Z2.000
G0 X43.834 Y-8.364 Z2.000
G0 X43.834 Y-8.364 Z1.000
G1 X43.834 Y-8.364 Z-0.150 F50.000
G1 X43.957 Y-8.438 Z-0.150 F150.000
G3 X43.834 Y-8.364 Z-0.150 I-0.216 J-0.222 K0.000 F150.000
G0 Z2.000
G0 X43.209 Y-9.479 Z2.000
G0 X43.209 Y-9.479 Z1.000
G1 X43.209 Y-9.479 Z-0.150 F50.000
G2 X42.131 Y-9.476 Z-0.150 I-0.536 J1.030 K0.000 F150.000
G3 X43.010 Y-9.579 Z-0.150 I0.564 J1.018 K0.000 F150.000
G3 X43.209 Y-9.479 Z-0.150 I-0.154 J0.559 K0.000 F150.000
G0 Z2.000
G0 X42.248 Y-8.340 Z2.000
G0 X42.248 Y-8.340 Z1.000
G1 X42.248 Y-8.340 Z-0.150 F50.000
G3 X42.259 Y-8.322 Z-0.150 I-0.020 J0.024 K0.000 F150.000
G1 X42.198 Y-8.322 Z-0.150 F150.000
G3 X42.248 Y-8.340 Z-0.150 I0.030 J0.006 K0.000 F150.000
G1 X42.248 Y-8.340 Z-0.200 F50.000
G3 X42.259 Y-8.322 Z-0.200 I-0.020 J0.024 K0.000 F150.000
G1 X42.198 Y-8.322 Z-0.200 F150.000
G3 X42.248 Y-8.340 Z-0.200 I0.030 J0.006 K0.000 F150.000
G0 Z2.000
G0 X42.260 Y-8.369 Z2.000
G0 X42.260 Y-8.369 Z1.000
G1 X42.260 Y-8.369 Z-0.200 F50.000
G2 X43.157 Y-8.390 Z-0.200 I0.423 J-1.058 K0.000 F150.000
G2 X43.395 Y-8.287 Z-0.200 I0.169 J-0.064 K0.000 F150.000
G1 X43.378 Y-8.285 Z-0.200 F150.000
G1 X41.932 Y-8.285 Z-0.200 F150.000
G1 X41.932 Y-8.286 Z-0.200 F150.000
G2 X42.199 Y-8.395 Z-0.200 I0.090 J-0.162 K0.000 F150.000
G2 X42.260 Y-8.369 Z-0.200 I0.484 J-1.032 K0.000 F150.000
G0 Z2.000
G0 X42.279 Y-8.422 Z2.000
G0 X42.279 Y-8.422 Z1.000
G1 X42.279 Y-8.422 Z-0.200 F50.000
G3 X42.114 Y-9.378 Z-0.200 I0.193 J-0.526 K0.000 F150.000
G1 X42.315 Y-9.484 Z-0.200 F150.000
G3 X42.979 Y-9.501 Z-0.200 I0.365 J1.258 K0.000 F150.000
G3 X43.038 Y-8.414 Z-0.200 I-0.099 J0.551 K0.000 F150.000
G3 X42.375 Y-8.396 Z-0.200 I-0.366 J-1.243 K0.000 F150.000
G3 X42.279 Y-8.422 Z-0.200 I0.098 J-0.552 K0.000 F150.000
G0 Z2.000
G0 X42.120 Y-8.425 Z2.000
G0 X42.120 Y-8.425 Z1.000
G1 X42.120 Y-8.425 Z-0.200 F50.000
G2 X41.984 Y-8.584 Z-0.200 I-0.157 J-0.003 K0.000 F150.000
G3 X42.321 Y-9.650 Z-0.200 I0.470 J-0.438 K0.000 F150.000
G3 X43.030 Y-9.651 Z-0.200 I0.356 J1.283 K0.000 F150.000
G3 X43.245 Y-8.494 Z-0.200 I-0.125 J0.622 K0.000 F150.000
G2 X43.292 Y-8.361 Z-0.200 I0.047 J0.058 K0.000 F150.000
G2 X43.772 Y-8.415 Z-0.200 I0.072 J-1.518 K0.000 F150.000
G2 X44.138 Y-9.032 Z-0.200 I-0.239 J-0.559 K0.000 F150.000
G2 X44.034 Y-9.477 Z-0.200 I-0.930 J-0.017 K0.000 F150.000
G1 X44.160 Y-9.477 Z-0.200 F150.000
G3 X44.054 Y-8.419 Z-0.200 I-1.105 J0.423 K0.000 F150.000
G3 X43.762 Y-8.256 Z-0.200 I-0.456 J-0.470 K0.000 F150.000
G1 X43.383 Y-8.210 Z-0.200 F150.000
G1 X41.857 Y-8.210 Z-0.200 F150.000
G1 X41.857 Y-8.361 Z-0.200 F150.000
G2 X42.113 Y-8.383 Z-0.200 I0.102 J-0.320 K0.000 F150.000
G2 X42.120 Y-8.425 Z-0.200 I-0.150 J-0.045 K0.000 F150.000
G0 Z2.000
G0 X43.106 Y-8.322 Z2.000
G0 X43.106 Y-8.322 Z1.000
G1 X43.106 Y-8.322 Z-0.200 F50.000
G3 X43.155 Y-8.322 Z-0.200 I0.025 J0.005 K0.000 F150.000
G1 X43.106 Y-8.322 Z-0.200 F150.000
G0 Z2.000
G0 X43.834 Y-8.364 Z2.000
G0 X43.834 Y-8.364 Z1.000
G1 X43.834 Y-8.364 Z-0.200 F50.000
G1 X43.957 Y-8.438 Z-0.200 F150.000
G3 X43.834 Y-8.364 Z-0.200 I-0.216 J-0.222 K0.000 F150.000
G0 Z2.000
G0 X43.209 Y-9.479 Z2.000
G0 X43.209 Y-9.479 Z1.000
G1 X43.209 Y-9.479 Z-0.200 F50.000
G2 X42.131 Y-9.476 Z-0.200 I-0.536 J1.030 K0.000 F150.000
G3 X43.010 Y-9.579 Z-0.200 I0.564 J1.018 K0.000 F150.000
G3 X43.209 Y-9.479 Z-0.200 I-0.154 J0.559 K0.000 F150.000
G0 Z2.000
G0 Z2.000
G0 X43.209 Y-9.479
G0 X45.412 Y-8.290
G0 X45.412 Y-8.290 Z1.000
G1 X45.412 Y-8.290 Z-0.150 F50.000
G3 X45.942 Y-8.610 Z-0.150 I0.537 J0.290 K0.000 F150.000
G3 X46.033 Y-8.537 Z-0.150 I0.016 J0.073 K0.000 F150.000
G1 X46.032 Y-7.463 Z-0.150 F150.000
G3 X45.944 Y-7.389 Z-0.150 I-0.075 J-0.000 K0.000 F150.000
G3 X45.412 Y-8.290 Z-0.150 I0.005 J-0.610 K0.000 F150.000
G0 Z2.000
G0 X45.310 Y-8.340 Z2.000
G0 X45.310 Y-8.340 Z1.000
G1 X45.310 Y-8.340 Z-0.150 F50.000
G3 X46.137 Y-8.785 Z-0.150 I0.728 J0.361 K0.000 F150.000
G3 X46.898 Y-8.390 Z-0.150 I0.070 J0.794 K0.000 F150.000
G3 X46.891 Y-7.307 Z-0.150 I-1.286 J0.533 K0.000 F150.000
G1 X46.768 Y-7.307 Z-0.150 F150.000
G2 X46.753 Y-8.376 Z-0.150 I-0.918 J-0.521 K0.000 F150.000
G2 X46.152 Y-8.609 Z-0.150 I-0.532 J0.480 K0.000 F150.000
G1 X46.117 Y-8.547 Z-0.150 F150.000
G1 X46.117 Y-7.237 Z-0.150 F150.000
G3 X45.344 Y-7.556 Z-0.150 I-0.114 J-0.820 K0.000 F150.000
G3 X45.310 Y-8.340 Z-0.150 I0.694 J-0.423 K0.000 F150.000
G0 Z2.000
G0 X45.744 Y-8.637 Z2.000
G0 X45.744 Y-8.637 Z1.000
G1 X45.744 Y-8.637 Z-0.150 F50.000
G3 X46.544 Y-8.618 Z-0.150 I0.377 J0.943 K0.000 F150.000
G2 X46.122 Y-8.679 Z-0.150 I-0.290 J0.513 K0.000 F150.000
G1 X46.075 Y-8.627 Z-0.150 F150.000
G2 X45.926 Y-8.683 Z-0.150 I-0.117 J0.086 K0.000 F150.000
G1 X45.744 Y-8.637 Z-0.150 F150.000
G0 Z2.000
G0 X46.572 Y-8.603 Z2.000
G0 X46.572 Y-8.603 Z1.000
G1 X46.572 Y-8.603 Z-0.150 F50.000
G3 X46.699 Y-8.519 Z-0.150 I-0.115 J0.311 K0.000 F150.000
G1 X46.572 Y-8.603 Z-0.150 F150.000
G0 Z2.000
G0 X46.042 Y-7.351 Z2.000
G0 X46.042 Y-7.351 Z1.000
G1 X46.042 Y-7.351 Z-0.150 F50.000
G1 X46.042 Y-7.314 Z-0.150 F150.000
G1 X45.973 Y-7.323 Z-0.150 F150.000
G2 X46.042 Y-7.351 Z-0.150 I0.023 J-0.043 K0.000 F150.000
G1 X46.042 Y-7.351 Z-0.200 F50.000
G1 X46.042 Y-7.314 Z-0.200 F150.000
G1 X45.973 Y-7.323 Z-0.200 F150.000
G2 X46.042 Y-7.351 Z-0.200 I0.023 J-0.043 K0.000 F150.000
G0 Z2.000
G0 X46.002 Y-7.404 Z2.000
G0 X46.002 Y-7.404 Z1.000
G1 X46.002 Y-7.404 Z-0.200 F50.000
G3 X45.944 Y-7.389 Z-0.200 I-0.045 J-0.060 K0.000 F150.000
G3 X45.942 Y-8.610 Z-0.200 I0.005 J-0.610 K0.000 F150.000
G3 X46.033 Y-8.537 Z-0.200 I0.016 J0.073 K0.000 F150.000
G1 X46.032 Y-7.463 Z-0.200 F150.000
G3 X46.002 Y-7.404 Z-0.200 I-0.075 J-0.000 K0.000 F150.000
G0 Z2.000
G0 X46.117 Z2.000
G0 X46.117 Z1.000
G1 X46.117 Y-7.404 Z-0.200 F50.000
G1 X46.117 Y-7.237 Z-0.200 F150.000
G3 X45.344 Y-7.556 Z-0.200 I-0.114 J-0.820 K0.000 F150.000
G3 X46.137 Y-8.785 Z-0.200 I0.694 J-0.423 K0.000 F150.000
G3 X46.898 Y-8.390 Z-0.200 I0.070 J0.794 K0.000 F150.000
G3 X46.891 Y-7.307 Z-0.200 I-1.286 J0.533 K0.000 F150.000
G1 X46.768 Y-7.307 Z-0.200 F150.000
G2 X46.753 Y-8.376 Z-0.200 I-0.918 J-0.521 K0.000 F150.000
G2 X46.152 Y-8.609 Z-0.200 I-0.532 J0.480 K0.000 F150.000
G1 X46.117 Y-8.547 Z-0.200 F150.000
G1 X46.117 Y-7.404 Z-0.200 F150.000
G0 Z2.000
G0 X46.075 Y-8.627 Z2.000
G0 X46.075 Y-8.627 Z1.000
G1 X46.075 Y-8.627 Z-0.200 F50.000
G2 X45.926 Y-8.683 Z-0.200 I-0.117 J0.086 K0.000 F150.000
G1 X45.744 Y-8.637 Z-0.200 F150.000
G3 X46.544 Y-8.618 Z-0.200 I0.377 J0.943 K0.000 F150.000
G2 X46.122 Y-8.679 Z-0.200 I-0.290 J0.513 K0.000 F150.000
G1 X46.075 Y-8.627 Z-0.200 F150.000
G0 Z2.000
G0 X46.572 Y-8.603 Z2.000
G0 X46.572 Y-8.603 Z1.000
G1 X46.572 Y-8.603 Z-0.200 F50.000
G3 X46.699 Y-8.519 Z-0.200 I-0.115 J0.311 K0.000 F150.000
G1 X46.572 Y-8.603 Z-0.200 F150.000
G0 Z2.000
G0 Z2.000
G0 X46.572 Y-8.603
G0 X47.371 Y-7.750
G0 X47.371 Y-7.750 Z1.000
G1 X47.371 Y-7.750 Z-0.150 F50.000
G1 X47.602 Y-7.750 Z-0.150 F150.000
G1 X47.602 Y-7.599 Z-0.150 F150.000
G1 X47.371 Y-7.599 Z-0.150 F150.000
G1 X47.371 Y-7.750 Z-0.150 F150.000
G0 Z2.000
G0 X47.446 Y-7.675 Z2.000
G0 X47.446 Y-7.675 Z1.000
G1 X47.446 Y-7.675 Z-0.150 F50.000
G1 X47.527 Y-7.675 Z-0.150 F150.000
G1 X47.527 Y-7.674 Z-0.150 F150.000
G1 X47.446 Y-7.674 Z-0.150 F150.000
G1 X47.446 Y-7.675 Z-0.150 F150.000
G1 X47.446 Y-7.675 Z-0.200 F50.000
G1 X47.527 Y-7.675 Z-0.200 F150.000
G1 X47.527 Y-7.674 Z-0.200 F150.000
G1 X47.446 Y-7.674 Z-0.200 F150.000
G1 X47.446 Y-7.675 Z-0.200 F150.000
G0 Z2.000
G0 X47.371 Z2.000
G0 X47.371 Z1.000
G1 X47.371 Y-7.675 Z-0.200 F50.000
G1 X47.371 Y-7.750 Z-0.200 F150.000
G1 X47.602 Y-7.750 Z-0.200 F150.000
G1 X47.602 Y-7.599 Z-0.200 F150.000
G1 X47.371 Y-7.599 Z-0.200 F150.000
G1 X47.371 Y-7.675 Z-0.200 F150.000
G0 Z2.000
G0 Z2.000
G0 X47.371 Y-7.675
G0 X46.962 Y-9.435
G0 X46.962 Y-9.435 Z1.000
G1 X46.962 Y-9.435 Z-0.150 F50.000
G1 X44.565 Y-9.435 Z-0.150 F150.000
G1 X44.565 Y-9.586 Z-0.150 F150.000
G1 X46.962 Y-9.586 Z-0.150 F150.000
G1 X46.962 Y-9.435 Z-0.150 F150.000
G0 Z2.000
G0 X46.887 Y-9.510 Z2.000
G0 X46.887 Y-9.510 Z1.000
G1 X46.887 Y-9.510 Z-0.150 F50.000
G1 X44.640 Y-9.510 Z-0.150 F150.000
G1 X44.640 Y-9.511 Z-0.150 F150.000
G1 X46.887 Y-9.511 Z-0.150 F150.000
G1 X46.887 Y-9.510 Z-0.150 F150.000
G1 X46.887 Y-9.510 Z-0.200 F50.000
G1 X44.640 Y-9.510 Z-0.200 F150.000
G1 X44.640 Y-9.511 Z-0.200 F150.000
G1 X46.887 Y-9.511 Z-0.200 F150.000
G1 X46.887 Y-9.510 Z-0.200 F150.000
G0 Z2.000
G0 X46.962 Z2.000
G0 X46.962 Z1.000
G1 X46.962 Y-9.510 Z-0.200 F50.000
G1 X46.962 Y-9.435 Z-0.200 F150.000
G1 X44.565 Y-9.435 Z-0.200 F150.000
G1 X44.565 Y-9.586 Z-0.200 F150.000
G1 X46.962 Y-9.586 Z-0.200 F150.000
G1 X46.962 Y-9.510 Z-0.200 F150.000
G0 Z2.000
G0 Z2.000
G0 X46.962 Y-9.510
G0 X48.077 Y-9.223
G0 X48.077 Y-9.223 Z1.000
G1 X48.077 Y-9.223 Z-0.150 F50.000
G3 X48.166 Y-9.463 Z-0.150 I1.186 J0.305 K0.000 F150.000
G3 X48.860 Y-9.408 Z-0.150 I0.329 J0.257 K0.000 F150.000
G2 X49.104 Y-8.665 Z-0.150 I9.275 J-2.621 K0.000 F150.000
G2 X49.695 Y-8.864 Z-0.150 I0.259 J-0.208 K0.000 F150.000
G2 X49.575 Y-9.630 Z-0.150 I-1.206 J-0.203 K0.000 F150.000
G1 X49.717 Y-9.630 Z-0.150 F150.000
G3 X49.680 Y-8.554 Z-0.150 I-1.201 J0.498 K0.000 F150.000
G3 X48.961 Y-8.618 Z-0.150 I-0.342 J-0.236 K0.000 F150.000
G2 X48.726 Y-9.352 Z-0.150 I-7.452 J1.983 K0.000 F150.000
G2 X48.159 Y-9.151 Z-0.150 I-0.250 J0.196 K0.000 F150.000
G2 X48.233 Y-8.478 Z-0.150 I1.220 J0.206 K0.000 F150.000
G1 X48.121 Y-8.478 Z-0.150 F150.000
G3 X48.077 Y-9.223 Z-0.150 I1.142 J-0.441 K0.000 F150.000
G0 Z2.000
G0 X48.584 Y-9.533 Z2.000
G0 X48.584 Y-9.533 Z1.000
G1 X48.584 Y-9.533 Z-0.150 F50.000
G3 X48.605 Y-9.528 Z-0.150 I0.003 J0.035 K0.000 F150.000
G1 X48.584 Y-9.533 Z-0.150 F150.000
G0 Z2.000
G0 X48.690 Y-9.491 Z2.000
G0 X48.690 Y-9.491 Z1.000
G1 X48.690 Y-9.491 Z-0.150 F50.000
G3 X48.744 Y-9.445 Z-0.150 I-0.028 J0.087 K0.000 F150.000
G2 X48.690 Y-9.491 Z-0.150 I-0.120 J0.085 K0.000 F150.000
G0 Z2.000
G0 X49.065 Y-8.597 Z2.000
G0 X49.065 Y-8.597 Z1.000
G1 X49.065 Y-8.597 Z-0.150 F50.000
G2 X49.375 Y-8.467 Z-0.150 I0.281 J-0.238 K0.000 F150.000
G3 X49.065 Y-8.597 Z-0.150 I-0.080 J-0.245 K0.000 F150.000
G1 X49.065 Y-8.597 Z-0.200 F50.000
G2 X49.375 Y-8.467 Z-0.200 I0.281 J-0.238 K0.000 F150.000
G3 X49.065 Y-8.597 Z-0.200 I-0.080 J-0.245 K0.000 F150.000
G0 Z2.000
G0 X49.119 Y-8.647 Z2.000
G0 X49.119 Y-8.647 Z1.000
G1 X49.119 Y-8.647 Z-0.200 F50.000
G2 X49.695 Y-8.864 Z-0.200 I0.244 J-0.226 K0.000 F150.000
G2 X49.575 Y-9.630 Z-0.200 I-1.206 J-0.203 K0.000 F150.000
G1 X49.717 Y-9.630 Z-0.200 F150.000
G3 X49.680 Y-8.554 Z-0.200 I-1.201 J0.498 K0.000 F150.000
G3 X48.961 Y-8.618 Z-0.200 I-0.342 J-0.236 K0.000 F150.000
G2 X48.726 Y-9.352 Z-0.200 I-7.452 J1.983 K0.000 F150.000
G2 X48.159 Y-9.151 Z-0.200 I-0.250 J0.196 K0.000 F150.000
G2 X48.233 Y-8.478 Z-0.200 I1.220 J0.206 K0.000 F150.000
G1 X48.121 Y-8.478 Z-0.200 F150.000
G3 X48.166 Y-9.463 Z-0.200 I1.142 J-0.441 K0.000 F150.000
G3 X48.860 Y-9.408 Z-0.200 I0.329 J0.257 K0.000 F150.000
G2 X49.104 Y-8.665 Z-0.200 I9.275 J-2.621 K0.000 F150.000
G2 X49.119 Y-8.647 Z-0.200 I0.259 J-0.208 K0.000 F150.000
G0 Z2.000
G0 X48.744 Y-9.445 Z2.000
G0 X48.744 Y-9.445 Z1.000
G1 X48.744 Y-9.445 Z-0.200 F50.000
G2 X48.690 Y-9.491 Z-0.200 I-0.120 J0.085 K0.000 F150.000
G3 X48.744 Y-9.445 Z-0.200 I-0.028 J0.087 K0.000 F150.000
G0 Z2.000
G0 X48.605 Y-9.528 Z2.000
G0 X48.605 Y-9.528 Z1.000
G1 X48.605 Y-9.528 Z-0.200 F50.000
G1 X48.584 Y-9.533 Z-0.200 F150.000
G3 X48.605 Y-9.528 Z-0.200 I0.003 J0.035 K0.000 F150.000
G0 Z2.000
G0 Z2.000
G0 X48.605 Y-9.528
G0 Y-7.750
G0 Y-7.750 Z1.000
G1 X48.605 Y-7.750 Z-0.150 F50.000
G1 X49.767 Y-7.750 Z-0.150 F150.000
G1 X49.767 Y-7.599 Z-0.150 F150.000
G1 X48.084 Y-7.599 Z-0.150 F150.000
G1 X48.084 Y-7.750 Z-0.150 F150.000
G1 X48.605 Y-7.750 Z-0.150 F150.000
G0 Z2.000
G0 Y-7.675 Z2.000
G0 Y-7.675 Z1.000
G1 X48.605 Y-7.675 Z-0.150 F50.000
G1 X49.692 Y-7.675 Z-0.150 F150.000
G1 X49.692 Y-7.674 Z-0.150 F150.000
G1 X48.159 Y-7.674 Z-0.150 F150.000
G1 X48.159 Y-7.675 Z-0.150 F150.000
G1 X48.605 Y-7.675 Z-0.150 F150.000
G1 X48.605 Y-7.675 Z-0.200 F50.000
G1 X49.692 Y-7.675 Z-0.200 F150.000
G1 X49.692 Y-7.674 Z-0.200 F150.000
G1 X48.159 Y-7.674 Z-0.200 F150.000
G1 X48.159 Y-7.675 Z-0.200 F150.000
G1 X48.605 Y-7.675 Z-0.200 F150.000
G0 Z2.000
G0 Y-7.750 Z2.000
G0 Y-7.750 Z1.000
G1 X48.605 Y-7.750 Z-0.200 F50.000
G1 X49.767 Y-7.750 Z-0.200 F150.000
G1 X49.767 Y-7.599 Z-0.200 F150.000
G1 X48.084 Y-7.599 Z-0.200 F150.000
G1 X48.084 Y-7.750 Z-0.200 F150.000
G1 X48.605 Y-7.750 Z-0.200 F150.000
G0 Z2.000
G0 Z2.000
G0 X48.605 Y-7.750
G0 X46.791 Y-6.413
G0 X46.791 Y-6.413 Z1.000
G1 X46.791 Y-6.413 Z-0.150 F50.000
G1 X46.785 Y-6.419 Z-0.150 F150.000
G3 X46.791 Y-6.413 Z-0.150 I-0.010 J0.015 K0.000 F150.000
G0 Z2.000
G0 X46.850 Y-6.466 Z2.000
G0 X46.850 Y-6.466 Z1.000
G1 X46.850 Y-6.466 Z-0.150 F50.000
G3 X46.714 Y-5.520 Z-0.150 I-0.467 J0.416 K0.000 F150.000
G2 X46.762 Y-5.387 Z-0.150 I0.048 J0.058 K0.000 F150.000
G1 X46.962 Y-5.387 Z-0.150 F150.000
G1 X46.962 Y-5.236 Z-0.150 F150.000
G1 X44.565 Y-5.236 Z-0.150 F150.000
G1 X44.565 Y-5.387 Z-0.150 F150.000
G1 X45.482 Y-5.387 Z-0.150 F150.000
G2 X45.525 Y-5.524 Z-0.150 I0.000 J-0.075 K0.000 F150.000
G3 X45.759 Y-6.676 Z-0.150 I0.341 J-0.531 K0.000 F150.000
G3 X46.571 Y-6.647 Z-0.150 I0.364 J1.196 K0.000 F150.000
G3 X46.850 Y-6.466 Z-0.150 I-0.188 J0.596 K0.000 F150.000
G0 Z2.000
G0 X46.749 Y-6.367 Z2.000
G0 X46.749 Y-6.367 Z1.000
G1 X46.749 Y-6.367 Z-0.150 F50.000
G3 X46.490 Y-5.440 Z-0.150 I-0.396 J0.389 K0.000 F150.000
G3 X45.815 Y-5.422 Z-0.150 I-0.372 J-1.287 K0.000 F150.000
G3 X45.546 Y-6.402 Z-0.150 I0.078 J-0.548 K0.000 F150.000
G1 X45.754 Y-6.510 Z-0.150 F150.000
G3 X46.431 Y-6.527 Z-0.150 I0.371 J1.301 K0.000 F150.000
G3 X46.749 Y-6.367 Z-0.150 I-0.078 J0.549 K0.000 F150.000
G0 Z2.000
G0 X46.668 Y-6.505 Z2.000
G0 X46.668 Y-6.505 Z1.000
G1 X46.668 Y-6.505 Z-0.150 F50.000
G2 X45.559 Y-6.498 Z-0.150 I-0.548 J1.073 K0.000 F150.000
G3 X46.540 Y-6.578 Z-0.150 I0.580 J1.047 K0.000 F150.000
G1 X46.668 Y-6.505 Z-0.150 F150.000
G0 Z2.000
G0 X46.625 Y-5.423 Z2.000
G0 X46.625 Y-5.423 Z1.000
G1 X46.625 Y-5.423 Z-0.150 F50.000
G2 X46.887 Y-5.312 Z-0.150 I0.182 J-0.064 K0.000 F150.000
G1 X46.887 Y-5.311 Z-0.150 F150.000
G1 X44.640 Y-5.311 Z-0.150 F150.000
G1 X44.640 Y-5.312 Z-0.150 F150.000
G1 X45.482 Y-5.312 Z-0.150 F150.000
G2 X45.624 Y-5.426 Z-0.150 I0.003 J-0.142 K0.000 F150.000
G2 X46.625 Y-5.423 Z-0.150 I0.504 J-1.067 K0.000 F150.000
G0 Z2.000
G0 X46.604 Y-5.372 Z2.000
G0 X46.604 Y-5.372 Z1.000
G1 X46.604 Y-5.372 Z-0.150 F50.000
G3 X46.624 Y-5.348 Z-0.150 I-0.013 J0.031 K0.000 F150.000
G1 X46.558 Y-5.348 Z-0.150 F150.000
G3 X46.604 Y-5.372 Z-0.150 I0.033 J0.008 K0.000 F150.000
G0 Z2.000
G0 X45.698 Y-5.348 Z2.000
G0 X45.698 Y-5.348 Z1.000
G1 X45.698 Y-5.348 Z-0.150 F50.000
G1 X45.620 Y-5.348 Z-0.150 F150.000
G3 X45.698 Y-5.348 Z-0.150 I0.039 J0.008 K0.000 F150.000
G1 X45.698 Y-5.348 Z-0.200 F50.000
G1 X45.620 Y-5.348 Z-0.200 F150.000
G3 X45.698 Y-5.348 Z-0.200 I0.039 J0.008 K0.000 F150.000
G0 Z2.000
G0 Y-5.311 Z2.000
G0 Y-5.311 Z1.000
G1 X45.698 Y-5.311 Z-0.200 F50.000
G1 X44.640 Y-5.311 Z-0.200 F150.000
G1 X44.640 Y-5.312 Z-0.200 F150.000
G1 X45.482 Y-5.312 Z-0.200 F150.000
G2 X45.624 Y-5.426 Z-0.200 I0.003 J-0.142 K0.000 F150.000
G2 X46.625 Y-5.423 Z-0.200 I0.504 J-1.067 K0.000 F150.000
G2 X46.887 Y-5.312 Z-0.200 I0.182 J-0.064 K0.000 F150.000
G1 X46.887 Y-5.311 Z-0.200 F150.000
G1 X45.698 Y-5.311 Z-0.200 F150.000
G0 Z2.000
G0 Y-5.236 Z2.000
G0 Y-5.236 Z1.000
G1 X45.698 Y-5.236 Z-0.200 F50.000
G1 X44.565 Y-5.236 Z-0.200 F150.000
G1 X44.565 Y-5.387 Z-0.200 F150.000
G1 X45.482 Y-5.387 Z-0.200 F150.000
G2 X45.525 Y-5.524 Z-0.200 I0.000 J-0.075 K0.000 F150.000
G3 X45.759 Y-6.676 Z-0.200 I0.341 J-0.531 K0.000 F150.000
G3 X46.571 Y-6.647 Z-0.200 I0.364 J1.196 K0.000 F150.000
G3 X46.714 Y-5.520 Z-0.200 I-0.188 J0.596 K0.000 F150.000
G2 X46.762 Y-5.387 Z-0.200 I0.048 J0.058 K0.000 F150.000
G1 X46.962 Y-5.387 Z-0.200 F150.000
G1 X46.962 Y-5.236 Z-0.200 F150.000
G1 X45.698 Y-5.236 Z-0.200 F150.000
G0 Z2.000
G0 X45.751 Y-5.435 Z2.000
G0 X45.751 Y-5.435 Z1.000
G1 X45.751 Y-5.435 Z-0.200 F50.000
G3 X45.546 Y-6.402 Z-0.200 I0.142 J-0.535 K0.000 F150.000
G1 X45.754 Y-6.510 Z-0.200 F150.000
G3 X46.431 Y-6.527 Z-0.200 I0.371 J1.301 K0.000 F150.000
G3 X46.490 Y-5.440 Z-0.200 I-0.078 J0.549 K0.000 F150.000
G3 X45.815 Y-5.422 Z-0.200 I-0.372 J-1.287 K0.000 F150.000
G3 X45.751 Y-5.435 Z-0.200 I0.078 J-0.548 K0.000 F150.000
G0 Z2.000
G0 X46.558 Y-5.348 Z2.000
G0 X46.558 Y-5.348 Z1.000
G1 X46.558 Y-5.348 Z-0.200 F50.000
G3 X46.624 Y-5.348 Z-0.200 I0.033 J0.008 K0.000 F150.000
G1 X46.558 Y-5.348 Z-0.200 F150.000
G0 Z2.000
G0 X46.791 Y-6.413 Z2.000
G0 X46.791 Y-6.413 Z1.000
G1 X46.791 Y-6.413 Z-0.200 F50.000
G1 X46.785 Y-6.419 Z-0.200 F150.000
G3 X46.791 Y-6.413 Z-0.200 I-0.010 J0.015 K0.000 F150.000
G0 Z2.000
G0 X46.668 Y-6.505 Z2.000
G0 X46.668 Y-6.505 Z1.000
G1 X46.668 Y-6.505 Z-0.200 F50.000
G2 X45.559 Y-6.498 Z-0.200 I-0.548 J1.073 K0.000 F150.000
G3 X46.540 Y-6.578 Z-0.200 I0.580 J1.047 K0.000 F150.000
G1 X46.668 Y-6.505 Z-0.200 F150.000
G0 Z2.000
G0 Z2.000
(Finish operation: Pocket_Shape001)
(Begin postamble)
M5
G17 G90
M2
