(Exported by FreeCAD)
(Post Processor: grbl_post)
(Output Time:2023-08-27 21:28:22.222005)
(Begin preamble)
G17 G90
G21
(Begin operation: Fixture)
(Path: Fixture)
G54
(Finish operation: Fixture)
(Begin operation: endmill-0_2mm001)
(Path: endmill-0_2mm001)
(endmill-0_2mm001)
(Begin toolchange)
( M6 T2 )
M3 S10000
(Finish operation: endmill-0_2mm001)
(Begin operation: Pocket_Shape)
(Path: Pocket_Shape)
(Pocket_Shape)
G0 Z0.200
G0 X25.730 Y-3.931
G0 Z0.100
G1 X25.730 Y-3.931 Z-0.200 F150.000
G3 X24.797 Y-4.194 Z-0.200 I-0.296 J-0.734 K0.000 F200.000
G3 X24.785 Y-8.309 Z-0.200 I144.458 J-2.480 K0.000 F200.000
G2 X24.583 Y-8.451 Z-0.200 I-0.209 J0.082 K0.000 F200.000
G2 X22.848 Y-8.722 Z-0.200 I-4.272 J21.665 K0.000 F200.000
G2 X22.629 Y-8.387 Z-0.200 I0.130 J0.324 K0.000 F200.000
G2 X22.693 Y-6.938 Z-0.200 I6.037 J0.458 K0.000 F200.000
G3 X22.656 Y-4.411 Z-0.200 I-37.114 J0.722 K0.000 F200.000
G3 X22.292 Y-4.285 Z-0.200 I-0.306 J-0.293 K0.000 F200.000
G3 X21.706 Y-4.565 Z-0.200 I-0.055 J-0.637 K0.000 F200.000
G3 X21.711 Y-5.986 Z-0.200 I457.670 J0.744 K0.000 F200.000
G3 X21.735 Y-9.031 Z-0.200 I61.486 J-1.022 K0.000 F200.000
G3 X22.485 Y-9.209 Z-0.200 I0.660 J1.111 K0.000 F200.000
G3 X23.967 Y-9.003 Z-0.200 I0.104 J4.682 K0.000 F200.000
G2 X24.602 Y-8.899 Z-0.200 I0.662 J-2.061 K0.000 F200.000
G2 X24.724 Y-8.977 Z-0.200 I-0.023 J-0.172 K0.000 F200.000
G2 X24.918 Y-10.119 Z-0.200 I-1.898 J-0.909 K0.000 F200.000
G2 X24.625 Y-11.802 Z-0.200 I-6.354 J0.239 K0.000 F200.000
G2 X24.161 Y-11.930 Z-0.200 I-0.481 J0.839 K0.000 F200.000
G2 X22.920 Y-12.088 Z-0.200 I-1.141 J4.009 K0.000 F200.000
G2 X22.577 Y-11.707 Z-0.200 I-0.037 J0.311 K0.000 F200.000
G3 X22.587 Y-11.036 Z-0.200 I-2.016 J0.366 K0.000 F200.000
G3 X22.270 Y-10.926 Z-0.200 I-0.260 J-0.240 K0.000 F200.000
G3 X21.796 Y-11.241 Z-0.200 I-0.100 J-0.363 K0.000 F200.000
G3 X21.782 Y-12.643 Z-0.200 I2.767 J-0.727 K0.000 F200.000
G3 X22.141 Y-12.673 Z-0.200 I0.217 J0.429 K0.000 F200.000
G1 X22.262 Y-12.664 Z-0.200 F200.000
G2 X23.716 Y-12.504 Z-0.200 I4.296 J-32.364 K0.000 F200.000
G3 X25.052 Y-12.215 Z-0.200 I-0.502 J5.571 K0.000 F200.000
G3 X25.535 Y-11.846 Z-0.200 I-0.218 J0.784 K0.000 F200.000
G3 X25.792 Y-9.722 Z-0.200 I-5.344 J1.726 K0.000 F200.000
G2 X25.735 Y-6.252 Z-0.200 I56.447 J2.663 K0.000 F200.000
G1 X25.730 Y-3.931 Z-0.200 F200.000
G0 Z0.200
G0 X25.555 Y-4.063 Z0.200
G0 X25.555 Y-4.063 Z0.100
G1 X25.555 Y-4.063 Z-0.200 F150.000
G3 X24.970 Y-4.257 Z-0.200 I-0.151 J-0.523 K0.000 F200.000
G3 X24.960 Y-8.309 Z-0.200 I195.281 J-2.480 K0.000 F200.000
G2 X24.614 Y-8.623 Z-0.200 I-0.382 J0.073 K0.000 F200.000
G2 X22.855 Y-8.897 Z-0.200 I-4.253 J21.554 K0.000 F200.000
G2 X22.456 Y-8.414 Z-0.200 I0.077 J0.470 K0.000 F200.000
G2 X22.518 Y-6.929 Z-0.200 I6.123 J0.488 K0.000 F200.000
G3 X22.491 Y-4.499 Z-0.200 I-68.000 J0.454 K0.000 F200.000
G3 X21.881 Y-4.629 Z-0.200 I-0.210 J-0.509 K0.000 F200.000
G3 X21.921 Y-8.951 Z-0.200 I111.791 J-1.140 K0.000 F200.000
G3 X23.300 Y-8.964 Z-0.200 I0.716 J2.927 K0.000 F200.000
G2 X24.522 Y-8.722 Z-0.200 I2.985 J-11.879 K0.000 F200.000
G2 X24.882 Y-8.900 Z-0.200 I0.042 J-0.369 K0.000 F200.000
G2 X25.073 Y-9.511 Z-0.200 I-1.218 J-0.717 K0.000 F200.000
G2 X24.773 Y-11.896 Z-0.200 I-6.206 J-0.428 K0.000 F200.000
G2 X24.193 Y-12.102 Z-0.200 I-0.599 J0.764 K0.000 F200.000
G2 X22.886 Y-12.260 Z-0.200 I-1.146 J4.008 K0.000 F200.000
G2 X22.402 Y-11.703 Z-0.200 I-0.011 J0.479 K0.000 F200.000
G3 X22.405 Y-11.115 Z-0.200 I-1.849 J0.303 K0.000 F200.000
G3 X21.979 Y-11.227 Z-0.200 I-0.143 J-0.321 K0.000 F200.000
G3 X21.934 Y-12.506 Z-0.200 I2.524 J-0.730 K0.000 F200.000
G3 X24.630 Y-12.163 Z-0.200 I-2.742 J32.354 K0.000 F200.000
G3 X25.381 Y-11.762 Z-0.200 I-0.177 J1.237 K0.000 F200.000
G3 X25.606 Y-9.342 Z-0.200 I-5.965 J1.775 K0.000 F200.000
G2 X25.555 Y-4.063 Z-0.200 I89.506 J3.501 K0.000 F200.000
G0 Z0.200
G0 X25.380 Y-4.233 Z0.200
G0 X25.380 Y-4.233 Z0.100
G1 X25.380 Y-4.233 Z-0.200 F150.000
G3 X25.143 Y-4.315 Z-0.200 I0.008 J-0.406 K0.000 F200.000
G3 X25.135 Y-8.309 Z-0.200 I216.698 J-2.434 K0.000 F200.000
G2 X24.929 Y-8.690 Z-0.200 I-0.388 J-0.036 K0.000 F200.000
G2 X25.248 Y-9.504 Z-0.200 I-1.035 J-0.875 K0.000 F200.000
G2 X24.984 Y-11.859 Z-0.200 I-7.172 J-0.387 K0.000 F200.000
G3 X25.282 Y-11.538 Z-0.200 I-0.112 J0.403 K0.000 F200.000
G3 X25.404 Y-8.810 Z-0.200 I-8.383 J1.741 K0.000 F200.000
G2 X25.380 Y-4.233 Z-0.200 I199.559 J3.312 K0.000 F200.000
G0 Z0.200
G0 X22.307 Y-4.673 Z0.200
G0 X22.307 Y-4.673 Z0.100
G1 X22.307 Y-4.673 Z-0.200 F150.000
G3 X22.302 Y-4.637 Z-0.200 I-3.805 J-0.545 K0.000 F200.000
G3 X22.056 Y-4.702 Z-0.200 I-0.067 J-0.242 K0.000 F200.000
G3 X22.077 Y-8.815 Z-0.200 I652.063 J1.176 K0.000 F200.000
G3 X22.443 Y-8.857 Z-0.200 I0.339 J1.342 K0.000 F200.000
G2 X22.267 Y-7.796 Z-0.200 I1.498 J0.794 K0.000 F200.000
G3 X22.336 Y-5.489 Z-0.200 I-22.889 J1.843 K0.000 F200.000
G3 X22.307 Y-4.673 Z-0.200 I-3.834 J0.272 K0.000 F200.000
G0 Z0.200
G0 X25.224 Y-8.613 Z0.200
G0 X25.224 Y-8.613 Z0.100
G1 X25.224 Y-8.613 Z-0.200 F150.000
G1 X25.167 Y-8.712 Z-0.200 F200.000
G2 X25.229 Y-8.814 Z-0.200 I-0.163 J-0.170 K0.000 F200.000
G2 X25.224 Y-8.613 Z-0.200 I8.892 J0.304 K0.000 F200.000
G0 Z0.200
G0 X22.241 Y-11.280 Z0.200
G0 X22.241 Y-11.280 Z0.100
G1 X22.241 Y-11.280 Z-0.200 F150.000
G3 X22.143 Y-11.294 Z-0.200 I-0.027 J-0.167 K0.000 F200.000
G3 X22.081 Y-12.325 Z-0.200 I2.699 J-0.681 K0.000 F200.000
G3 X22.462 Y-12.289 Z-0.200 I-0.218 J4.395 K0.000 F200.000
G2 X22.232 Y-11.506 Z-0.200 I0.571 J0.593 K0.000 F200.000
G3 X22.241 Y-11.280 Z-0.200 I-21.084 J0.899 K0.000 F200.000
G0 Z0.200
G0 Z0.200
G0 X22.241 Y-11.280
G0 X27.190 Y-11.597
G0 X27.190 Y-11.597 Z0.100
G1 X27.190 Y-11.597 Z-0.200 F150.000
G3 X27.236 Y-11.925 Z-0.200 I0.821 J-0.053 K0.000 F200.000
G3 X27.603 Y-11.958 Z-0.200 I0.230 J0.508 K0.000 F200.000
G3 X30.909 Y-11.496 Z-0.200 I-1.549 J23.149 K0.000 F200.000
G3 X31.461 Y-10.893 Z-0.200 I-0.087 J0.634 K0.000 F200.000
G3 X31.570 Y-9.443 Z-0.200 I-4.982 J1.102 K0.000 F200.000
G2 X31.483 Y-7.301 Z-0.200 I41.614 J2.761 K0.000 F200.000
G3 X30.777 Y-7.075 Z-0.200 I-0.583 J-0.607 K0.000 F200.000
G3 X29.678 Y-7.224 Z-0.200 I0.030 J-4.336 K0.000 F200.000
G3 X29.503 Y-7.627 Z-0.200 I0.258 J-0.352 K0.000 F200.000
G3 X30.002 Y-7.731 Z-0.200 I0.378 J0.563 K0.000 F200.000
G1 X30.192 Y-7.713 Z-0.200 F200.000
G1 X30.192 Y-7.713 Z-0.200 F200.000
G2 X30.565 Y-7.867 Z-0.200 I0.115 J-0.250 K0.000 F200.000
G2 X30.635 Y-9.226 Z-0.200 I-3.829 J-0.876 K0.000 F200.000
G2 X30.524 Y-11.083 Z-0.200 I-19.297 J0.219 K0.000 F200.000
G2 X29.882 Y-11.502 Z-0.200 I-0.594 J0.209 K0.000 F200.000
G2 X28.401 Y-11.669 Z-0.200 I-15.197 J128.364 K0.000 F200.000
G2 X28.259 Y-11.323 Z-0.200 I0.084 J0.237 K0.000 F200.000
G3 X28.403 Y-7.800 Z-0.200 I-27.158 J2.879 K0.000 F200.000
G2 X28.283 Y-4.259 Z-0.200 I75.362 J4.343 K0.000 F200.000
G2 X28.403 Y-3.853 Z-0.200 I0.406 J0.100 K0.000 F200.000
G2 X30.242 Y-3.591 Z-0.200 I1.908 J-6.799 K0.000 F200.000
G2 X30.353 Y-3.877 Z-0.200 I-0.162 J-0.227 K0.000 F200.000
G3 X30.291 Y-4.517 Z-0.200 I16.475 J-1.919 K0.000 F200.000
G3 X31.365 Y-4.400 Z-0.200 I0.321 J2.033 K0.000 F200.000
G3 X31.439 Y-3.325 Z-0.200 I-6.600 J0.989 K0.000 F200.000
G3 X31.363 Y-3.256 Z-0.200 I-0.135 J-0.072 K0.000 F200.000
G3 X28.884 Y-3.467 Z-0.200 I0.589 J-21.521 K0.000 F200.000
G3 X27.424 Y-3.706 Z-0.200 I0.253 J-6.132 K0.000 F200.000
G3 X27.251 Y-4.000 Z-0.200 I0.163 J-0.294 K0.000 F200.000
G3 X27.300 Y-7.398 Z-0.200 I25.058 J-1.343 K0.000 F200.000
G2 X27.196 Y-11.539 Z-0.200 I-28.483 J-1.356 K0.000 F200.000
G3 X27.190 Y-11.597 Z-0.200 I0.815 J-0.110 K0.000 F200.000
G0 Z0.200
G0 X27.369 Y-11.597 Z0.200
G0 X27.369 Y-11.597 Z0.100
G1 X27.369 Y-11.597 Z-0.200 F150.000
G3 X27.375 Y-11.791 Z-0.200 I3.274 J-0.005 K0.000 F200.000
G3 X27.591 Y-11.784 Z-0.200 I0.001 J3.098 K0.000 F200.000
G3 X28.173 Y-11.731 Z-0.200 I-0.723 J11.243 K0.000 F200.000
G2 X28.097 Y-11.150 Z-0.200 I0.710 J0.388 K0.000 F200.000
G3 X28.228 Y-7.803 Z-0.200 I-24.539 J2.638 K0.000 F200.000
G2 X28.108 Y-4.254 Z-0.200 I74.589 J4.314 K0.000 F200.000
G2 X28.330 Y-3.696 Z-0.200 I0.477 J0.134 K0.000 F200.000
G3 X27.499 Y-3.865 Z-0.200 I-0.053 J-1.867 K0.000 F200.000
G3 X27.397 Y-4.214 Z-0.200 I0.287 J-0.273 K0.000 F200.000
G3 X27.503 Y-8.396 Z-0.200 I78.357 J-0.102 K0.000 F200.000
G2 X27.372 Y-11.463 Z-0.200 I-26.719 J-0.397 K0.000 F200.000
G3 X27.369 Y-11.597 Z-0.200 I3.271 J-0.139 K0.000 F200.000
G0 Z0.200
G0 X27.545 Y-11.611 Z0.200
G0 X27.545 Y-11.611 Z0.100
G1 X27.545 Y-11.611 Z-0.200 F150.000
G3 X27.914 Y-11.581 Z-0.200 I-0.376 J6.854 K0.000 F200.000
G2 X28.036 Y-9.629 Z-0.200 I22.894 J-0.455 K0.000 F200.000
G3 X27.940 Y-4.775 Z-0.200 I-81.223 J0.821 K0.000 F200.000
G2 X27.960 Y-3.917 Z-0.200 I3.270 J0.353 K0.000 F200.000
G3 X27.610 Y-4.008 Z-0.200 I0.087 J-1.052 K0.000 F200.000
G3 X27.572 Y-5.763 Z-0.200 I8.360 J-1.057 K0.000 F200.000
G2 X27.545 Y-11.611 Z-0.200 I-35.508 J-2.759 K0.000 F200.000
G0 Z0.200
G0 X27.725 Y-11.421 Z0.200
G0 X27.725 Y-11.421 Z0.100
G1 X27.725 Y-11.421 Z-0.200 F150.000
G3 X27.810 Y-5.813 Z-0.200 I-32.203 J3.294 K0.000 F200.000
G2 X27.761 Y-4.142 Z-0.200 I18.925 J1.387 K0.000 F200.000
G3 X27.851 Y-8.203 Z-0.200 I47.810 J-0.968 K0.000 F200.000
G2 X27.725 Y-11.421 Z-0.200 I-26.301 J-0.575 K0.000 F200.000
G0 Z0.200
G0 X30.547 Y-11.397 Z0.200
G0 X30.547 Y-11.397 Z0.100
G1 X30.547 Y-11.397 Z-0.200 F150.000
G3 X31.190 Y-11.158 Z-0.200 I-0.044 J1.103 K0.000 F200.000
G3 X31.400 Y-9.948 Z-0.200 I-2.908 J1.127 K0.000 F200.000
G2 X31.310 Y-7.396 Z-0.200 I105.356 J5.002 K0.000 F200.000
G3 X30.793 Y-7.249 Z-0.200 I-0.403 J-0.439 K0.000 F200.000
G3 X29.774 Y-7.375 Z-0.200 I0.452 J-7.840 K0.000 F200.000
G3 X29.676 Y-7.530 Z-0.200 I0.358 J-0.334 K0.000 F200.000
G3 X30.175 Y-7.539 Z-0.200 I0.272 J1.313 K0.000 F200.000
G1 X30.175 Y-7.539 Z-0.200 F200.000
G2 X30.734 Y-7.822 Z-0.200 I0.147 J-0.404 K0.000 F200.000
G2 X30.809 Y-9.231 Z-0.200 I-4.023 J-0.921 K0.000 F200.000
G2 X30.674 Y-11.193 Z-0.200 I-15.315 J0.073 K0.000 F200.000
G2 X30.547 Y-11.397 Z-0.200 I-0.605 J0.233 K0.000 F200.000
G0 Z0.200
G0 X30.867 Y-11.142 Z0.200
G0 X30.867 Y-11.142 Z0.100
G1 X30.867 Y-11.142 Z-0.200 F150.000
G3 X31.120 Y-10.813 Z-0.200 I-0.037 J0.291 K0.000 F200.000
G3 X31.220 Y-9.454 Z-0.200 I-4.662 J1.025 K0.000 F200.000
G2 X31.136 Y-7.492 Z-0.200 I41.163 J2.735 K0.000 F200.000
G3 X30.809 Y-7.424 Z-0.200 I-0.227 J-0.269 K0.000 F200.000
G1 X30.635 Y-7.442 Z-0.200 F200.000
G2 X30.993 Y-8.202 Z-0.200 I-0.575 J-0.735 K0.000 F200.000
G2 X30.867 Y-11.142 Z-0.200 I-26.340 J-0.337 K0.000 F200.000
G0 Z0.200
G0 X30.682 Y-4.359 Z0.200
G0 X30.682 Y-4.359 Z0.100
G1 X30.682 Y-4.359 Z-0.200 F150.000
G3 X30.919 Y-4.342 Z-0.200 I-0.073 J2.669 K0.000 F200.000
G3 X31.203 Y-4.290 Z-0.200 I-0.091 J1.287 K0.000 F200.000
G3 X31.269 Y-3.432 Z-0.200 I-10.922 J1.266 K0.000 F200.000
G3 X30.396 Y-3.474 Z-0.200 I0.012 J-9.424 K0.000 F200.000
G2 X30.515 Y-3.975 Z-0.200 I-0.414 J-0.363 K0.000 F200.000
G3 X30.479 Y-4.357 Z-0.200 I21.884 J-2.253 K0.000 F200.000
G3 X30.682 Y-4.359 Z-0.200 I0.129 J2.667 K0.000 F200.000
G0 Z0.200
G0 X30.670 Y-4.184 Z0.200
G0 X30.670 Y-4.184 Z0.100
G1 X30.670 Y-4.184 Z-0.200 F150.000
G3 X31.044 Y-4.143 Z-0.200 I-0.015 J1.853 K0.000 F200.000
G3 X31.086 Y-3.610 Z-0.200 I-13.514 J1.356 K0.000 F200.000
G3 X30.683 Y-3.627 Z-0.200 I0.025 J-5.458 K0.000 F200.000
G2 X30.670 Y-4.184 Z-0.200 I-1.588 J-0.243 K0.000 F200.000
G0 Z0.200
G0 X30.881 Y-3.994 Z0.200
G0 X30.881 Y-3.994 Z0.100
G1 X30.881 Y-3.994 Z-0.200 F150.000
G1 X30.899 Y-3.792 Z-0.200 F200.000
G1 X30.886 Y-3.793 Z-0.200 F200.000
G3 X30.881 Y-3.994 Z-0.200 I0.324 J-0.107 K0.000 F200.000
G0 Z0.200
G0 Z0.200
G0 X30.881 Y-3.994
G0 X32.887 Y-4.160
G0 X32.887 Y-4.160 Z0.100
G1 X32.887 Y-4.160 Z-0.200 F150.000
G3 X32.887 Y-7.610 Z-0.200 I20.822 J-1.724 K0.000 F200.000
G2 X33.078 Y-11.263 Z-0.200 I-76.025 J-5.808 K0.000 F200.000
G3 X33.268 Y-11.262 Z-0.200 I0.087 J1.403 K0.000 F200.000
G3 X34.110 Y-11.122 Z-0.200 I0.043 J2.344 K0.000 F200.000
G3 X34.061 Y-7.490 Z-0.200 I-11525.570 J-154.780 K0.000 F200.000
G1 X34.061 Y-7.490 Z-0.200 F200.000
G3 X34.046 Y-6.455 Z-0.200 I-3143.120 J-43.295 K0.000 F200.000
G2 X34.022 Y-4.190 Z-0.200 I29.793 J1.454 K0.000 F200.000
G2 X34.287 Y-4.264 Z-0.200 I0.118 J-0.088 K0.000 F200.000
G3 X36.155 Y-8.576 Z-0.200 I54.742 J21.156 K0.000 F200.000
G2 X37.071 Y-10.305 Z-0.200 I-25.824 J-14.789 K0.000 F200.000
G2 X37.209 Y-10.707 Z-0.200 I-4.575 J-1.798 K0.000 F200.000
G3 X37.275 Y-10.748 Z-0.200 I0.050 J0.007 K0.000 F200.000
G3 X38.138 Y-10.634 Z-0.200 I0.208 J1.758 K0.000 F200.000
G3 X38.230 Y-10.395 Z-0.200 I-0.208 J0.217 K0.000 F200.000
G3 X38.201 Y-7.052 Z-0.200 I-20.357 J1.492 K0.000 F200.000
G2 X38.184 Y-2.596 Z-0.200 I41.907 J2.391 K0.000 F200.000
G2 X38.205 Y-2.325 Z-0.200 I10.113 J-0.682 K0.000 F200.000
G3 X37.181 Y-2.473 Z-0.200 I0.086 J-4.228 K0.000 F200.000
G3 X37.196 Y-9.266 Z-0.200 I228.252 J-2.915 K0.000 F200.000
G2 X36.899 Y-9.215 Z-0.200 I-0.140 J0.075 K0.000 F200.000
G2 X34.423 Y-3.471 Z-0.200 I69.756 J33.473 K0.000 F200.000
G3 X34.101 Y-2.851 Z-0.200 I-2.985 J-1.155 K0.000 F200.000
G3 X33.018 Y-2.987 Z-0.200 I-0.258 J-2.337 K0.000 F200.000
G3 X32.887 Y-4.160 Z-0.200 I20.692 J-2.897 K0.000 F200.000
G0 Z0.200
G0 X33.060 Y-4.174 Z0.200
G0 X33.060 Y-4.174 Z0.100
G1 X33.060 Y-4.174 Z-0.200 F150.000
G3 X33.062 Y-7.599 Z-0.200 I20.910 J-1.702 K0.000 F200.000
G2 X33.244 Y-11.088 Z-0.200 I-61.667 J-4.961 K0.000 F200.000
G3 X33.933 Y-10.997 Z-0.200 I-0.317 J5.048 K0.000 F200.000
G2 X33.857 Y-4.131 Z-0.200 I230.830 J5.999 K0.000 F200.000
G2 X34.450 Y-4.202 Z-0.200 I0.285 J-0.137 K0.000 F200.000
G3 X36.310 Y-8.495 Z-0.200 I54.610 J21.106 K0.000 F200.000
G1 X36.640 Y-9.101 Z-0.200 F200.000
G2 X34.171 Y-3.341 Z-0.200 I96.942 J44.951 K0.000 F200.000
G3 X34.004 Y-3.021 Z-0.200 I-2.832 J-1.271 K0.000 F200.000
G3 X33.174 Y-3.112 Z-0.200 I-0.102 J-2.895 K0.000 F200.000
G3 X33.060 Y-4.174 Z-0.200 I20.796 J-2.763 K0.000 F200.000
G0 Z0.200
G0 X33.237 Y-4.187 Z0.200
G0 X33.237 Y-4.187 Z0.100
G1 X33.237 Y-4.187 Z-0.200 F150.000
G3 X33.237 Y-7.588 Z-0.200 I22.336 J-1.705 K0.000 F200.000
G2 X33.413 Y-10.899 Z-0.200 I-67.571 J-5.267 K0.000 F200.000
G3 X33.756 Y-10.853 Z-0.200 I-0.248 J3.141 K0.000 F200.000
G3 X33.663 Y-4.217 Z-0.200 I-2468.394 J-31.455 K0.000 F200.000
G2 X34.163 Y-3.764 Z-0.200 I0.468 J-0.015 K0.000 F200.000
G3 X33.900 Y-3.192 Z-0.200 I-5.040 J-1.966 K0.000 F200.000
G3 X33.328 Y-3.255 Z-0.200 I0.070 J-3.256 K0.000 F200.000
G3 X33.237 Y-4.187 Z-0.200 I22.245 J-2.637 K0.000 F200.000
G0 Z0.200
G0 X33.410 Y-4.200 Z0.200
G0 X33.410 Y-4.200 Z0.100
G1 X33.410 Y-4.200 Z-0.200 F150.000
G3 X33.411 Y-7.578 Z-0.200 I22.377 J-1.682 K0.000 F200.000
G2 X33.577 Y-10.509 Z-0.200 I-69.757 J-5.403 K0.000 F200.000
G3 X33.524 Y-6.640 Z-0.200 I-5724.139 J-76.150 K0.000 F200.000
G1 X33.524 Y-6.640 Z-0.200 F200.000
G2 X33.488 Y-4.209 Z-0.200 I96.976 J2.647 K0.000 F200.000
G2 X33.919 Y-3.631 Z-0.200 I0.624 J-0.016 K0.000 F200.000
G3 X33.797 Y-3.374 Z-0.200 I-4.449 J-1.958 K0.000 F200.000
G3 X33.484 Y-3.405 Z-0.200 I0.075 J-2.346 K0.000 F200.000
G3 X33.410 Y-4.200 Z-0.200 I22.303 J-2.478 K0.000 F200.000
G0 Z0.200
G0 X33.637 Y-3.581 Z0.200
G0 X33.637 Y-3.581 Z0.100
G1 X33.637 Y-3.581 Z-0.200 F150.000
G2 X33.668 Y-3.558 Z-0.200 I0.053 J-0.038 K0.000 F200.000
G3 X33.637 Y-3.581 Z-0.200 I-0.012 J-0.016 K0.000 F200.000
G0 Z0.200
G0 X37.346 Y-3.586 Z0.200
G0 X37.346 Y-3.586 Z0.100
G1 X37.346 Y-3.586 Z-0.200 F150.000
G3 X37.368 Y-9.295 Z-0.200 I566.480 J-0.678 K0.000 F200.000
G2 X36.771 Y-9.343 Z-0.200 I-0.306 J0.067 K0.000 F200.000
G2 X37.350 Y-10.572 Z-0.200 I-4.196 J-2.729 K0.000 F200.000
G3 X38.035 Y-10.488 Z-0.200 I0.146 J1.629 K0.000 F200.000
G3 X38.110 Y-8.780 Z-0.200 I-7.120 J1.167 K0.000 F200.000
G2 X38.014 Y-2.514 Z-0.200 I52.409 J3.932 K0.000 F200.000
G3 X37.348 Y-2.594 Z-0.200 I0.264 J-5.023 K0.000 F200.000
G3 X37.346 Y-3.586 Z-0.200 I566.478 J-1.669 K0.000 F200.000
G0 Z0.200
G0 X37.519 Y-3.586 Z0.200
G0 X37.519 Y-3.586 Z0.100
G1 X37.519 Y-3.586 Z-0.200 F150.000
G3 X37.548 Y-9.260 Z-0.200 I427.652 J-0.621 K0.000 F200.000
G2 X37.171 Y-9.709 Z-0.200 I-0.475 J0.016 K0.000 F200.000
G2 X37.474 Y-10.394 Z-0.200 I-3.137 J-1.796 K0.000 F200.000
G3 X37.884 Y-10.345 Z-0.200 I-0.003 J1.751 K0.000 F200.000
G3 X37.851 Y-7.065 Z-0.200 I-20.209 J1.439 K0.000 F200.000
G2 X37.825 Y-2.704 Z-0.200 I44.469 J2.444 K0.000 F200.000
G3 X37.521 Y-2.739 Z-0.200 I0.297 J-4.020 K0.000 F200.000
G3 X37.519 Y-3.586 Z-0.200 I427.650 J-1.468 K0.000 F200.000
G0 Z0.200
G0 X37.716 Y-7.838 Z0.200
G0 X37.716 Y-7.838 Z0.100
G1 X37.716 Y-7.838 Z-0.200 F150.000
G2 X37.714 Y-9.352 Z-0.200 I-12.685 J-0.739 K0.000 F200.000
G2 X37.407 Y-9.791 Z-0.200 I-0.534 J0.045 K0.000 F200.000
G2 X37.595 Y-10.211 Z-0.200 I-2.098 J-1.187 K0.000 F200.000
G3 X37.725 Y-10.196 Z-0.200 I-0.000 J0.555 K0.000 F200.000
G3 X37.716 Y-7.838 Z-0.200 I-11.123 J1.138 K0.000 F200.000
G0 Z0.200
G0 Z0.200
G0 X37.716 Y-7.838
G0 X39.230 Y-7.840
G0 X39.230 Y-7.840 Z0.100
G1 X39.230 Y-7.840 Z-0.200 F150.000
G1 X39.237 Y-2.124 Z-0.200 F200.000
G3 X39.191 Y-1.903 Z-0.200 I-0.557 J-0.001 K0.000 F200.000
G3 X38.440 Y-1.491 Z-0.200 I-0.673 J-0.337 K0.000 F200.000
G1 X38.418 Y-1.499 Z-0.200 F200.000
G1 X38.418 Y-1.491 Z-0.200 F200.000
G1 X38.337 Y-1.497 Z-0.200 F200.000
G1 X21.762 Y-3.407 Z-0.200 F200.000
G3 X20.896 Y-4.175 Z-0.200 I0.097 J-0.982 K0.000 F200.000
G1 X20.886 Y-12.877 Z-0.200 F200.000
G3 X20.936 Y-13.107 Z-0.200 I0.558 J0.001 K0.000 F200.000
G3 X21.773 Y-13.505 Z-0.200 I0.686 J0.364 K0.000 F200.000
G1 X38.353 Y-11.580 Z-0.200 F200.000
G3 X39.227 Y-10.801 Z-0.200 I-0.168 J1.068 K0.000 F200.000
G1 X39.230 Y-7.840 Z-0.200 F200.000
G0 Z0.200
G0 X39.244 Z0.200
G0 X39.244 Z0.100
G1 X39.244 Y-7.840 Z-0.200 F150.000
G1 X39.244 Y-2.105 Z-0.200 F200.000
G3 X38.755 Y-1.516 Z-0.200 I-0.612 J-0.010 K0.000 F200.000
G3 X38.358 Y-1.487 Z-0.200 I-0.276 J-1.044 K0.000 F200.000
G1 X21.798 Y-3.386 Z-0.200 F200.000
G3 X20.877 Y-4.238 Z-0.200 I0.031 J-0.957 K0.000 F200.000
G1 X20.877 Y-12.896 Z-0.200 F200.000
G3 X21.448 Y-13.504 Z-0.200 I0.630 J0.019 K0.000 F200.000
G1 X21.771 Y-13.513 Z-0.200 F200.000
G1 X38.325 Y-11.615 Z-0.200 F200.000
G3 X39.244 Y-10.763 Z-0.200 I-0.032 J0.956 K0.000 F200.000
G1 X39.244 Y-7.840 Z-0.200 F200.000
G0 Z0.200
G0 Z0.200
G0 X39.244 Y-7.840
G0 X39.775 Y-7.840
G0 X39.775 Y-7.840 Z0.100
G1 X39.775 Y-7.840 Z-0.200 F150.000
G1 X39.778 Y-1.568 Z-0.200 F200.000
G1 X39.760 Y-1.465 Z-0.200 F200.000
G3 X38.961 Y-0.915 Z-0.200 I-0.832 J-0.353 K0.000 F200.000
G1 X38.960 Y-0.923 Z-0.200 F200.000
G3 X38.859 Y-0.917 Z-0.200 I-0.058 J-0.119 K0.000 F200.000
G1 X21.165 Y-2.939 Z-0.200 F200.000
G3 X20.355 Y-3.666 Z-0.200 I0.076 J-0.899 K0.000 F200.000
G1 X20.354 Y-13.382 Z-0.200 F200.000
G1 X20.379 Y-13.550 Z-0.200 F200.000
G3 X21.331 Y-14.087 Z-0.200 I0.807 J0.319 K0.000 F200.000
G1 X38.901 Y-12.070 Z-0.200 F200.000
G3 X39.773 Y-11.175 Z-0.200 I-0.238 J1.105 K0.000 F200.000
G1 X39.775 Y-7.840 Z-0.200 F200.000
G0 Z0.200
G0 X40.034 Z0.200
G0 X40.034 Z0.100
G1 X40.034 Y-7.840 Z-0.200 F150.000
G1 X40.034 Y-7.365 Z-0.200 F200.000
G2 X40.159 Y-7.240 Z-0.200 I0.125 J-0.000 K0.000 F200.000
G1 X59.825 Y-7.240 Z-0.200 F200.000
G1 X59.825 Y-7.213 Z-0.200 F200.000
G1 X40.159 Y-7.213 Z-0.200 F200.000
G2 X40.034 Y-7.088 Z-0.200 I0.000 J0.125 K0.000 F200.000
G1 X40.034 Y-6.758 Z-0.200 F200.000
G2 X40.159 Y-6.633 Z-0.200 I0.125 J-0.000 K0.000 F200.000
G1 X59.825 Y-6.633 Z-0.200 F200.000
G1 X59.825 Y-6.370 Z-0.200 F200.000
G1 X40.159 Y-6.370 Z-0.200 F200.000
G2 X40.034 Y-6.245 Z-0.200 I0.000 J0.125 K0.000 F200.000
G1 X40.034 Y-5.734 Z-0.200 F200.000
G2 X40.159 Y-5.609 Z-0.200 I0.125 J-0.000 K0.000 F200.000
G1 X59.825 Y-5.609 Z-0.200 F200.000
G1 X59.825 Y-5.582 Z-0.200 F200.000
G1 X40.159 Y-5.582 Z-0.200 F200.000
G2 X40.034 Y-5.457 Z-0.200 I0.000 J0.125 K0.000 F200.000
G1 X40.034 Y-5.128 Z-0.200 F200.000
G2 X40.159 Y-5.003 Z-0.200 I0.125 J-0.000 K0.000 F200.000
G1 X59.825 Y-5.003 Z-0.200 F200.000
G1 X59.825 Y-4.740 Z-0.200 F200.000
G1 X40.159 Y-4.740 Z-0.200 F200.000
G2 X40.034 Y-4.615 Z-0.200 I0.000 J0.125 K0.000 F200.000
G1 X40.034 Y-1.448 Z-0.200 F200.000
G3 X39.403 Y-0.672 Z-0.200 I-0.799 J-0.005 K0.000 F200.000
G3 X38.955 Y-0.639 Z-0.200 I-0.312 J-1.179 K0.000 F200.000
G1 X21.200 Y-2.671 Z-0.200 F200.000
G3 X20.127 Y-3.508 Z-0.200 I0.110 J-1.248 K0.000 F200.000
G1 X20.090 Y-3.764 Z-0.200 F200.000
G1 X20.090 Y-4.615 Z-0.200 F200.000
G2 X19.965 Y-4.740 Z-0.200 I-0.125 J0.000 K0.000 F200.000
G1 X0.177 Y-4.740 Z-0.200 F200.000
G1 X0.177 Y-5.003 Z-0.200 F200.000
G1 X19.965 Y-5.003 Z-0.200 F200.000
G2 X20.090 Y-5.128 Z-0.200 I-0.000 J-0.125 K0.000 F200.000
G1 X20.090 Y-5.457 Z-0.200 F200.000
G2 X19.965 Y-5.582 Z-0.200 I-0.125 J0.000 K0.000 F200.000
G1 X0.177 Y-5.582 Z-0.200 F200.000
G1 X0.177 Y-5.609 Z-0.200 F200.000
G1 X19.965 Y-5.609 Z-0.200 F200.000
G2 X20.090 Y-5.734 Z-0.200 I-0.000 J-0.125 K0.000 F200.000
G1 X20.090 Y-6.245 Z-0.200 F200.000
G2 X19.965 Y-6.370 Z-0.200 I-0.125 J0.000 K0.000 F200.000
G1 X0.177 Y-6.370 Z-0.200 F200.000
G1 X0.177 Y-6.633 Z-0.200 F200.000
G1 X19.965 Y-6.633 Z-0.200 F200.000
G2 X20.090 Y-6.758 Z-0.200 I-0.000 J-0.125 K0.000 F200.000
G1 X20.090 Y-7.088 Z-0.200 F200.000
G2 X19.965 Y-7.213 Z-0.200 I-0.125 J0.000 K0.000 F200.000
G1 X0.177 Y-7.213 Z-0.200 F200.000
G1 X0.177 Y-7.240 Z-0.200 F200.000
G1 X19.965 Y-7.240 Z-0.200 F200.000
G2 X20.090 Y-7.365 Z-0.200 I-0.000 J-0.125 K0.000 F200.000
G1 X20.090 Y-7.876 Z-0.200 F200.000
G2 X19.965 Y-8.001 Z-0.200 I-0.125 J0.000 K0.000 F200.000
G1 X0.177 Y-8.001 Z-0.200 F200.000
G1 X0.177 Y-8.264 Z-0.200 F200.000
G1 X19.965 Y-8.264 Z-0.200 F200.000
G2 X20.090 Y-8.389 Z-0.200 I-0.000 J-0.125 K0.000 F200.000
G1 X20.090 Y-8.718 Z-0.200 F200.000
G2 X19.965 Y-8.843 Z-0.200 I-0.125 J0.000 K0.000 F200.000
G1 X0.177 Y-8.843 Z-0.200 F200.000
G1 X0.177 Y-8.870 Z-0.200 F200.000
G1 X19.965 Y-8.870 Z-0.200 F200.000
G2 X20.090 Y-8.995 Z-0.200 I-0.000 J-0.125 K0.000 F200.000
G1 X20.090 Y-9.506 Z-0.200 F200.000
G2 X19.965 Y-9.631 Z-0.200 I-0.125 J0.000 K0.000 F200.000
G1 X0.177 Y-9.631 Z-0.200 F200.000
G1 X0.177 Y-9.895 Z-0.200 F200.000
G1 X19.965 Y-9.895 Z-0.200 F200.000
G2 X20.090 Y-10.020 Z-0.200 I-0.000 J-0.125 K0.000 F200.000
G1 X20.090 Y-10.349 Z-0.200 F200.000
G2 X19.965 Y-10.474 Z-0.200 I-0.125 J0.000 K0.000 F200.000
G1 X0.177 Y-10.474 Z-0.200 F200.000
G1 X0.177 Y-10.501 Z-0.200 F200.000
G1 X19.965 Y-10.501 Z-0.200 F200.000
G2 X20.090 Y-10.626 Z-0.200 I-0.000 J-0.125 K0.000 F200.000
G1 X20.090 Y-13.551 Z-0.200 F200.000
G3 X21.024 Y-14.369 Z-0.200 I0.853 J0.031 K0.000 F200.000
G3 X21.167 Y-14.361 Z-0.200 I0.001 J1.218 K0.000 F200.000
G1 X38.922 Y-12.329 Z-0.200 F200.000
G3 X39.998 Y-11.490 Z-0.200 I-0.110 J1.250 K0.000 F200.000
G3 X40.034 Y-10.626 Z-0.200 I-3.016 J0.559 K0.000 F200.000
G2 X40.159 Y-10.501 Z-0.200 I0.125 J-0.000 K0.000 F200.000
G1 X59.825 Y-10.501 Z-0.200 F200.000
G1 X59.825 Y-10.474 Z-0.200 F200.000
G1 X40.159 Y-10.474 Z-0.200 F200.000
G2 X40.034 Y-10.349 Z-0.200 I0.000 J0.125 K0.000 F200.000
G1 X40.034 Y-10.020 Z-0.200 F200.000
G2 X40.159 Y-9.895 Z-0.200 I0.125 J-0.000 K0.000 F200.000
G1 X59.825 Y-9.895 Z-0.200 F200.000
G1 X59.825 Y-9.631 Z-0.200 F200.000
G1 X40.159 Y-9.631 Z-0.200 F200.000
G2 X40.034 Y-9.506 Z-0.200 I0.000 J0.125 K0.000 F200.000
G1 X40.034 Y-8.995 Z-0.200 F200.000
G2 X40.159 Y-8.870 Z-0.200 I0.125 J-0.000 K0.000 F200.000
G1 X59.825 Y-8.870 Z-0.200 F200.000
G1 X59.825 Y-8.843 Z-0.200 F200.000
G1 X40.159 Y-8.843 Z-0.200 F200.000
G2 X40.034 Y-8.718 Z-0.200 I0.000 J0.125 K0.000 F200.000
G1 X40.034 Y-8.389 Z-0.200 F200.000
G2 X40.159 Y-8.264 Z-0.200 I0.125 J-0.000 K0.000 F200.000
G1 X59.825 Y-8.264 Z-0.200 F200.000
G1 X59.825 Y-8.001 Z-0.200 F200.000
G1 X40.159 Y-8.001 Z-0.200 F200.000
G2 X40.034 Y-7.876 Z-0.200 I0.000 J0.125 K0.000 F200.000
G1 X40.034 Y-7.840 Z-0.200 F200.000
G0 Z0.200
G0 X39.949 Y-8.079 Z0.200
G0 X39.949 Y-8.079 Z0.100
G1 X39.949 Y-8.079 Z-0.200 F150.000
G1 X39.949 Y-8.187 Z-0.200 F200.000
G2 X40.012 Y-8.135 Z-0.200 I0.074 J-0.026 K0.000 F200.000
G1 X39.949 Y-8.079 Z-0.200 F200.000
G0 Z0.200
G0 X39.950 Y-6.555 Z0.200
G0 X39.950 Y-6.555 Z0.100
G1 X39.950 Y-6.555 Z-0.200 F150.000
G2 X40.012 Y-6.504 Z-0.200 I0.073 J-0.026 K0.000 F200.000
G1 X39.950 Y-6.449 Z-0.200 F200.000
G1 X39.950 Y-6.555 Z-0.200 F200.000
G0 Z0.200
G0 X39.951 Y-4.923 Z0.200
G0 X39.951 Y-4.923 Z0.100
G1 X39.951 Y-4.923 Z-0.200 F150.000
G2 X40.012 Y-4.874 Z-0.200 I0.071 J-0.026 K0.000 F200.000
G1 X39.951 Y-4.820 Z-0.200 F200.000
G1 X39.951 Y-4.923 Z-0.200 F200.000
G0 Z0.200
G0 X39.772 Y-1.147 Z0.200
G0 X39.772 Y-1.147 Z0.100
G1 X39.772 Y-1.147 Z-0.200 F150.000
G3 X39.354 Y-0.842 Z-0.200 I-0.566 J-0.338 K0.000 F200.000
G2 X39.772 Y-1.147 Z-0.200 I-0.257 J-0.792 K0.000 F200.000
G0 Z0.200
G0 X39.948 Y-9.709 Z0.200
G0 X39.948 Y-9.709 Z0.100
G1 X39.948 Y-9.709 Z-0.200 F150.000
G1 X39.948 Y-9.818 Z-0.200 F200.000
G2 X40.012 Y-9.765 Z-0.200 I0.076 J-0.026 K0.000 F200.000
G1 X39.948 Y-9.709 Z-0.200 F200.000
G0 Z0.200
G0 X20.178 Y-9.706 Z0.200
G0 X20.178 Y-9.706 Z0.100
G1 X20.178 Y-9.706 Z-0.200 F150.000
G2 X20.112 Y-9.761 Z-0.200 I-0.078 J0.027 K0.000 F200.000
G1 X20.178 Y-9.819 Z-0.200 F200.000
G1 X20.178 Y-9.706 Z-0.200 F200.000
G0 Z0.200
G0 X20.177 Y-8.188 Z0.200
G0 X20.177 Y-8.188 Z0.100
G1 X20.177 Y-8.188 Z-0.200 F150.000
G1 X20.177 Y-8.076 Z-0.200 F200.000
G2 X20.112 Y-8.130 Z-0.200 I-0.077 J0.027 K0.000 F200.000
G1 X20.177 Y-8.188 Z-0.200 F200.000
G0 Z0.200
G0 X20.177 Y-6.557 Z0.200
G0 X20.177 Y-6.557 Z0.100
G1 X20.177 Y-6.557 Z-0.200 F150.000
G1 X20.177 Y-6.446 Z-0.200 F200.000
G2 X20.112 Y-6.499 Z-0.200 I-0.077 J0.027 K0.000 F200.000
G1 X20.177 Y-6.557 Z-0.200 F200.000
G0 Z0.200
G0 X20.176 Y-4.926 Z0.200
G0 X20.176 Y-4.926 Z0.100
G1 X20.176 Y-4.926 Z-0.200 F150.000
G1 X20.176 Y-4.816 Z-0.200 F200.000
G2 X20.112 Y-4.869 Z-0.200 I-0.076 J0.026 K0.000 F200.000
G1 X20.176 Y-4.926 Z-0.200 F200.000
G0 Z0.200
G0 X20.394 Y-13.918 Z0.200
G0 X20.394 Y-13.918 Z0.100
G1 X20.394 Y-13.918 Z-0.200 F150.000
G3 X20.659 Y-14.115 Z-0.200 I0.421 J0.290 K0.000 F200.000
G2 X20.394 Y-13.918 Z-0.200 I0.315 J0.702 K0.000 F200.000
G0 Z0.200
G0 Z0.200
(Finish operation: Pocket_Shape)
(Begin postamble)
M5
G17 G90
M2
