(Exported by FreeCAD)
(Post Processor: grbl_post)
(Output Time:2023-08-27 21:28:05.579408)
(Begin preamble)
G17 G90
G21
(Begin operation: Fixture)
(Path: Fixture)
G54
(Finish operation: Fixture)
(Begin operation: endmill-0_2mm001)
(Path: endmill-0_2mm001)
(endmill-0_2mm001)
(Begin toolchange)
( M6 T2 )
M3 S10000
(Finish operation: endmill-0_2mm001)
(Begin operation: Pocket_Shape)
(Path: Pocket_Shape)
(Pocket_Shape)
G0 Z0.200
G0 X2.932 Y-2.060
G0 Z0.100
G1 X2.932 Y-2.060 Z-0.200 F150.000
G1 X2.840 Y-2.060 Z-0.200 F200.000
G1 X2.178 Y-3.831 Z-0.200 F200.000
G2 X1.944 Y-3.831 Z-0.200 I-0.117 J0.044 K0.000 F200.000
G1 X1.278 Y-2.060 Z-0.200 F200.000
G1 X1.186 Y-2.060 Z-0.200 F200.000
G1 X1.952 Y-4.015 Z-0.200 F200.000
G1 X2.170 Y-4.015 Z-0.200 F200.000
G1 X2.932 Y-2.060 Z-0.200 F200.000
G0 Z0.200
G0 Z0.200
G0 X2.932 Y-2.060
G0 X3.723 Y-2.509
G0 X3.723 Y-2.509 Z0.100
G1 X3.723 Y-2.509 Z-0.200 F150.000
G3 X3.598 Y-3.035 Z-0.200 I0.842 J-0.478 K0.000 F200.000
G3 X4.848 Y-4.016 Z-0.200 I0.960 J-0.063 K0.000 F200.000
G3 X5.464 Y-2.631 Z-0.200 I-0.330 J0.977 K0.000 F200.000
G3 X3.723 Y-2.509 Z-0.200 I-0.900 J-0.357 K0.000 F200.000
G0 Z0.200
G0 X3.791 Y-2.546 Z0.200
G0 X3.791 Y-2.546 Z0.100
G1 X3.791 Y-2.546 Z-0.200 F150.000
G3 X3.723 Y-3.356 Z-0.200 I0.889 J-0.483 K0.000 F200.000
G3 X5.452 Y-3.055 Z-0.200 I0.850 J0.239 K0.000 F200.000
G3 X4.100 Y-2.200 Z-0.200 I-0.891 J0.088 K0.000 F200.000
G3 X3.791 Y-2.546 Z-0.200 I0.580 J-0.829 K0.000 F200.000
G0 Z0.200
G0 Z0.200
G0 X3.791 Y-2.546
G0 X6.406
G0 X6.406 Z0.100
G1 X6.406 Y-2.546 Z-0.200 F150.000
G1 X6.406 Y-4.015 Z-0.200 F200.000
G1 X6.487 Y-4.015 Z-0.200 F200.000
G1 X6.487 Y-1.178 Z-0.200 F200.000
G1 X6.406 Y-1.178 Z-0.200 F200.000
G1 X6.406 Y-2.546 Z-0.200 F200.000
G0 Z0.200
G0 Z0.200
G0 X6.406 Y-2.546
G0 X7.473
G0 X7.473 Z0.100
G1 X7.473 Y-2.546 Z-0.200 F150.000
G1 X7.473 Y-3.211 Z-0.200 F200.000
G3 X8.658 Y-3.916 Z-0.200 I0.753 J-0.084 K0.000 F200.000
G2 X7.554 Y-3.209 Z-0.200 I-0.358 J0.657 K0.000 F200.000
G1 X7.554 Y-2.060 Z-0.200 F200.000
G1 X7.473 Y-2.060 Z-0.200 F200.000
G1 X7.473 Y-2.546 Z-0.200 F200.000
G0 Z0.200
G0 X9.086 Y-2.548 Z0.200
G0 X9.086 Y-2.548 Z0.100
G1 X9.086 Y-2.548 Z-0.200 F150.000
G1 X9.086 Y-3.225 Z-0.200 F200.000
G2 X8.925 Y-3.686 Z-0.200 I-0.676 J-0.022 K0.000 F200.000
G2 X9.087 Y-3.796 Z-0.200 I0.047 J-0.106 K0.000 F200.000
G1 X9.087 Y-4.015 Z-0.200 F200.000
G1 X9.168 Y-4.015 Z-0.200 F200.000
G1 X9.168 Y-2.060 Z-0.200 F200.000
G1 X9.087 Y-2.060 Z-0.200 F200.000
G1 X9.086 Y-2.548 Z-0.200 F200.000
G0 Z0.200
G0 X9.105 Y-3.466 Z0.200
G0 X9.105 Y-3.466 Z0.100
G1 X9.105 Y-3.466 Z-0.200 F150.000
G2 X9.042 Y-3.628 Z-0.200 I-0.438 J0.077 K0.000 F200.000
G1 X9.105 Y-3.684 Z-0.200 F200.000
G1 X9.105 Y-3.466 Z-0.200 F200.000
G0 Z0.200
G0 Z0.200
G0 X9.105 Y-3.466
G0 X10.176
G0 X10.176 Z0.100
G1 X10.176 Y-3.466 Z-0.200 F150.000
G1 X10.176 Y-4.015 Z-0.200 F200.000
G1 X10.257 Y-4.015 Z-0.200 F200.000
G1 X10.259 Y-2.803 Z-0.200 F200.000
G2 X10.380 Y-2.389 Z-0.200 I0.673 J0.026 K0.000 F200.000
G2 X10.257 Y-2.270 Z-0.200 I-0.010 J0.113 K0.000 F200.000
G1 X10.257 Y-2.060 Z-0.200 F200.000
G1 X10.176 Y-2.060 Z-0.200 F200.000
G1 X10.176 Y-3.466 Z-0.200 F200.000
G0 Z0.200
G0 X10.239 Y-2.534 Z0.200
G0 X10.239 Y-2.534 Z0.100
G1 X10.239 Y-2.534 Z-0.200 F150.000
G2 X10.291 Y-2.425 Z-0.200 I0.306 J-0.078 K0.000 F200.000
G1 X10.239 Y-2.386 Z-0.200 F200.000
G1 X10.239 Y-2.534 Z-0.200 F200.000
G0 Z0.200
G0 X10.633 Y-2.173 Z0.200
G0 X10.633 Y-2.173 Z0.100
G1 X10.633 Y-2.173 Z-0.200 F150.000
G2 X11.649 Y-2.817 Z-0.200 I0.345 J-0.579 K0.000 F200.000
G1 X11.649 Y-4.015 Z-0.200 F200.000
G1 X11.730 Y-4.015 Z-0.200 F200.000
G1 X11.731 Y-2.803 Z-0.200 F200.000
G2 X11.828 Y-2.436 Z-0.200 I0.592 J0.041 K0.000 F200.000
G2 X11.651 Y-2.417 Z-0.200 I-0.082 J0.073 K0.000 F200.000
G3 X10.633 Y-2.173 Z-0.200 I-0.603 J-0.269 K0.000 F200.000
G0 Z0.200
G0 X11.640 Y-2.483 Z0.200
G0 X11.640 Y-2.483 Z0.100
G1 X11.640 Y-2.483 Z-0.200 F150.000
G2 X11.692 Y-2.644 Z-0.200 I-0.255 J-0.171 K0.000 F200.000
G2 X11.715 Y-2.523 Z-0.200 I0.376 J-0.010 K0.000 F200.000
G2 X11.640 Y-2.483 Z-0.200 I-0.010 J0.072 K0.000 F200.000
G0 Z0.200
G0 X12.019 Y-2.225 Z0.200
G0 X12.019 Y-2.225 Z0.100
G1 X12.019 Y-2.225 Z-0.200 F150.000
G2 X13.122 Y-2.817 Z-0.200 I0.426 J-0.531 K0.000 F200.000
G1 X13.122 Y-4.015 Z-0.200 F200.000
G1 X13.203 Y-4.015 Z-0.200 F200.000
G1 X13.203 Y-2.816 Z-0.200 F200.000
G3 X12.019 Y-2.225 Z-0.200 I-0.698 J0.083 K0.000 F200.000
G0 Z0.200
G0 Z0.200
G0 X12.019 Y-2.225
G0 X14.086 Y-2.754
G0 X14.086 Y-2.754 Z0.100
G1 X14.086 Y-2.754 Z-0.200 F150.000
G3 X14.073 Y-2.812 Z-0.200 I0.937 J-0.240 K0.000 F200.000
G3 X14.534 Y-3.926 Z-0.200 I0.996 J-0.240 K0.000 F200.000
G3 X15.610 Y-3.886 Z-0.200 I0.504 J0.964 K0.000 F200.000
G3 X15.833 Y-3.630 Z-0.200 I-0.330 J0.512 K0.000 F200.000
G3 X15.719 Y-3.683 Z-0.200 I-0.039 J-0.064 K0.000 F200.000
G2 X14.157 Y-3.111 Z-0.200 I-0.683 J0.555 K0.000 F200.000
G1 X14.267 Y-3.045 Z-0.200 F200.000
G1 X15.990 Y-3.045 Z-0.200 F200.000
G3 X14.086 Y-2.754 Z-0.200 I-0.966 J0.051 K0.000 F200.000
G0 Z0.200
G0 X14.161 Y-2.768 Z0.200
G0 X14.161 Y-2.768 Z0.100
G1 X14.161 Y-2.768 Z-0.200 F150.000
G3 X14.152 Y-2.823 Z-0.200 I0.851 J-0.161 K0.000 F200.000
G3 X14.271 Y-2.986 Z-0.200 I0.119 J-0.038 K0.000 F200.000
G1 X15.771 Y-2.986 Z-0.200 F200.000
G1 X15.878 Y-2.925 Z-0.200 F200.000
G3 X14.161 Y-2.768 Z-0.200 I-0.866 J-0.004 K0.000 F200.000
G0 Z0.200
G0 X14.123 Y-2.960 Z0.200
G0 X14.123 Y-2.960 Z0.100
G1 X14.123 Y-2.960 Z-0.200 F150.000
G3 X14.120 Y-3.068 Z-0.200 I0.256 J-0.060 K0.000 F200.000
G2 X14.166 Y-3.014 Z-0.200 I0.061 J-0.005 K0.000 F200.000
G2 X14.123 Y-2.960 Z-0.200 I0.016 J0.057 K0.000 F200.000
G0 Z0.200
G0 X15.902 Y-2.982 Z0.200
G0 X15.902 Y-2.982 Z0.100
G1 X15.902 Y-2.982 Z-0.200 F150.000
G1 X15.919 Y-2.982 Z-0.200 F200.000
G1 X15.917 Y-2.964 Z-0.200 F200.000
G1 X15.902 Y-2.982 Z-0.200 F200.000
G0 Z0.200
G0 Z0.200
G0 X15.902 Y-2.982
G0 X12.564 Y-7.872
G0 X12.564 Y-7.872 Z0.100
G1 X12.564 Y-7.872 Z-0.200 F150.000
G3 X11.216 Y-8.481 Z-0.200 I-0.488 J-0.715 K0.000 F200.000
G3 X11.335 Y-8.644 Z-0.200 I0.119 J-0.038 K0.000 F200.000
G1 X12.834 Y-8.644 Z-0.200 F200.000
G1 X12.941 Y-8.583 Z-0.200 F200.000
G3 X12.564 Y-7.872 Z-0.200 I-0.866 J-0.004 K0.000 F200.000
G0 Z0.200
G0 X12.980 Y-8.622 Z0.200
G0 X12.980 Y-8.622 Z0.100
G1 X12.980 Y-8.622 Z-0.200 F150.000
G1 X12.965 Y-8.640 Z-0.200 F200.000
G1 X12.983 Y-8.640 Z-0.200 F200.000
G1 X12.980 Y-8.622 Z-0.200 F200.000
G0 Z0.200
G0 X13.054 Y-8.620 Z0.200
G0 X13.054 Y-8.620 Z0.100
G1 X13.054 Y-8.620 Z-0.200 F150.000
G3 X11.136 Y-8.470 Z-0.200 I-0.967 J-0.031 K0.000 F200.000
G3 X11.838 Y-9.677 Z-0.200 I0.971 J-0.243 K0.000 F200.000
G3 X12.673 Y-9.544 Z-0.200 I0.275 J0.962 K0.000 F200.000
G3 X12.899 Y-9.288 Z-0.200 I-0.328 J0.517 K0.000 F200.000
G3 X12.739 Y-9.391 Z-0.200 I-0.042 J-0.109 K0.000 F200.000
G2 X11.223 Y-8.764 Z-0.200 I-0.638 J0.604 K0.000 F200.000
G1 X11.330 Y-8.703 Z-0.200 F200.000
G1 X13.053 Y-8.703 Z-0.200 F200.000
G3 X13.054 Y-8.620 Z-0.200 I-0.966 J0.052 K0.000 F200.000
G0 Z0.200
G0 X11.228 Y-8.672 Z0.200
G0 X11.228 Y-8.672 Z0.100
G1 X11.228 Y-8.672 Z-0.200 F150.000
G2 X11.186 Y-8.618 Z-0.200 I0.016 J0.056 K0.000 F200.000
G3 X11.183 Y-8.726 Z-0.200 I0.254 J-0.060 K0.000 F200.000
G1 X11.228 Y-8.672 Z-0.200 F200.000
G0 Z0.200
G0 Z0.200
G0 X11.228 Y-8.672
G0 X10.266
G0 X10.266 Z0.100
G1 X10.266 Y-8.672 Z-0.200 F150.000
G1 X10.266 Y-8.522 Z-0.200 F200.000
G3 X9.079 Y-7.817 Z-0.200 I-0.756 J0.078 K0.000 F200.000
G2 X10.185 Y-8.523 Z-0.200 I0.359 J-0.657 K0.000 F200.000
G1 X10.185 Y-9.673 Z-0.200 F200.000
G1 X10.266 Y-9.673 Z-0.200 F200.000
G1 X10.266 Y-8.672 Z-0.200 F200.000
G0 Z0.200
G0 X8.811 Y-8.048 Z0.200
G0 X8.811 Y-8.048 Z0.100
G1 X8.811 Y-8.048 Z-0.200 F150.000
G2 X8.652 Y-7.937 Z-0.200 I-0.043 J0.108 K0.000 F200.000
G1 X8.652 Y-7.718 Z-0.200 F200.000
G1 X8.571 Y-7.718 Z-0.200 F200.000
G1 X8.571 Y-9.673 Z-0.200 F200.000
G1 X8.652 Y-9.673 Z-0.200 F200.000
G1 X8.654 Y-8.508 Z-0.200 F200.000
G2 X8.811 Y-8.048 Z-0.200 I0.669 J0.028 K0.000 F200.000
G0 Z0.200
G0 X8.696 Y-8.103 Z0.200
G0 X8.696 Y-8.103 Z0.100
G1 X8.696 Y-8.103 Z-0.200 F150.000
G1 X8.634 Y-8.048 Z-0.200 F200.000
G1 X8.634 Y-8.258 Z-0.200 F200.000
G2 X8.696 Y-8.103 Z-0.200 I0.432 J-0.083 K0.000 F200.000
G0 Z0.200
G0 Z0.200
G0 X8.696 Y-8.103
G0 X7.666 Y-8.407
G0 X7.666 Y-8.407 Z0.100
G1 X7.666 Y-8.407 Z-0.200 F150.000
G3 X7.043 Y-7.726 Z-0.200 I-1.008 J-0.297 K0.000 F200.000
G3 X5.763 Y-8.693 Z-0.200 I-0.319 J-0.909 K0.000 F200.000
G3 X7.012 Y-9.674 Z-0.200 I0.956 J-0.068 K0.000 F200.000
G1 X7.248 Y-9.575 Z-0.200 F200.000
G3 X7.666 Y-8.407 Z-0.200 I-0.589 J0.870 K0.000 F200.000
G0 Z0.200
G0 X7.599 Y-8.423 Z0.200
G0 X7.599 Y-8.423 Z0.100
G1 X7.599 Y-8.423 Z-0.200 F150.000
G3 X6.295 Y-7.841 Z-0.200 I-0.873 J-0.203 K0.000 F200.000
G3 X6.234 Y-9.512 Z-0.200 I0.592 J-0.858 K0.000 F200.000
G3 X7.618 Y-8.713 Z-0.200 I0.497 J0.737 K0.000 F200.000
G3 X7.599 Y-8.423 Z-0.200 I-0.892 J0.087 K0.000 F200.000
G0 Z0.200
G0 Z0.200
G0 X7.599 Y-8.423
G0 X5.102 Y-7.759
G0 X5.102 Y-7.759 Z0.100
G1 X5.102 Y-7.759 Z-0.200 F150.000
G1 X5.102 Y-7.718 Z-0.200 F200.000
G1 X4.720 Y-7.718 Z-0.200 F200.000
G2 X4.595 Y-7.593 Z-0.200 I0.000 J0.125 K0.000 F200.000
G1 X4.595 Y-6.928 Z-0.200 F200.000
G1 X4.514 Y-6.928 Z-0.200 F200.000
G1 X4.514 Y-7.593 Z-0.200 F200.000
G2 X4.389 Y-7.718 Z-0.200 I-0.125 J0.000 K0.000 F200.000
G1 X4.065 Y-7.718 Z-0.200 F200.000
G1 X4.065 Y-7.759 Z-0.200 F200.000
G1 X4.389 Y-7.759 Z-0.200 F200.000
G2 X4.514 Y-7.884 Z-0.200 I-0.000 J-0.125 K0.000 F200.000
G1 X4.514 Y-9.673 Z-0.200 F200.000
G1 X4.595 Y-9.673 Z-0.200 F200.000
G1 X4.595 Y-7.884 Z-0.200 F200.000
G2 X4.720 Y-7.759 Z-0.200 I0.125 J-0.000 K0.000 F200.000
G1 X5.102 Y-7.759 Z-0.200 F200.000
G0 Z0.200
G0 X4.619 Y-7.748 Z0.200
G0 X4.619 Y-7.748 Z0.100
G1 X4.619 Y-7.748 Z-0.200 F150.000
G2 X4.560 Y-7.646 Z-0.200 I0.021 J0.081 K0.000 F200.000
G2 X4.490 Y-7.729 Z-0.200 I-0.076 J-0.007 K0.000 F200.000
G2 X4.550 Y-7.831 Z-0.200 I-0.021 J-0.081 K0.000 F200.000
G2 X4.619 Y-7.748 Z-0.200 I0.076 J0.007 K0.000 F200.000
G0 Z0.200
G0 Z0.200
G0 X4.619 Y-7.748
G0 X19.191 Y-8.617
G0 X19.191 Y-8.617 Z0.100
G1 X19.191 Y-8.617 Z-0.200 F150.000
G3 X19.239 Y-8.986 Z-0.200 I0.992 J-0.059 K0.000 F200.000
G3 X20.449 Y-9.672 Z-0.200 I0.917 J0.208 K0.000 F200.000
G3 X21.008 Y-9.230 Z-0.200 I-0.152 J0.766 K0.000 F200.000
G1 X20.918 Y-9.230 Z-0.200 F200.000
G2 X19.285 Y-8.677 Z-0.200 I-0.753 J0.463 K0.000 F200.000
G2 X20.919 Y-8.159 Z-0.200 I0.880 J0.059 K0.000 F200.000
G1 X21.008 Y-8.159 Z-0.200 F200.000
G3 X20.163 Y-7.683 Z-0.200 I-0.790 J-0.413 K0.000 F200.000
G3 X19.191 Y-8.617 Z-0.200 I0.019 J-0.993 K0.000 F200.000
G0 Z0.200
G0 Z0.200
G0 X19.191 Y-8.617
G0 X21.924
G0 X21.924 Z0.100
G1 X21.924 Y-8.617 Z-0.200 F150.000
G1 X21.924 Y-9.672 Z-0.200 F200.000
G1 X22.005 Y-9.672 Z-0.200 F200.000
G1 X22.005 Y-6.835 Z-0.200 F200.000
G1 X21.924 Y-6.835 Z-0.200 F200.000
G1 X21.924 Y-8.617 Z-0.200 F200.000
G0 Z0.200
G0 Z0.200
G0 X21.924 Y-8.617
G0 X23.000 Y-7.096
G0 X23.000 Y-7.096 Z0.100
G1 X23.000 Y-7.096 Z-0.200 F150.000
G1 X23.107 Y-7.096 Z-0.200 F200.000
G1 X23.107 Y-6.914 Z-0.200 F200.000
G1 X23.000 Y-6.914 Z-0.200 F200.000
G1 X23.000 Y-7.096 Z-0.200 F200.000
G0 Z0.200
G0 Z0.200
G0 X23.000 Y-7.096
G0 X23.013 Y-7.717
G0 X23.013 Y-7.717 Z0.100
G1 X23.013 Y-7.717 Z-0.200 F150.000
G1 X23.013 Y-9.672 Z-0.200 F200.000
G1 X23.094 Y-9.672 Z-0.200 F200.000
G1 X23.094 Y-7.717 Z-0.200 F200.000
G1 X23.013 Y-7.717 Z-0.200 F200.000
G0 Z0.200
G0 Z0.200
G0 X23.013 Y-7.717
G0 X24.102
G0 X24.102 Z0.100
G1 X24.102 Y-7.717 Z-0.200 F150.000
G1 X24.102 Y-10.545 Z-0.200 F200.000
G1 X24.183 Y-10.545 Z-0.200 F200.000
G1 X24.183 Y-9.440 Z-0.200 F200.000
G2 X24.385 Y-9.352 Z-0.200 I0.117 J0.008 K0.000 F200.000
G2 X24.398 Y-8.029 Z-0.200 I0.864 J0.653 K0.000 F200.000
G2 X24.183 Y-7.945 Z-0.200 I-0.091 J0.084 K0.000 F200.000
G1 X24.183 Y-7.717 Z-0.200 F200.000
G1 X24.102 Y-7.717 Z-0.200 F200.000
G0 Z0.200
G0 X24.165 Y-8.056 Z0.200
G0 X24.165 Y-8.056 Z0.100
G1 X24.165 Y-8.056 Z-0.200 F150.000
G1 X24.165 Y-8.310 Z-0.200 F200.000
G2 X24.260 Y-8.119 Z-0.200 I0.474 J-0.117 K0.000 F200.000
G2 X24.165 Y-8.056 Z-0.200 I-0.004 J0.097 K0.000 F200.000
G0 Z0.200
G0 X24.470 Y-7.950 Z0.200
G0 X24.470 Y-7.950 Z0.100
G1 X24.470 Y-7.950 Z-0.200 F150.000
G2 X25.907 Y-8.358 Z-0.200 I0.588 J-0.662 K0.000 F200.000
G2 X25.523 Y-9.532 Z-0.200 I-0.933 J-0.345 K0.000 F200.000
G2 X24.457 Y-9.426 Z-0.200 I-0.465 J0.741 K0.000 F200.000
G3 X25.483 Y-9.633 Z-0.200 I0.653 J0.593 K0.000 F200.000
G3 X25.311 Y-7.704 Z-0.200 I-0.479 J0.930 K0.000 F200.000
G3 X24.470 Y-7.950 Z-0.200 I-0.232 J-0.768 K0.000 F200.000
G0 Z0.200
G0 X24.165 Y-9.080 Z0.200
G0 X24.165 Y-9.080 Z0.100
G1 X24.165 Y-9.080 Z-0.200 F150.000
G1 X24.165 Y-9.324 Z-0.200 F200.000
G3 X24.204 Y-9.182 Z-0.200 I0.011 J0.073 K0.000 F200.000
G1 X24.165 Y-9.080 Z-0.200 F200.000
G0 Z0.200
G0 Z0.200
G0 X24.165 Y-9.080
G0 X25.334 Y-5.736
G0 X25.334 Y-5.736 Z0.100
G1 X25.334 Y-5.736 Z-0.200 F150.000
G1 X25.446 Y-5.736 Z-0.200 F200.000
G1 X25.446 Y-4.864 Z-0.200 F200.000
G2 X22.797 Y-4.868 Z-0.200 I-1.443 J66.709 K0.000 F200.000
G2 X22.672 Y-4.743 Z-0.200 I0.000 J0.125 K0.000 F200.000
G1 X22.672 Y-1.460 Z-0.200 F200.000
G1 X22.570 Y-1.460 Z-0.200 F200.000
G1 X22.570 Y-4.743 Z-0.200 F200.000
G2 X22.445 Y-4.868 Z-0.200 I-0.125 J0.000 K0.000 F200.000
G1 X20.030 Y-4.868 Z-0.200 F200.000
G3 X19.793 Y-4.864 Z-0.200 I-0.124 J-0.283 K0.000 F200.000
G1 X19.793 Y-5.736 Z-0.200 F200.000
G1 X19.905 Y-5.736 Z-0.200 F200.000
G1 X19.905 Y-5.096 Z-0.200 F200.000
G2 X20.030 Y-4.971 Z-0.200 I0.125 J-0.000 K0.000 F200.000
G1 X22.445 Y-4.971 Z-0.200 F200.000
G2 X22.570 Y-5.096 Z-0.200 I-0.000 J-0.125 K0.000 F200.000
G1 X22.570 Y-5.736 Z-0.200 F200.000
G1 X22.672 Y-5.736 Z-0.200 F200.000
G1 X22.672 Y-5.096 Z-0.200 F200.000
G2 X22.797 Y-4.971 Z-0.200 I0.125 J-0.000 K0.000 F200.000
G1 X25.209 Y-4.971 Z-0.200 F200.000
G2 X25.334 Y-5.096 Z-0.200 I-0.000 J-0.125 K0.000 F200.000
G1 X25.334 Y-5.736 Z-0.200 F200.000
G0 Z0.200
G0 X22.631 Y-4.922 Z0.200
G0 X22.631 Y-4.922 Z0.100
G1 X22.631 Y-4.922 Z-0.200 F150.000
G3 X22.621 Y-4.909 Z-0.200 I-0.010 J0.003 K0.000 F200.000
G3 X22.610 Y-4.919 Z-0.200 I-0.000 J-0.011 K0.000 F200.000
G3 X22.621 Y-4.930 Z-0.200 I0.011 J0.000 K0.000 F200.000
G3 X22.631 Y-4.922 Z-0.200 I-0.000 J0.011 K0.000 F200.000
G0 Z0.200
G0 Z0.200
G0 X22.631 Y-4.922
G0 X32.427 Y-3.250
G0 X32.427 Y-3.250 Z0.100
G1 X32.427 Y-3.250 Z-0.200 F150.000
G3 X33.765 Y-3.923 Z-0.200 I0.918 J0.157 K0.000 F200.000
G3 X33.967 Y-3.762 Z-0.200 I-0.246 J0.513 K0.000 F200.000
G2 X32.497 Y-3.003 Z-0.200 I-0.575 J0.688 K0.000 F200.000
G2 X34.000 Y-2.307 Z-0.200 I0.894 J0.038 K0.000 F200.000
G3 X32.416 Y-3.019 Z-0.200 I-0.665 J-0.638 K0.000 F200.000
G3 X32.427 Y-3.250 Z-0.200 I0.928 J-0.074 K0.000 F200.000
G0 Z0.200
G0 X32.606 Y-4.530 Z0.200
G0 X32.606 Y-4.530 Z0.100
G1 X32.606 Y-4.530 Z-0.200 F150.000
G3 X33.438 Y-4.923 Z-0.200 I0.741 J0.492 K0.000 F200.000
G3 X34.286 Y-4.459 Z-0.200 I0.108 J0.810 K0.000 F200.000
G3 X34.353 Y-4.072 Z-0.200 I-1.031 J0.376 K0.000 F200.000
G1 X34.353 Y-2.060 Z-0.200 F200.000
G1 X34.272 Y-2.060 Z-0.200 F200.000
G2 X34.236 Y-2.376 Z-0.200 I-0.400 J-0.114 K0.000 F200.000
G2 X34.066 Y-2.375 Z-0.200 I-0.084 J0.078 K0.000 F200.000
G2 X34.066 Y-3.658 Z-0.200 I-0.810 J-0.641 K0.000 F200.000
G2 X34.272 Y-3.747 Z-0.200 I0.085 J-0.087 K0.000 F200.000
G2 X34.150 Y-4.540 Z-0.200 I-1.108 J-0.235 K0.000 F200.000
G2 X33.761 Y-4.828 Z-0.200 I-0.555 J0.343 K0.000 F200.000
G2 X32.926 Y-4.753 Z-0.200 I-0.334 J0.967 K0.000 F200.000
G2 X32.705 Y-4.530 Z-0.200 I0.222 J0.442 K0.000 F200.000
G1 X32.606 Y-4.530 Z-0.200 F200.000
G0 Z0.200
G0 X34.202 Y-3.574 Z0.200
G0 X34.202 Y-3.574 Z0.100
G1 X34.202 Y-3.574 Z-0.200 F150.000
G2 X34.290 Y-3.636 Z-0.200 I0.001 J-0.092 K0.000 F200.000
G1 X34.290 Y-3.371 Z-0.200 F200.000
G2 X34.202 Y-3.574 Z-0.200 I-0.419 J0.062 K0.000 F200.000
G0 Z0.200
G0 X34.290 Y-2.657 Z0.200
G0 X34.290 Y-2.657 Z0.100
G1 X34.290 Y-2.657 Z-0.200 F150.000
G1 X34.290 Y-2.404 Z-0.200 F200.000
G2 X34.202 Y-2.466 Z-0.200 I-0.087 J0.030 K0.000 F200.000
G2 X34.290 Y-2.657 Z-0.200 I-0.383 J-0.295 K0.000 F200.000
G0 Z0.200
G0 Z0.200
G0 X34.290 Y-2.657
G0 X35.235 Y-2.854
G0 X35.235 Y-2.854 Z0.100
G1 X35.235 Y-2.854 Z-0.200 F150.000
G3 X35.938 Y-4.026 Z-0.200 I0.986 J-0.206 K0.000 F200.000
G3 X36.575 Y-3.958 Z-0.200 I0.229 J0.876 K0.000 F200.000
G3 X36.808 Y-3.764 Z-0.200 I-0.283 J0.578 K0.000 F200.000
G2 X35.361 Y-3.384 Z-0.200 I-0.606 J0.638 K0.000 F200.000
G2 X35.728 Y-2.207 Z-0.200 I0.933 J0.355 K0.000 F200.000
G2 X36.822 Y-2.325 Z-0.200 I0.470 J-0.773 K0.000 F200.000
G3 X35.245 Y-2.812 Z-0.200 I-0.676 J-0.608 K0.000 F200.000
G3 X35.235 Y-2.854 Z-0.200 I0.976 J-0.247 K0.000 F200.000
G0 Z0.200
G0 X36.881 Y-2.381 Z0.200
G0 X36.881 Y-2.381 Z0.100
G1 X36.881 Y-2.381 Z-0.200 F150.000
G2 X36.873 Y-3.698 Z-0.200 I-0.879 J-0.653 K0.000 F200.000
G2 X37.081 Y-3.787 Z-0.200 I0.085 J-0.087 K0.000 F200.000
G1 X37.081 Y-4.015 Z-0.200 F200.000
G1 X37.161 Y-4.015 Z-0.200 F200.000
G1 X37.161 Y-2.060 Z-0.200 F200.000
G1 X37.081 Y-2.060 Z-0.200 F200.000
G2 X37.044 Y-2.380 Z-0.200 I-0.405 J-0.116 K0.000 F200.000
G2 X36.881 Y-2.381 Z-0.200 I-0.082 J0.073 K0.000 F200.000
G0 Z0.200
G0 X37.008 Y-2.470 Z0.200
G0 X37.008 Y-2.470 Z0.100
G1 X37.008 Y-2.470 Z-0.200 F150.000
G2 X37.099 Y-2.683 Z-0.200 I-0.347 J-0.274 K0.000 F200.000
G1 X37.099 Y-2.408 Z-0.200 F200.000
G2 X37.008 Y-2.470 Z-0.200 I-0.088 J0.032 K0.000 F200.000
G0 Z0.200
G0 X37.099 Y-3.416 Z0.200
G0 X37.099 Y-3.416 Z0.100
G1 X37.099 Y-3.416 Z-0.200 F150.000
G2 X37.005 Y-3.613 Z-0.200 I-0.477 J0.106 K0.000 F200.000
G2 X37.099 Y-3.676 Z-0.200 I0.003 J-0.096 K0.000 F200.000
G1 X37.099 Y-3.416 Z-0.200 F200.000
G0 Z0.200
G0 Z0.200
G0 X37.099 Y-3.416
G0 X38.170
G0 X38.170 Z0.100
G1 X38.170 Y-3.416 Z-0.200 F150.000
G1 X38.170 Y-4.015 Z-0.200 F200.000
G1 X38.251 Y-4.015 Z-0.200 F200.000
G1 X38.251 Y-2.060 Z-0.200 F200.000
G1 X38.170 Y-2.060 Z-0.200 F200.000
G1 X38.170 Y-3.416 Z-0.200 F200.000
G0 Z0.200
G0 Z0.200
G0 X38.170 Y-3.416
G0 Y-1.439
G0 Y-1.439 Z0.100
G1 X38.170 Y-1.439 Z-0.200 F150.000
G1 X38.264 Y-1.439 Z-0.200 F200.000
G1 X38.264 Y-1.257 Z-0.200 F200.000
G1 X38.157 Y-1.257 Z-0.200 F200.000
G1 X38.157 Y-1.439 Z-0.200 F200.000
G1 X38.170 Y-1.439 Z-0.200 F200.000
G0 Z0.200
G0 Z0.200
G0 X38.170 Y-1.439
G0 X39.259 Y-2.060
G0 X39.259 Y-2.060 Z0.100
G1 X39.259 Y-2.060 Z-0.200 F150.000
G1 X39.259 Y-4.015 Z-0.200 F200.000
G1 X39.340 Y-4.015 Z-0.200 F200.000
G1 X39.342 Y-2.851 Z-0.200 F200.000
G2 X39.501 Y-2.390 Z-0.200 I0.572 J0.060 K0.000 F200.000
G2 X39.340 Y-2.279 Z-0.200 I-0.045 J0.107 K0.000 F200.000
G1 X39.340 Y-2.060 Z-0.200 F200.000
G1 X39.259 Y-2.060 Z-0.200 F200.000
G0 Z0.200
G0 X39.322 Y-2.391 Z0.200
G0 X39.322 Y-2.391 Z0.100
G1 X39.322 Y-2.391 Z-0.200 F150.000
G1 X39.322 Y-2.608 Z-0.200 F200.000
G2 X39.386 Y-2.447 Z-0.200 I0.303 J-0.027 K0.000 F200.000
G1 X39.322 Y-2.391 Z-0.200 F200.000
G0 Z0.200
G0 X39.769 Y-2.159 Z0.200
G0 X39.769 Y-2.159 Z0.100
G1 X39.769 Y-2.159 Z-0.200 F150.000
G2 X40.873 Y-2.866 Z-0.200 I0.358 J-0.657 K0.000 F200.000
G1 X40.873 Y-4.015 Z-0.200 F200.000
G1 X40.954 Y-4.015 Z-0.200 F200.000
G1 X40.954 Y-2.864 Z-0.200 F200.000
G3 X39.769 Y-2.159 Z-0.200 I-0.756 J0.079 K0.000 F200.000
G0 Z0.200
G0 Z0.200
G0 X39.769 Y-2.159
G0 X39.522 Y-7.718
G0 X39.522 Y-7.718 Z0.100
G1 X39.522 Y-7.718 Z-0.200 F150.000
G1 X39.441 Y-7.718 Z-0.200 F200.000
G1 X39.441 Y-8.869 Z-0.200 F200.000
G3 X40.575 Y-9.615 Z-0.200 I0.759 J-0.080 K0.000 F200.000
G1 X40.630 Y-9.572 Z-0.200 F200.000
G2 X39.522 Y-8.867 Z-0.200 I-0.361 J0.656 K0.000 F200.000
G1 X39.522 Y-7.718 Z-0.200 F200.000
G0 Z0.200
G0 X41.055 Y-7.718 Z0.200
G0 X41.055 Y-7.718 Z0.100
G1 X41.055 Y-7.718 Z-0.200 F150.000
G1 X41.054 Y-8.882 Z-0.200 F200.000
G2 X40.890 Y-9.345 Z-0.200 I-0.668 J-0.024 K0.000 F200.000
G2 X41.055 Y-9.454 Z-0.200 I0.049 J-0.105 K0.000 F200.000
G1 X41.055 Y-9.673 Z-0.200 F200.000
G1 X41.136 Y-9.673 Z-0.200 F200.000
G1 X41.136 Y-7.718 Z-0.200 F200.000
G1 X41.055 Y-7.718 Z-0.200 F200.000
G0 Z0.200
G0 X41.073 Y-9.123 Z0.200
G0 X41.073 Y-9.123 Z0.100
G1 X41.073 Y-9.123 Z-0.200 F150.000
G2 X41.010 Y-9.286 Z-0.200 I-0.437 J0.077 K0.000 F200.000
G1 X41.073 Y-9.343 Z-0.200 F200.000
G1 X41.073 Y-9.123 Z-0.200 F200.000
G0 Z0.200
G0 Z0.200
G0 X41.073 Y-9.123
G0 X38.584 Y-8.825
G0 X38.584 Y-8.825 Z0.100
G1 X38.584 Y-8.825 Z-0.200 F150.000
G3 X38.140 Y-7.819 Z-0.200 I-1.071 J0.128 K0.000 F200.000
G3 X36.755 Y-8.217 Z-0.200 I-0.515 J-0.817 K0.000 F200.000
G3 X37.124 Y-9.587 Z-0.200 I0.960 J-0.476 K0.000 F200.000
G3 X38.140 Y-9.575 Z-0.200 I0.496 J0.963 K0.000 F200.000
G3 X38.584 Y-8.825 Z-0.200 I-0.627 J0.878 K0.000 F200.000
G0 Z0.200
G0 X38.511 Y-8.821 Z0.200
G0 X38.511 Y-8.821 Z0.100
G1 X38.511 Y-8.821 Z-0.200 F150.000
G3 X38.510 Y-8.713 Z-0.200 I-0.888 J0.047 K0.000 F200.000
G3 X37.187 Y-7.841 Z-0.200 I-0.893 J0.086 K0.000 F200.000
G3 X37.126 Y-9.512 Z-0.200 I0.592 J-0.858 K0.000 F200.000
G3 X38.511 Y-8.821 Z-0.200 I0.497 J0.737 K0.000 F200.000
G0 Z0.200
G0 Z0.200
G0 X38.511 Y-8.821
G0 X35.783
G0 X35.783 Z0.100
G1 X35.783 Y-8.821 Z-0.200 F150.000
G1 X35.783 Y-6.836 Z-0.200 F200.000
G1 X35.702 Y-6.836 Z-0.200 F200.000
G1 X35.702 Y-9.673 Z-0.200 F200.000
G1 X35.783 Y-9.673 Z-0.200 F200.000
G1 X35.783 Y-8.821 Z-0.200 F200.000
G0 Z0.200
G0 Z0.200
G0 X35.783 Y-8.821
G0 X34.838 Y-8.766
G0 X34.838 Y-8.766 Z0.100
G1 X34.838 Y-8.766 Z-0.200 F150.000
G3 X34.174 Y-7.726 Z-0.200 I-1.049 J0.062 K0.000 F200.000
G3 X32.894 Y-8.693 Z-0.200 I-0.320 J-0.908 K0.000 F200.000
G3 X34.143 Y-9.674 Z-0.200 I0.956 J-0.068 K0.000 F200.000
G1 X34.378 Y-9.575 Z-0.200 F200.000
G3 X34.838 Y-8.766 Z-0.200 I-0.589 J0.870 K0.000 F200.000
G0 Z0.200
G0 X34.750 Y-8.767 Z0.200
G0 X34.750 Y-8.767 Z0.100
G1 X34.750 Y-8.767 Z-0.200 F150.000
G3 X34.748 Y-8.713 Z-0.200 I-0.889 J-0.008 K0.000 F200.000
G3 X33.425 Y-7.841 Z-0.200 I-0.893 J0.086 K0.000 F200.000
G3 X33.365 Y-9.512 Z-0.200 I0.592 J-0.858 K0.000 F200.000
G3 X34.750 Y-8.767 Z-0.200 I0.497 J0.737 K0.000 F200.000
G0 Z0.200
G0 Z0.200
G0 X34.750 Y-8.767
G0 X32.115 Y-9.231
G0 X32.115 Y-9.231 Z0.100
G1 X32.115 Y-9.231 Z-0.200 F150.000
G1 X32.023 Y-9.231 Z-0.200 F200.000
G2 X30.406 Y-8.880 Z-0.200 I-0.749 J0.453 K0.000 F200.000
G2 X31.144 Y-7.746 Z-0.200 I0.912 J0.214 K0.000 F200.000
G2 X32.025 Y-8.160 Z-0.200 I0.177 J-0.768 K0.000 F200.000
G1 X32.115 Y-8.160 Z-0.200 F200.000
G3 X30.310 Y-8.693 Z-0.200 I-0.840 J-0.478 K0.000 F200.000
G3 X31.714 Y-9.616 Z-0.200 I0.963 J-0.065 K0.000 F200.000
G3 X32.115 Y-9.231 Z-0.200 I-0.290 J0.702 K0.000 F200.000
G0 Z0.200
G0 Z0.200
G0 X32.115 Y-9.231
G0 X42.145
G0 X42.145 Z0.100
G1 X42.145 Y-9.231 Z-0.200 F150.000
G1 X42.145 Y-9.673 Z-0.200 F200.000
G1 X42.225 Y-9.673 Z-0.200 F200.000
G2 X42.269 Y-8.491 Z-0.200 I4.447 J0.426 K0.000 F200.000
G2 X42.373 Y-8.251 Z-0.200 I0.590 J-0.111 K0.000 F200.000
G2 X42.225 Y-8.135 Z-0.200 I-0.034 J0.108 K0.000 F200.000
G1 X42.225 Y-7.718 Z-0.200 F200.000
G1 X42.145 Y-7.718 Z-0.200 F200.000
G1 X42.145 Y-9.231 Z-0.200 F200.000
G0 Z0.200
G0 X42.207 Y-8.495 Z0.200
G0 X42.207 Y-8.495 Z0.100
G1 X42.207 Y-8.495 Z-0.200 F150.000
G2 X42.275 Y-8.297 Z-0.200 I0.476 J-0.054 K0.000 F200.000
G2 X42.207 Y-8.234 Z-0.200 I0.001 J0.069 K0.000 F200.000
G1 X42.207 Y-8.495 Z-0.200 F200.000
G0 Z0.200
G0 X42.583 Y-7.975 Z0.200
G0 X42.583 Y-7.975 Z0.100
G1 X42.583 Y-7.975 Z-0.200 F150.000
G2 X43.059 Y-7.771 Z-0.200 I0.520 J-0.559 K0.000 F200.000
G1 X43.059 Y-7.692 Z-0.200 F200.000
G3 X42.583 Y-7.975 Z-0.200 I0.058 J-0.641 K0.000 F200.000
G0 Z0.200
G0 Z0.200
(Finish operation: Pocket_Shape)
(Begin postamble)
M5
G17 G90
M2
