(Exported by FreeCAD)
(Post Processor: grbl_post)
(Output Time:2023-04-21 21:23:15.448475)
(Begin preamble)
G17 G90
G21
(Begin operation: G54)
(Path: G54)
G54
G0 Z5.000
(Finish operation: G54)
(Begin operation: ballend-012mm-200)
(Path: ballend-012mm-200)
(ballend-012mm-200)
(Begin toolchange)
( M6 T2 )
M3 S10000
(Finish operation: ballend-012mm-200)
(Begin operation: 0.12-200)
(Path: 0.12-200)
(0.12-200)
G0 Z0.500
G0 X2.352 Y-1.338
G0 Z0.300
G1 X2.352 Y-1.338 Z-0.200 F150.000
G1 X2.263 Y-1.277 Z-0.200 F200.000
G2 X2.246 Y-2.172 Z-0.200 I-0.324 J-0.442 K0.000 F200.000
G3 X2.352 Y-1.338 Z-0.200 I-0.293 J0.461 K0.000 F200.000
G0 Z0.500
G0 X2.243 Y-1.263 Z0.500
G0 X2.243 Y-1.263 Z0.300
G1 X2.243 Y-1.263 Z-0.200 F150.000
G3 X1.532 Y-2.040 Z-0.200 I-0.286 J-0.452 K0.000 F200.000
G3 X1.804 Y-2.225 Z-0.200 I0.359 J0.237 K0.000 F200.000
G2 X2.123 Y-1.210 Z-0.200 I0.171 J0.504 K0.000 F200.000
G1 X2.243 Y-1.263 Z-0.200 F200.000
G0 Z0.500
G0 X2.227 Y-2.185 Z0.500
G0 X2.227 Y-2.185 Z0.300
G1 X2.227 Y-2.185 Z-0.200 F150.000
G2 X1.849 Y-2.233 Z-0.200 I-0.253 J0.479 K0.000 F200.000
G3 X2.227 Y-2.185 Z-0.200 I0.140 J0.413 K0.000 F200.000
G0 Z0.500
G0 Z0.500
G0 X2.227 Y-2.185
G0 X2.845 Y-1.985
G0 X2.845 Y-1.985 Z0.300
G1 X2.845 Y-1.985 Z-0.200 F150.000
G3 X3.141 Y-2.234 Z-0.200 I0.346 J0.112 K0.000 F200.000
G2 X2.830 Y-1.804 Z-0.200 I0.093 J0.394 K0.000 F200.000
G1 X2.830 Y-1.195 Z-0.200 F200.000
G1 X2.818 Y-1.195 Z-0.200 F200.000
G3 X2.832 Y-1.931 Z-0.200 I3.396 J-0.301 K0.000 F200.000
G3 X2.845 Y-1.985 Z-0.200 I0.359 J0.058 K0.000 F200.000
G0 Z0.500
G0 X3.162 Y-2.238 Z0.500
G0 X3.162 Y-2.238 Z0.300
G1 X3.162 Y-2.238 Z-0.200 F150.000
G3 X3.483 Y-2.198 Z-0.200 I0.114 J0.393 K0.000 F200.000
G3 X3.691 Y-1.797 Z-0.200 I-0.235 J0.377 K0.000 F200.000
G1 X3.691 Y-1.195 Z-0.200 F200.000
G1 X3.679 Y-1.195 Z-0.200 F200.000
G2 X3.661 Y-1.948 Z-0.200 I-3.044 J-0.306 K0.000 F200.000
G2 X3.162 Y-2.238 Z-0.200 I-0.400 J0.115 K0.000 F200.000
G0 Z0.500
G0 Z0.500
G0 X3.162 Y-2.238
G0 X4.372 Y-2.243
G0 X4.372 Y-2.243 Z0.300
G1 X4.372 Y-2.243 Z-0.200 F150.000
G1 X4.384 Y-2.243 Z-0.200 F200.000
G1 X4.384 Y-1.260 Z-0.200 F200.000
G2 X4.444 Y-1.200 Z-0.200 I0.060 J0.000 K0.000 F200.000
G1 X4.792 Y-1.200 Z-0.200 F200.000
G1 X4.792 Y-1.195 Z-0.200 F200.000
G1 X3.964 Y-1.195 Z-0.200 F200.000
G1 X3.964 Y-1.200 Z-0.200 F200.000
G1 X4.312 Y-1.200 Z-0.200 F200.000
G2 X4.372 Y-1.260 Z-0.200 I0.000 J-0.060 K0.000 F200.000
G1 X4.372 Y-2.243 Z-0.200 F200.000
G0 Z0.500
G0 Z0.500
G0 X4.372 Y-2.243
G0 X17.063 Y-1.492
G0 X17.063 Y-1.492 Z0.300
G1 X17.063 Y-1.492 Z-0.200 F150.000
G3 X17.101 Y-1.630 Z-0.200 I0.335 J0.020 K0.000 F200.000
G3 X17.280 Y-1.755 Z-0.200 I0.200 J0.094 K0.000 F200.000
G2 X17.491 Y-1.166 Z-0.200 I0.112 J0.292 K0.000 F200.000
G2 X17.687 Y-1.620 Z-0.200 I-0.080 J-0.304 K0.000 F200.000
G2 X17.756 Y-1.686 Z-0.200 I0.012 J-0.057 K0.000 F200.000
G2 X17.557 Y-2.168 Z-0.200 I-0.506 J-0.073 K0.000 F200.000
G2 X17.118 Y-2.055 Z-0.200 I-0.165 J0.270 K0.000 F200.000
G3 X17.582 Y-2.170 Z-0.200 I0.278 J0.127 K0.000 F200.000
G3 X17.600 Y-1.204 Z-0.200 I-0.559 J0.494 K0.000 F200.000
G3 X17.063 Y-1.492 Z-0.200 I-0.202 J-0.268 K0.000 F200.000
G0 Z0.500
G0 X17.349 Y-1.772 Z0.500
G0 X17.349 Y-1.772 Z0.300
G1 X17.349 Y-1.772 Z-0.200 F150.000
G3 X17.503 Y-1.764 Z-0.200 I0.065 J0.230 K0.000 F200.000
G1 X17.534 Y-1.749 Z-0.200 F200.000
G2 X17.349 Y-1.772 Z-0.200 I-0.125 J0.251 K0.000 F200.000
G0 Z0.500
G0 X17.728 Y-1.600 Z0.500
G0 X17.728 Y-1.600 Z0.300
G1 X17.728 Y-1.600 Z-0.200 F150.000
G1 X17.727 Y-1.590 Z-0.200 F200.000
G3 X17.723 Y-1.596 Z-0.200 I0.001 J-0.005 K0.000 F200.000
G3 X17.728 Y-1.600 Z-0.200 I0.005 J0.001 K0.000 F200.000
G0 Z0.500
G0 Z0.500
G0 X17.728 Y-1.600
G0 X18.115 Y-1.444
G0 X18.115 Y-1.444 Z0.300
G1 X18.115 Y-1.444 Z-0.200 F150.000
G1 X18.424 Y-2.207 Z-0.200 F200.000
G1 X18.495 Y-2.207 Z-0.200 F200.000
G1 X18.919 Y-1.159 Z-0.200 F200.000
G1 X18.904 Y-1.159 Z-0.200 F200.000
G1 X18.515 Y-2.139 Z-0.200 F200.000
G2 X18.403 Y-2.139 Z-0.200 I-0.056 J0.022 K0.000 F200.000
G1 X18.014 Y-1.159 Z-0.200 F200.000
G1 X18.000 Y-1.159 Z-0.200 F200.000
G1 X18.115 Y-1.444 Z-0.200 F200.000
G0 Z0.500
G0 Z0.500
(Finish operation: 0.12-200)
(Begin operation: ballend-015mm-200)
(Path: ballend-015mm-200)
(ballend-015mm-200)
(Begin toolchange)
( M6 T3 )
M3 S10000
(Finish operation: ballend-015mm-200)
(Begin operation: 0.15-200)
(Path: 0.15-200)
(0.15-200)
G0 Z0.500
G0 X7.290 Y-1.346
G0 Z0.300
G1 X7.290 Y-1.346 Z-0.200 F150.000
G1 X7.247 Y-1.346 Z-0.200 F200.000
G2 X7.225 Y-1.674 Z-0.200 I-0.407 J-0.138 K0.000 F200.000
G2 X6.895 Y-1.696 Z-0.200 I-0.191 J0.387 K0.000 F200.000
G1 X6.895 Y-1.740 Z-0.200 F200.000
G2 X7.225 Y-1.762 Z-0.200 I0.138 J-0.409 K0.000 F200.000
G2 X7.247 Y-2.092 Z-0.200 I-0.387 J-0.191 K0.000 F200.000
G1 X7.290 Y-2.092 Z-0.200 F200.000
G2 X7.312 Y-1.762 Z-0.200 I0.409 J0.138 K0.000 F200.000
G2 X7.641 Y-1.740 Z-0.200 I0.191 J-0.385 K0.000 F200.000
G1 X7.641 Y-1.696 Z-0.200 F200.000
G2 X7.312 Y-1.674 Z-0.200 I-0.138 J0.407 K0.000 F200.000
G2 X7.290 Y-1.346 Z-0.200 I0.385 J0.191 K0.000 F200.000
G0 Z0.500
G0 X7.272 Y-1.710 Z0.500
G0 X7.272 Y-1.710 Z0.300
G1 X7.272 Y-1.710 Z-0.200 F150.000
G3 X7.260 Y-1.715 Z-0.200 I-0.003 J-0.008 K0.000 F200.000
G3 X7.266 Y-1.726 Z-0.200 I0.008 J-0.003 K0.000 F200.000
G3 X7.277 Y-1.721 Z-0.200 I0.003 J0.008 K0.000 F200.000
G3 X7.272 Y-1.710 Z-0.200 I-0.008 J0.003 K0.000 F200.000
G0 Z0.500
G0 Z0.500
G0 X7.272 Y-1.710
G0 X7.641 Y-1.017
G0 X7.641 Y-1.017 Z0.300
G1 X7.641 Y-1.017 Z-0.200 F150.000
G3 X7.572 Y-0.985 Z-0.200 I-0.374 J-0.702 K0.000 F200.000
G3 X6.956 Y-2.452 Z-0.200 I-0.306 J-0.734 K0.000 F200.000
G3 X7.641 Y-1.017 Z-0.200 I0.311 J0.732 K0.000 F200.000
G0 Z0.500
G0 X7.654 Y-0.991 Z0.500
G0 X7.654 Y-0.991 Z0.300
G1 X7.654 Y-0.991 Z-0.200 F150.000
G3 X6.460 Y-1.902 Z-0.200 I-0.389 J-0.728 K0.000 F200.000
G3 X8.087 Y-1.794 Z-0.200 I0.805 J0.184 K0.000 F200.000
G2 X8.161 Y-1.733 Z-0.200 I0.074 J-0.014 K0.000 F200.000
G1 X10.276 Y-1.733 Z-0.200 F200.000
G2 X10.384 Y-1.961 Z-0.200 I-0.086 J-0.180 K0.000 F200.000
G3 X11.588 Y-2.425 Z-0.200 I0.782 J0.234 K0.000 F200.000
G1 X11.588 Y-2.382 Z-0.200 F200.000
G2 X10.619 Y-1.147 Z-0.200 I-0.424 J0.664 K0.000 F200.000
G2 X11.588 Y-1.041 Z-0.200 I0.553 J-0.571 K0.000 F200.000
G1 X11.588 Y-1.011 Z-0.200 F200.000
G3 X10.351 Y-1.645 Z-0.200 I-0.419 J-0.706 K0.000 F200.000
G2 X10.277 Y-1.705 Z-0.200 I-0.074 J0.015 K0.000 F200.000
G1 X8.162 Y-1.705 Z-0.200 F200.000
G2 X8.060 Y-1.495 Z-0.200 I0.076 J0.167 K0.000 F200.000
G3 X7.654 Y-0.991 Z-0.200 I-0.794 J-0.224 K0.000 F200.000
G0 Z0.500
G0 X8.093 Y-1.714 Z0.500
G0 X8.093 Y-1.714 Z0.300
G1 X8.093 Y-1.714 Z-0.200 F150.000
G1 X8.094 Y-1.720 Z-0.200 F200.000
G1 X8.097 Y-1.715 Z-0.200 F200.000
G1 X8.093 Y-1.714 Z-0.200 F200.000
G0 Z0.500
G0 Z0.500
G0 X8.093 Y-1.714
G0 X14.353
G0 X14.353 Z0.300
G1 X14.353 Y-1.714 Z-0.200 F150.000
G1 X14.353 Y-1.744 Z-0.200 F200.000
G1 X15.208 Y-1.744 Z-0.200 F200.000
G1 X15.208 Y-1.694 Z-0.200 F200.000
G1 X14.353 Y-1.694 Z-0.200 F200.000
G1 X14.353 Y-1.714 Z-0.200 F200.000
G0 Z0.500
G0 Z0.500
G0 X14.353 Y-1.714
G0 X13.939 Y-1.844
G0 X13.939 Y-1.844 Z0.300
G1 X13.939 Y-1.844 Z-0.200 F150.000
G2 X13.942 Y-1.943 Z-0.200 I-0.175 J-0.055 K0.000 F200.000
G3 X15.541 Y-1.535 Z-0.200 I0.794 J0.224 K0.000 F200.000
G1 X15.502 Y-1.412 Z-0.200 F200.000
G3 X13.913 Y-1.650 Z-0.200 I-0.766 J-0.307 K0.000 F200.000
G2 X13.841 Y-1.705 Z-0.200 I-0.072 J0.021 K0.000 F200.000
G1 X11.654 Y-1.705 Z-0.200 F200.000
G2 X11.517 Y-1.490 Z-0.200 I0.090 J0.209 K0.000 F200.000
G3 X10.788 Y-1.869 Z-0.200 I-0.344 J-0.229 K0.000 F200.000
G3 X11.583 Y-1.783 Z-0.200 I0.386 J0.152 K0.000 F200.000
G2 X11.654 Y-1.733 Z-0.200 I0.071 J-0.024 K0.000 F200.000
G1 X13.840 Y-1.733 Z-0.200 F200.000
G2 X13.939 Y-1.844 Z-0.200 I-0.076 J-0.167 K0.000 F200.000
G0 Z0.500
G0 X13.951 Y-1.842 Z0.500
G0 X13.951 Y-1.842 Z0.300
G1 X13.951 Y-1.842 Z-0.200 F150.000
G3 X15.344 Y-2.235 Z-0.200 I0.787 J0.124 K0.000 F200.000
G3 X14.130 Y-1.203 Z-0.200 I-0.608 J0.515 K0.000 F200.000
G3 X13.951 Y-1.842 Z-0.200 I0.608 J-0.515 K0.000 F200.000
G0 Z0.500
G0 X11.559 Y-1.724 Z0.500
G0 X11.559 Y-1.724 Z0.300
G1 X11.559 Y-1.724 Z-0.200 F150.000
G3 X11.529 Y-1.680 Z-0.200 I-0.043 J0.002 K0.000 F200.000
G1 X11.465 Y-1.522 Z-0.200 F200.000
G3 X10.844 Y-1.847 Z-0.200 I-0.292 J-0.197 K0.000 F200.000
G3 X11.526 Y-1.764 Z-0.200 I0.330 J0.131 K0.000 F200.000
G3 X11.559 Y-1.724 Z-0.200 I-0.010 J0.042 K0.000 F200.000
G0 Z0.500
G0 X11.487 Y-1.721 Z0.500
G0 X11.487 Y-1.721 Z0.300
G1 X11.487 Y-1.721 Z-0.200 F150.000
G3 X10.969 Y-1.511 Z-0.200 I-0.308 J-0.017 K0.000 F200.000
G3 X11.356 Y-1.946 Z-0.200 I0.205 J-0.208 K0.000 F200.000
G3 X11.470 Y-1.744 Z-0.200 I-0.228 J0.260 K0.000 F200.000
G1 X11.487 Y-1.721 Z-0.200 F200.000
G0 Z0.500
G0 X11.415 Y-1.721 Z0.500
G0 X11.415 Y-1.721 Z0.300
G1 X11.415 Y-1.721 Z-0.200 F150.000
G3 X10.942 Y-1.719 Z-0.200 I-0.237 J-0.004 K0.000 F200.000
G3 X11.415 Y-1.721 Z-0.200 I0.237 J0.009 K0.000 F200.000
G0 Z0.500
G0 X11.351 Y-1.720 Z0.500
G0 X11.351 Y-1.720 Z0.300
G1 X11.351 Y-1.720 Z-0.200 F150.000
G3 X11.003 Y-1.719 Z-0.200 I-0.174 J-0.002 K0.000 F200.000
G3 X11.351 Y-1.720 Z-0.200 I0.174 J0.005 K0.000 F200.000
G0 Z0.500
G0 X11.287 Y-1.722 Z0.500
G0 X11.287 Y-1.722 Z0.300
G1 X11.287 Y-1.722 Z-0.200 F150.000
G3 X11.177 Y-1.609 Z-0.200 I-0.111 J0.002 K0.000 F200.000
G3 X11.065 Y-1.719 Z-0.200 I-0.002 J-0.111 K0.000 F200.000
G3 X11.287 Y-1.722 Z-0.200 I0.111 J0.003 K0.000 F200.000
G0 Z0.500
G0 X11.223 Y-1.724 Z0.500
G0 X11.223 Y-1.724 Z0.300
G1 X11.223 Y-1.724 Z-0.200 F150.000
G3 X11.128 Y-1.706 Z-0.200 I-0.048 J0.003 K0.000 F200.000
G3 X11.219 Y-1.733 Z-0.200 I0.046 J-0.011 K0.000 F200.000
G1 X11.223 Y-1.724 Z-0.200 F200.000
G0 Z0.500
G0 X11.181 Y-1.721 Z0.500
G0 X11.181 Y-1.721 Z0.300
G1 X11.181 Y-1.721 Z-0.200 F150.000
G3 X11.169 Y-1.712 Z-0.200 I-0.007 J0.004 K0.000 F200.000
G3 X11.173 Y-1.727 Z-0.200 I0.004 J-0.007 K0.000 F200.000
G3 X11.181 Y-1.721 Z-0.200 I0.001 J0.008 K0.000 F200.000
G0 Z0.500
G0 Z0.500
G0 X11.181 Y-1.721
G0 X9.802 Y-14.262
G0 X9.802 Y-14.262 Z0.300
G1 X9.802 Y-14.262 Z-0.200 F150.000
G3 X9.648 Y-15.766 Z-0.200 I-0.059 J-0.754 K0.000 F200.000
G3 X10.093 Y-15.718 Z-0.200 I0.130 J0.874 K0.000 F200.000
G3 X10.207 Y-14.365 Z-0.200 I-0.286 J0.705 K0.000 F200.000
G3 X10.256 Y-14.505 Z-0.200 I0.072 J-0.054 K0.000 F200.000
G2 X9.837 Y-15.655 Z-0.200 I-0.408 J-0.502 K0.000 F200.000
G1 X9.802 Y-15.591 Z-0.200 F200.000
G1 X9.802 Y-14.262 Z-0.200 F200.000
G0 Z0.500
G0 X9.742 Y-14.328 Z0.500
G0 X9.742 Y-14.328 Z0.300
G1 X9.742 Y-14.328 Z-0.200 F150.000
G1 X9.703 Y-14.334 Z-0.200 F200.000
G1 X9.742 Y-14.367 Z-0.200 F200.000
G1 X9.742 Y-14.328 Z-0.200 F200.000
G0 Z0.500
G0 X9.674 Y-14.381 Z0.500
G0 X9.674 Y-14.381 Z0.300
G1 X9.674 Y-14.381 Z-0.200 F150.000
G3 X9.620 Y-15.660 Z-0.200 I0.023 J-0.642 K0.000 F200.000
G3 X9.718 Y-15.588 Z-0.200 I0.023 J0.071 K0.000 F200.000
G1 X9.718 Y-14.449 Z-0.200 F200.000
G1 X9.674 Y-14.381 Z-0.200 F200.000
G0 Z0.500
G0 X9.756 Y-15.647 Z0.500
G0 X9.756 Y-15.647 Z0.300
G1 X9.756 Y-15.647 Z-0.200 F150.000
G2 X9.688 Y-15.709 Z-0.200 I-0.071 J0.010 K0.000 F200.000
G3 X9.813 Y-15.708 Z-0.200 I0.062 J0.305 K0.000 F200.000
G1 X9.756 Y-15.647 Z-0.200 F200.000
G0 Z0.500
G0 Z0.500
G0 X9.756 Y-15.647
G0 X9.744 Y-16.329
G0 X9.744 Y-16.329 Z0.300
G1 X9.744 Y-16.329 Z-0.200 F150.000
G3 X9.406 Y-17.584 Z-0.200 I-0.012 J-0.670 K0.000 F200.000
G3 X9.755 Y-17.667 Z-0.200 I0.346 J0.680 K0.000 F200.000
G3 X9.952 Y-16.366 Z-0.200 I0.050 J0.658 K0.000 F200.000
G3 X9.744 Y-16.329 Z-0.200 I-0.220 J-0.633 K0.000 F200.000
G0 Z0.500
G0 X9.542 Y-16.316 Z0.500
G0 X9.542 Y-16.316 Z0.300
G1 X9.542 Y-16.316 Z-0.200 F150.000
G1 X9.259 Y-16.316 Z-0.200 F200.000
G2 X9.336 Y-16.403 Z-0.200 I-0.013 J-0.089 K0.000 F200.000
G2 X9.542 Y-16.316 Z-0.200 I0.294 J-0.412 K0.000 F200.000
G0 Z0.500
G0 Y-16.256 Z0.500
G0 Y-16.256 Z0.300
G1 X9.542 Y-16.256 Z-0.200 F150.000
G1 X9.014 Y-16.256 Z-0.200 F200.000
G1 X9.014 Y-16.358 Z-0.200 F200.000
G2 X9.260 Y-16.380 Z-0.200 I0.097 J-0.308 K0.000 F200.000
G2 X9.180 Y-16.551 Z-0.200 I-0.117 J-0.050 K0.000 F200.000
G3 X9.762 Y-17.768 Z-0.200 I0.529 J-0.495 K0.000 F200.000
G3 X10.266 Y-16.489 Z-0.200 I0.059 J0.716 K0.000 F200.000
G2 X10.316 Y-16.358 Z-0.200 I0.050 J0.056 K0.000 F200.000
G2 X11.002 Y-16.525 Z-0.200 I0.187 J-0.725 K0.000 F200.000
G2 X10.929 Y-17.498 Z-0.200 I-0.586 J-0.446 K0.000 F200.000
G1 X10.891 Y-17.519 Z-0.200 F200.000
G1 X10.891 Y-17.635 Z-0.200 F200.000
G3 X11.230 Y-16.972 Z-0.200 I-0.335 J0.589 K0.000 F200.000
G3 X11.009 Y-16.393 Z-0.200 I-0.673 J0.075 K0.000 F200.000
G3 X10.558 Y-16.256 Z-0.200 I-0.409 J-0.539 K0.000 F200.000
G1 X9.542 Y-16.256 Z-0.200 F200.000
G0 Z0.500
G0 X9.991 Y-16.316 Z0.500
G0 X9.991 Y-16.316 Z0.300
G1 X9.991 Y-16.316 Z-0.200 F150.000
G2 X10.193 Y-16.403 Z-0.200 I-0.083 J-0.470 K0.000 F200.000
G2 X10.282 Y-16.316 Z-0.200 I0.082 J0.005 K0.000 F200.000
G1 X9.991 Y-16.316 Z-0.200 F200.000
G0 Z0.500
G0 Z0.500
(Finish operation: 0.15-200)
(Begin operation: ballend-020mm-200)
(Path: ballend-020mm-200)
(ballend-020mm-200)
(Begin toolchange)
( M6 T4 )
M3 S10000
(Finish operation: ballend-020mm-200)
(Begin operation: 0.20-200)
(Path: 0.20-200)
(0.2-200)
G0 Z0.500
G0 X4.641 Y-4.992
G0 Z0.300
G1 X4.641 Y-4.992 Z-0.200 F150.000
G1 X4.515 Y-4.992 Z-0.200 F200.000
G1 X3.886 Y-6.675 Z-0.200 F200.000
G2 X3.699 Y-6.675 Z-0.200 I-0.094 J0.035 K0.000 F200.000
G1 X3.066 Y-4.992 Z-0.200 F200.000
G1 X2.940 Y-4.992 Z-0.200 F200.000
G1 X3.678 Y-6.873 Z-0.200 F200.000
G1 X3.907 Y-6.873 Z-0.200 F200.000
G1 X4.641 Y-4.992 Z-0.200 F200.000
G0 Z0.500
G0 X4.568 Y-5.042 Z0.500
G0 X4.568 Y-5.042 Z0.300
G1 X4.568 Y-5.042 Z-0.200 F150.000
G1 X4.550 Y-5.042 Z-0.200 F200.000
G1 X4.131 Y-6.161 Z-0.200 F200.000
G1 X4.568 Y-5.042 Z-0.200 F200.000
G0 Z0.500
G0 X3.222 Y-5.548 Z0.500
G0 X3.222 Y-5.548 Z0.300
G1 X3.222 Y-5.548 Z-0.200 F150.000
G1 X3.031 Y-5.042 Z-0.200 F200.000
G1 X3.013 Y-5.042 Z-0.200 F200.000
G1 X3.450 Y-6.154 Z-0.200 F200.000
G1 X3.222 Y-5.548 Z-0.200 F200.000
G0 Z0.500
G0 X3.665 Y-6.703 Z0.500
G0 X3.665 Y-6.703 Z0.300
G1 X3.665 Y-6.703 Z-0.200 F150.000
G1 X3.712 Y-6.823 Z-0.200 F200.000
G1 X3.873 Y-6.823 Z-0.200 F200.000
G1 X3.917 Y-6.711 Z-0.200 F200.000
G2 X3.665 Y-6.703 Z-0.200 I-0.125 J0.058 K0.000 F200.000
G0 Z0.500
G0 Z0.500
G0 X3.665 Y-6.703
G0 X5.090 Y-6.263
G0 X5.090 Y-6.263 Z0.300
G1 X5.090 Y-6.263 Z-0.200 F150.000
G3 X6.260 Y-6.872 Z-0.200 I0.885 J0.273 K0.000 F200.000
G3 X6.879 Y-5.643 Z-0.200 I-0.316 J0.929 K0.000 F200.000
G1 X6.801 Y-5.439 Z-0.200 F200.000
G3 X5.050 Y-5.931 Z-0.200 I-0.821 J-0.439 K0.000 F200.000
G3 X5.090 Y-6.263 Z-0.200 I0.925 J-0.059 K0.000 F200.000
G0 Z0.500
G0 X5.149 Y-6.244 Z0.500
G0 X5.149 Y-6.244 Z0.300
G1 X5.149 Y-6.244 Z-0.200 F150.000
G3 X5.253 Y-6.470 Z-0.200 I0.973 J0.311 K0.000 F200.000
G2 X5.368 Y-5.244 Z-0.200 I0.932 J0.531 K0.000 F200.000
G3 X5.149 Y-6.244 Z-0.200 I0.755 J-0.689 K0.000 F200.000
G0 Z0.500
G0 X5.189 Y-6.233 Z0.500
G0 X5.189 Y-6.233 Z0.300
G1 X5.189 Y-6.233 Z-0.200 F150.000
G3 X6.702 Y-6.383 Z-0.200 I0.786 J0.224 K0.000 F200.000
G3 X6.791 Y-5.770 Z-0.200 I-0.955 J0.451 K0.000 F200.000
G3 X5.163 Y-5.922 Z-0.200 I-0.813 J-0.087 K0.000 F200.000
G3 X5.189 Y-6.233 Z-0.200 I0.813 J-0.086 K0.000 F200.000
G0 Z0.500
G0 X5.301 Y-6.540 Z0.500
G0 X5.301 Y-6.540 Z0.300
G1 X5.301 Y-6.540 Z-0.200 F150.000
G3 X5.340 Y-6.591 Z-0.200 I0.111 J0.044 K0.000 F200.000
G1 X5.301 Y-6.540 Z-0.200 F200.000
G0 Z0.500
G0 X6.605 Y-6.608 Z0.500
G0 X6.605 Y-6.608 Z0.300
G1 X6.605 Y-6.608 Z-0.200 F150.000
G3 X6.757 Y-5.463 Z-0.200 I-0.762 J0.683 K0.000 F200.000
G1 X6.638 Y-5.297 Z-0.200 F200.000
G2 X6.605 Y-6.608 Z-0.200 I-0.837 J-0.635 K0.000 F200.000
G0 Z0.500
G0 X6.614 Y-5.264 Z0.500
G0 X6.614 Y-5.264 Z0.300
G1 X6.614 Y-5.264 Z-0.200 F150.000
G3 X6.574 Y-5.228 Z-0.200 I-0.083 J-0.052 K0.000 F200.000
G1 X6.614 Y-5.264 Z-0.200 F200.000
G0 Z0.500
G0 Z0.500
G0 X6.614 Y-5.264
G0 X7.527
G0 X7.527 Z0.300
G1 X7.527 Y-5.264 Z-0.200 F150.000
G1 X7.527 Y-6.873 Z-0.200 F200.000
G1 X7.639 Y-6.873 Z-0.200 F200.000
G1 X7.639 Y-4.159 Z-0.200 F200.000
G1 X7.527 Y-4.159 Z-0.200 F200.000
G1 X7.527 Y-5.264 Z-0.200 F200.000
G0 Z0.500
G0 X7.577 Z0.500
G0 X7.577 Z0.300
G1 X7.577 Y-5.264 Z-0.200 F150.000
G1 X7.577 Y-6.823 Z-0.200 F200.000
G1 X7.589 Y-6.823 Z-0.200 F200.000
G1 X7.589 Y-4.209 Z-0.200 F200.000
G1 X7.577 Y-4.209 Z-0.200 F200.000
G1 X7.577 Y-5.264 Z-0.200 F200.000
G0 Z0.500
G0 Z0.500
G0 X7.577 Y-5.264
G0 X8.359
G0 X8.359 Z0.300
G1 X8.359 Y-5.264 Z-0.200 F150.000
G1 X8.359 Y-6.097 Z-0.200 F200.000
G3 X9.710 Y-6.579 Z-0.200 I0.737 J-0.070 K0.000 F200.000
G2 X9.883 Y-6.648 Z-0.200 I0.072 J-0.069 K0.000 F200.000
G1 X9.883 Y-6.873 Z-0.200 F200.000
G1 X9.995 Y-6.873 Z-0.200 F200.000
G1 X9.995 Y-4.992 Z-0.200 F200.000
G1 X9.883 Y-4.992 Z-0.200 F200.000
G1 X9.881 Y-6.107 Z-0.200 F200.000
G2 X8.495 Y-6.303 Z-0.200 I-0.706 J-0.006 K0.000 F200.000
G1 X8.471 Y-6.095 Z-0.200 F200.000
G1 X8.471 Y-4.992 Z-0.200 F200.000
G1 X8.359 Y-4.992 Z-0.200 F200.000
G1 X8.359 Y-5.264 Z-0.200 F200.000
G0 Z0.500
G0 X9.893 Y-6.387 Z0.500
G0 X9.893 Y-6.387 Z0.300
G1 X9.893 Y-6.387 Z-0.200 F150.000
G3 X9.915 Y-6.537 Z-0.200 I0.088 J-0.064 K0.000 F200.000
G1 X9.915 Y-6.364 Z-0.200 F200.000
G3 X9.893 Y-6.387 Z-0.200 I0.065 J-0.087 K0.000 F200.000
G0 Z0.500
G0 Z0.500
G0 X9.893 Y-6.387
G0 X10.736
G0 X10.736 Z0.300
G1 X10.736 Y-6.387 Z-0.200 F150.000
G1 X10.736 Y-6.873 Z-0.200 F200.000
G1 X10.849 Y-6.873 Z-0.200 F200.000
G1 X10.850 Y-5.713 Z-0.200 F200.000
G2 X10.981 Y-5.296 Z-0.200 I0.672 J0.018 K0.000 F200.000
G2 X10.849 Y-5.208 Z-0.200 I-0.039 J0.085 K0.000 F200.000
G1 X10.849 Y-4.992 Z-0.200 F200.000
G1 X10.736 Y-4.992 Z-0.200 F200.000
G1 X10.736 Y-6.387 Z-0.200 F200.000
G0 Z0.500
G0 X10.816 Y-5.439 Z0.500
G0 X10.816 Y-5.439 Z0.300
G1 X10.816 Y-5.439 Z-0.200 F150.000
G3 X10.816 Y-5.323 Z-0.200 I-0.011 J0.058 K0.000 F200.000
G1 X10.816 Y-5.439 Z-0.200 F200.000
G0 Z0.500
G0 X11.080 Y-5.199 Z0.500
G0 X11.080 Y-5.199 Z0.300
G1 X11.080 Y-5.199 Z-0.200 F150.000
G2 X12.126 Y-5.724 Z-0.200 I0.419 J-0.469 K0.000 F200.000
G1 X12.126 Y-6.873 Z-0.200 F200.000
G1 X12.239 Y-6.873 Z-0.200 F200.000
G1 X12.240 Y-5.713 Z-0.200 F200.000
G2 X13.494 Y-5.527 Z-0.200 I0.636 J0.034 K0.000 F200.000
G1 X13.517 Y-5.724 Z-0.200 F200.000
G1 X13.517 Y-6.873 Z-0.200 F200.000
G1 X13.629 Y-6.873 Z-0.200 F200.000
G1 X13.629 Y-5.722 Z-0.200 F200.000
G3 X12.323 Y-5.339 Z-0.200 I-0.688 J0.074 K0.000 F200.000
G2 X12.160 Y-5.335 Z-0.200 I-0.080 J0.060 K0.000 F200.000
G3 X11.080 Y-5.199 Z-0.200 I-0.581 J-0.261 K0.000 F200.000
G0 Z0.500
G0 X12.141 Y-5.416 Z0.500
G0 X12.141 Y-5.416 Z0.300
G1 X12.141 Y-5.416 Z-0.200 F150.000
G2 X12.186 Y-5.539 Z-0.200 I-0.191 J-0.138 K0.000 F200.000
G2 X12.203 Y-5.449 Z-0.200 I0.275 J-0.007 K0.000 F200.000
G2 X12.141 Y-5.416 Z-0.200 I-0.008 J0.058 K0.000 F200.000
G0 Z0.500
G0 Z0.500
G0 X12.141 Y-5.416
G0 X14.225 Y-5.788
G0 X14.225 Y-5.788 Z0.300
G1 X14.225 Y-5.788 Z-0.200 F150.000
G3 X15.718 Y-6.749 Z-0.200 I0.947 J-0.169 K0.000 F200.000
G3 X15.953 Y-6.474 Z-0.200 I-0.357 J0.542 K0.000 F200.000
G3 X15.784 Y-6.547 Z-0.200 I-0.059 J-0.095 K0.000 F200.000
G2 X14.356 Y-6.005 Z-0.200 I-0.616 J0.529 K0.000 F200.000
G1 X14.441 Y-5.957 Z-0.200 F200.000
G1 X16.085 Y-5.957 Z-0.200 F200.000
G3 X14.237 Y-5.731 Z-0.200 I-0.929 J0.073 K0.000 F200.000
G3 X14.225 Y-5.788 Z-0.200 I0.935 J-0.227 K0.000 F200.000
G0 Z0.500
G0 X14.306 Y-5.867 Z0.500
G0 X14.306 Y-5.867 Z0.300
G1 X14.306 Y-5.867 Z-0.200 F150.000
G3 X14.304 Y-5.953 Z-0.200 I0.207 J-0.048 K0.000 F200.000
G1 X14.340 Y-5.912 Z-0.200 F200.000
G2 X14.306 Y-5.867 Z-0.200 I0.014 J0.046 K0.000 F200.000
G0 Z0.500
G0 X14.364 Y-5.825 Z0.500
G0 X14.364 Y-5.825 Z0.300
G1 X14.364 Y-5.825 Z-0.200 F150.000
G3 X14.445 Y-5.866 Z-0.200 I0.081 J0.059 K0.000 F200.000
G1 X15.860 Y-5.866 Z-0.200 F200.000
G1 X15.946 Y-5.817 Z-0.200 F200.000
G3 X14.350 Y-5.735 Z-0.200 I-0.801 J-0.014 K0.000 F200.000
G3 X14.364 Y-5.825 Z-0.200 I0.095 J-0.031 K0.000 F200.000
G0 Z0.500
G0 X15.990 Y-5.877 Z0.500
G0 X15.990 Y-5.877 Z0.300
G1 X15.990 Y-5.877 Z-0.200 F150.000
G1 X15.997 Y-5.877 Z-0.200 F200.000
G1 X15.997 Y-5.870 Z-0.200 F200.000
G1 X15.990 Y-5.877 Z-0.200 F200.000
G0 Z0.500
G0 Z0.500
G0 X15.990 Y-5.877
G0 X12.983 Y-10.096
G0 X12.983 Y-10.096 Z0.300
G1 X12.983 Y-10.096 Z-0.200 F150.000
G3 X11.942 Y-10.281 Z-0.200 I-0.429 J-0.602 K0.000 F200.000
G2 X11.767 Y-10.216 Z-0.200 I-0.076 J0.065 K0.000 F200.000
G1 X11.767 Y-9.992 Z-0.200 F200.000
G1 X11.654 Y-9.992 Z-0.200 F200.000
G1 X11.654 Y-11.873 Z-0.200 F200.000
G1 X11.767 Y-11.873 Z-0.200 F200.000
G1 X11.767 Y-10.762 Z-0.200 F200.000
G2 X13.153 Y-10.554 Z-0.200 I0.706 J0.015 K0.000 F200.000
G1 X13.178 Y-10.770 Z-0.200 F200.000
G1 X13.178 Y-11.873 Z-0.200 F200.000
G1 X13.290 Y-11.873 Z-0.200 F200.000
G1 X13.290 Y-10.768 Z-0.200 F200.000
G3 X12.983 Y-10.096 Z-0.200 I-0.737 J0.070 K0.000 F200.000
G0 Z0.500
G0 X11.790 Y-10.376 Z0.500
G0 X11.790 Y-10.376 Z0.300
G1 X11.790 Y-10.376 Z-0.200 F150.000
G1 X11.734 Y-10.328 Z-0.200 F200.000
G1 X11.734 Y-10.500 Z-0.200 F200.000
G1 X11.790 Y-10.376 Z-0.200 F200.000
G0 Z0.500
G0 Z0.500
G0 X11.790 Y-10.376
G0 X10.913
G0 X10.913 Z0.300
G1 X10.913 Y-10.376 Z-0.200 F150.000
G1 X10.913 Y-9.992 Z-0.200 F200.000
G1 X10.801 Y-9.992 Z-0.200 F200.000
G1 X10.801 Y-11.873 Z-0.200 F200.000
G1 X10.913 Y-11.873 Z-0.200 F200.000
G1 X10.913 Y-10.376 Z-0.200 F200.000
G0 Z0.500
G0 X10.863 Z0.500
G0 X10.863 Z0.300
G1 X10.863 Y-10.376 Z-0.200 F150.000
G1 X10.863 Y-10.042 Z-0.200 F200.000
G1 X10.851 Y-10.042 Z-0.200 F200.000
G1 X10.851 Y-11.823 Z-0.200 F200.000
G1 X10.863 Y-11.823 Z-0.200 F200.000
G1 X10.863 Y-10.376 Z-0.200 F200.000
G0 Z0.500
G0 Z0.500
G0 X10.863 Y-10.376
G0 X10.060
G0 X10.060 Z0.300
G1 X10.060 Y-10.376 Z-0.200 F150.000
G1 X10.060 Y-9.992 Z-0.200 F200.000
G1 X9.948 Y-9.992 Z-0.200 F200.000
G2 X9.918 Y-10.299 Z-0.200 I-0.386 J-0.118 K0.000 F200.000
G2 X9.690 Y-10.193 Z-0.200 I-0.066 J0.156 K0.000 F200.000
G3 X8.196 Y-10.931 Z-0.200 I-0.603 J-0.661 K0.000 F200.000
G3 X9.687 Y-11.676 Z-0.200 I0.890 J-0.084 K0.000 F200.000
G2 X9.839 Y-11.540 Z-0.200 I0.239 J-0.115 K0.000 F200.000
G2 X9.948 Y-11.640 Z-0.200 I0.009 J-0.100 K0.000 F200.000
G1 X9.948 Y-11.873 Z-0.200 F200.000
G1 X10.060 Y-11.873 Z-0.200 F200.000
G1 X10.060 Y-10.376 Z-0.200 F200.000
G0 Z0.500
G0 X9.980 Z0.500
G0 X9.980 Z0.300
G1 X9.980 Y-10.376 Z-0.200 F150.000
G1 X9.980 Y-10.344 Z-0.200 F200.000
G3 X9.953 Y-10.485 Z-0.200 I-0.010 J-0.071 K0.000 F200.000
G1 X9.980 Y-10.578 Z-0.200 F200.000
G1 X9.980 Y-10.376 Z-0.200 F200.000
G0 Z0.500
G0 X9.847 Y-10.453 Z0.500
G0 X9.847 Y-10.453 Z0.300
G1 X9.847 Y-10.453 Z-0.200 F150.000
G3 X8.308 Y-10.918 Z-0.200 I-0.714 J-0.414 K0.000 F200.000
G3 X9.864 Y-11.383 Z-0.200 I0.824 J-0.077 K0.000 F200.000
G3 X9.952 Y-10.770 Z-0.200 I-0.955 J0.451 K0.000 F200.000
G3 X9.847 Y-10.453 Z-0.200 I-0.820 J-0.097 K0.000 F200.000
G0 Z0.500
G0 X9.980 Y-11.290 Z0.500
G0 X9.980 Y-11.290 Z0.300
G1 X9.980 Y-11.290 Z-0.200 F150.000
G2 X9.899 Y-11.472 Z-0.200 I-0.365 J0.053 K0.000 F200.000
G2 X9.980 Y-11.527 Z-0.200 I0.002 J-0.083 K0.000 F200.000
G1 X9.980 Y-11.290 Z-0.200 F200.000
G0 Z0.500
G0 Z0.500
G0 X9.980 Y-11.290
G0 X10.788 Y-9.442
G0 X10.788 Y-9.442 Z0.300
G1 X10.788 Y-9.442 Z-0.200 F150.000
G1 X10.926 Y-9.442 Z-0.200 F200.000
G1 X10.926 Y-9.234 Z-0.200 F200.000
G1 X10.788 Y-9.234 Z-0.200 F200.000
G1 X10.788 Y-9.442 Z-0.200 F200.000
G0 Z0.500
G0 X10.838 Y-9.392 Z0.500
G0 X10.838 Y-9.392 Z0.300
G1 X10.838 Y-9.392 Z-0.200 F150.000
G1 X10.876 Y-9.392 Z-0.200 F200.000
G1 X10.876 Y-9.284 Z-0.200 F200.000
G1 X10.838 Y-9.284 Z-0.200 F200.000
G1 X10.838 Y-9.392 Z-0.200 F200.000
G0 Z0.500
G0 Z0.500
G0 X10.838 Y-9.392
G0 X7.583 Y-9.992
G0 X7.583 Y-9.992 Z0.300
G1 X7.583 Y-9.992 Z-0.200 F150.000
G1 X7.471 Y-9.992 Z-0.200 F200.000
G2 X7.441 Y-10.295 Z-0.200 I-0.381 J-0.116 K0.000 F200.000
G2 X7.203 Y-10.179 Z-0.200 I-0.066 J0.167 K0.000 F200.000
G3 X5.719 Y-10.915 Z-0.200 I-0.592 J-0.669 K0.000 F200.000
G3 X7.296 Y-11.536 Z-0.200 I0.880 J-0.077 K0.000 F200.000
G2 X7.471 Y-11.603 Z-0.200 I0.075 J-0.067 K0.000 F200.000
G2 X7.416 Y-12.220 Z-0.200 I-1.131 J-0.211 K0.000 F200.000
G2 X6.671 Y-12.646 Z-0.200 I-0.648 J0.268 K0.000 F200.000
G2 X6.018 Y-12.323 Z-0.200 I-0.062 J0.695 K0.000 F200.000
G1 X5.888 Y-12.323 Z-0.200 F200.000
G3 X6.700 Y-12.730 Z-0.200 I0.723 J0.429 K0.000 F200.000
G3 X7.226 Y-12.614 Z-0.200 I0.053 J1.019 K0.000 F200.000
G3 X7.583 Y-11.909 Z-0.200 I-0.397 J0.643 K0.000 F200.000
G1 X7.583 Y-9.992 Z-0.200 F200.000
G0 Z0.500
G0 X7.503 Y-10.340 Z0.500
G0 X7.503 Y-10.340 Z0.300
G1 X7.503 Y-10.340 Z-0.200 F150.000
G3 X7.471 Y-10.469 Z-0.200 I-0.011 J-0.066 K0.000 F200.000
G1 X7.503 Y-10.572 Z-0.200 F200.000
G1 X7.503 Y-10.340 Z-0.200 F200.000
G0 Z0.500
G0 X7.358 Y-10.431 Z0.500
G0 X7.358 Y-10.431 Z0.300
G1 X7.358 Y-10.431 Z-0.200 F150.000
G3 X5.832 Y-10.902 Z-0.200 I-0.701 J-0.437 K0.000 F200.000
G3 X7.383 Y-11.363 Z-0.200 I0.825 J-0.066 K0.000 F200.000
G3 X7.474 Y-10.744 Z-0.200 I-0.895 J0.448 K0.000 F200.000
G3 X7.358 Y-10.431 Z-0.200 I-0.817 J-0.124 K0.000 F200.000
G0 Z0.500
G0 X7.503 Y-11.265 Z0.500
G0 X7.503 Y-11.265 Z0.300
G1 X7.503 Y-11.265 Z-0.200 F150.000
G2 X7.429 Y-11.436 Z-0.200 I-0.354 J0.052 K0.000 F200.000
G2 X7.503 Y-11.491 Z-0.200 I-0.000 J-0.079 K0.000 F200.000
G1 X7.503 Y-11.265 Z-0.200 F200.000
G0 Z0.500
G0 Z0.500
(Finish operation: 0.20-200)
(Begin operation: ballend-012mm-250)
(Path: ballend-012mm-250)
(ballend-012mm-250)
(Begin toolchange)
( M6 T5 )
M3 S10000
(Finish operation: ballend-012mm-250)
(Begin operation: 0.12-250)
(Path: 0.12-250)
(0.12-250)
G0 Z0.500
G0 X22.341 Y-1.340
G0 Z0.300
G1 X22.341 Y-1.340 Z-0.200 F150.000
G3 X22.263 Y-1.277 Z-0.200 I-0.374 J-0.379 K0.000 F250.000
G2 X22.246 Y-2.172 Z-0.200 I-0.324 J-0.442 K0.000 F250.000
G3 X22.341 Y-1.340 Z-0.200 I-0.279 J0.453 K0.000 F250.000
G0 Z0.500
G0 X22.243 Y-1.263 Z0.500
G0 X22.243 Y-1.263 Z0.300
G1 X22.243 Y-1.263 Z-0.200 F150.000
G3 X21.491 Y-1.970 Z-0.200 I-0.285 J-0.450 K0.000 F250.000
G3 X21.804 Y-2.225 Z-0.200 I0.406 J0.180 K0.000 F250.000
G2 X22.123 Y-1.210 Z-0.200 I0.171 J0.504 K0.000 F250.000
G1 X22.243 Y-1.263 Z-0.200 F250.000
G0 Z0.500
G0 X22.227 Y-2.185 Z0.500
G0 X22.227 Y-2.185 Z0.300
G1 X22.227 Y-2.185 Z-0.200 F150.000
G2 X21.849 Y-2.233 Z-0.200 I-0.253 J0.479 K0.000 F250.000
G3 X22.183 Y-2.216 Z-0.200 I0.143 J0.471 K0.000 F250.000
G1 X22.227 Y-2.185 Z-0.200 F250.000
G0 Z0.500
G0 Z0.500
G0 X22.227 Y-2.185
G0 X22.844 Y-1.972
G0 X22.844 Y-1.972 Z0.300
G1 X22.844 Y-1.972 Z-0.200 F150.000
G3 X23.483 Y-2.198 Z-0.200 I0.410 J0.142 K0.000 F250.000
G3 X23.691 Y-1.797 Z-0.200 I-0.235 J0.377 K0.000 F250.000
G1 X23.691 Y-1.195 Z-0.200 F250.000
G1 X23.679 Y-1.195 Z-0.200 F250.000
G2 X23.661 Y-1.948 Z-0.200 I-3.044 J-0.306 K0.000 F250.000
G2 X22.830 Y-1.804 Z-0.200 I-0.407 J0.124 K0.000 F250.000
G1 X22.830 Y-1.195 Z-0.200 F250.000
G1 X22.818 Y-1.195 Z-0.200 F250.000
G3 X22.832 Y-1.931 Z-0.200 I3.396 J-0.301 K0.000 F250.000
G3 X22.844 Y-1.972 Z-0.200 I0.422 J0.100 K0.000 F250.000
G0 Z0.500
G0 Z0.500
G0 X22.844 Y-1.972
G0 X23.964 Y-1.200
G0 X23.964 Y-1.200 Z0.300
G1 X23.964 Y-1.200 Z-0.200 F150.000
G1 X24.312 Y-1.200 Z-0.200 F250.000
G2 X24.372 Y-1.260 Z-0.200 I0.000 J-0.060 K0.000 F250.000
G1 X24.372 Y-2.243 Z-0.200 F250.000
G1 X24.384 Y-2.243 Z-0.200 F250.000
G1 X24.384 Y-1.260 Z-0.200 F250.000
G2 X24.444 Y-1.200 Z-0.200 I0.060 J0.000 K0.000 F250.000
G1 X24.792 Y-1.200 Z-0.200 F250.000
G1 X24.792 Y-1.195 Z-0.200 F250.000
G1 X23.964 Y-1.195 Z-0.200 F250.000
G1 X23.964 Y-1.200 Z-0.200 F250.000
G0 Z0.500
G0 Z0.500
G0 X23.964 Y-1.200
G0 X37.062 Y-1.465
G0 X37.062 Y-1.465 Z0.300
G1 X37.062 Y-1.465 Z-0.200 F150.000
G3 X37.101 Y-1.630 Z-0.200 I0.336 J-0.007 K0.000 F250.000
G3 X37.280 Y-1.755 Z-0.200 I0.200 J0.094 K0.000 F250.000
G2 X37.491 Y-1.166 Z-0.200 I0.112 J0.292 K0.000 F250.000
G2 X37.687 Y-1.620 Z-0.200 I-0.080 J-0.304 K0.000 F250.000
G2 X37.756 Y-1.686 Z-0.200 I0.012 J-0.057 K0.000 F250.000
G2 X37.557 Y-2.168 Z-0.200 I-0.506 J-0.073 K0.000 F250.000
G2 X37.118 Y-2.055 Z-0.200 I-0.165 J0.270 K0.000 F250.000
G3 X37.582 Y-2.170 Z-0.200 I0.277 J0.124 K0.000 F250.000
G3 X37.600 Y-1.204 Z-0.200 I-0.559 J0.494 K0.000 F250.000
G3 X37.062 Y-1.465 Z-0.200 I-0.202 J-0.268 K0.000 F250.000
G0 Z0.500
G0 X37.349 Y-1.772 Z0.500
G0 X37.349 Y-1.772 Z0.300
G1 X37.349 Y-1.772 Z-0.200 F150.000
G3 X37.527 Y-1.750 Z-0.200 I0.064 J0.218 K0.000 F250.000
G2 X37.349 Y-1.772 Z-0.200 I-0.119 J0.242 K0.000 F250.000
G0 Z0.500
G0 X37.728 Y-1.600 Z0.500
G0 X37.728 Y-1.600 Z0.300
G1 X37.728 Y-1.600 Z-0.200 F150.000
G1 X37.727 Y-1.590 Z-0.200 F250.000
G3 X37.723 Y-1.596 Z-0.200 I0.001 J-0.005 K0.000 F250.000
G3 X37.728 Y-1.600 Z-0.200 I0.005 J0.001 K0.000 F250.000
G0 Z0.500
G0 Z0.500
G0 X37.728 Y-1.600
G0 X38.115 Y-1.444
G0 X38.115 Y-1.444 Z0.300
G1 X38.115 Y-1.444 Z-0.200 F150.000
G1 X38.424 Y-2.207 Z-0.200 F250.000
G1 X38.495 Y-2.207 Z-0.200 F250.000
G1 X38.919 Y-1.159 Z-0.200 F250.000
G1 X38.904 Y-1.159 Z-0.200 F250.000
G1 X38.515 Y-2.139 Z-0.200 F250.000
G2 X38.403 Y-2.139 Z-0.200 I-0.056 J0.022 K0.000 F250.000
G1 X38.014 Y-1.159 Z-0.200 F250.000
G1 X38.000 Y-1.159 Z-0.200 F250.000
G1 X38.115 Y-1.444 Z-0.200 F250.000
G0 Z0.500
G0 Z0.500
(Finish operation: 0.12-250)
(Begin operation: ballend-015mm-250)
(Path: ballend-015mm-250)
(ballend-015mm-250)
(Begin toolchange)
( M6 T6 )
M3 S10000
(Finish operation: ballend-015mm-250)
(Begin operation: 0.15-250)
(Path: 0.15-250)
(0.15-250)
G0 Z0.500
G0 X27.290 Y-1.346
G0 Z0.300
G1 X27.290 Y-1.346 Z-0.200 F150.000
G1 X27.247 Y-1.346 Z-0.200 F250.000
G2 X27.225 Y-1.674 Z-0.200 I-0.407 J-0.138 K0.000 F250.000
G2 X26.895 Y-1.696 Z-0.200 I-0.191 J0.387 K0.000 F250.000
G1 X26.895 Y-1.740 Z-0.200 F250.000
G2 X27.225 Y-1.762 Z-0.200 I0.138 J-0.409 K0.000 F250.000
G2 X27.247 Y-2.092 Z-0.200 I-0.387 J-0.191 K0.000 F250.000
G1 X27.290 Y-2.092 Z-0.200 F250.000
G2 X27.312 Y-1.762 Z-0.200 I0.409 J0.138 K0.000 F250.000
G2 X27.641 Y-1.740 Z-0.200 I0.191 J-0.385 K0.000 F250.000
G1 X27.641 Y-1.696 Z-0.200 F250.000
G2 X27.312 Y-1.674 Z-0.200 I-0.138 J0.407 K0.000 F250.000
G2 X27.290 Y-1.346 Z-0.200 I0.385 J0.191 K0.000 F250.000
G0 Z0.500
G0 X27.272 Y-1.710 Z0.500
G0 X27.272 Y-1.710 Z0.300
G1 X27.272 Y-1.710 Z-0.200 F150.000
G3 X27.266 Y-1.726 Z-0.200 I-0.003 J-0.008 K0.000 F250.000
G3 X27.272 Y-1.710 Z-0.200 I0.003 J0.008 K0.000 F250.000
G0 Z0.500
G0 Z0.500
G0 X27.272 Y-1.710
G0 X27.755 Y-1.091
G0 X27.755 Y-1.091 Z0.300
G1 X27.755 Y-1.091 Z-0.200 F150.000
G3 X26.697 Y-2.276 Z-0.200 I-0.490 J-0.627 K0.000 F250.000
G3 X27.823 Y-2.288 Z-0.200 I0.569 J0.556 K0.000 F250.000
G3 X27.833 Y-1.162 Z-0.200 I-0.557 J0.568 K0.000 F250.000
G3 X27.755 Y-1.091 Z-0.200 I-0.569 J-0.557 K0.000 F250.000
G0 Z0.500
G0 X27.773 Y-1.068 Z0.500
G0 X27.773 Y-1.068 Z0.300
G1 X27.773 Y-1.068 Z-0.200 F150.000
G3 X26.460 Y-1.902 Z-0.200 I-0.508 J-0.651 K0.000 F250.000
G3 X27.553 Y-2.492 Z-0.200 I0.804 J0.183 K0.000 F250.000
G3 X28.088 Y-1.787 Z-0.200 I-0.292 J0.778 K0.000 F250.000
G2 X28.161 Y-1.733 Z-0.200 I0.072 J-0.021 K0.000 F250.000
G1 X30.276 Y-1.733 Z-0.200 F250.000
G2 X30.384 Y-1.961 Z-0.200 I-0.086 J-0.180 K0.000 F250.000
G3 X31.588 Y-2.425 Z-0.200 I0.782 J0.234 K0.000 F250.000
G1 X31.588 Y-2.382 Z-0.200 F250.000
G2 X30.619 Y-1.147 Z-0.200 I-0.424 J0.664 K0.000 F250.000
G2 X31.588 Y-1.041 Z-0.200 I0.553 J-0.571 K0.000 F250.000
G1 X31.588 Y-1.011 Z-0.200 F250.000
G3 X30.351 Y-1.645 Z-0.200 I-0.419 J-0.706 K0.000 F250.000
G2 X30.277 Y-1.705 Z-0.200 I-0.074 J0.015 K0.000 F250.000
G1 X28.162 Y-1.705 Z-0.200 F250.000
G2 X28.060 Y-1.495 Z-0.200 I0.076 J0.167 K0.000 F250.000
G3 X27.773 Y-1.068 Z-0.200 I-0.794 J-0.224 K0.000 F250.000
G0 Z0.500
G0 X28.093 Y-1.714 Z0.500
G0 X28.093 Y-1.714 Z0.300
G1 X28.093 Y-1.714 Z-0.200 F150.000
G1 X28.095 Y-1.723 Z-0.200 F250.000
G1 X28.100 Y-1.717 Z-0.200 F250.000
G1 X28.093 Y-1.714 Z-0.200 F250.000
G0 Z0.500
G0 Z0.500
G0 X28.093 Y-1.714
G0 X34.353
G0 X34.353 Z0.300
G1 X34.353 Y-1.714 Z-0.200 F150.000
G1 X34.353 Y-1.744 Z-0.200 F250.000
G1 X35.208 Y-1.744 Z-0.200 F250.000
G1 X35.208 Y-1.694 Z-0.200 F250.000
G1 X34.353 Y-1.694 Z-0.200 F250.000
G1 X34.353 Y-1.714 Z-0.200 F250.000
G0 Z0.500
G0 Z0.500
G0 X34.353 Y-1.714
G0 X33.913 Y-1.650
G0 X33.913 Y-1.650 Z0.300
G1 X33.913 Y-1.650 Z-0.200 F150.000
G2 X33.841 Y-1.705 Z-0.200 I-0.072 J0.021 K0.000 F250.000
G1 X31.654 Y-1.705 Z-0.200 F250.000
G2 X31.517 Y-1.490 Z-0.200 I0.090 J0.209 K0.000 F250.000
G3 X30.788 Y-1.869 Z-0.200 I-0.344 J-0.229 K0.000 F250.000
G3 X31.583 Y-1.783 Z-0.200 I0.386 J0.152 K0.000 F250.000
G2 X31.654 Y-1.733 Z-0.200 I0.071 J-0.024 K0.000 F250.000
G1 X33.840 Y-1.733 Z-0.200 F250.000
G2 X33.912 Y-1.787 Z-0.200 I0.000 J-0.075 K0.000 F250.000
G3 X35.043 Y-2.485 Z-0.200 I0.824 J0.070 K0.000 F250.000
G3 X34.448 Y-0.946 Z-0.200 I-0.307 J0.766 K0.000 F250.000
G3 X33.913 Y-1.650 Z-0.200 I0.293 J-0.778 K0.000 F250.000
G0 Z0.500
G0 X33.944 Y-1.653 Z0.500
G0 X33.944 Y-1.653 Z0.300
G1 X33.944 Y-1.653 Z-0.200 F150.000
G3 X34.729 Y-2.515 Z-0.200 I0.793 J-0.066 K0.000 F250.000
G3 X34.751 Y-0.924 Z-0.200 I0.008 J0.796 K0.000 F250.000
G3 X33.944 Y-1.653 Z-0.200 I-0.013 J-0.796 K0.000 F250.000
G0 Z0.500
G0 X31.559 Y-1.720 Z0.500
G0 X31.559 Y-1.720 Z0.300
G1 X31.559 Y-1.720 Z-0.200 F150.000
G3 X31.529 Y-1.680 Z-0.200 I-0.043 J-0.001 K0.000 F250.000
G3 X30.820 Y-1.719 Z-0.200 I-0.353 J-0.041 K0.000 F250.000
G3 X31.397 Y-1.992 Z-0.200 I0.353 J0.001 K0.000 F250.000
G3 X31.526 Y-1.764 Z-0.200 I-0.257 J0.297 K0.000 F250.000
G3 X31.559 Y-1.720 Z-0.200 I-0.010 J0.042 K0.000 F250.000
G0 Z0.500
G0 X31.470 Y-1.721 Z0.500
G0 X31.470 Y-1.721 Z0.300
G1 X31.470 Y-1.721 Z-0.200 F150.000
G3 X30.901 Y-1.615 Z-0.200 I-0.295 J-0.002 K0.000 F250.000
G3 X31.356 Y-1.946 Z-0.200 I0.273 J-0.104 K0.000 F250.000
G3 X31.470 Y-1.744 Z-0.200 I-0.228 J0.260 K0.000 F250.000
G3 X31.470 Y-1.721 Z-0.200 I-0.294 J0.021 K0.000 F250.000
G0 Z0.500
G0 X31.287 Y-1.719 Z0.500
G0 X31.287 Y-1.719 Z0.300
G1 X31.287 Y-1.719 Z-0.200 F150.000
G3 X31.197 Y-1.612 Z-0.200 I-0.108 J0.001 K0.000 F250.000
G3 X31.137 Y-1.820 Z-0.200 I-0.023 J-0.106 K0.000 F250.000
G1 X31.170 Y-1.826 Z-0.200 F250.000
G3 X31.287 Y-1.719 Z-0.200 I0.008 J0.108 K0.000 F250.000
G0 Z0.500
G0 X31.222 Y-1.719 Z0.500
G0 X31.222 Y-1.719 Z0.300
G1 X31.222 Y-1.719 Z-0.200 F150.000
G3 X31.208 Y-1.686 Z-0.200 I-0.047 J0.000 K0.000 F250.000
G3 X31.138 Y-1.749 Z-0.200 I-0.034 J-0.032 K0.000 F250.000
G3 X31.170 Y-1.765 Z-0.200 I0.036 J0.029 K0.000 F250.000
G3 X31.222 Y-1.719 Z-0.200 I0.005 J0.046 K0.000 F250.000
G0 Z0.500
G0 X31.181 Y-1.721 Z0.500
G0 X31.181 Y-1.721 Z0.300
G1 X31.181 Y-1.721 Z-0.200 F150.000
G3 X31.169 Y-1.712 Z-0.200 I-0.007 J0.004 K0.000 F250.000
G3 X31.173 Y-1.727 Z-0.200 I0.004 J-0.007 K0.000 F250.000
G3 X31.181 Y-1.721 Z-0.200 I0.001 J0.008 K0.000 F250.000
G0 Z0.500
G0 X31.150 Y-1.884 Z0.500
G0 X31.150 Y-1.884 Z0.300
G1 X31.150 Y-1.884 Z-0.200 F150.000
G1 X31.171 Y-1.888 Z-0.200 F250.000
G3 X31.216 Y-1.554 Z-0.200 I0.011 J0.168 K0.000 F250.000
G3 X31.114 Y-1.877 Z-0.200 I-0.042 J-0.164 K0.000 F250.000
G1 X31.150 Y-1.884 Z-0.200 F250.000
G0 Z0.500
G0 X31.139 Y-1.943 Z0.500
G0 X31.139 Y-1.943 Z0.300
G1 X31.139 Y-1.943 Z-0.200 F150.000
G1 X31.171 Y-1.949 Z-0.200 F250.000
G3 X31.235 Y-1.496 Z-0.200 I0.012 J0.229 K0.000 F250.000
G3 X31.091 Y-1.933 Z-0.200 I-0.062 J-0.222 K0.000 F250.000
G1 X31.139 Y-1.943 Z-0.200 F250.000
G0 Z0.500
G0 Z0.500
G0 X31.139 Y-1.943
G0 X29.802 Y-14.262
G0 X29.802 Y-14.262 Z0.300
G1 X29.802 Y-14.262 Z-0.200 F150.000
G3 X29.648 Y-15.766 Z-0.200 I-0.059 J-0.754 K0.000 F250.000
G3 X30.093 Y-15.718 Z-0.200 I0.130 J0.874 K0.000 F250.000
G3 X30.207 Y-14.365 Z-0.200 I-0.286 J0.705 K0.000 F250.000
G3 X30.256 Y-14.505 Z-0.200 I0.072 J-0.054 K0.000 F250.000
G2 X29.837 Y-15.655 Z-0.200 I-0.408 J-0.502 K0.000 F250.000
G1 X29.802 Y-15.591 Z-0.200 F250.000
G1 X29.802 Y-14.262 Z-0.200 F250.000
G0 Z0.500
G0 X29.742 Y-14.328 Z0.500
G0 X29.742 Y-14.328 Z0.300
G1 X29.742 Y-14.328 Z-0.200 F150.000
G1 X29.703 Y-14.334 Z-0.200 F250.000
G1 X29.742 Y-14.367 Z-0.200 F250.000
G1 X29.742 Y-14.328 Z-0.200 F250.000
G0 Z0.500
G0 X29.674 Y-14.381 Z0.500
G0 X29.674 Y-14.381 Z0.300
G1 X29.674 Y-14.381 Z-0.200 F150.000
G3 X29.620 Y-15.660 Z-0.200 I0.023 J-0.642 K0.000 F250.000
G3 X29.718 Y-15.588 Z-0.200 I0.023 J0.071 K0.000 F250.000
G1 X29.718 Y-14.449 Z-0.200 F250.000
G1 X29.674 Y-14.381 Z-0.200 F250.000
G0 Z0.500
G0 X29.756 Y-15.647 Z0.500
G0 X29.756 Y-15.647 Z0.300
G1 X29.756 Y-15.647 Z-0.200 F150.000
G2 X29.688 Y-15.709 Z-0.200 I-0.071 J0.010 K0.000 F250.000
G3 X29.813 Y-15.708 Z-0.200 I0.062 J0.305 K0.000 F250.000
G1 X29.756 Y-15.647 Z-0.200 F250.000
G0 Z0.500
G0 Z0.500
G0 X29.756 Y-15.647
G0 X29.746 Y-16.330
G0 X29.746 Y-16.330 Z0.300
G1 X29.746 Y-16.330 Z-0.200 F150.000
G3 X29.406 Y-17.584 Z-0.200 I-0.010 J-0.670 K0.000 F250.000
G3 X29.755 Y-17.667 Z-0.200 I0.346 J0.680 K0.000 F250.000
G3 X29.952 Y-16.366 Z-0.200 I0.050 J0.658 K0.000 F250.000
G3 X29.746 Y-16.330 Z-0.200 I-0.216 J-0.635 K0.000 F250.000
G0 Z0.500
G0 X29.542 Y-16.316 Z0.500
G0 X29.542 Y-16.316 Z0.300
G1 X29.542 Y-16.316 Z-0.200 F150.000
G1 X29.259 Y-16.316 Z-0.200 F250.000
G2 X29.334 Y-16.399 Z-0.200 I-0.012 J-0.086 K0.000 F250.000
G2 X29.542 Y-16.316 Z-0.200 I0.330 J-0.526 K0.000 F250.000
G0 Z0.500
G0 Y-16.256 Z0.500
G0 Y-16.256 Z0.300
G1 X29.542 Y-16.256 Z-0.200 F150.000
G1 X29.014 Y-16.256 Z-0.200 F250.000
G1 X29.014 Y-16.358 Z-0.200 F250.000
G2 X29.260 Y-16.380 Z-0.200 I0.097 J-0.308 K0.000 F250.000
G2 X29.180 Y-16.551 Z-0.200 I-0.117 J-0.050 K0.000 F250.000
G3 X29.762 Y-17.768 Z-0.200 I0.529 J-0.495 K0.000 F250.000
G3 X30.266 Y-16.489 Z-0.200 I0.059 J0.716 K0.000 F250.000
G2 X30.316 Y-16.358 Z-0.200 I0.050 J0.056 K0.000 F250.000
G2 X31.002 Y-16.525 Z-0.200 I0.187 J-0.725 K0.000 F250.000
G2 X30.929 Y-17.498 Z-0.200 I-0.586 J-0.446 K0.000 F250.000
G1 X30.891 Y-17.519 Z-0.200 F250.000
G1 X30.891 Y-17.635 Z-0.200 F250.000
G3 X31.230 Y-16.972 Z-0.200 I-0.339 J0.591 K0.000 F250.000
G3 X31.009 Y-16.393 Z-0.200 I-0.673 J0.075 K0.000 F250.000
G3 X30.558 Y-16.256 Z-0.200 I-0.409 J-0.539 K0.000 F250.000
G1 X29.542 Y-16.256 Z-0.200 F250.000
G0 Z0.500
G0 X29.991 Y-16.316 Z0.500
G0 X29.991 Y-16.316 Z0.300
G1 X29.991 Y-16.316 Z-0.200 F150.000
G2 X30.193 Y-16.403 Z-0.200 I-0.083 J-0.470 K0.000 F250.000
G2 X30.282 Y-16.316 Z-0.200 I0.082 J0.005 K0.000 F250.000
G1 X29.991 Y-16.316 Z-0.200 F250.000
G0 Z0.500
G0 Z0.500
(Finish operation: 0.15-250)
(Begin operation: ballend-020mm-250)
(Path: ballend-020mm-250)
(ballend-020mm-250)
(Begin toolchange)
( M6 T7 )
M3 S10000
(Finish operation: ballend-020mm-250)
(Begin operation: 0.20-250)
(Path: 0.20-250)
(0.20-250)
G0 Z0.500
G0 X24.641 Y-4.992
G0 Z0.300
G1 X24.641 Y-4.992 Z-0.200 F150.000
G1 X24.515 Y-4.992 Z-0.200 F250.000
G1 X23.886 Y-6.675 Z-0.200 F250.000
G2 X23.699 Y-6.675 Z-0.200 I-0.094 J0.035 K0.000 F250.000
G1 X23.066 Y-4.992 Z-0.200 F250.000
G1 X22.940 Y-4.992 Z-0.200 F250.000
G1 X23.678 Y-6.873 Z-0.200 F250.000
G1 X23.907 Y-6.873 Z-0.200 F250.000
G1 X24.641 Y-4.992 Z-0.200 F250.000
G0 Z0.500
G0 X24.568 Y-5.042 Z0.500
G0 X24.568 Y-5.042 Z0.300
G1 X24.568 Y-5.042 Z-0.200 F150.000
G1 X24.550 Y-5.042 Z-0.200 F250.000
G1 X24.131 Y-6.161 Z-0.200 F250.000
G1 X24.568 Y-5.042 Z-0.200 F250.000
G0 Z0.500
G0 X23.222 Y-5.548 Z0.500
G0 X23.222 Y-5.548 Z0.300
G1 X23.222 Y-5.548 Z-0.200 F150.000
G1 X23.031 Y-5.042 Z-0.200 F250.000
G1 X23.013 Y-5.042 Z-0.200 F250.000
G1 X23.450 Y-6.154 Z-0.200 F250.000
G1 X23.222 Y-5.548 Z-0.200 F250.000
G0 Z0.500
G0 X23.665 Y-6.703 Z0.500
G0 X23.665 Y-6.703 Z0.300
G1 X23.665 Y-6.703 Z-0.200 F150.000
G1 X23.712 Y-6.823 Z-0.200 F250.000
G1 X23.873 Y-6.823 Z-0.200 F250.000
G1 X23.917 Y-6.711 Z-0.200 F250.000
G2 X23.665 Y-6.703 Z-0.200 I-0.125 J0.058 K0.000 F250.000
G0 Z0.500
G0 Z0.500
G0 X23.665 Y-6.703
G0 X25.090 Y-6.263
G0 X25.090 Y-6.263 Z0.300
G1 X25.090 Y-6.263 Z-0.200 F150.000
G3 X26.260 Y-6.872 Z-0.200 I0.885 J0.273 K0.000 F250.000
G1 X26.479 Y-6.778 Z-0.200 F250.000
G3 X26.276 Y-4.998 Z-0.200 I-0.584 J0.835 K0.000 F250.000
G3 X25.050 Y-5.931 Z-0.200 I-0.299 J-0.878 K0.000 F250.000
G3 X25.090 Y-6.263 Z-0.200 I0.925 J-0.059 K0.000 F250.000
G0 Z0.500
G0 X25.147 Y-6.244 Z0.500
G0 X25.147 Y-6.244 Z0.300
G1 X25.147 Y-6.244 Z-0.200 F150.000
G3 X25.253 Y-6.470 Z-0.200 I0.959 J0.313 K0.000 F250.000
G2 X25.368 Y-5.244 Z-0.200 I0.932 J0.531 K0.000 F250.000
G3 X25.147 Y-6.244 Z-0.200 I0.738 J-0.687 K0.000 F250.000
G0 Z0.500
G0 X25.207 Y-6.226 Z0.500
G0 X25.207 Y-6.226 Z0.300
G1 X25.207 Y-6.226 Z-0.200 F150.000
G3 X25.526 Y-6.691 Z-0.200 I0.923 J0.291 K0.000 F250.000
G3 X26.802 Y-5.942 Z-0.200 I0.456 J0.684 K0.000 F250.000
G3 X25.568 Y-5.147 Z-0.200 I-0.820 J0.083 K0.000 F250.000
G3 X25.207 Y-6.226 Z-0.200 I0.563 J-0.788 K0.000 F250.000
G0 Z0.500
G0 X25.301 Y-6.540 Z0.500
G0 X25.301 Y-6.540 Z0.300
G1 X25.301 Y-6.540 Z-0.200 F150.000
G3 X25.340 Y-6.591 Z-0.200 I0.111 J0.044 K0.000 F250.000
G1 X25.301 Y-6.540 Z-0.200 F250.000
G0 Z0.500
G0 X26.605 Y-6.608 Z0.500
G0 X26.605 Y-6.608 Z0.300
G1 X26.605 Y-6.608 Z-0.200 F150.000
G3 X26.638 Y-5.297 Z-0.200 I-0.744 J0.675 K0.000 F250.000
G2 X26.605 Y-6.608 Z-0.200 I-0.837 J-0.635 K0.000 F250.000
G0 Z0.500
G0 X26.614 Y-5.264 Z0.500
G0 X26.614 Y-5.264 Z0.300
G1 X26.614 Y-5.264 Z-0.200 F150.000
G3 X26.574 Y-5.228 Z-0.200 I-0.083 J-0.052 K0.000 F250.000
G1 X26.614 Y-5.264 Z-0.200 F250.000
G0 Z0.500
G0 Z0.500
G0 X26.614 Y-5.264
G0 X27.527
G0 X27.527 Z0.300
G1 X27.527 Y-5.264 Z-0.200 F150.000
G1 X27.527 Y-6.873 Z-0.200 F250.000
G1 X27.639 Y-6.873 Z-0.200 F250.000
G1 X27.639 Y-4.159 Z-0.200 F250.000
G1 X27.527 Y-4.159 Z-0.200 F250.000
G1 X27.527 Y-5.264 Z-0.200 F250.000
G0 Z0.500
G0 X27.577 Z0.500
G0 X27.577 Z0.300
G1 X27.577 Y-5.264 Z-0.200 F150.000
G1 X27.577 Y-6.823 Z-0.200 F250.000
G1 X27.589 Y-6.823 Z-0.200 F250.000
G1 X27.589 Y-4.209 Z-0.200 F250.000
G1 X27.577 Y-4.209 Z-0.200 F250.000
G1 X27.577 Y-5.264 Z-0.200 F250.000
G0 Z0.500
G0 Z0.500
G0 X27.577 Y-5.264
G0 X28.359
G0 X28.359 Z0.300
G1 X28.359 Y-5.264 Z-0.200 F150.000
G1 X28.359 Y-6.097 Z-0.200 F250.000
G3 X29.458 Y-6.815 Z-0.200 I0.736 J-0.074 K0.000 F250.000
G3 X29.710 Y-6.579 Z-0.200 I-0.526 J0.815 K0.000 F250.000
G2 X29.883 Y-6.648 Z-0.200 I0.072 J-0.069 K0.000 F250.000
G1 X29.883 Y-6.873 Z-0.200 F250.000
G1 X29.995 Y-6.873 Z-0.200 F250.000
G1 X29.995 Y-4.992 Z-0.200 F250.000
G1 X29.883 Y-4.992 Z-0.200 F250.000
G1 X29.881 Y-6.107 Z-0.200 F250.000
G2 X28.495 Y-6.303 Z-0.200 I-0.706 J-0.006 K0.000 F250.000
G1 X28.471 Y-6.095 Z-0.200 F250.000
G1 X28.471 Y-4.992 Z-0.200 F250.000
G1 X28.359 Y-4.992 Z-0.200 F250.000
G1 X28.359 Y-5.264 Z-0.200 F250.000
G0 Z0.500
G0 X29.893 Y-6.387 Z0.500
G0 X29.893 Y-6.387 Z0.300
G1 X29.893 Y-6.387 Z-0.200 F150.000
G3 X29.915 Y-6.537 Z-0.200 I0.088 J-0.064 K0.000 F250.000
G1 X29.915 Y-6.364 Z-0.200 F250.000
G3 X29.893 Y-6.387 Z-0.200 I0.065 J-0.087 K0.000 F250.000
G0 Z0.500
G0 Z0.500
G0 X29.893 Y-6.387
G0 X30.736
G0 X30.736 Z0.300
G1 X30.736 Y-6.387 Z-0.200 F150.000
G1 X30.736 Y-6.873 Z-0.200 F250.000
G1 X30.849 Y-6.873 Z-0.200 F250.000
G1 X30.850 Y-5.713 Z-0.200 F250.000
G2 X30.981 Y-5.296 Z-0.200 I0.672 J0.018 K0.000 F250.000
G2 X30.849 Y-5.208 Z-0.200 I-0.039 J0.085 K0.000 F250.000
G1 X30.849 Y-4.992 Z-0.200 F250.000
G1 X30.736 Y-4.992 Z-0.200 F250.000
G1 X30.736 Y-6.387 Z-0.200 F250.000
G0 Z0.500
G0 X30.816 Y-5.439 Z0.500
G0 X30.816 Y-5.439 Z0.300
G1 X30.816 Y-5.439 Z-0.200 F150.000
G3 X30.816 Y-5.323 Z-0.200 I-0.011 J0.058 K0.000 F250.000
G1 X30.816 Y-5.439 Z-0.200 F250.000
G0 Z0.500
G0 X31.080 Y-5.199 Z0.500
G0 X31.080 Y-5.199 Z0.300
G1 X31.080 Y-5.199 Z-0.200 F150.000
G2 X32.126 Y-5.724 Z-0.200 I0.419 J-0.469 K0.000 F250.000
G1 X32.126 Y-6.873 Z-0.200 F250.000
G1 X32.239 Y-6.873 Z-0.200 F250.000
G1 X32.240 Y-5.713 Z-0.200 F250.000
G2 X33.494 Y-5.527 Z-0.200 I0.636 J0.034 K0.000 F250.000
G1 X33.517 Y-5.724 Z-0.200 F250.000
G1 X33.517 Y-6.873 Z-0.200 F250.000
G1 X33.629 Y-6.873 Z-0.200 F250.000
G1 X33.629 Y-5.722 Z-0.200 F250.000
G3 X32.323 Y-5.339 Z-0.200 I-0.688 J0.074 K0.000 F250.000
G2 X32.160 Y-5.335 Z-0.200 I-0.080 J0.060 K0.000 F250.000
G3 X31.080 Y-5.199 Z-0.200 I-0.581 J-0.261 K0.000 F250.000
G0 Z0.500
G0 X32.141 Y-5.416 Z0.500
G0 X32.141 Y-5.416 Z0.300
G1 X32.141 Y-5.416 Z-0.200 F150.000
G2 X32.186 Y-5.539 Z-0.200 I-0.191 J-0.138 K0.000 F250.000
G2 X32.203 Y-5.449 Z-0.200 I0.275 J-0.007 K0.000 F250.000
G2 X32.141 Y-5.416 Z-0.200 I-0.008 J0.058 K0.000 F250.000
G0 Z0.500
G0 Z0.500
G0 X32.141 Y-5.416
G0 X34.225 Y-5.788
G0 X34.225 Y-5.788 Z0.300
G1 X34.225 Y-5.788 Z-0.200 F150.000
G3 X35.718 Y-6.749 Z-0.200 I0.947 J-0.169 K0.000 F250.000
G3 X35.953 Y-6.474 Z-0.200 I-0.357 J0.542 K0.000 F250.000
G3 X35.784 Y-6.547 Z-0.200 I-0.059 J-0.095 K0.000 F250.000
G2 X34.356 Y-6.005 Z-0.200 I-0.616 J0.529 K0.000 F250.000
G1 X34.441 Y-5.957 Z-0.200 F250.000
G1 X36.085 Y-5.957 Z-0.200 F250.000
G3 X34.237 Y-5.731 Z-0.200 I-0.929 J0.073 K0.000 F250.000
G3 X34.225 Y-5.788 Z-0.200 I0.935 J-0.227 K0.000 F250.000
G0 Z0.500
G0 X34.306 Y-5.867 Z0.500
G0 X34.306 Y-5.867 Z0.300
G1 X34.306 Y-5.867 Z-0.200 F150.000
G3 X34.304 Y-5.953 Z-0.200 I0.207 J-0.048 K0.000 F250.000
G1 X34.340 Y-5.912 Z-0.200 F250.000
G2 X34.306 Y-5.867 Z-0.200 I0.014 J0.046 K0.000 F250.000
G0 Z0.500
G0 X34.364 Y-5.825 Z0.500
G0 X34.364 Y-5.825 Z0.300
G1 X34.364 Y-5.825 Z-0.200 F150.000
G3 X34.445 Y-5.866 Z-0.200 I0.081 J0.059 K0.000 F250.000
G1 X35.860 Y-5.866 Z-0.200 F250.000
G1 X35.946 Y-5.817 Z-0.200 F250.000
G3 X34.350 Y-5.735 Z-0.200 I-0.801 J-0.014 K0.000 F250.000
G3 X34.364 Y-5.825 Z-0.200 I0.095 J-0.031 K0.000 F250.000
G0 Z0.500
G0 X35.990 Y-5.877 Z0.500
G0 X35.990 Y-5.877 Z0.300
G1 X35.990 Y-5.877 Z-0.200 F150.000
G1 X35.997 Y-5.877 Z-0.200 F250.000
G1 X35.997 Y-5.870 Z-0.200 F250.000
G1 X35.990 Y-5.877 Z-0.200 F250.000
G0 Z0.500
G0 Z0.500
G0 X35.990 Y-5.877
G0 X32.983 Y-10.096
G0 X32.983 Y-10.096 Z0.300
G1 X32.983 Y-10.096 Z-0.200 F150.000
G3 X31.942 Y-10.281 Z-0.200 I-0.429 J-0.602 K0.000 F250.000
G2 X31.767 Y-10.216 Z-0.200 I-0.076 J0.065 K0.000 F250.000
G1 X31.767 Y-9.992 Z-0.200 F250.000
G1 X31.654 Y-9.992 Z-0.200 F250.000
G1 X31.654 Y-11.873 Z-0.200 F250.000
G1 X31.767 Y-11.873 Z-0.200 F250.000
G1 X31.767 Y-10.762 Z-0.200 F250.000
G2 X33.153 Y-10.554 Z-0.200 I0.706 J0.013 K0.000 F250.000
G1 X33.178 Y-10.770 Z-0.200 F250.000
G1 X33.178 Y-11.873 Z-0.200 F250.000
G1 X33.290 Y-11.873 Z-0.200 F250.000
G1 X33.290 Y-10.768 Z-0.200 F250.000
G3 X32.983 Y-10.096 Z-0.200 I-0.737 J0.070 K0.000 F250.000
G0 Z0.500
G0 X31.790 Y-10.376 Z0.500
G0 X31.790 Y-10.376 Z0.300
G1 X31.790 Y-10.376 Z-0.200 F150.000
G1 X31.734 Y-10.328 Z-0.200 F250.000
G1 X31.734 Y-10.500 Z-0.200 F250.000
G1 X31.790 Y-10.376 Z-0.200 F250.000
G0 Z0.500
G0 Z0.500
G0 X31.790 Y-10.376
G0 X30.913
G0 X30.913 Z0.300
G1 X30.913 Y-10.376 Z-0.200 F150.000
G1 X30.913 Y-9.992 Z-0.200 F250.000
G1 X30.801 Y-9.992 Z-0.200 F250.000
G1 X30.801 Y-11.873 Z-0.200 F250.000
G1 X30.913 Y-11.873 Z-0.200 F250.000
G1 X30.913 Y-10.376 Z-0.200 F250.000
G0 Z0.500
G0 X30.863 Z0.500
G0 X30.863 Z0.300
G1 X30.863 Y-10.376 Z-0.200 F150.000
G1 X30.863 Y-10.042 Z-0.200 F250.000
G1 X30.851 Y-10.042 Z-0.200 F250.000
G1 X30.851 Y-11.823 Z-0.200 F250.000
G1 X30.863 Y-11.823 Z-0.200 F250.000
G1 X30.863 Y-10.376 Z-0.200 F250.000
G0 Z0.500
G0 Z0.500
G0 X30.863 Y-10.376
G0 X30.060
G0 X30.060 Z0.300
G1 X30.060 Y-10.376 Z-0.200 F150.000
G1 X30.060 Y-9.992 Z-0.200 F250.000
G1 X29.948 Y-9.992 Z-0.200 F250.000
G2 X29.918 Y-10.299 Z-0.200 I-0.386 J-0.118 K0.000 F250.000
G2 X29.693 Y-10.196 Z-0.200 I-0.066 J0.153 K0.000 F250.000
G3 X28.196 Y-10.931 Z-0.200 I-0.606 J-0.657 K0.000 F250.000
G3 X29.494 Y-11.818 Z-0.200 I0.898 J-0.080 K0.000 F250.000
G3 X29.771 Y-11.576 Z-0.200 I-0.359 J0.687 K0.000 F250.000
G2 X29.948 Y-11.640 Z-0.200 I0.077 J-0.064 K0.000 F250.000
G1 X29.948 Y-11.873 Z-0.200 F250.000
G1 X30.060 Y-11.873 Z-0.200 F250.000
G1 X30.060 Y-10.376 Z-0.200 F250.000
G0 Z0.500
G0 X29.980 Z0.500
G0 X29.980 Z0.300
G1 X29.980 Y-10.376 Z-0.200 F150.000
G1 X29.980 Y-10.344 Z-0.200 F250.000
G3 X29.953 Y-10.485 Z-0.200 I-0.010 J-0.071 K0.000 F250.000
G1 X29.980 Y-10.578 Z-0.200 F250.000
G1 X29.980 Y-10.376 Z-0.200 F250.000
G0 Z0.500
G0 X29.857 Y-10.447 Z0.500
G0 X29.857 Y-10.447 Z0.300
G1 X29.857 Y-10.447 Z-0.200 F150.000
G3 X28.740 Y-10.140 Z-0.200 I-0.714 J-0.413 K0.000 F250.000
G3 X28.685 Y-11.692 Z-0.200 I0.499 J-0.795 K0.000 F250.000
G3 X29.964 Y-10.942 Z-0.200 I0.457 J0.686 K0.000 F250.000
G3 X29.857 Y-10.447 Z-0.200 I-0.821 J0.082 K0.000 F250.000
G0 Z0.500
G0 X29.980 Y-11.290 Z0.500
G0 X29.980 Y-11.290 Z0.300
G1 X29.980 Y-11.290 Z-0.200 F150.000
G2 X29.899 Y-11.472 Z-0.200 I-0.365 J0.053 K0.000 F250.000
G2 X29.980 Y-11.527 Z-0.200 I0.002 J-0.083 K0.000 F250.000
G1 X29.980 Y-11.290 Z-0.200 F250.000
G0 Z0.500
G0 Z0.500
G0 X29.980 Y-11.290
G0 X30.788 Y-9.442
G0 X30.788 Y-9.442 Z0.300
G1 X30.788 Y-9.442 Z-0.200 F150.000
G1 X30.926 Y-9.442 Z-0.200 F250.000
G1 X30.926 Y-9.234 Z-0.200 F250.000
G1 X30.788 Y-9.234 Z-0.200 F250.000
G1 X30.788 Y-9.442 Z-0.200 F250.000
G0 Z0.500
G0 X30.838 Y-9.392 Z0.500
G0 X30.838 Y-9.392 Z0.300
G1 X30.838 Y-9.392 Z-0.200 F150.000
G1 X30.876 Y-9.392 Z-0.200 F250.000
G1 X30.876 Y-9.284 Z-0.200 F250.000
G1 X30.838 Y-9.284 Z-0.200 F250.000
G1 X30.838 Y-9.392 Z-0.200 F250.000
G0 Z0.500
G0 Z0.500
G0 X30.838 Y-9.392
G0 X27.583 Y-9.992
G0 X27.583 Y-9.992 Z0.300
G1 X27.583 Y-9.992 Z-0.200 F150.000
G1 X27.471 Y-9.992 Z-0.200 F250.000
G2 X27.441 Y-10.295 Z-0.200 I-0.381 J-0.116 K0.000 F250.000
G2 X27.203 Y-10.179 Z-0.200 I-0.066 J0.167 K0.000 F250.000
G3 X25.719 Y-10.915 Z-0.200 I-0.592 J-0.669 K0.000 F250.000
G3 X27.296 Y-11.536 Z-0.200 I0.880 J-0.077 K0.000 F250.000
G2 X27.471 Y-11.603 Z-0.200 I0.075 J-0.067 K0.000 F250.000
G2 X27.416 Y-12.220 Z-0.200 I-1.131 J-0.211 K0.000 F250.000
G2 X27.010 Y-12.603 Z-0.200 I-0.573 J0.201 K0.000 F250.000
G2 X26.228 Y-12.536 Z-0.200 I-0.319 J0.887 K0.000 F250.000
G2 X26.018 Y-12.323 Z-0.200 I0.205 J0.413 K0.000 F250.000
G1 X25.888 Y-12.323 Z-0.200 F250.000
G3 X26.697 Y-12.730 Z-0.200 I0.723 J0.429 K0.000 F250.000
G3 X27.226 Y-12.614 Z-0.200 I0.054 J1.025 K0.000 F250.000
G3 X27.583 Y-11.909 Z-0.200 I-0.397 J0.643 K0.000 F250.000
G1 X27.583 Y-9.992 Z-0.200 F250.000
G0 Z0.500
G0 X27.503 Y-10.340 Z0.500
G0 X27.503 Y-10.340 Z0.300
G1 X27.503 Y-10.340 Z-0.200 F150.000
G3 X27.471 Y-10.469 Z-0.200 I-0.011 J-0.066 K0.000 F250.000
G1 X27.503 Y-10.572 Z-0.200 F250.000
G1 X27.503 Y-10.340 Z-0.200 F250.000
G0 Z0.500
G0 X27.365 Y-10.426 Z0.500
G0 X27.365 Y-10.426 Z0.300
G1 X27.365 Y-10.426 Z-0.200 F150.000
G3 X26.461 Y-10.063 Z-0.200 I-0.699 J-0.435 K0.000 F250.000
G3 X26.209 Y-11.664 Z-0.200 I0.277 J-0.864 K0.000 F250.000
G3 X27.487 Y-10.926 Z-0.200 I0.454 J0.690 K0.000 F250.000
G3 X27.365 Y-10.426 Z-0.200 I-0.820 J0.066 K0.000 F250.000
G0 Z0.500
G0 X27.503 Y-11.265 Z0.500
G0 X27.503 Y-11.265 Z0.300
G1 X27.503 Y-11.265 Z-0.200 F150.000
G2 X27.429 Y-11.436 Z-0.200 I-0.354 J0.052 K0.000 F250.000
G2 X27.503 Y-11.491 Z-0.200 I-0.000 J-0.079 K0.000 F250.000
G1 X27.503 Y-11.265 Z-0.200 F250.000
G0 Z0.500
G0 Z0.500
(Finish operation: 0.20-250)
(Begin operation: ballend-012mm-300)
(Path: ballend-012mm-300)
(ballend-012mm-300)
(Begin toolchange)
( M6 T8 )
M3 S10000
(Finish operation: ballend-012mm-300)
(Begin operation: 0.12-300)
(Path: 0.12-300)
(0.12-300)
G0 Z0.500
G0 X42.341 Y-1.341
G0 Z0.300
G1 X42.341 Y-1.341 Z-0.200 F200.000
G3 X42.263 Y-1.277 Z-0.200 I-0.374 J-0.378 K0.000 F300.000
G2 X42.246 Y-2.172 Z-0.200 I-0.324 J-0.442 K0.000 F300.000
G3 X42.341 Y-1.341 Z-0.200 I-0.279 J0.453 K0.000 F300.000
G0 Z0.500
G0 X42.243 Y-1.263 Z0.500
G0 X42.243 Y-1.263 Z0.300
G1 X42.243 Y-1.263 Z-0.200 F200.000
G3 X41.491 Y-1.970 Z-0.200 I-0.285 J-0.451 K0.000 F300.000
G3 X41.804 Y-2.225 Z-0.200 I0.406 J0.180 K0.000 F300.000
G2 X42.123 Y-1.210 Z-0.200 I0.171 J0.504 K0.000 F300.000
G1 X42.243 Y-1.263 Z-0.200 F300.000
G0 Z0.500
G0 X42.227 Y-2.185 Z0.500
G0 X42.227 Y-2.185 Z0.300
G1 X42.227 Y-2.185 Z-0.200 F200.000
G2 X41.849 Y-2.233 Z-0.200 I-0.253 J0.479 K0.000 F300.000
G3 X42.183 Y-2.216 Z-0.200 I0.143 J0.471 K0.000 F300.000
G1 X42.227 Y-2.185 Z-0.200 F300.000
G0 Z0.500
G0 Z0.500
G0 X42.227 Y-2.185
G0 X42.845 Y-1.992
G0 X42.845 Y-1.992 Z0.300
G1 X42.845 Y-1.992 Z-0.200 F200.000
G3 X43.141 Y-2.234 Z-0.200 I0.331 J0.103 K0.000 F300.000
G2 X42.830 Y-1.804 Z-0.200 I0.093 J0.394 K0.000 F300.000
G1 X42.830 Y-1.195 Z-0.200 F300.000
G1 X42.818 Y-1.195 Z-0.200 F300.000
G3 X42.832 Y-1.931 Z-0.200 I3.396 J-0.301 K0.000 F300.000
G3 X42.845 Y-1.992 Z-0.200 I0.344 J0.042 K0.000 F300.000
G0 Z0.500
G0 X43.162 Y-2.238 Z0.500
G0 X43.162 Y-2.238 Z0.300
G1 X43.162 Y-2.238 Z-0.200 F200.000
G3 X43.483 Y-2.198 Z-0.200 I0.114 J0.393 K0.000 F300.000
G3 X43.691 Y-1.797 Z-0.200 I-0.235 J0.377 K0.000 F300.000
G1 X43.691 Y-1.195 Z-0.200 F300.000
G1 X43.679 Y-1.195 Z-0.200 F300.000
G2 X43.661 Y-1.948 Z-0.200 I-3.044 J-0.306 K0.000 F300.000
G2 X43.162 Y-2.238 Z-0.200 I-0.400 J0.115 K0.000 F300.000
G0 Z0.500
G0 Z0.500
G0 X43.162 Y-2.238
G0 X44.372 Y-2.243
G0 X44.372 Y-2.243 Z0.300
G1 X44.372 Y-2.243 Z-0.200 F200.000
G1 X44.384 Y-2.243 Z-0.200 F300.000
G1 X44.384 Y-1.260 Z-0.200 F300.000
G2 X44.444 Y-1.200 Z-0.200 I0.060 J0.000 K0.000 F300.000
G1 X44.792 Y-1.200 Z-0.200 F300.000
G1 X44.792 Y-1.195 Z-0.200 F300.000
G1 X43.964 Y-1.195 Z-0.200 F300.000
G1 X43.964 Y-1.200 Z-0.200 F300.000
G1 X44.312 Y-1.200 Z-0.200 F300.000
G2 X44.372 Y-1.260 Z-0.200 I0.000 J-0.060 K0.000 F300.000
G1 X44.372 Y-2.243 Z-0.200 F300.000
G0 Z0.500
G0 Z0.500
G0 X44.372 Y-2.243
G0 X57.063 Y-1.492
G0 X57.063 Y-1.492 Z0.300
G1 X57.063 Y-1.492 Z-0.200 F200.000
G3 X57.101 Y-1.630 Z-0.200 I0.335 J0.020 K0.000 F300.000
G3 X57.280 Y-1.755 Z-0.200 I0.200 J0.094 K0.000 F300.000
G2 X57.491 Y-1.166 Z-0.200 I0.112 J0.292 K0.000 F300.000
G2 X57.687 Y-1.620 Z-0.200 I-0.080 J-0.304 K0.000 F300.000
G2 X57.756 Y-1.686 Z-0.200 I0.012 J-0.057 K0.000 F300.000
G2 X57.557 Y-2.168 Z-0.200 I-0.506 J-0.073 K0.000 F300.000
G2 X57.118 Y-2.055 Z-0.200 I-0.165 J0.270 K0.000 F300.000
G3 X57.582 Y-2.170 Z-0.200 I0.278 J0.127 K0.000 F300.000
G3 X57.600 Y-1.204 Z-0.200 I-0.559 J0.494 K0.000 F300.000
G3 X57.063 Y-1.492 Z-0.200 I-0.202 J-0.268 K0.000 F300.000
G0 Z0.500
G0 X57.349 Y-1.772 Z0.500
G0 X57.349 Y-1.772 Z0.300
G1 X57.349 Y-1.772 Z-0.200 F200.000
G3 X57.527 Y-1.750 Z-0.200 I0.064 J0.218 K0.000 F300.000
G2 X57.349 Y-1.772 Z-0.200 I-0.119 J0.242 K0.000 F300.000
G0 Z0.500
G0 X57.728 Y-1.600 Z0.500
G0 X57.728 Y-1.600 Z0.300
G1 X57.728 Y-1.600 Z-0.200 F200.000
G1 X57.727 Y-1.590 Z-0.200 F300.000
G3 X57.723 Y-1.596 Z-0.200 I0.001 J-0.005 K0.000 F300.000
G3 X57.728 Y-1.600 Z-0.200 I0.005 J0.001 K0.000 F300.000
G0 Z0.500
G0 Z0.500
G0 X57.728 Y-1.600
G0 X58.115 Y-1.444
G0 X58.115 Y-1.444 Z0.300
G1 X58.115 Y-1.444 Z-0.200 F200.000
G1 X58.424 Y-2.207 Z-0.200 F300.000
G1 X58.495 Y-2.207 Z-0.200 F300.000
G1 X58.919 Y-1.159 Z-0.200 F300.000
G1 X58.904 Y-1.159 Z-0.200 F300.000
G1 X58.515 Y-2.139 Z-0.200 F300.000
G2 X58.403 Y-2.139 Z-0.200 I-0.056 J0.022 K0.000 F300.000
G1 X58.014 Y-1.159 Z-0.200 F300.000
G1 X58.000 Y-1.159 Z-0.200 F300.000
G1 X58.115 Y-1.444 Z-0.200 F300.000
G0 Z0.500
G0 Z0.500
(Finish operation: 0.12-300)
(Begin operation: ballend-015mm-300)
(Path: ballend-015mm-300)
(ballend-015mm-300)
(Begin toolchange)
( M6 T9 )
M3 S10000
(Finish operation: ballend-015mm-300)
(Begin operation: 0.15-300)
(Path: 0.15-300)
(0.15-300)
G0 Z0.500
G0 X47.290 Y-1.346
G0 Z0.300
G1 X47.290 Y-1.346 Z-0.200 F200.000
G1 X47.247 Y-1.346 Z-0.200 F300.000
G2 X47.225 Y-1.674 Z-0.200 I-0.407 J-0.138 K0.000 F300.000
G2 X46.895 Y-1.696 Z-0.200 I-0.191 J0.387 K0.000 F300.000
G1 X46.895 Y-1.740 Z-0.200 F300.000
G2 X47.225 Y-1.762 Z-0.200 I0.138 J-0.409 K0.000 F300.000
G2 X47.247 Y-2.092 Z-0.200 I-0.387 J-0.191 K0.000 F300.000
G1 X47.290 Y-2.092 Z-0.200 F300.000
G2 X47.312 Y-1.762 Z-0.200 I0.409 J0.138 K0.000 F300.000
G2 X47.641 Y-1.740 Z-0.200 I0.191 J-0.385 K0.000 F300.000
G1 X47.641 Y-1.696 Z-0.200 F300.000
G2 X47.312 Y-1.674 Z-0.200 I-0.138 J0.407 K0.000 F300.000
G2 X47.290 Y-1.346 Z-0.200 I0.385 J0.191 K0.000 F300.000
G0 Z0.500
G0 X47.272 Y-1.710 Z0.500
G0 X47.272 Y-1.710 Z0.300
G1 X47.272 Y-1.710 Z-0.200 F200.000
G3 X47.260 Y-1.715 Z-0.200 I-0.003 J-0.008 K0.000 F300.000
G3 X47.266 Y-1.726 Z-0.200 I0.008 J-0.003 K0.000 F300.000
G3 X47.277 Y-1.721 Z-0.200 I0.003 J0.008 K0.000 F300.000
G3 X47.272 Y-1.710 Z-0.200 I-0.008 J0.003 K0.000 F300.000
G0 Z0.500
G0 Z0.500
G0 X47.272 Y-1.710
G0 X47.755 Y-1.091
G0 X47.755 Y-1.091 Z0.300
G1 X47.755 Y-1.091 Z-0.200 F200.000
G3 X46.697 Y-2.276 Z-0.200 I-0.490 J-0.627 K0.000 F300.000
G3 X47.823 Y-2.288 Z-0.200 I0.569 J0.556 K0.000 F300.000
G3 X47.833 Y-1.162 Z-0.200 I-0.557 J0.568 K0.000 F300.000
G3 X47.755 Y-1.091 Z-0.200 I-0.569 J-0.557 K0.000 F300.000
G0 Z0.500
G0 X47.773 Y-1.068 Z0.500
G0 X47.773 Y-1.068 Z0.300
G1 X47.773 Y-1.068 Z-0.200 F200.000
G3 X46.460 Y-1.902 Z-0.200 I-0.508 J-0.651 K0.000 F300.000
G3 X48.087 Y-1.794 Z-0.200 I0.805 J0.184 K0.000 F300.000
G2 X48.161 Y-1.733 Z-0.200 I0.074 J-0.014 K0.000 F300.000
G1 X50.276 Y-1.733 Z-0.200 F300.000
G2 X50.384 Y-1.961 Z-0.200 I-0.086 J-0.180 K0.000 F300.000
G3 X51.588 Y-2.425 Z-0.200 I0.782 J0.234 K0.000 F300.000
G1 X51.588 Y-2.382 Z-0.200 F300.000
G2 X50.619 Y-1.147 Z-0.200 I-0.424 J0.664 K0.000 F300.000
G2 X51.588 Y-1.041 Z-0.200 I0.553 J-0.571 K0.000 F300.000
G1 X51.588 Y-1.011 Z-0.200 F300.000
G3 X50.351 Y-1.645 Z-0.200 I-0.419 J-0.706 K0.000 F300.000
G2 X50.277 Y-1.705 Z-0.200 I-0.074 J0.015 K0.000 F300.000
G1 X48.162 Y-1.705 Z-0.200 F300.000
G2 X48.060 Y-1.495 Z-0.200 I0.076 J0.167 K0.000 F300.000
G3 X47.773 Y-1.068 Z-0.200 I-0.795 J-0.224 K0.000 F300.000
G0 Z0.500
G0 X48.093 Y-1.714 Z0.500
G0 X48.093 Y-1.714 Z0.300
G1 X48.093 Y-1.714 Z-0.200 F200.000
G1 X48.094 Y-1.720 Z-0.200 F300.000
G1 X48.097 Y-1.715 Z-0.200 F300.000
G1 X48.093 Y-1.714 Z-0.200 F300.000
G0 Z0.500
G0 Z0.500
G0 X48.093 Y-1.714
G0 X54.353
G0 X54.353 Z0.300
G1 X54.353 Y-1.714 Z-0.200 F200.000
G1 X54.353 Y-1.744 Z-0.200 F300.000
G1 X55.208 Y-1.744 Z-0.200 F300.000
G1 X55.208 Y-1.694 Z-0.200 F300.000
G1 X54.353 Y-1.694 Z-0.200 F300.000
G1 X54.353 Y-1.714 Z-0.200 F300.000
G0 Z0.500
G0 Z0.500
G0 X54.353 Y-1.714
G0 X53.939 Y-1.844
G0 X53.939 Y-1.844 Z0.300
G1 X53.939 Y-1.844 Z-0.200 F200.000
G2 X53.942 Y-1.943 Z-0.200 I-0.175 J-0.055 K0.000 F300.000
G3 X55.046 Y-2.484 Z-0.200 I0.794 J0.224 K0.000 F300.000
G3 X54.448 Y-0.946 Z-0.200 I-0.310 J0.765 K0.000 F300.000
G3 X53.913 Y-1.650 Z-0.200 I0.293 J-0.778 K0.000 F300.000
G2 X53.841 Y-1.705 Z-0.200 I-0.072 J0.021 K0.000 F300.000
G1 X51.654 Y-1.705 Z-0.200 F300.000
G2 X51.517 Y-1.490 Z-0.200 I0.090 J0.209 K0.000 F300.000
G3 X50.788 Y-1.869 Z-0.200 I-0.344 J-0.229 K0.000 F300.000
G3 X51.583 Y-1.783 Z-0.200 I0.386 J0.152 K0.000 F300.000
G2 X51.654 Y-1.733 Z-0.200 I0.071 J-0.024 K0.000 F300.000
G1 X53.840 Y-1.733 Z-0.200 F300.000
G2 X53.939 Y-1.844 Z-0.200 I-0.076 J-0.167 K0.000 F300.000
G0 Z0.500
G0 X53.951 Y-1.842 Z0.500
G0 X53.951 Y-1.842 Z0.300
G1 X53.951 Y-1.842 Z-0.200 F200.000
G3 X54.427 Y-2.452 Z-0.200 I0.786 J0.124 K0.000 F300.000
G3 X55.471 Y-2.027 Z-0.200 I0.310 J0.733 K0.000 F300.000
G3 X55.043 Y-0.985 Z-0.200 I-0.733 J0.308 K0.000 F300.000
G3 X53.951 Y-1.842 Z-0.200 I-0.307 J-0.734 K0.000 F300.000
G0 Z0.500
G0 X51.559 Y-1.724 Z0.500
G0 X51.559 Y-1.724 Z0.300
G1 X51.559 Y-1.724 Z-0.200 F200.000
G3 X51.529 Y-1.680 Z-0.200 I-0.043 J0.002 K0.000 F300.000
G3 X50.820 Y-1.719 Z-0.200 I-0.353 J-0.041 K0.000 F300.000
G3 X51.397 Y-1.992 Z-0.200 I0.353 J0.001 K0.000 F300.000
G3 X51.526 Y-1.764 Z-0.200 I-0.257 J0.297 K0.000 F300.000
G3 X51.559 Y-1.724 Z-0.200 I-0.010 J0.042 K0.000 F300.000
G0 Z0.500
G0 X51.470 Y-1.723 Z0.500
G0 X51.470 Y-1.723 Z0.300
G1 X51.470 Y-1.723 Z-0.200 F200.000
G3 X50.901 Y-1.615 Z-0.200 I-0.295 J0.001 K0.000 F300.000
G3 X51.356 Y-1.946 Z-0.200 I0.273 J-0.104 K0.000 F300.000
G3 X51.470 Y-1.744 Z-0.200 I-0.228 J0.260 K0.000 F300.000
G3 X51.470 Y-1.723 Z-0.200 I-0.294 J0.021 K0.000 F300.000
G0 Z0.500
G0 X51.287 Y-1.720 Z0.500
G0 X51.287 Y-1.720 Z0.300
G1 X51.287 Y-1.720 Z-0.200 F200.000
G3 X51.197 Y-1.612 Z-0.200 I-0.108 J0.002 K0.000 F300.000
G3 X51.137 Y-1.820 Z-0.200 I-0.023 J-0.106 K0.000 F300.000
G1 X51.170 Y-1.826 Z-0.200 F300.000
G3 X51.287 Y-1.720 Z-0.200 I0.008 J0.108 K0.000 F300.000
G0 Z0.500
G0 X51.222 Y-1.720 Z0.500
G0 X51.222 Y-1.720 Z0.300
G1 X51.222 Y-1.720 Z-0.200 F200.000
G3 X51.208 Y-1.686 Z-0.200 I-0.047 J0.001 K0.000 F300.000
G3 X51.138 Y-1.749 Z-0.200 I-0.034 J-0.032 K0.000 F300.000
G3 X51.170 Y-1.765 Z-0.200 I0.036 J0.029 K0.000 F300.000
G3 X51.222 Y-1.720 Z-0.200 I0.005 J0.046 K0.000 F300.000
G0 Z0.500
G0 X51.181 Y-1.721 Z0.500
G0 X51.181 Y-1.721 Z0.300
G1 X51.181 Y-1.721 Z-0.200 F200.000
G3 X51.169 Y-1.712 Z-0.200 I-0.007 J0.004 K0.000 F300.000
G3 X51.173 Y-1.727 Z-0.200 I0.004 J-0.007 K0.000 F300.000
G3 X51.181 Y-1.721 Z-0.200 I0.001 J0.008 K0.000 F300.000
G0 Z0.500
G0 X51.150 Y-1.884 Z0.500
G0 X51.150 Y-1.884 Z0.300
G1 X51.150 Y-1.884 Z-0.200 F200.000
G1 X51.171 Y-1.888 Z-0.200 F300.000
G3 X51.216 Y-1.554 Z-0.200 I0.011 J0.168 K0.000 F300.000
G3 X51.114 Y-1.877 Z-0.200 I-0.042 J-0.164 K0.000 F300.000
G1 X51.150 Y-1.884 Z-0.200 F300.000
G0 Z0.500
G0 X51.139 Y-1.943 Z0.500
G0 X51.139 Y-1.943 Z0.300
G1 X51.139 Y-1.943 Z-0.200 F200.000
G1 X51.171 Y-1.949 Z-0.200 F300.000
G3 X51.235 Y-1.496 Z-0.200 I0.012 J0.229 K0.000 F300.000
G3 X51.091 Y-1.933 Z-0.200 I-0.062 J-0.222 K0.000 F300.000
G1 X51.139 Y-1.943 Z-0.200 F300.000
G0 Z0.500
G0 Z0.500
G0 X51.139 Y-1.943
G0 X49.802 Y-14.262
G0 X49.802 Y-14.262 Z0.300
G1 X49.802 Y-14.262 Z-0.200 F200.000
G3 X49.648 Y-15.766 Z-0.200 I-0.059 J-0.754 K0.000 F300.000
G3 X50.093 Y-15.718 Z-0.200 I0.130 J0.874 K0.000 F300.000
G3 X50.207 Y-14.365 Z-0.200 I-0.286 J0.705 K0.000 F300.000
G3 X50.256 Y-14.505 Z-0.200 I0.072 J-0.054 K0.000 F300.000
G2 X49.837 Y-15.655 Z-0.200 I-0.408 J-0.502 K0.000 F300.000
G1 X49.802 Y-15.591 Z-0.200 F300.000
G1 X49.802 Y-14.262 Z-0.200 F300.000
G0 Z0.500
G0 X49.742 Y-14.328 Z0.500
G0 X49.742 Y-14.328 Z0.300
G1 X49.742 Y-14.328 Z-0.200 F200.000
G1 X49.703 Y-14.334 Z-0.200 F300.000
G1 X49.742 Y-14.367 Z-0.200 F300.000
G1 X49.742 Y-14.328 Z-0.200 F300.000
G0 Z0.500
G0 X49.674 Y-14.381 Z0.500
G0 X49.674 Y-14.381 Z0.300
G1 X49.674 Y-14.381 Z-0.200 F200.000
G3 X49.620 Y-15.660 Z-0.200 I0.023 J-0.642 K0.000 F300.000
G3 X49.718 Y-15.588 Z-0.200 I0.023 J0.071 K0.000 F300.000
G1 X49.718 Y-14.449 Z-0.200 F300.000
G1 X49.674 Y-14.381 Z-0.200 F300.000
G0 Z0.500
G0 X49.756 Y-15.647 Z0.500
G0 X49.756 Y-15.647 Z0.300
G1 X49.756 Y-15.647 Z-0.200 F200.000
G2 X49.688 Y-15.709 Z-0.200 I-0.071 J0.010 K0.000 F300.000
G3 X49.813 Y-15.708 Z-0.200 I0.062 J0.305 K0.000 F300.000
G1 X49.756 Y-15.647 Z-0.200 F300.000
G0 Z0.500
G0 Z0.500
G0 X49.756 Y-15.647
G0 X49.744 Y-16.329
G0 X49.744 Y-16.329 Z0.300
G1 X49.744 Y-16.329 Z-0.200 F200.000
G3 X49.406 Y-17.584 Z-0.200 I-0.012 J-0.670 K0.000 F300.000
G3 X49.755 Y-17.667 Z-0.200 I0.346 J0.680 K0.000 F300.000
G3 X49.952 Y-16.366 Z-0.200 I0.050 J0.658 K0.000 F300.000
G3 X49.744 Y-16.329 Z-0.200 I-0.220 J-0.633 K0.000 F300.000
G0 Z0.500
G0 X49.542 Y-16.316 Z0.500
G0 X49.542 Y-16.316 Z0.300
G1 X49.542 Y-16.316 Z-0.200 F200.000
G1 X49.259 Y-16.316 Z-0.200 F300.000
G2 X49.336 Y-16.403 Z-0.200 I-0.013 J-0.089 K0.000 F300.000
G2 X49.542 Y-16.316 Z-0.200 I0.294 J-0.412 K0.000 F300.000
G0 Z0.500
G0 Y-16.256 Z0.500
G0 Y-16.256 Z0.300
G1 X49.542 Y-16.256 Z-0.200 F200.000
G1 X49.014 Y-16.256 Z-0.200 F300.000
G1 X49.014 Y-16.358 Z-0.200 F300.000
G2 X49.260 Y-16.380 Z-0.200 I0.097 J-0.308 K0.000 F300.000
G2 X49.180 Y-16.551 Z-0.200 I-0.117 J-0.050 K0.000 F300.000
G3 X49.762 Y-17.768 Z-0.200 I0.529 J-0.495 K0.000 F300.000
G3 X50.266 Y-16.489 Z-0.200 I0.059 J0.716 K0.000 F300.000
G2 X50.316 Y-16.358 Z-0.200 I0.050 J0.056 K0.000 F300.000
G2 X51.002 Y-16.525 Z-0.200 I0.187 J-0.725 K0.000 F300.000
G2 X50.929 Y-17.498 Z-0.200 I-0.586 J-0.446 K0.000 F300.000
G1 X50.891 Y-17.519 Z-0.200 F300.000
G1 X50.891 Y-17.635 Z-0.200 F300.000
G3 X51.230 Y-16.972 Z-0.200 I-0.339 J0.591 K0.000 F300.000
G3 X51.009 Y-16.393 Z-0.200 I-0.673 J0.075 K0.000 F300.000
G3 X50.558 Y-16.256 Z-0.200 I-0.409 J-0.539 K0.000 F300.000
G1 X49.542 Y-16.256 Z-0.200 F300.000
G0 Z0.500
G0 X49.991 Y-16.316 Z0.500
G0 X49.991 Y-16.316 Z0.300
G1 X49.991 Y-16.316 Z-0.200 F200.000
G2 X50.193 Y-16.403 Z-0.200 I-0.083 J-0.470 K0.000 F300.000
G2 X50.282 Y-16.316 Z-0.200 I0.082 J0.005 K0.000 F300.000
G1 X49.991 Y-16.316 Z-0.200 F300.000
G0 Z0.500
G0 Z0.500
(Finish operation: 0.15-300)
(Begin operation: ballend-020mm-300)
(Path: ballend-020mm-300)
(ballend-020mm-300)
(Begin toolchange)
( M6 T10 )
M3 S10000
(Finish operation: ballend-020mm-300)
(Begin operation: 0.20-300)
(Path: 0.20-300)
(0.20-300)
G0 Z0.500
G0 X44.641 Y-4.992
G0 Z0.300
G1 X44.641 Y-4.992 Z-0.200 F200.000
G1 X44.515 Y-4.992 Z-0.200 F300.000
G1 X43.886 Y-6.675 Z-0.200 F300.000
G2 X43.699 Y-6.675 Z-0.200 I-0.094 J0.035 K0.000 F300.000
G1 X43.066 Y-4.992 Z-0.200 F300.000
G1 X42.940 Y-4.992 Z-0.200 F300.000
G1 X43.678 Y-6.873 Z-0.200 F300.000
G1 X43.907 Y-6.873 Z-0.200 F300.000
G1 X44.641 Y-4.992 Z-0.200 F300.000
G0 Z0.500
G0 X44.568 Y-5.042 Z0.500
G0 X44.568 Y-5.042 Z0.300
G1 X44.568 Y-5.042 Z-0.200 F200.000
G1 X44.550 Y-5.042 Z-0.200 F300.000
G1 X44.131 Y-6.161 Z-0.200 F300.000
G1 X44.568 Y-5.042 Z-0.200 F300.000
G0 Z0.500
G0 X43.222 Y-5.548 Z0.500
G0 X43.222 Y-5.548 Z0.300
G1 X43.222 Y-5.548 Z-0.200 F200.000
G1 X43.031 Y-5.042 Z-0.200 F300.000
G1 X43.013 Y-5.042 Z-0.200 F300.000
G1 X43.450 Y-6.154 Z-0.200 F300.000
G1 X43.222 Y-5.548 Z-0.200 F300.000
G0 Z0.500
G0 X43.665 Y-6.703 Z0.500
G0 X43.665 Y-6.703 Z0.300
G1 X43.665 Y-6.703 Z-0.200 F200.000
G1 X43.712 Y-6.823 Z-0.200 F300.000
G1 X43.873 Y-6.823 Z-0.200 F300.000
G1 X43.917 Y-6.711 Z-0.200 F300.000
G2 X43.665 Y-6.703 Z-0.200 I-0.125 J0.058 K0.000 F300.000
G0 Z0.500
G0 Z0.500
G0 X43.665 Y-6.703
G0 X45.099 Y-6.271
G0 X45.099 Y-6.271 Z0.300
G1 X45.099 Y-6.271 Z-0.200 F200.000
G3 X46.260 Y-6.872 Z-0.200 I0.872 J0.263 K0.000 F300.000
G1 X46.479 Y-6.778 Z-0.200 F300.000
G3 X46.276 Y-4.998 Z-0.200 I-0.584 J0.835 K0.000 F300.000
G3 X45.086 Y-6.221 Z-0.200 I-0.281 J-0.917 K0.000 F300.000
G3 X45.099 Y-6.271 Z-0.200 I0.885 J0.212 K0.000 F300.000
G0 Z0.500
G0 X45.152 Y-6.253 Z0.500
G0 X45.152 Y-6.253 Z0.300
G1 X45.152 Y-6.253 Z-0.200 F200.000
G3 X45.342 Y-6.593 Z-0.200 I0.971 J0.320 K0.000 F300.000
G2 X45.368 Y-5.244 Z-0.200 I0.831 J0.659 K0.000 F300.000
G3 X45.152 Y-6.253 Z-0.200 I0.755 J-0.689 K0.000 F300.000
G0 Z0.500
G0 X45.200 Y-6.238 Z0.500
G0 X45.200 Y-6.238 Z0.300
G1 X45.200 Y-6.238 Z-0.200 F200.000
G3 X45.526 Y-6.691 Z-0.200 I0.886 J0.292 K0.000 F300.000
G3 X46.802 Y-5.942 Z-0.200 I0.456 J0.684 K0.000 F300.000
G3 X45.790 Y-5.061 Z-0.200 I-0.823 J0.077 K0.000 F300.000
G3 X45.200 Y-6.238 Z-0.200 I0.296 J-0.884 K0.000 F300.000
G0 Z0.500
G0 X46.605 Y-6.608 Z0.500
G0 X46.605 Y-6.608 Z0.300
G1 X46.605 Y-6.608 Z-0.200 F200.000
G3 X46.638 Y-5.297 Z-0.200 I-0.744 J0.675 K0.000 F300.000
G2 X46.605 Y-6.608 Z-0.200 I-0.837 J-0.635 K0.000 F300.000
G0 Z0.500
G0 X46.614 Y-5.264 Z0.500
G0 X46.614 Y-5.264 Z0.300
G1 X46.614 Y-5.264 Z-0.200 F200.000
G3 X46.574 Y-5.228 Z-0.200 I-0.083 J-0.052 K0.000 F300.000
G1 X46.614 Y-5.264 Z-0.200 F300.000
G0 Z0.500
G0 Z0.500
G0 X46.614 Y-5.264
G0 X47.527
G0 X47.527 Z0.300
G1 X47.527 Y-5.264 Z-0.200 F200.000
G1 X47.527 Y-6.873 Z-0.200 F300.000
G1 X47.639 Y-6.873 Z-0.200 F300.000
G1 X47.639 Y-4.159 Z-0.200 F300.000
G1 X47.527 Y-4.159 Z-0.200 F300.000
G1 X47.527 Y-5.264 Z-0.200 F300.000
G0 Z0.500
G0 X47.577 Z0.500
G0 X47.577 Z0.300
G1 X47.577 Y-5.264 Z-0.200 F200.000
G1 X47.577 Y-6.823 Z-0.200 F300.000
G1 X47.589 Y-6.823 Z-0.200 F300.000
G1 X47.589 Y-4.209 Z-0.200 F300.000
G1 X47.577 Y-4.209 Z-0.200 F300.000
G1 X47.577 Y-5.264 Z-0.200 F300.000
G0 Z0.500
G0 Z0.500
G0 X47.577 Y-5.264
G0 X48.359
G0 X48.359 Z0.300
G1 X48.359 Y-5.264 Z-0.200 F200.000
G1 X48.359 Y-6.097 Z-0.200 F300.000
G3 X49.458 Y-6.815 Z-0.200 I0.736 J-0.074 K0.000 F300.000
G3 X49.710 Y-6.579 Z-0.200 I-0.526 J0.815 K0.000 F300.000
G2 X49.883 Y-6.648 Z-0.200 I0.072 J-0.069 K0.000 F300.000
G1 X49.883 Y-6.873 Z-0.200 F300.000
G1 X49.995 Y-6.873 Z-0.200 F300.000
G1 X49.995 Y-4.992 Z-0.200 F300.000
G1 X49.883 Y-4.992 Z-0.200 F300.000
G1 X49.881 Y-6.107 Z-0.200 F300.000
G2 X48.495 Y-6.303 Z-0.200 I-0.706 J-0.006 K0.000 F300.000
G1 X48.471 Y-6.095 Z-0.200 F300.000
G1 X48.471 Y-4.992 Z-0.200 F300.000
G1 X48.359 Y-4.992 Z-0.200 F300.000
G1 X48.359 Y-5.264 Z-0.200 F300.000
G0 Z0.500
G0 X49.893 Y-6.387 Z0.500
G0 X49.893 Y-6.387 Z0.300
G1 X49.893 Y-6.387 Z-0.200 F200.000
G3 X49.915 Y-6.537 Z-0.200 I0.088 J-0.064 K0.000 F300.000
G1 X49.915 Y-6.364 Z-0.200 F300.000
G3 X49.893 Y-6.387 Z-0.200 I0.065 J-0.087 K0.000 F300.000
G0 Z0.500
G0 Z0.500
G0 X49.893 Y-6.387
G0 X50.736
G0 X50.736 Z0.300
G1 X50.736 Y-6.387 Z-0.200 F200.000
G1 X50.736 Y-6.873 Z-0.200 F300.000
G1 X50.849 Y-6.873 Z-0.200 F300.000
G1 X50.850 Y-5.713 Z-0.200 F300.000
G2 X50.981 Y-5.296 Z-0.200 I0.672 J0.018 K0.000 F300.000
G2 X50.849 Y-5.208 Z-0.200 I-0.039 J0.085 K0.000 F300.000
G1 X50.849 Y-4.992 Z-0.200 F300.000
G1 X50.736 Y-4.992 Z-0.200 F300.000
G1 X50.736 Y-6.387 Z-0.200 F300.000
G0 Z0.500
G0 X50.816 Y-5.439 Z0.500
G0 X50.816 Y-5.439 Z0.300
G1 X50.816 Y-5.439 Z-0.200 F200.000
G3 X50.816 Y-5.323 Z-0.200 I-0.011 J0.058 K0.000 F300.000
G1 X50.816 Y-5.439 Z-0.200 F300.000
G0 Z0.500
G0 X51.080 Y-5.199 Z0.500
G0 X51.080 Y-5.199 Z0.300
G1 X51.080 Y-5.199 Z-0.200 F200.000
G2 X52.126 Y-5.724 Z-0.200 I0.419 J-0.469 K0.000 F300.000
G1 X52.126 Y-6.873 Z-0.200 F300.000
G1 X52.239 Y-6.873 Z-0.200 F300.000
G1 X52.240 Y-5.713 Z-0.200 F300.000
G2 X53.494 Y-5.527 Z-0.200 I0.636 J0.034 K0.000 F300.000
G1 X53.517 Y-5.724 Z-0.200 F300.000
G1 X53.517 Y-6.873 Z-0.200 F300.000
G1 X53.629 Y-6.873 Z-0.200 F300.000
G1 X53.629 Y-5.722 Z-0.200 F300.000
G3 X52.323 Y-5.339 Z-0.200 I-0.688 J0.074 K0.000 F300.000
G2 X52.160 Y-5.335 Z-0.200 I-0.080 J0.060 K0.000 F300.000
G3 X51.080 Y-5.199 Z-0.200 I-0.581 J-0.261 K0.000 F300.000
G0 Z0.500
G0 X52.141 Y-5.416 Z0.500
G0 X52.141 Y-5.416 Z0.300
G1 X52.141 Y-5.416 Z-0.200 F200.000
G2 X52.186 Y-5.539 Z-0.200 I-0.191 J-0.138 K0.000 F300.000
G2 X52.203 Y-5.449 Z-0.200 I0.275 J-0.007 K0.000 F300.000
G2 X52.141 Y-5.416 Z-0.200 I-0.008 J0.058 K0.000 F300.000
G0 Z0.500
G0 Z0.500
G0 X52.141 Y-5.416
G0 X54.225 Y-5.788
G0 X54.225 Y-5.788 Z0.300
G1 X54.225 Y-5.788 Z-0.200 F200.000
G3 X55.718 Y-6.749 Z-0.200 I0.947 J-0.169 K0.000 F300.000
G3 X55.953 Y-6.474 Z-0.200 I-0.357 J0.542 K0.000 F300.000
G3 X55.784 Y-6.547 Z-0.200 I-0.059 J-0.095 K0.000 F300.000
G2 X54.356 Y-6.005 Z-0.200 I-0.616 J0.529 K0.000 F300.000
G1 X54.441 Y-5.957 Z-0.200 F300.000
G1 X56.085 Y-5.957 Z-0.200 F300.000
G3 X54.237 Y-5.731 Z-0.200 I-0.929 J0.073 K0.000 F300.000
G3 X54.225 Y-5.788 Z-0.200 I0.935 J-0.227 K0.000 F300.000
G0 Z0.500
G0 X54.306 Y-5.867 Z0.500
G0 X54.306 Y-5.867 Z0.300
G1 X54.306 Y-5.867 Z-0.200 F200.000
G3 X54.304 Y-5.953 Z-0.200 I0.207 J-0.048 K0.000 F300.000
G1 X54.340 Y-5.912 Z-0.200 F300.000
G2 X54.306 Y-5.867 Z-0.200 I0.014 J0.046 K0.000 F300.000
G0 Z0.500
G0 X54.364 Y-5.825 Z0.500
G0 X54.364 Y-5.825 Z0.300
G1 X54.364 Y-5.825 Z-0.200 F200.000
G3 X54.445 Y-5.866 Z-0.200 I0.081 J0.059 K0.000 F300.000
G1 X55.860 Y-5.866 Z-0.200 F300.000
G1 X55.946 Y-5.817 Z-0.200 F300.000
G3 X54.350 Y-5.735 Z-0.200 I-0.801 J-0.014 K0.000 F300.000
G3 X54.364 Y-5.825 Z-0.200 I0.095 J-0.031 K0.000 F300.000
G0 Z0.500
G0 X55.990 Y-5.877 Z0.500
G0 X55.990 Y-5.877 Z0.300
G1 X55.990 Y-5.877 Z-0.200 F200.000
G1 X55.997 Y-5.877 Z-0.200 F300.000
G1 X55.997 Y-5.870 Z-0.200 F300.000
G1 X55.990 Y-5.877 Z-0.200 F300.000
G0 Z0.500
G0 Z0.500
G0 X55.990 Y-5.877
G0 X52.983 Y-10.096
G0 X52.983 Y-10.096 Z0.300
G1 X52.983 Y-10.096 Z-0.200 F200.000
G3 X51.942 Y-10.281 Z-0.200 I-0.429 J-0.602 K0.000 F300.000
G2 X51.767 Y-10.216 Z-0.200 I-0.076 J0.065 K0.000 F300.000
G1 X51.767 Y-9.992 Z-0.200 F300.000
G1 X51.654 Y-9.992 Z-0.200 F300.000
G1 X51.654 Y-11.873 Z-0.200 F300.000
G1 X51.767 Y-11.873 Z-0.200 F300.000
G1 X51.767 Y-10.762 Z-0.200 F300.000
G2 X53.153 Y-10.554 Z-0.200 I0.706 J0.013 K0.000 F300.000
G1 X53.178 Y-10.770 Z-0.200 F300.000
G1 X53.178 Y-11.873 Z-0.200 F300.000
G1 X53.290 Y-11.873 Z-0.200 F300.000
G1 X53.290 Y-10.768 Z-0.200 F300.000
G3 X52.983 Y-10.096 Z-0.200 I-0.737 J0.070 K0.000 F300.000
G0 Z0.500
G0 X51.790 Y-10.376 Z0.500
G0 X51.790 Y-10.376 Z0.300
G1 X51.790 Y-10.376 Z-0.200 F200.000
G1 X51.734 Y-10.328 Z-0.200 F300.000
G1 X51.734 Y-10.500 Z-0.200 F300.000
G1 X51.790 Y-10.376 Z-0.200 F300.000
G0 Z0.500
G0 Z0.500
G0 X51.790 Y-10.376
G0 X50.913
G0 X50.913 Z0.300
G1 X50.913 Y-10.376 Z-0.200 F200.000
G1 X50.913 Y-9.992 Z-0.200 F300.000
G1 X50.801 Y-9.992 Z-0.200 F300.000
G1 X50.801 Y-11.873 Z-0.200 F300.000
G1 X50.913 Y-11.873 Z-0.200 F300.000
G1 X50.913 Y-10.376 Z-0.200 F300.000
G0 Z0.500
G0 X50.863 Z0.500
G0 X50.863 Z0.300
G1 X50.863 Y-10.376 Z-0.200 F200.000
G1 X50.863 Y-10.042 Z-0.200 F300.000
G1 X50.851 Y-10.042 Z-0.200 F300.000
G1 X50.851 Y-11.823 Z-0.200 F300.000
G1 X50.863 Y-11.823 Z-0.200 F300.000
G1 X50.863 Y-10.376 Z-0.200 F300.000
G0 Z0.500
G0 Z0.500
G0 X50.863 Y-10.376
G0 X50.060
G0 X50.060 Z0.300
G1 X50.060 Y-10.376 Z-0.200 F200.000
G1 X50.060 Y-9.992 Z-0.200 F300.000
G1 X49.948 Y-9.992 Z-0.200 F300.000
G2 X49.918 Y-10.299 Z-0.200 I-0.386 J-0.118 K0.000 F300.000
G2 X49.693 Y-10.196 Z-0.200 I-0.066 J0.153 K0.000 F300.000
G3 X48.196 Y-10.931 Z-0.200 I-0.606 J-0.657 K0.000 F300.000
G3 X49.494 Y-11.818 Z-0.200 I0.898 J-0.080 K0.000 F300.000
G3 X49.771 Y-11.576 Z-0.200 I-0.359 J0.687 K0.000 F300.000
G2 X49.948 Y-11.640 Z-0.200 I0.077 J-0.064 K0.000 F300.000
G1 X49.948 Y-11.873 Z-0.200 F300.000
G1 X50.060 Y-11.873 Z-0.200 F300.000
G1 X50.060 Y-10.376 Z-0.200 F300.000
G0 Z0.500
G0 X49.980 Z0.500
G0 X49.980 Z0.300
G1 X49.980 Y-10.376 Z-0.200 F200.000
G1 X49.980 Y-10.344 Z-0.200 F300.000
G3 X49.953 Y-10.485 Z-0.200 I-0.003 J-0.073 K0.000 F300.000
G1 X49.980 Y-10.578 Z-0.200 F300.000
G1 X49.980 Y-10.376 Z-0.200 F300.000
G0 Z0.500
G0 X49.855 Y-10.448 Z0.500
G0 X49.855 Y-10.448 Z0.300
G1 X49.855 Y-10.448 Z-0.200 F200.000
G3 X48.740 Y-10.140 Z-0.200 I-0.715 J-0.416 K0.000 F300.000
G3 X48.685 Y-11.692 Z-0.200 I0.499 J-0.795 K0.000 F300.000
G3 X49.964 Y-10.942 Z-0.200 I0.457 J0.686 K0.000 F300.000
G3 X49.855 Y-10.448 Z-0.200 I-0.824 J0.078 K0.000 F300.000
G0 Z0.500
G0 X49.980 Y-11.290 Z0.500
G0 X49.980 Y-11.290 Z0.300
G1 X49.980 Y-11.290 Z-0.200 F200.000
G2 X49.899 Y-11.472 Z-0.200 I-0.365 J0.053 K0.000 F300.000
G2 X49.980 Y-11.527 Z-0.200 I0.002 J-0.083 K0.000 F300.000
G1 X49.980 Y-11.290 Z-0.200 F300.000
G0 Z0.500
G0 Z0.500
G0 X49.980 Y-11.290
G0 X50.788 Y-9.442
G0 X50.788 Y-9.442 Z0.300
G1 X50.788 Y-9.442 Z-0.200 F200.000
G1 X50.926 Y-9.442 Z-0.200 F300.000
G1 X50.926 Y-9.234 Z-0.200 F300.000
G1 X50.788 Y-9.234 Z-0.200 F300.000
G1 X50.788 Y-9.442 Z-0.200 F300.000
G0 Z0.500
G0 X50.838 Y-9.392 Z0.500
G0 X50.838 Y-9.392 Z0.300
G1 X50.838 Y-9.392 Z-0.200 F200.000
G1 X50.876 Y-9.392 Z-0.200 F300.000
G1 X50.876 Y-9.284 Z-0.200 F300.000
G1 X50.838 Y-9.284 Z-0.200 F300.000
G1 X50.838 Y-9.392 Z-0.200 F300.000
G0 Z0.500
G0 Z0.500
G0 X50.838 Y-9.392
G0 X47.583 Y-9.992
G0 X47.583 Y-9.992 Z0.300
G1 X47.583 Y-9.992 Z-0.200 F200.000
G1 X47.471 Y-9.992 Z-0.200 F300.000
G2 X47.441 Y-10.295 Z-0.200 I-0.381 J-0.116 K0.000 F300.000
G2 X47.203 Y-10.179 Z-0.200 I-0.066 J0.167 K0.000 F300.000
G3 X45.719 Y-10.915 Z-0.200 I-0.592 J-0.669 K0.000 F300.000
G3 X47.296 Y-11.536 Z-0.200 I0.880 J-0.077 K0.000 F300.000
G2 X47.471 Y-11.603 Z-0.200 I0.075 J-0.067 K0.000 F300.000
G2 X47.416 Y-12.220 Z-0.200 I-1.131 J-0.211 K0.000 F300.000
G2 X47.010 Y-12.603 Z-0.200 I-0.573 J0.201 K0.000 F300.000
G2 X46.228 Y-12.536 Z-0.200 I-0.319 J0.887 K0.000 F300.000
G2 X46.018 Y-12.323 Z-0.200 I0.205 J0.413 K0.000 F300.000
G1 X45.888 Y-12.323 Z-0.200 F300.000
G3 X46.700 Y-12.730 Z-0.200 I0.723 J0.429 K0.000 F300.000
G3 X47.226 Y-12.614 Z-0.200 I0.053 J1.019 K0.000 F300.000
G3 X47.583 Y-11.909 Z-0.200 I-0.397 J0.643 K0.000 F300.000
G1 X47.583 Y-9.992 Z-0.200 F300.000
G0 Z0.500
G0 X47.503 Y-10.340 Z0.500
G0 X47.503 Y-10.340 Z0.300
G1 X47.503 Y-10.340 Z-0.200 F200.000
G3 X47.471 Y-10.469 Z-0.200 I-0.011 J-0.066 K0.000 F300.000
G1 X47.503 Y-10.572 Z-0.200 F300.000
G1 X47.503 Y-10.340 Z-0.200 F300.000
G0 Z0.500
G0 X47.360 Y-10.434 Z0.500
G0 X47.360 Y-10.434 Z0.300
G1 X47.360 Y-10.434 Z-0.200 F200.000
G3 X46.682 Y-10.042 Z-0.200 I-0.732 J-0.483 K0.000 F300.000
G3 X46.209 Y-11.664 Z-0.200 I0.021 J-0.886 K0.000 F300.000
G3 X47.383 Y-11.363 Z-0.200 I0.449 J0.691 K0.000 F300.000
G3 X47.360 Y-10.434 Z-0.200 I-0.755 J0.446 K0.000 F300.000
G0 Z0.500
G0 X47.503 Y-11.265 Z0.500
G0 X47.503 Y-11.265 Z0.300
G1 X47.503 Y-11.265 Z-0.200 F200.000
G2 X47.429 Y-11.436 Z-0.200 I-0.354 J0.052 K0.000 F300.000
G2 X47.503 Y-11.491 Z-0.200 I-0.000 J-0.079 K0.000 F300.000
G1 X47.503 Y-11.265 Z-0.200 F300.000
G0 Z0.500
G0 Z0.500
(Finish operation: 0.20-300)
(Begin postamble)
M5
G17 G90
M2
