(Exported by FreeCAD)
(Post Processor: grbl_post)
(Output Time:2023-01-31 21:00:26.139843)
(Begin preamble)
G17 G90
G21
(Begin operation: G54)
(Path: G54)
G54
G0 Z5.000
(Finish operation: G54)
(Begin operation: ballend-010mm001)
(Path: ballend-010mm001)
(ballend-010mm001)
(Begin toolchange)
( M6 T3 )
M3 S10000
(Finish operation: ballend-010mm001)
(Begin operation: ENGRAVE 0.1mm)
(Path: ENGRAVE 0.1mm)
(ENGRAVE 0.1mm)
G0 Z1.000
G0 X16.391 Y-1.209
G0 Z0.500
G1 X16.391 Y-1.209 Z-0.200 F150.000
G3 X15.457 Y-1.666 Z-0.200 I-0.390 J-0.387 K0.000 F250.000
G3 X16.512 Y-1.912 Z-0.200 I0.539 J-0.072 K0.000 F250.000
G3 X16.422 Y-1.243 Z-0.200 I-0.700 J0.246 K0.000 F250.000
G3 X16.391 Y-1.209 Z-0.200 I-0.421 J-0.352 K0.000 F250.000
G0 Z1.000
G0 X16.374 Y-1.226 Z1.000
G0 X16.374 Y-1.226 Z0.500
G1 X16.374 Y-1.226 Z-0.200 F150.000
G3 X16.155 Y-1.100 Z-0.200 I-0.355 J-0.363 K0.000 F250.000
G2 X16.453 Y-1.414 Z-0.200 I-0.077 J-0.371 K0.000 F250.000
G2 X16.248 Y-2.198 Z-0.200 I-0.636 J-0.252 K0.000 F250.000
G3 X16.521 Y-1.666 Z-0.200 I-0.265 J0.472 K0.000 F250.000
G3 X16.374 Y-1.226 Z-0.200 I-0.502 J0.077 K0.000 F250.000
G0 Z1.000
G0 X16.344 Y-1.251 Z1.000
G0 X16.344 Y-1.251 Z0.500
G1 X16.344 Y-1.251 Z-0.200 F150.000
G3 X15.779 Y-1.148 Z-0.200 I-0.342 J-0.277 K0.000 F250.000
G3 X15.576 Y-1.914 Z-0.200 I0.407 J-0.518 K0.000 F250.000
G3 X16.335 Y-2.088 Z-0.200 I0.425 J0.110 K0.000 F250.000
G3 X16.428 Y-1.418 Z-0.200 I-0.584 J0.422 K0.000 F250.000
G3 X16.344 Y-1.251 Z-0.200 I-0.426 J-0.110 K0.000 F250.000
G0 Z1.000
G0 X15.929 Y-1.080 Z1.000
G0 X15.929 Y-1.080 Z0.500
G1 X15.929 Y-1.080 Z-0.200 F150.000
G3 X15.847 Y-1.100 Z-0.200 I-0.005 J-0.160 K0.000 F250.000
G1 X15.929 Y-1.080 Z-0.200 F250.000
G0 Z1.000
G0 X15.758 Y-1.133 Z1.000
G0 X15.758 Y-1.133 Z0.500
G1 X15.758 Y-1.133 Z-0.200 F150.000
G3 X15.482 Y-1.666 Z-0.200 I0.262 J-0.473 K0.000 F250.000
G3 X15.819 Y-2.227 Z-0.200 I0.512 J-0.074 K0.000 F250.000
G2 X15.553 Y-1.409 Z-0.200 I0.334 J0.561 K0.000 F250.000
G2 X15.758 Y-1.133 Z-0.200 I0.464 J-0.132 K0.000 F250.000
G0 Z1.000
G0 X16.053 Y-2.253 Z1.000
G0 X16.053 Y-2.253 Z0.500
G1 X16.053 Y-2.253 Z-0.200 F150.000
G3 X16.169 Y-2.227 Z-0.200 I0.011 J0.224 K0.000 F250.000
G1 X16.053 Y-2.253 Z-0.200 F250.000
G0 Z1.000
G0 Z1.000
G0 X16.053 Y-2.253
G0 X16.934 Y-2.045
G0 X16.934 Y-2.045 Z0.500
G1 X16.934 Y-2.045 Z-0.200 F150.000
G3 X17.343 Y-2.282 Z-0.200 I0.362 J0.153 K0.000 F250.000
G3 X17.784 Y-1.821 Z-0.200 I0.050 J0.393 K0.000 F250.000
G1 X17.784 Y-1.072 Z-0.200 F250.000
G1 X17.709 Y-1.072 Z-0.200 F250.000
G2 X17.687 Y-1.996 Z-0.200 I-4.035 J-0.367 K0.000 F250.000
G2 X16.974 Y-1.803 Z-0.200 I-0.350 J0.119 K0.000 F250.000
G1 X16.974 Y-1.072 Z-0.200 F250.000
G1 X16.899 Y-1.072 Z-0.200 F250.000
G3 X16.934 Y-2.045 Z-0.200 I3.141 J-0.374 K0.000 F250.000
G0 Z1.000
G0 X16.958 Y-2.037 Z1.000
G0 X16.958 Y-2.037 Z0.500
G1 X16.958 Y-2.037 Z-0.200 F150.000
G3 X17.151 Y-2.222 Z-0.200 I0.219 J0.035 K0.000 F250.000
G2 X16.982 Y-2.033 Z-0.200 I0.094 J0.255 K0.000 F250.000
G2 X16.949 Y-1.097 Z-0.200 I3.321 J0.583 K0.000 F250.000
G1 X16.924 Y-1.097 Z-0.200 F250.000
G3 X16.958 Y-2.037 Z-0.200 I3.032 J-0.361 K0.000 F250.000
G0 Z1.000
G0 X17.584 Y-2.196 Z1.000
G0 X17.584 Y-2.196 Z0.500
G1 X17.584 Y-2.196 Z-0.200 F150.000
G3 X17.727 Y-2.029 Z-0.200 I-0.084 J0.217 K0.000 F250.000
G3 X17.759 Y-1.097 Z-0.200 I-3.098 J0.571 K0.000 F250.000
G1 X17.734 Y-1.097 Z-0.200 F250.000
G2 X17.710 Y-2.007 Z-0.200 I-3.772 J-0.355 K0.000 F250.000
G2 X17.584 Y-2.196 Z-0.200 I-0.269 J0.042 K0.000 F250.000
G0 Z1.000
G0 Z1.000
G0 X17.584 Y-2.196
G0 X18.488
G0 X18.488 Z0.500
G1 X18.488 Y-2.196 Z-0.200 F150.000
G1 X18.488 Y-2.258 Z-0.200 F250.000
G1 X18.563 Y-2.258 Z-0.200 F250.000
G1 X18.563 Y-1.168 Z-0.200 F250.000
G2 X18.613 Y-1.118 Z-0.200 I0.050 J-0.000 K0.000 F250.000
G1 X19.020 Y-1.118 Z-0.200 F250.000
G1 X19.020 Y-1.072 Z-0.200 F250.000
G1 X18.032 Y-1.072 Z-0.200 F250.000
G1 X18.032 Y-1.118 Z-0.200 F250.000
G1 X18.438 Y-1.118 Z-0.200 F250.000
G2 X18.488 Y-1.168 Z-0.200 I-0.000 J-0.050 K0.000 F250.000
G1 X18.488 Y-2.196 Z-0.200 F250.000
G0 Z1.000
G0 X18.526 Y-1.138 Z1.000
G0 X18.526 Y-1.138 Z0.500
G1 X18.526 Y-1.138 Z-0.200 F150.000
G1 X18.532 Y-1.122 Z-0.200 F250.000
G1 X18.519 Y-1.122 Z-0.200 F250.000
G1 X18.526 Y-1.138 Z-0.200 F250.000
G0 Z1.000
G0 Z1.000
G0 X18.526 Y-1.138
G0 X26.872 Y-1.676
G0 X26.872 Y-1.676 Z0.500
G1 X26.872 Y-1.676 Z-0.200 F150.000
G1 X26.872 Y-1.770 Z-0.200 F250.000
G1 X27.174 Y-1.770 Z-0.200 F250.000
G2 X27.224 Y-1.820 Z-0.200 I-0.000 J-0.050 K0.000 F250.000
G1 X27.224 Y-2.122 Z-0.200 F250.000
G1 X27.317 Y-2.122 Z-0.200 F250.000
G1 X27.317 Y-1.820 Z-0.200 F250.000
G2 X27.367 Y-1.770 Z-0.200 I0.050 J-0.000 K0.000 F250.000
G1 X27.667 Y-1.770 Z-0.200 F250.000
G1 X27.667 Y-1.676 Z-0.200 F250.000
G1 X27.367 Y-1.676 Z-0.200 F250.000
G2 X27.317 Y-1.626 Z-0.200 I0.000 J0.050 K0.000 F250.000
G1 X27.317 Y-1.326 Z-0.200 F250.000
G1 X27.224 Y-1.326 Z-0.200 F250.000
G1 X27.224 Y-1.626 Z-0.200 F250.000
G2 X27.174 Y-1.676 Z-0.200 I-0.050 J0.000 K0.000 F250.000
G1 X26.872 Y-1.676 Z-0.200 F250.000
G0 Z1.000
G0 X27.181 Y-1.723 Z1.000
G0 X27.181 Y-1.723 Z0.500
G1 X27.181 Y-1.723 Z-0.200 F150.000
G2 X27.270 Y-1.812 Z-0.200 I0.000 J-0.089 K0.000 F250.000
G2 X27.359 Y-1.723 Z-0.200 I0.089 J-0.000 K0.000 F250.000
G2 X27.270 Y-1.634 Z-0.200 I-0.000 J0.089 K0.000 F250.000
G2 X27.181 Y-1.723 Z-0.200 I-0.089 J0.000 K0.000 F250.000
G0 Z1.000
G0 X27.241 Z1.000
G0 X27.241 Z0.500
G1 X27.241 Y-1.723 Z-0.200 F150.000
G2 X27.270 Y-1.751 Z-0.200 I0.000 J-0.029 K0.000 F250.000
G2 X27.299 Y-1.723 Z-0.200 I0.029 J-0.000 K0.000 F250.000
G2 X27.270 Y-1.695 Z-0.200 I-0.000 J0.029 K0.000 F250.000
G2 X27.241 Y-1.723 Z-0.200 I-0.029 J0.000 K0.000 F250.000
G0 Z1.000
G0 Z1.000
G0 X27.241 Y-1.723
G0 X30.136 Y-3.393
G0 X30.136 Y-3.393 Z0.500
G1 X30.136 Y-3.393 Z-0.200 F150.000
G3 X30.110 Y-3.719 Z-0.200 I0.330 J-0.190 K0.000 F250.000
G3 X30.758 Y-3.828 Z-0.200 I0.351 J0.105 K0.000 F250.000
G2 X30.810 Y-3.885 Z-0.200 I0.002 J-0.050 K0.000 F250.000
G2 X30.569 Y-4.359 Z-0.200 I-0.456 J-0.066 K0.000 F250.000
G2 X30.179 Y-4.353 Z-0.200 I-0.187 J0.471 K0.000 F250.000
G1 X30.179 Y-4.402 Z-0.200 F250.000
G3 X30.621 Y-4.389 Z-0.200 I0.206 J0.516 K0.000 F250.000
G3 X30.883 Y-3.825 Z-0.200 I-0.375 J0.517 K0.000 F250.000
G3 X30.774 Y-3.358 Z-0.200 I-0.790 J0.061 K0.000 F250.000
G3 X30.136 Y-3.393 Z-0.200 I-0.307 J-0.226 K0.000 F250.000
G0 Z1.000
G0 X30.206 Y-3.428 Z1.000
G0 X30.206 Y-3.428 Z0.500
G1 X30.206 Y-3.428 Z-0.200 F150.000
G3 X30.312 Y-3.900 Z-0.200 I0.347 J-0.170 K0.000 F250.000
G3 X30.779 Y-3.600 Z-0.200 I0.162 J0.261 K0.000 F250.000
G3 X30.334 Y-3.280 Z-0.200 I-0.303 J0.048 K0.000 F250.000
G3 X30.206 Y-3.428 Z-0.200 I0.220 J-0.318 K0.000 F250.000
G0 Z1.000
G0 X30.816 Y-3.689 Z1.000
G0 X30.816 Y-3.689 Z0.500
G1 X30.816 Y-3.689 Z-0.200 F150.000
G2 X30.784 Y-3.788 Z-0.200 I-0.175 J0.003 K0.000 F250.000
G2 X30.831 Y-3.813 Z-0.200 I0.013 J-0.032 K0.000 F250.000
G1 X30.816 Y-3.689 Z-0.200 F250.000
G0 Z1.000
G0 Z1.000
G0 X30.816 Y-3.689
G0 X31.255 Y-3.522
G0 X31.255 Y-3.522 Z0.500
G1 X31.255 Y-3.522 Z-0.200 F150.000
G1 X31.596 Y-4.417 Z-0.200 F250.000
G1 X31.725 Y-4.417 Z-0.200 F250.000
G1 X32.177 Y-3.231 Z-0.200 F250.000
G1 X32.103 Y-3.231 Z-0.200 F250.000
G1 X31.707 Y-4.281 Z-0.200 F250.000
G2 X31.613 Y-4.281 Z-0.200 I-0.047 J0.018 K0.000 F250.000
G1 X31.218 Y-3.231 Z-0.200 F250.000
G1 X31.144 Y-3.231 Z-0.200 F250.000
G1 X31.255 Y-3.522 Z-0.200 F250.000
G0 Z1.000
G0 X31.627 Y-4.357 Z1.000
G0 X31.627 Y-4.357 Z0.500
G1 X31.627 Y-4.357 Z-0.200 F150.000
G3 X31.695 Y-4.355 Z-0.200 I0.034 J0.008 K0.000 F250.000
G1 X31.627 Y-4.357 Z-0.200 F250.000
G0 Z1.000
G0 Z1.000
G0 X31.627 Y-4.357
G0 X31.316 Y-2.561
G0 X31.316 Y-2.561 Z0.500
G1 X31.316 Y-2.561 Z-0.200 F150.000
G3 X31.614 Y-2.449 Z-0.200 I-0.145 J0.836 K0.000 F250.000
G1 X31.614 Y-2.342 Z-0.200 F250.000
G2 X30.631 Y-1.177 Z-0.200 I-0.448 J0.619 K0.000 F250.000
G2 X31.614 Y-1.104 Z-0.200 I0.532 J-0.522 K0.000 F250.000
G1 X31.614 Y-1.000 Z-0.200 F250.000
G3 X30.307 Y-1.677 Z-0.200 I-0.440 J-0.752 K0.000 F250.000
G1 X30.279 Y-1.685 Z-0.200 F250.000
G1 X28.163 Y-1.685 Z-0.200 F250.000
G2 X28.085 Y-1.493 Z-0.200 I0.077 J0.143 K0.000 F250.000
G3 X26.437 Y-1.913 Z-0.200 I-0.818 J-0.231 K0.000 F250.000
G3 X27.564 Y-2.520 Z-0.200 I0.829 J0.188 K0.000 F250.000
G3 X28.114 Y-1.799 Z-0.200 I-0.301 J0.799 K0.000 F250.000
G2 X28.162 Y-1.763 Z-0.200 I0.048 J-0.014 K0.000 F250.000
G1 X30.278 Y-1.763 Z-0.200 F250.000
G2 X30.327 Y-1.803 Z-0.200 I-0.000 J-0.050 K0.000 F250.000
G3 X31.316 Y-2.561 Z-0.200 I0.845 J0.077 K0.000 F250.000
G0 Z1.000
G0 X30.357 Y-1.757 Z1.000
G0 X30.357 Y-1.757 Z0.500
G1 X30.357 Y-1.757 Z-0.200 F150.000
G2 X30.357 Y-1.685 Z-0.200 I0.178 J0.036 K0.000 F250.000
G2 X30.309 Y-1.726 Z-0.200 I-0.048 J0.008 K0.000 F250.000
G2 X30.357 Y-1.757 Z-0.200 I0.005 J-0.044 K0.000 F250.000
G0 Z1.000
G0 X28.130 Y-1.721 Z1.000
G0 X28.130 Y-1.721 Z0.500
G1 X28.130 Y-1.721 Z-0.200 F150.000
G2 X28.078 Y-1.679 Z-0.200 I-0.000 J0.052 K0.000 F250.000
G2 X28.085 Y-1.761 Z-0.200 I-0.139 J-0.053 K0.000 F250.000
G2 X28.130 Y-1.721 Z-0.200 I0.049 J-0.010 K0.000 F250.000
G0 Z1.000
G0 X28.037 Y-1.721 Z1.000
G0 X28.037 Y-1.721 Z0.500
G1 X28.037 Y-1.721 Z-0.200 F150.000
G3 X27.562 Y-1.012 Z-0.200 I-0.771 J-0.002 K0.000 F250.000
G3 X26.971 Y-2.436 Z-0.200 I-0.296 J-0.712 K0.000 F250.000
G3 X28.037 Y-1.721 Z-0.200 I0.296 J0.712 K0.000 F250.000
G0 Z1.000
G0 Z1.000
G0 X28.037 Y-1.721
G0 X34.330
G0 X34.330 Z0.500
G1 X34.330 Y-1.721 Z-0.200 F150.000
G1 X34.330 Y-1.774 Z-0.200 F250.000
G1 X35.234 Y-1.774 Z-0.200 F250.000
G1 X35.234 Y-1.674 Z-0.200 F250.000
G1 X34.330 Y-1.674 Z-0.200 F250.000
G1 X34.330 Y-1.721 Z-0.200 F250.000
G0 Z1.000
G0 X34.380 Y-1.724 Z1.000
G0 X34.380 Y-1.724 Z0.500
G1 X34.380 Y-1.724 Z-0.200 F150.000
G1 X34.380 Y-1.724 Z-0.200 F250.000
G1 X35.184 Y-1.724 Z-0.200 F250.000
G1 X35.184 Y-1.724 Z-0.200 F250.000
G1 X34.380 Y-1.724 Z-0.200 F250.000
G0 Z1.000
G0 Z1.000
G0 X34.380 Y-1.724
G0 X33.927 Y-1.769
G0 X33.927 Y-1.769 Z0.500
G1 X33.927 Y-1.769 Z-0.200 F150.000
G2 X33.920 Y-1.686 Z-0.200 I0.139 J0.053 K0.000 F250.000
G2 X33.875 Y-1.727 Z-0.200 I-0.049 J0.010 K0.000 F250.000
G2 X33.927 Y-1.769 Z-0.200 I0.000 J-0.052 K0.000 F250.000
G0 Z1.000
G0 X33.889 Y-1.801 Z1.000
G0 X33.889 Y-1.801 Z0.500
G1 X33.889 Y-1.801 Z-0.200 F150.000
G2 X33.920 Y-1.955 Z-0.200 I-0.124 J-0.105 K0.000 F250.000
G3 X35.057 Y-2.512 Z-0.200 I0.819 J0.231 K0.000 F250.000
G3 X34.441 Y-0.928 Z-0.200 I-0.319 J0.788 K0.000 F250.000
G3 X33.891 Y-1.649 Z-0.200 I0.301 J-0.799 K0.000 F250.000
G2 X33.843 Y-1.685 Z-0.200 I-0.048 J0.014 K0.000 F250.000
G1 X31.656 Y-1.685 Z-0.200 F250.000
G2 X31.540 Y-1.482 Z-0.200 I0.093 J0.187 K0.000 F250.000
G3 X30.766 Y-1.885 Z-0.200 I-0.366 J-0.242 K0.000 F250.000
G3 X31.634 Y-1.768 Z-0.200 I0.416 J0.190 K0.000 F250.000
G1 X31.656 Y-1.763 Z-0.200 F250.000
G1 X33.842 Y-1.763 Z-0.200 F250.000
G2 X33.889 Y-1.801 Z-0.200 I-0.077 J-0.143 K0.000 F250.000
G0 Z1.000
G0 X33.970 Y-1.793 Z1.000
G0 X33.970 Y-1.793 Z0.500
G1 X33.970 Y-1.793 Z-0.200 F150.000
G3 X34.734 Y-2.495 Z-0.200 I0.768 J0.069 K0.000 F250.000
G3 X34.748 Y-0.953 Z-0.200 I0.005 J0.771 K0.000 F250.000
G3 X33.970 Y-1.793 Z-0.200 I-0.010 J-0.771 K0.000 F250.000
G0 Z1.000
G0 X31.621 Y-1.721 Z1.000
G0 X31.621 Y-1.721 Z0.500
G1 X31.621 Y-1.721 Z-0.200 F150.000
G2 X31.497 Y-1.508 Z-0.200 I0.134 J0.221 K0.000 F250.000
G3 X30.813 Y-1.866 Z-0.200 I-0.323 J-0.216 K0.000 F250.000
G3 X31.422 Y-2.024 Z-0.200 I0.362 J0.144 K0.000 F250.000
G3 X31.561 Y-1.780 Z-0.200 I-0.274 J0.318 K0.000 F250.000
G2 X31.621 Y-1.721 Z-0.200 I0.072 J-0.012 K0.000 F250.000
G0 Z1.000
G0 X31.543 Y-1.728 Z1.000
G0 X31.543 Y-1.728 Z0.500
G1 X31.543 Y-1.728 Z-0.200 F150.000
G3 X31.177 Y-1.386 Z-0.200 I-0.387 J-0.048 K0.000 F250.000
G3 X30.837 Y-1.722 Z-0.200 I-0.003 J-0.337 K0.000 F250.000
G3 X31.173 Y-2.061 Z-0.200 I0.337 J-0.002 K0.000 F250.000
G3 X31.543 Y-1.728 Z-0.200 I-0.061 J0.440 K0.000 F250.000
G0 Z1.000
G0 X31.467 Y-1.728 Z1.000
G0 X31.467 Y-1.728 Z0.500
G1 X31.467 Y-1.728 Z-0.200 F150.000
G3 X30.907 Y-1.622 Z-0.200 I-0.290 J-0.000 K0.000 F250.000
G3 X31.355 Y-1.948 Z-0.200 I0.268 J-0.102 K0.000 F250.000
G3 X31.467 Y-1.748 Z-0.200 I-0.226 J0.257 K0.000 F250.000
G3 X31.467 Y-1.728 Z-0.200 I-0.289 J0.020 K0.000 F250.000
G0 Z1.000
G0 X31.262 Y-1.725 Z1.000
G0 X31.262 Y-1.725 Z0.500
G1 X31.262 Y-1.725 Z-0.200 F150.000
G3 X31.191 Y-1.641 Z-0.200 I-0.083 J0.001 K0.000 F250.000
G3 X31.149 Y-1.802 Z-0.200 I-0.015 J-0.082 K0.000 F250.000
G1 X31.172 Y-1.806 Z-0.200 F250.000
G3 X31.262 Y-1.725 Z-0.200 I0.007 J0.083 K0.000 F250.000
G0 Z1.000
G0 X31.208 Y-1.725 Z1.000
G0 X31.208 Y-1.725 Z0.500
G1 X31.208 Y-1.725 Z-0.200 F150.000
G3 X31.198 Y-1.701 Z-0.200 I-0.031 J-0.000 K0.000 F250.000
G3 X31.151 Y-1.744 Z-0.200 I-0.023 J-0.021 K0.000 F250.000
G3 X31.171 Y-1.755 Z-0.200 I0.024 J0.018 K0.000 F250.000
G3 X31.208 Y-1.725 Z-0.200 I0.006 J0.030 K0.000 F250.000
G0 Z1.000
G0 X31.178 Y-1.719 Z1.000
G0 X31.178 Y-1.719 Z0.500
G1 X31.178 Y-1.719 Z-0.200 F150.000
G3 X31.170 Y-1.726 Z-0.200 I-0.003 J-0.005 K0.000 F250.000
G1 X31.175 Y-1.729 Z-0.200 F250.000
G3 X31.178 Y-1.719 Z-0.200 I0.001 J0.005 K0.000 F250.000
G0 Z1.000
G0 X31.207 Y-1.593 Z1.000
G0 X31.207 Y-1.593 Z0.500
G1 X31.207 Y-1.593 Z-0.200 F150.000
G3 X31.129 Y-1.849 Z-0.200 I-0.031 J-0.130 K0.000 F250.000
G1 X31.172 Y-1.857 Z-0.200 F250.000
G3 X31.207 Y-1.593 Z-0.200 I0.010 J0.133 K0.000 F250.000
G0 Z1.000
G0 X31.223 Y-1.545 Z1.000
G0 X31.223 Y-1.545 Z0.500
G1 X31.223 Y-1.545 Z-0.200 F150.000
G3 X31.110 Y-1.896 Z-0.200 I-0.048 J-0.179 K0.000 F250.000
G1 X31.172 Y-1.908 Z-0.200 F250.000
G3 X31.223 Y-1.545 Z-0.200 I0.012 J0.183 K0.000 F250.000
G0 Z1.000
G0 X31.239 Y-1.497 Z1.000
G0 X31.239 Y-1.497 Z0.500
G1 X31.239 Y-1.497 Z-0.200 F150.000
G3 X31.091 Y-1.944 Z-0.200 I-0.064 J-0.227 K0.000 F250.000
G1 X31.173 Y-1.959 Z-0.200 F250.000
G3 X31.239 Y-1.497 Z-0.200 I0.012 J0.234 K0.000 F250.000
G0 Z1.000
G0 Z1.000
G0 X31.239 Y-1.497
G0 X44.260
G0 X44.260 Z0.500
G1 X44.260 Y-1.497 Z-0.200 F150.000
G1 X44.260 Y-2.258 Z-0.200 F250.000
G1 X44.334 Y-2.258 Z-0.200 F250.000
G1 X44.334 Y-1.072 Z-0.200 F250.000
G1 X44.260 Y-1.072 Z-0.200 F250.000
G1 X44.260 Y-1.497 Z-0.200 F250.000
G0 Z1.000
G0 X44.285 Z1.000
G0 X44.285 Z0.500
G1 X44.285 Y-1.497 Z-0.200 F150.000
G1 X44.285 Y-2.233 Z-0.200 F250.000
G1 X44.309 Y-2.233 Z-0.200 F250.000
G1 X44.309 Y-1.097 Z-0.200 F250.000
G1 X44.285 Y-1.097 Z-0.200 F250.000
G1 X44.285 Y-1.497 Z-0.200 F250.000
G0 Z1.000
G0 Z1.000
G0 X44.285 Y-1.497
G0 X44.781
G0 X44.781 Z0.500
G1 X44.781 Y-1.497 Z-0.200 F150.000
G1 X44.781 Y-2.258 Z-0.200 F250.000
G1 X44.849 Y-2.258 Z-0.200 F250.000
G1 X44.849 Y-1.232 Z-0.200 F250.000
G2 X44.944 Y-1.209 Z-0.200 I0.050 J0.000 K0.000 F250.000
G1 X45.500 Y-2.258 Z-0.200 F250.000
G1 X45.654 Y-2.258 Z-0.200 F250.000
G1 X45.654 Y-1.072 Z-0.200 F250.000
G1 X45.585 Y-1.072 Z-0.200 F250.000
G1 X45.585 Y-2.098 Z-0.200 F250.000
G2 X45.491 Y-2.121 Z-0.200 I-0.050 J-0.000 K0.000 F250.000
G1 X44.935 Y-1.072 Z-0.200 F250.000
G1 X44.781 Y-1.072 Z-0.200 F250.000
G1 X44.781 Y-1.497 Z-0.200 F250.000
G0 Z1.000
G0 X44.831 Y-1.161 Z1.000
G0 X44.831 Y-1.161 Z0.500
G1 X44.831 Y-1.161 Z-0.200 F150.000
G2 X44.915 Y-1.141 Z-0.200 I0.049 J-0.022 K0.000 F250.000
G3 X44.831 Y-1.122 Z-0.200 I-0.047 J-0.013 K0.000 F250.000
G1 X44.831 Y-1.161 Z-0.200 F250.000
G0 Z1.000
G0 X45.519 Y-2.188 Z1.000
G0 X45.519 Y-2.188 Z0.500
G1 X45.519 Y-2.188 Z-0.200 F150.000
G3 X45.604 Y-2.208 Z-0.200 I0.047 J0.013 K0.000 F250.000
G1 X45.604 Y-2.169 Z-0.200 F250.000
G2 X45.519 Y-2.188 Z-0.200 I-0.049 J0.022 K0.000 F250.000
G0 Z1.000
G0 Z1.000
(Finish operation: ENGRAVE 0.1mm)
(Begin operation: ballend-015mm001)
(Path: ballend-015mm001)
(ballend-015mm001)
(Begin toolchange)
( M6 T11 )
M3 S10000
(Finish operation: ballend-015mm001)
(Begin operation: ENGRAVE 0.2mm)
(Path: ENGRAVE 0.2mm)
(ENGRAVE 0.2mm)
G0 Z2.000
G0 X8.004 Y-5.771
G0 Z1.000
G1 X8.004 Y-5.771 Z-0.150 F150.000
G1 X7.768 Y-5.771 Z-0.150 F250.000
G1 X7.075 Y-7.633 Z-0.150 F250.000
G2 X6.934 Y-7.633 Z-0.150 I-0.070 J0.026 K0.000 F250.000
G1 X6.241 Y-5.771 Z-0.150 F250.000
G1 X6.005 Y-5.771 Z-0.150 F250.000
G1 X6.802 Y-7.898 Z-0.150 F250.000
G1 X7.207 Y-7.898 Z-0.150 F250.000
G1 X8.004 Y-5.771 Z-0.150 F250.000
G0 Z2.000
G0 X7.917 Y-5.831 Z2.000
G0 X7.917 Y-5.831 Z1.000
G1 X7.917 Y-5.831 Z-0.150 F150.000
G1 X7.810 Y-5.831 Z-0.150 F250.000
G1 X7.131 Y-7.654 Z-0.150 F250.000
G2 X6.878 Y-7.654 Z-0.150 I-0.127 J0.047 K0.000 F250.000
G1 X6.199 Y-5.831 Z-0.150 F250.000
G1 X6.091 Y-5.831 Z-0.150 F250.000
G1 X6.844 Y-7.838 Z-0.150 F250.000
G1 X7.165 Y-7.838 Z-0.150 F250.000
G1 X7.917 Y-5.831 Z-0.150 F250.000
G0 Z2.000
G0 X7.139 Y-7.735 Z2.000
G0 X7.139 Y-7.735 Z1.000
G1 X7.139 Y-7.735 Z-0.150 F150.000
G2 X7.082 Y-7.778 Z-0.150 I-0.058 J0.018 K0.000 F250.000
G3 X7.139 Y-7.735 Z-0.150 I0.021 J0.032 K0.000 F250.000
G0 Z2.000
G0 X6.932 Y-7.778 Z2.000
G0 X6.932 Y-7.778 Z1.000
G1 X6.932 Y-7.778 Z-0.150 F150.000
G2 X6.874 Y-7.747 Z-0.150 I-0.006 J0.059 K0.000 F250.000
G3 X6.932 Y-7.778 Z-0.150 I0.035 J-0.005 K0.000 F250.000
G1 X6.932 Y-7.778 Z-0.200 F150.000
G2 X6.874 Y-7.747 Z-0.200 I-0.006 J0.059 K0.000 F250.000
G3 X6.932 Y-7.778 Z-0.200 I0.035 J-0.005 K0.000 F250.000
G0 Z2.000
G0 X6.952 Y-7.731 Z2.000
G0 X6.952 Y-7.731 Z1.000
G1 X6.952 Y-7.731 Z-0.200 F150.000
G2 X6.878 Y-7.654 Z-0.200 I0.053 J0.124 K0.000 F250.000
G1 X6.199 Y-5.831 Z-0.200 F250.000
G1 X6.091 Y-5.831 Z-0.200 F250.000
G1 X6.844 Y-7.838 Z-0.200 F250.000
G1 X7.165 Y-7.838 Z-0.200 F250.000
G1 X7.917 Y-5.831 Z-0.200 F250.000
G1 X7.810 Y-5.831 Z-0.200 F250.000
G1 X7.131 Y-7.654 Z-0.200 F250.000
G2 X6.952 Y-7.731 Z-0.200 I-0.127 J0.047 K0.000 F250.000
G0 Z2.000
G0 X6.975 Y-7.676 Z2.000
G0 X6.975 Y-7.676 Z1.000
G1 X6.975 Y-7.676 Z-0.200 F150.000
G2 X6.934 Y-7.633 Z-0.200 I0.029 J0.069 K0.000 F250.000
G1 X6.241 Y-5.771 Z-0.200 F250.000
G1 X6.005 Y-5.771 Z-0.200 F250.000
G1 X6.802 Y-7.898 Z-0.200 F250.000
G1 X7.207 Y-7.898 Z-0.200 F250.000
G1 X8.004 Y-5.771 Z-0.200 F250.000
G1 X7.768 Y-5.771 Z-0.200 F250.000
G1 X7.075 Y-7.633 Z-0.200 F250.000
G2 X6.975 Y-7.676 Z-0.200 I-0.070 J0.026 K0.000 F250.000
G0 Z2.000
G0 X7.082 Y-7.778 Z2.000
G0 X7.082 Y-7.778 Z1.000
G1 X7.082 Y-7.778 Z-0.200 F150.000
G3 X7.139 Y-7.735 Z-0.200 I0.021 J0.032 K0.000 F250.000
G2 X7.082 Y-7.778 Z-0.200 I-0.058 J0.018 K0.000 F250.000
G0 Z2.000
G0 Z2.000
G0 X7.082 Y-7.778
G0 X8.594 Y-7.275
G0 X8.594 Y-7.275 Z1.000
G1 X8.594 Y-7.275 Z-0.150 F150.000
G3 X8.799 Y-7.665 Z-0.150 I1.290 J0.429 K0.000 F250.000
G3 X10.305 Y-7.550 Z-0.150 I0.706 J0.667 K0.000 F250.000
G3 X10.419 Y-6.375 Z-0.150 I-1.447 J0.733 K0.000 F250.000
G3 X9.512 Y-5.717 Z-0.150 I-0.854 J-0.223 K0.000 F250.000
G3 X8.576 Y-6.475 Z-0.150 I-0.051 J-0.894 K0.000 F250.000
G3 X8.594 Y-7.275 Z-0.150 I1.308 J-0.371 K0.000 F250.000
G0 Z2.000
G0 X8.715 Y-7.252 Z2.000
G0 X8.715 Y-7.252 Z1.000
G1 X8.715 Y-7.252 Z-0.150 F150.000
G3 X8.805 Y-7.455 Z-0.150 I0.487 J0.094 K0.000 F250.000
G2 X8.713 Y-7.236 Z-0.150 I0.637 J0.399 K0.000 F250.000
G3 X8.715 Y-7.252 Z-0.150 I0.490 J0.078 K0.000 F250.000
G0 Z2.000
G0 X8.711 Y-7.225 Z2.000
G0 X8.711 Y-7.225 Z1.000
G1 X8.711 Y-7.225 Z-0.150 F150.000
G2 X8.719 Y-6.410 Z-0.150 I1.703 J0.391 K0.000 F250.000
G1 X8.722 Y-6.402 Z-0.150 F250.000
G3 X8.711 Y-7.225 Z-0.150 I1.513 J-0.432 K0.000 F250.000
G0 Z2.000
G0 X8.648 Y-7.246 Z2.000
G0 X8.648 Y-7.246 Z1.000
G1 X8.648 Y-7.246 Z-0.150 F150.000
G3 X8.845 Y-7.625 Z-0.150 I1.235 J0.400 K0.000 F250.000
G3 X10.364 Y-7.272 Z-0.150 I0.658 J0.613 K0.000 F250.000
G3 X10.361 Y-6.392 Z-0.150 I-1.648 J0.435 K0.000 F250.000
G3 X9.512 Y-5.778 Z-0.150 I-0.796 J-0.207 K0.000 F250.000
G3 X8.636 Y-6.486 Z-0.150 I-0.051 J-0.834 K0.000 F250.000
G3 X8.648 Y-7.246 Z-0.150 I1.248 J-0.360 K0.000 F250.000
G0 Z2.000
G0 X8.778 Y-7.210 Z2.000
G0 X8.778 Y-7.210 Z1.000
G1 X8.778 Y-7.210 Z-0.150 F150.000
G3 X8.911 Y-7.538 Z-0.150 I1.435 J0.389 K0.000 F250.000
G3 X10.211 Y-7.338 Z-0.150 I0.600 J0.424 K0.000 F250.000
G3 X10.106 Y-6.139 Z-0.150 I-1.386 J0.482 K0.000 F250.000
G3 X8.808 Y-6.333 Z-0.150 I-0.601 J-0.417 K0.000 F250.000
G3 X8.778 Y-7.210 Z-0.150 I1.404 J-0.488 K0.000 F250.000
G0 Z2.000
G0 X8.836 Y-7.195 Z2.000
G0 X8.836 Y-7.195 Z1.000
G1 X8.836 Y-7.195 Z-0.150 F150.000
G3 X8.965 Y-7.513 Z-0.150 I1.378 J0.375 K0.000 F250.000
G3 X10.158 Y-7.310 Z-0.150 I0.546 J0.400 K0.000 F250.000
G3 X10.052 Y-6.164 Z-0.150 I-1.333 J0.454 K0.000 F250.000
G3 X8.861 Y-6.361 Z-0.150 I-0.547 J-0.393 K0.000 F250.000
G3 X8.836 Y-7.195 Z-0.150 I1.352 J-0.459 K0.000 F250.000
G0 Z2.000
G0 X8.815 Y-6.194 Z2.000
G0 X8.815 Y-6.194 Z1.000
G1 X8.815 Y-6.194 Z-0.150 F150.000
G1 X8.824 Y-6.176 Z-0.150 F250.000
G3 X8.815 Y-6.194 Z-0.150 I0.036 J-0.030 K0.000 F250.000
G0 Z2.000
G0 X10.199 Y-6.193 Z2.000
G0 X10.199 Y-6.193 Z1.000
G1 X10.199 Y-6.193 Z-0.150 F150.000
G2 X10.353 Y-6.860 Z-0.150 I-1.005 J-0.583 K0.000 F250.000
G2 X10.294 Y-7.282 Z-0.150 I-1.040 J-0.069 K0.000 F250.000
G3 X10.303 Y-6.408 Z-0.150 I-1.513 J0.453 K0.000 F250.000
G3 X10.199 Y-6.193 Z-0.150 I-0.546 J-0.132 K0.000 F250.000
G0 Z2.000
G0 X10.223 Y-7.439 Z2.000
G0 X10.223 Y-7.439 Z1.000
G1 X10.223 Y-7.439 Z-0.150 F150.000
G1 X10.179 Y-7.519 Z-0.150 F250.000
G3 X10.223 Y-7.439 Z-0.150 I-0.158 J0.140 K0.000 F250.000
G1 X10.223 Y-7.439 Z-0.200 F150.000
G1 X10.179 Y-7.519 Z-0.200 F250.000
G3 X10.223 Y-7.439 Z-0.200 I-0.158 J0.140 K0.000 F250.000
G0 Z2.000
G0 X10.180 Y-7.419 Z2.000
G0 X10.180 Y-7.419 Z1.000
G1 X10.180 Y-7.419 Z-0.200 F150.000
G3 X10.211 Y-7.338 Z-0.200 I-0.669 J0.305 K0.000 F250.000
G3 X10.106 Y-6.139 Z-0.200 I-1.386 J0.482 K0.000 F250.000
G3 X8.808 Y-6.333 Z-0.200 I-0.601 J-0.417 K0.000 F250.000
G3 X8.911 Y-7.538 Z-0.200 I1.404 J-0.488 K0.000 F250.000
G3 X10.180 Y-7.419 Z-0.200 I0.600 J0.424 K0.000 F250.000
G0 Z2.000
G0 X10.126 Y-7.395 Z2.000
G0 X10.126 Y-7.395 Z1.000
G1 X10.126 Y-7.395 Z-0.200 F150.000
G3 X10.158 Y-7.310 Z-0.200 I-0.615 J0.282 K0.000 F250.000
G3 X10.052 Y-6.164 Z-0.200 I-1.333 J0.454 K0.000 F250.000
G3 X8.861 Y-6.361 Z-0.200 I-0.547 J-0.393 K0.000 F250.000
G3 X8.965 Y-7.513 Z-0.200 I1.352 J-0.459 K0.000 F250.000
G3 X10.126 Y-7.395 Z-0.200 I0.546 J0.400 K0.000 F250.000
G0 Z2.000
G0 X10.269 Y-7.483 Z2.000
G0 X10.269 Y-7.483 Z1.000
G1 X10.269 Y-7.483 Z-0.200 F150.000
G3 X10.364 Y-7.272 Z-0.200 I-0.766 J0.471 K0.000 F250.000
G3 X10.361 Y-6.392 Z-0.200 I-1.648 J0.435 K0.000 F250.000
G3 X9.512 Y-5.778 Z-0.200 I-0.796 J-0.207 K0.000 F250.000
G3 X8.636 Y-6.486 Z-0.200 I-0.051 J-0.834 K0.000 F250.000
G3 X8.845 Y-7.625 Z-0.200 I1.248 J-0.360 K0.000 F250.000
G3 X10.269 Y-7.483 Z-0.200 I0.658 J0.613 K0.000 F250.000
G0 Z2.000
G0 X10.325 Y-7.509 Z2.000
G0 X10.325 Y-7.509 Z1.000
G1 X10.325 Y-7.509 Z-0.200 F150.000
G3 X10.419 Y-6.375 Z-0.200 I-1.467 J0.692 K0.000 F250.000
G3 X9.512 Y-5.717 Z-0.200 I-0.854 J-0.223 K0.000 F250.000
G3 X8.576 Y-6.475 Z-0.200 I-0.051 J-0.894 K0.000 F250.000
G3 X8.799 Y-7.665 Z-0.200 I1.308 J-0.371 K0.000 F250.000
G3 X10.305 Y-7.550 Z-0.200 I0.706 J0.667 K0.000 F250.000
G3 X10.325 Y-7.509 Z-0.200 I-1.447 J0.733 K0.000 F250.000
G0 Z2.000
G0 X10.294 Y-7.282 Z2.000
G0 X10.294 Y-7.282 Z1.000
G1 X10.294 Y-7.282 Z-0.200 F150.000
G3 X10.303 Y-6.408 Z-0.200 I-1.513 J0.453 K0.000 F250.000
G3 X10.199 Y-6.193 Z-0.200 I-0.546 J-0.132 K0.000 F250.000
G2 X10.353 Y-6.860 Z-0.200 I-1.005 J-0.583 K0.000 F250.000
G2 X10.294 Y-7.282 Z-0.200 I-1.040 J-0.069 K0.000 F250.000
G0 Z2.000
G0 X8.805 Y-7.455 Z2.000
G0 X8.805 Y-7.455 Z1.000
G1 X8.805 Y-7.455 Z-0.200 F150.000
G2 X8.713 Y-7.236 Z-0.200 I0.637 J0.399 K0.000 F250.000
G3 X8.805 Y-7.455 Z-0.200 I0.490 J0.078 K0.000 F250.000
G0 Z2.000
G0 X8.711 Y-7.225 Z2.000
G0 X8.711 Y-7.225 Z1.000
G1 X8.711 Y-7.225 Z-0.200 F150.000
G2 X8.719 Y-6.410 Z-0.200 I1.703 J0.391 K0.000 F250.000
G1 X8.722 Y-6.402 Z-0.200 F250.000
G3 X8.711 Y-7.225 Z-0.200 I1.513 J-0.432 K0.000 F250.000
G0 Z2.000
G0 X8.815 Y-6.194 Z2.000
G0 X8.815 Y-6.194 Z1.000
G1 X8.815 Y-6.194 Z-0.200 F150.000
G1 X8.824 Y-6.176 Z-0.200 F250.000
G3 X8.815 Y-6.194 Z-0.200 I0.036 J-0.030 K0.000 F250.000
G0 Z2.000
G0 Z2.000
G0 X8.815 Y-6.194
G0 X11.250
G0 X11.250 Z1.000
G1 X11.250 Y-6.194 Z-0.150 F150.000
G1 X11.250 Y-7.898 Z-0.150 F250.000
G1 X11.474 Y-7.898 Z-0.150 F250.000
G1 X11.474 Y-4.885 Z-0.150 F250.000
G1 X11.250 Y-4.885 Z-0.150 F250.000
G1 X11.250 Y-6.194 Z-0.150 F250.000
G0 Z2.000
G0 X11.310 Z2.000
G0 X11.310 Z1.000
G1 X11.310 Y-6.194 Z-0.150 F150.000
G1 X11.310 Y-7.838 Z-0.150 F250.000
G1 X11.414 Y-7.838 Z-0.150 F250.000
G1 X11.414 Y-4.945 Z-0.150 F250.000
G1 X11.310 Y-4.945 Z-0.150 F250.000
G1 X11.310 Y-6.194 Z-0.150 F250.000
G0 Z2.000
G0 X11.348 Z2.000
G0 X11.348 Z1.000
G1 X11.348 Y-6.194 Z-0.150 F150.000
G1 X11.348 Y-7.800 Z-0.150 F250.000
G1 X11.377 Y-7.800 Z-0.150 F250.000
G1 X11.377 Y-4.983 Z-0.150 F250.000
G1 X11.348 Y-4.983 Z-0.150 F250.000
G1 X11.348 Y-6.194 Z-0.150 F250.000
G1 X11.348 Y-6.194 Z-0.200 F150.000
G1 X11.348 Y-7.800 Z-0.200 F250.000
G1 X11.377 Y-7.800 Z-0.200 F250.000
G1 X11.377 Y-4.983 Z-0.200 F250.000
G1 X11.348 Y-4.983 Z-0.200 F250.000
G1 X11.348 Y-6.194 Z-0.200 F250.000
G0 Z2.000
G0 X11.310 Z2.000
G0 X11.310 Z1.000
G1 X11.310 Y-6.194 Z-0.200 F150.000
G1 X11.310 Y-7.838 Z-0.200 F250.000
G1 X11.414 Y-7.838 Z-0.200 F250.000
G1 X11.414 Y-4.945 Z-0.200 F250.000
G1 X11.310 Y-4.945 Z-0.200 F250.000
G1 X11.310 Y-6.194 Z-0.200 F250.000
G0 Z2.000
G0 X11.250 Z2.000
G0 X11.250 Z1.000
G1 X11.250 Y-6.194 Z-0.200 F150.000
G1 X11.250 Y-7.898 Z-0.200 F250.000
G1 X11.474 Y-7.898 Z-0.200 F250.000
G1 X11.474 Y-4.885 Z-0.200 F250.000
G1 X11.250 Y-4.885 Z-0.200 F250.000
G1 X11.250 Y-6.194 Z-0.200 F250.000
G0 Z2.000
G0 Z2.000
G0 X11.250 Y-6.194
G0 X12.355 Y-6.210
G0 X12.355 Y-6.210 Z1.000
G1 X12.355 Y-6.210 Z-0.150 F150.000
G3 X12.379 Y-7.270 Z-0.150 I14.196 J-0.212 K0.000 F250.000
G3 X13.093 Y-7.956 Z-0.150 I0.671 J-0.016 K0.000 F250.000
G3 X13.769 Y-7.574 Z-0.150 I0.021 J0.751 K0.000 F250.000
G2 X13.901 Y-7.623 Z-0.150 I0.057 J-0.049 K0.000 F250.000
G1 X13.901 Y-7.898 Z-0.150 F250.000
G1 X14.125 Y-7.898 Z-0.150 F250.000
G1 X14.125 Y-5.771 Z-0.150 F250.000
G1 X13.901 Y-5.771 Z-0.150 F250.000
G1 X13.900 Y-6.997 Z-0.150 F250.000
G2 X12.807 Y-7.666 Z-0.150 I-0.704 J-0.078 K0.000 F250.000
G2 X12.592 Y-7.060 Z-0.150 I0.572 J0.543 K0.000 F250.000
G1 X12.592 Y-5.771 Z-0.150 F250.000
G1 X12.368 Y-5.771 Z-0.150 F250.000
G3 X12.355 Y-6.210 Z-0.150 I14.183 J-0.651 K0.000 F250.000
G0 Z2.000
G0 X12.416 Y-6.211 Z2.000
G0 X12.416 Y-6.211 Z1.000
G1 X12.416 Y-6.211 Z-0.150 F150.000
G3 X12.438 Y-7.263 Z-0.150 I13.560 J-0.240 K0.000 F250.000
G3 X13.261 Y-7.880 Z-0.150 I0.629 J-0.018 K0.000 F250.000
G1 X13.445 Y-7.812 Z-0.150 F250.000
G1 X13.503 Y-7.771 Z-0.150 F250.000
G2 X12.567 Y-7.368 Z-0.150 I-0.314 J0.558 K0.000 F250.000
G1 X12.532 Y-7.060 Z-0.150 F250.000
G1 X12.532 Y-5.831 Z-0.150 F250.000
G1 X12.428 Y-5.831 Z-0.150 F250.000
G3 X12.416 Y-6.211 Z-0.150 I13.548 J-0.620 K0.000 F250.000
G0 Z2.000
G0 X12.554 Y-7.497 Z2.000
G0 X12.554 Y-7.497 Z1.000
G1 X12.554 Y-7.497 Z-0.150 F150.000
G3 X12.570 Y-7.531 Z-0.150 I0.088 J0.021 K0.000 F250.000
G1 X12.554 Y-7.497 Z-0.150 F250.000
G0 Z2.000
G0 X13.820 Y-7.493 Z2.000
G0 X13.820 Y-7.493 Z1.000
G1 X13.820 Y-7.493 Z-0.150 F150.000
G2 X13.961 Y-7.623 Z-0.150 I0.015 J-0.125 K0.000 F250.000
G1 X13.961 Y-7.838 Z-0.150 F250.000
G1 X14.065 Y-7.838 Z-0.150 F250.000
G1 X14.065 Y-5.831 Z-0.150 F250.000
G1 X13.961 Y-5.831 Z-0.150 F250.000
G1 X13.960 Y-7.005 Z-0.150 F250.000
G2 X13.820 Y-7.493 Z-0.150 I-0.782 J-0.039 K0.000 F250.000
G0 Z2.000
G0 X13.909 Y-7.451 Z2.000
G0 X13.909 Y-7.451 Z1.000
G1 X13.909 Y-7.451 Z-0.150 F150.000
G2 X14.005 Y-7.566 Z-0.150 I-0.039 J-0.130 K0.000 F250.000
G1 X14.005 Y-7.119 Z-0.150 F250.000
G2 X13.909 Y-7.451 Z-0.150 I-0.562 J-0.017 K0.000 F250.000
G0 Z2.000
G0 X13.955 Y-7.439 Z2.000
G0 X13.955 Y-7.439 Z1.000
G1 X13.955 Y-7.439 Z-0.150 F150.000
G3 X13.967 Y-7.449 Z-0.150 I0.013 J0.003 K0.000 F250.000
G1 X13.967 Y-7.421 Z-0.150 F250.000
G3 X13.955 Y-7.439 Z-0.150 I0.001 J-0.014 K0.000 F250.000
G1 X13.955 Y-7.439 Z-0.200 F150.000
G3 X13.967 Y-7.449 Z-0.200 I0.013 J0.003 K0.000 F250.000
G1 X13.967 Y-7.421 Z-0.200 F250.000
G3 X13.955 Y-7.439 Z-0.200 I0.001 J-0.014 K0.000 F250.000
G0 Z2.000
G0 X13.940 Y-7.464 Z2.000
G0 X13.940 Y-7.464 Z1.000
G1 X13.940 Y-7.464 Z-0.200 F150.000
G2 X14.005 Y-7.566 Z-0.200 I-0.070 J-0.116 K0.000 F250.000
G1 X14.005 Y-7.119 Z-0.200 F250.000
G2 X13.909 Y-7.451 Z-0.200 I-0.562 J-0.017 K0.000 F250.000
G2 X13.940 Y-7.464 Z-0.200 I-0.039 J-0.130 K0.000 F250.000
G0 Z2.000
G0 X13.906 Y-7.514 Z2.000
G0 X13.906 Y-7.514 Z1.000
G1 X13.906 Y-7.514 Z-0.200 F150.000
G2 X13.961 Y-7.623 Z-0.200 I-0.071 J-0.104 K0.000 F250.000
G1 X13.961 Y-7.838 Z-0.200 F250.000
G1 X14.065 Y-7.838 Z-0.200 F250.000
G1 X14.065 Y-5.831 Z-0.200 F250.000
G1 X13.961 Y-5.831 Z-0.200 F250.000
G1 X13.960 Y-7.005 Z-0.200 F250.000
G2 X13.820 Y-7.493 Z-0.200 I-0.782 J-0.039 K0.000 F250.000
G2 X13.906 Y-7.514 Z-0.200 I0.015 J-0.125 K0.000 F250.000
G0 Z2.000
G0 X13.870 Y-7.563 Z2.000
G0 X13.870 Y-7.563 Z1.000
G1 X13.870 Y-7.563 Z-0.200 F150.000
G2 X13.901 Y-7.623 Z-0.200 I-0.044 J-0.061 K0.000 F250.000
G1 X13.901 Y-7.898 Z-0.200 F250.000
G1 X14.125 Y-7.898 Z-0.200 F250.000
G1 X14.125 Y-5.771 Z-0.200 F250.000
G1 X13.901 Y-5.771 Z-0.200 F250.000
G1 X13.900 Y-6.997 Z-0.200 F250.000
G2 X12.807 Y-7.666 Z-0.200 I-0.704 J-0.078 K0.000 F250.000
G2 X12.592 Y-7.060 Z-0.200 I0.572 J0.543 K0.000 F250.000
G1 X12.592 Y-5.771 Z-0.200 F250.000
G1 X12.368 Y-5.771 Z-0.200 F250.000
G3 X12.379 Y-7.270 Z-0.200 I14.183 J-0.651 K0.000 F250.000
G3 X13.093 Y-7.956 Z-0.200 I0.671 J-0.016 K0.000 F250.000
G3 X13.769 Y-7.574 Z-0.200 I0.021 J0.751 K0.000 F250.000
G2 X13.870 Y-7.563 Z-0.200 I0.057 J-0.049 K0.000 F250.000
G0 Z2.000
G0 X13.503 Y-7.771 Z2.000
G0 X13.503 Y-7.771 Z1.000
G1 X13.503 Y-7.771 Z-0.200 F150.000
G2 X12.567 Y-7.368 Z-0.200 I-0.314 J0.558 K0.000 F250.000
G1 X12.532 Y-7.060 Z-0.200 F250.000
G1 X12.532 Y-5.831 Z-0.200 F250.000
G1 X12.428 Y-5.831 Z-0.200 F250.000
G3 X12.438 Y-7.263 Z-0.200 I13.548 J-0.620 K0.000 F250.000
G3 X13.261 Y-7.880 Z-0.200 I0.629 J-0.018 K0.000 F250.000
G1 X13.445 Y-7.812 Z-0.200 F250.000
G1 X13.503 Y-7.771 Z-0.200 F250.000
G0 Z2.000
G0 X12.570 Y-7.531 Z2.000
G0 X12.570 Y-7.531 Z1.000
G1 X12.570 Y-7.531 Z-0.200 F150.000
G1 X12.554 Y-7.497 Z-0.200 F250.000
G3 X12.570 Y-7.531 Z-0.200 I0.088 J0.021 K0.000 F250.000
G0 Z2.000
G0 Z2.000
G0 X12.570 Y-7.531
G0 X15.031
G0 X15.031 Z1.000
G1 X15.031 Y-7.531 Z-0.150 F150.000
G1 X15.031 Y-7.898 Z-0.150 F250.000
G1 X15.257 Y-7.898 Z-0.150 F250.000
G1 X15.258 Y-6.676 Z-0.150 F250.000
G2 X15.965 Y-5.892 Z-0.150 I0.698 J0.081 K0.000 F250.000
G2 X16.471 Y-6.301 Z-0.150 I0.026 J-0.486 K0.000 F250.000
G1 X16.505 Y-6.611 Z-0.150 F250.000
G1 X16.505 Y-7.898 Z-0.150 F250.000
G1 X16.731 Y-7.898 Z-0.150 F250.000
G1 X16.731 Y-6.676 Z-0.150 F250.000
G2 X16.925 Y-6.103 Z-0.150 I0.843 J0.034 K0.000 F250.000
G2 X17.856 Y-6.095 Z-0.150 I0.469 J-0.411 K0.000 F250.000
G2 X17.978 Y-6.611 Z-0.150 I-0.779 J-0.457 K0.000 F250.000
G1 X17.978 Y-7.898 Z-0.150 F250.000
G1 X18.204 Y-7.898 Z-0.150 F250.000
G1 X18.204 Y-6.603 Z-0.150 F250.000
G3 X18.026 Y-5.938 Z-0.150 I-0.989 J0.092 K0.000 F250.000
G3 X16.803 Y-6.177 Z-0.150 I-0.530 J-0.537 K0.000 F250.000
G2 X16.675 Y-6.166 Z-0.150 I-0.061 J0.044 K0.000 F250.000
G3 X15.871 Y-5.736 Z-0.150 I-0.612 J-0.178 K0.000 F250.000
G3 X15.390 Y-6.097 Z-0.150 I0.158 J-0.712 K0.000 F250.000
G2 X15.257 Y-6.050 Z-0.150 I-0.058 J0.047 K0.000 F250.000
G1 X15.257 Y-5.771 Z-0.150 F250.000
G1 X15.031 Y-5.771 Z-0.150 F250.000
G1 X15.031 Y-7.531 Z-0.150 F250.000
G0 Z2.000
G0 X15.091 Z2.000
G0 X15.091 Z1.000
G1 X15.091 Y-7.531 Z-0.150 F150.000
G1 X15.091 Y-7.838 Z-0.150 F250.000
G1 X15.197 Y-7.838 Z-0.150 F250.000
G1 X15.198 Y-6.668 Z-0.150 F250.000
G2 X15.333 Y-6.179 Z-0.150 I0.751 J0.056 K0.000 F250.000
G2 X15.197 Y-6.050 Z-0.150 I-0.009 J0.127 K0.000 F250.000
G1 X15.197 Y-5.831 Z-0.150 F250.000
G1 X15.091 Y-5.831 Z-0.150 F250.000
G1 X15.091 Y-7.531 Z-0.150 F250.000
G0 Z2.000
G0 X15.151 Y-6.579 Z2.000
G0 X15.151 Y-6.579 Z1.000
G1 X15.151 Y-6.579 Z-0.150 F150.000
G2 X15.243 Y-6.216 Z-0.150 I0.577 J0.047 K0.000 F250.000
G2 X15.151 Y-6.097 Z-0.150 I0.041 J0.126 K0.000 F250.000
G1 X15.151 Y-6.579 Z-0.150 F250.000
G0 Z2.000
G0 X15.188 Y-6.235 Z2.000
G0 X15.188 Y-6.235 Z1.000
G1 X15.188 Y-6.235 Z-0.150 F150.000
G3 X15.188 Y-6.224 Z-0.150 I-0.000 J0.005 K0.000 F250.000
G1 X15.188 Y-6.235 Z-0.150 F250.000
G0 Z2.000
G0 X15.665 Y-5.889 Z2.000
G0 X15.665 Y-5.889 Z1.000
G1 X15.665 Y-5.889 Z-0.150 F150.000
G2 X16.437 Y-6.070 Z-0.150 I0.278 J-0.553 K0.000 F250.000
G2 X16.565 Y-6.611 Z-0.150 I-0.842 J-0.484 K0.000 F250.000
G1 X16.565 Y-7.838 Z-0.150 F250.000
G1 X16.671 Y-7.838 Z-0.150 F250.000
G1 X16.672 Y-6.667 Z-0.150 F250.000
G2 X16.763 Y-6.263 Z-0.150 I0.617 J0.074 K0.000 F250.000
G2 X16.542 Y-6.025 Z-0.150 I0.043 J0.262 K0.000 F250.000
G3 X15.665 Y-5.889 Z-0.150 I-0.504 J-0.351 K0.000 F250.000
G0 Z2.000
G0 X16.571 Y-6.221 Z2.000
G0 X16.571 Y-6.221 Z1.000
G1 X16.571 Y-6.221 Z-0.150 F150.000
G2 X16.622 Y-6.589 Z-0.150 I-0.987 J-0.325 K0.000 F250.000
G2 X16.672 Y-6.310 Z-0.150 I0.782 J0.006 K0.000 F250.000
G1 X16.571 Y-6.221 Z-0.150 F250.000
G0 Z2.000
G0 X17.130 Y-5.893 Z2.000
G0 X17.130 Y-5.893 Z1.000
G1 X17.130 Y-5.893 Z-0.150 F150.000
G2 X17.911 Y-6.070 Z-0.150 I0.287 J-0.548 K0.000 F250.000
G2 X18.038 Y-6.611 Z-0.150 I-0.847 J-0.486 K0.000 F250.000
G1 X18.038 Y-7.838 Z-0.150 F250.000
G1 X18.144 Y-7.838 Z-0.150 F250.000
G1 X18.144 Y-6.607 Z-0.150 F250.000
G3 X17.979 Y-5.976 Z-0.150 I-0.928 J0.093 K0.000 F250.000
G3 X17.130 Y-5.893 Z-0.150 I-0.475 J-0.474 K0.000 F250.000
G0 Z2.000
G0 X18.010 Y-6.154 Z2.000
G0 X18.010 Y-6.154 Z1.000
G1 X18.010 Y-6.154 Z-0.150 F150.000
G1 X18.027 Y-6.198 Z-0.150 F250.000
G3 X18.010 Y-6.154 Z-0.150 I-0.118 J-0.023 K0.000 F250.000
G1 X18.010 Y-6.154 Z-0.200 F150.000
G1 X18.027 Y-6.198 Z-0.200 F250.000
G3 X18.010 Y-6.154 Z-0.200 I-0.118 J-0.023 K0.000 F250.000
G0 Z2.000
G0 X17.962 Y-6.174 Z2.000
G0 X17.962 Y-6.174 Z1.000
G1 X17.962 Y-6.174 Z-0.200 F150.000
G2 X18.038 Y-6.611 Z-0.200 I-0.899 J-0.381 K0.000 F250.000
G1 X18.038 Y-7.838 Z-0.200 F250.000
G1 X18.144 Y-7.838 Z-0.200 F250.000
G1 X18.144 Y-6.607 Z-0.200 F250.000
G3 X17.979 Y-5.976 Z-0.200 I-0.928 J0.093 K0.000 F250.000
G3 X17.130 Y-5.893 Z-0.200 I-0.475 J-0.474 K0.000 F250.000
G2 X17.911 Y-6.070 Z-0.200 I0.287 J-0.548 K0.000 F250.000
G2 X17.962 Y-6.174 Z-0.200 I-0.847 J-0.486 K0.000 F250.000
G0 Z2.000
G0 X17.908 Y-6.198 Z2.000
G0 X17.908 Y-6.198 Z1.000
G1 X17.908 Y-6.198 Z-0.200 F150.000
G2 X17.978 Y-6.611 Z-0.200 I-0.831 J-0.354 K0.000 F250.000
G1 X17.978 Y-7.898 Z-0.200 F250.000
G1 X18.204 Y-7.898 Z-0.200 F250.000
G1 X18.204 Y-6.603 Z-0.200 F250.000
G3 X18.026 Y-5.938 Z-0.200 I-0.989 J0.092 K0.000 F250.000
G3 X16.803 Y-6.177 Z-0.200 I-0.530 J-0.537 K0.000 F250.000
G2 X16.675 Y-6.166 Z-0.200 I-0.061 J0.044 K0.000 F250.000
G3 X15.871 Y-5.736 Z-0.200 I-0.612 J-0.178 K0.000 F250.000
G3 X15.390 Y-6.097 Z-0.200 I0.158 J-0.712 K0.000 F250.000
G2 X15.257 Y-6.050 Z-0.200 I-0.058 J0.047 K0.000 F250.000
G1 X15.257 Y-5.771 Z-0.200 F250.000
G1 X15.031 Y-5.771 Z-0.200 F250.000
G1 X15.031 Y-7.898 Z-0.200 F250.000
G1 X15.257 Y-7.898 Z-0.200 F250.000
G1 X15.258 Y-6.676 Z-0.200 F250.000
G2 X15.965 Y-5.892 Z-0.200 I0.698 J0.081 K0.000 F250.000
G2 X16.471 Y-6.301 Z-0.200 I0.026 J-0.486 K0.000 F250.000
G1 X16.505 Y-6.611 Z-0.200 F250.000
G1 X16.505 Y-7.898 Z-0.200 F250.000
G1 X16.731 Y-7.898 Z-0.200 F250.000
G1 X16.731 Y-6.676 Z-0.200 F250.000
G2 X16.925 Y-6.103 Z-0.200 I0.843 J0.034 K0.000 F250.000
G2 X17.856 Y-6.095 Z-0.200 I0.469 J-0.411 K0.000 F250.000
G2 X17.908 Y-6.198 Z-0.200 I-0.779 J-0.457 K0.000 F250.000
G0 Z2.000
G0 X16.763 Y-6.263 Z2.000
G0 X16.763 Y-6.263 Z1.000
G1 X16.763 Y-6.263 Z-0.200 F150.000
G2 X16.542 Y-6.025 Z-0.200 I0.043 J0.262 K0.000 F250.000
G3 X15.665 Y-5.889 Z-0.200 I-0.504 J-0.351 K0.000 F250.000
G2 X16.437 Y-6.070 Z-0.200 I0.278 J-0.553 K0.000 F250.000
G2 X16.565 Y-6.611 Z-0.200 I-0.842 J-0.484 K0.000 F250.000
G1 X16.565 Y-7.838 Z-0.200 F250.000
G1 X16.671 Y-7.838 Z-0.200 F250.000
G1 X16.672 Y-6.667 Z-0.200 F250.000
G2 X16.763 Y-6.263 Z-0.200 I0.617 J0.074 K0.000 F250.000
G0 Z2.000
G0 X16.672 Y-6.310 Z2.000
G0 X16.672 Y-6.310 Z1.000
G1 X16.672 Y-6.310 Z-0.200 F150.000
G1 X16.571 Y-6.221 Z-0.200 F250.000
G2 X16.622 Y-6.589 Z-0.200 I-0.987 J-0.325 K0.000 F250.000
G2 X16.672 Y-6.310 Z-0.200 I0.782 J0.006 K0.000 F250.000
G0 Z2.000
G0 X15.333 Y-6.179 Z2.000
G0 X15.333 Y-6.179 Z1.000
G1 X15.333 Y-6.179 Z-0.200 F150.000
G2 X15.197 Y-6.050 Z-0.200 I-0.009 J0.127 K0.000 F250.000
G1 X15.197 Y-5.831 Z-0.200 F250.000
G1 X15.091 Y-5.831 Z-0.200 F250.000
G1 X15.091 Y-7.838 Z-0.200 F250.000
G1 X15.197 Y-7.838 Z-0.200 F250.000
G1 X15.198 Y-6.668 Z-0.200 F250.000
G2 X15.333 Y-6.179 Z-0.200 I0.751 J0.056 K0.000 F250.000
G0 Z2.000
G0 X15.243 Y-6.216 Z2.000
G0 X15.243 Y-6.216 Z1.000
G1 X15.243 Y-6.216 Z-0.200 F150.000
G2 X15.151 Y-6.097 Z-0.200 I0.041 J0.126 K0.000 F250.000
G1 X15.151 Y-6.579 Z-0.200 F250.000
G2 X15.243 Y-6.216 Z-0.200 I0.577 J0.047 K0.000 F250.000
G0 Z2.000
G0 X15.188 Y-6.224 Z2.000
G0 X15.188 Y-6.224 Z1.000
G1 X15.188 Y-6.224 Z-0.200 F150.000
G1 X15.188 Y-6.235 Z-0.200 F250.000
G3 X15.188 Y-6.224 Z-0.200 I-0.000 J0.005 K0.000 F250.000
G0 Z2.000
G0 Z2.000
G0 X15.188 Y-6.224
G0 X18.940 Y-6.680
G0 X18.940 Y-6.680 Z1.000
G1 X18.940 Y-6.680 Z-0.150 F150.000
G3 X19.233 Y-7.662 Z-0.150 I1.273 J-0.155 K0.000 F250.000
G3 X20.045 Y-7.957 Z-0.150 I0.738 J0.767 K0.000 F250.000
G3 X20.810 Y-7.805 Z-0.150 I-0.001 J2.009 K0.000 F250.000
G1 X20.810 Y-7.613 Z-0.150 F250.000
G2 X19.734 Y-7.742 Z-0.150 I-0.702 J1.303 K0.000 F250.000
G2 X19.190 Y-6.882 Z-0.150 I0.254 J0.763 K0.000 F250.000
G1 X19.253 Y-6.849 Z-0.150 F250.000
G1 X20.897 Y-6.849 Z-0.150 F250.000
G3 X20.846 Y-6.349 Z-0.150 I-1.558 J0.093 K0.000 F250.000
G3 X19.979 Y-5.717 Z-0.150 I-0.822 J-0.216 K0.000 F250.000
G3 X18.973 Y-6.508 Z-0.150 I-0.052 J-0.968 K0.000 F250.000
G3 X18.940 Y-6.680 Z-0.150 I1.240 J-0.327 K0.000 F250.000
G0 Z2.000
G0 X19.000 Y-6.687 Z2.000
G0 X19.000 Y-6.687 Z1.000
G1 X19.000 Y-6.687 Z-0.150 F150.000
G3 X19.276 Y-7.619 Z-0.150 I1.215 J-0.147 K0.000 F250.000
G3 X20.444 Y-7.855 Z-0.150 I0.799 J0.944 K0.000 F250.000
G3 X20.750 Y-7.763 Z-0.150 I-0.322 J1.627 K0.000 F250.000
G1 X20.750 Y-7.700 Z-0.150 F250.000
G2 X19.437 Y-7.652 Z-0.150 I-0.615 J1.169 K0.000 F250.000
G2 X19.134 Y-6.859 Z-0.150 I0.627 J0.694 K0.000 F250.000
G2 X19.253 Y-6.789 Z-0.150 I0.118 J-0.065 K0.000 F250.000
G1 X20.837 Y-6.789 Z-0.150 F250.000
G3 X20.788 Y-6.365 Z-0.150 I-1.407 J0.052 K0.000 F250.000
G3 X19.980 Y-5.778 Z-0.150 I-0.763 J-0.200 K0.000 F250.000
G3 X19.033 Y-6.518 Z-0.150 I-0.054 J-0.907 K0.000 F250.000
G3 X19.000 Y-6.687 Z-0.150 I1.183 J-0.316 K0.000 F250.000
G0 Z2.000
G0 X19.072 Y-6.699 Z2.000
G0 X19.072 Y-6.699 Z1.000
G1 X19.072 Y-6.699 Z-0.150 F150.000
G3 X19.113 Y-7.219 Z-0.150 I1.091 J-0.175 K0.000 F250.000
G2 X19.076 Y-6.843 Z-0.150 I0.560 J0.245 K0.000 F250.000
G3 X19.080 Y-6.694 Z-0.150 I-0.013 J0.075 K0.000 F250.000
G1 X19.078 Y-6.662 Z-0.150 F250.000
G3 X19.072 Y-6.699 Z-0.150 I1.084 J-0.212 K0.000 F250.000
G0 Z2.000
G0 X19.137 Y-6.677 Z2.000
G0 X19.137 Y-6.677 Z1.000
G1 X19.137 Y-6.677 Z-0.150 F150.000
G3 X19.265 Y-6.768 Z-0.150 I0.128 J0.043 K0.000 F250.000
G1 X20.599 Y-6.766 Z-0.150 F250.000
G1 X20.714 Y-6.702 Z-0.150 F250.000
G3 X20.692 Y-6.352 Z-0.150 I-0.492 J0.145 K0.000 F250.000
G3 X19.134 Y-6.602 Z-0.150 I-0.755 J-0.274 K0.000 F250.000
G3 X19.137 Y-6.677 Z-0.150 I0.131 J-0.031 K0.000 F250.000
G0 Z2.000
G0 X19.194 Y-6.657 Z2.000
G0 X19.194 Y-6.657 Z1.000
G1 X19.194 Y-6.657 Z-0.150 F150.000
G3 X19.265 Y-6.708 Z-0.150 I0.071 J0.024 K0.000 F250.000
G1 X20.599 Y-6.706 Z-0.150 F250.000
G1 X20.659 Y-6.676 Z-0.150 F250.000
G3 X20.633 Y-6.361 Z-0.150 I-0.393 J0.126 K0.000 F250.000
G3 X19.192 Y-6.616 Z-0.150 I-0.696 J-0.267 K0.000 F250.000
G3 X19.194 Y-6.657 Z-0.150 I0.073 J-0.017 K0.000 F250.000
G0 Z2.000
G0 X20.763 Y-6.729 Z2.000
G0 X20.763 Y-6.729 Z1.000
G1 X20.763 Y-6.729 Z-0.150 F150.000
G1 X20.776 Y-6.729 Z-0.150 F250.000
G1 X20.775 Y-6.702 Z-0.150 F250.000
G2 X20.763 Y-6.729 Z-0.150 I-0.024 J-0.006 K0.000 F250.000
G1 X20.763 Y-6.729 Z-0.200 F150.000
G1 X20.776 Y-6.729 Z-0.200 F250.000
G1 X20.775 Y-6.702 Z-0.200 F250.000
G2 X20.763 Y-6.729 Z-0.200 I-0.024 J-0.006 K0.000 F250.000
G0 Z2.000
G0 X20.714 Y-6.702 Z2.000
G0 X20.714 Y-6.702 Z1.000
G1 X20.714 Y-6.702 Z-0.200 F150.000
G3 X20.692 Y-6.352 Z-0.200 I-0.492 J0.145 K0.000 F250.000
G3 X19.134 Y-6.602 Z-0.200 I-0.755 J-0.274 K0.000 F250.000
G3 X19.265 Y-6.768 Z-0.200 I0.131 J-0.031 K0.000 F250.000
G1 X20.599 Y-6.766 Z-0.200 F250.000
G1 X20.714 Y-6.702 Z-0.200 F250.000
G0 Z2.000
G0 X20.659 Y-6.676 Z2.000
G0 X20.659 Y-6.676 Z1.000
G1 X20.659 Y-6.676 Z-0.200 F150.000
G3 X20.633 Y-6.361 Z-0.200 I-0.393 J0.126 K0.000 F250.000
G3 X19.192 Y-6.616 Z-0.200 I-0.696 J-0.267 K0.000 F250.000
G3 X19.265 Y-6.708 Z-0.200 I0.073 J-0.017 K0.000 F250.000
G1 X20.599 Y-6.706 Z-0.200 F250.000
G1 X20.659 Y-6.676 Z-0.200 F250.000
G0 Z2.000
G0 Y-6.789 Z2.000
G0 Y-6.789 Z1.000
G1 X20.659 Y-6.789 Z-0.200 F150.000
G1 X20.837 Y-6.789 Z-0.200 F250.000
G3 X20.788 Y-6.365 Z-0.200 I-1.407 J0.052 K0.000 F250.000
G3 X19.980 Y-5.778 Z-0.200 I-0.763 J-0.200 K0.000 F250.000
G3 X19.033 Y-6.518 Z-0.200 I-0.054 J-0.907 K0.000 F250.000
G3 X19.276 Y-7.619 Z-0.200 I1.183 J-0.316 K0.000 F250.000
G3 X20.444 Y-7.855 Z-0.200 I0.799 J0.944 K0.000 F250.000
G3 X20.750 Y-7.763 Z-0.200 I-0.322 J1.627 K0.000 F250.000
G1 X20.750 Y-7.700 Z-0.200 F250.000
G2 X19.437 Y-7.652 Z-0.200 I-0.615 J1.169 K0.000 F250.000
G2 X19.134 Y-6.859 Z-0.200 I0.627 J0.694 K0.000 F250.000
G2 X19.253 Y-6.789 Z-0.200 I0.118 J-0.065 K0.000 F250.000
G1 X20.659 Y-6.789 Z-0.200 F250.000
G0 Z2.000
G0 Y-6.849 Z2.000
G0 Y-6.849 Z1.000
G1 X20.659 Y-6.849 Z-0.200 F150.000
G1 X20.897 Y-6.849 Z-0.200 F250.000
G3 X20.846 Y-6.349 Z-0.200 I-1.558 J0.093 K0.000 F250.000
G3 X19.979 Y-5.717 Z-0.200 I-0.822 J-0.216 K0.000 F250.000
G3 X18.973 Y-6.508 Z-0.200 I-0.052 J-0.968 K0.000 F250.000
G3 X19.233 Y-7.662 Z-0.200 I1.240 J-0.327 K0.000 F250.000
G3 X20.045 Y-7.957 Z-0.200 I0.738 J0.767 K0.000 F250.000
G3 X20.810 Y-7.805 Z-0.200 I-0.001 J2.009 K0.000 F250.000
G1 X20.810 Y-7.613 Z-0.200 F250.000
G2 X19.734 Y-7.742 Z-0.200 I-0.702 J1.303 K0.000 F250.000
G2 X19.190 Y-6.882 Z-0.200 I0.254 J0.763 K0.000 F250.000
G1 X19.253 Y-6.849 Z-0.200 F250.000
G1 X20.659 Y-6.849 Z-0.200 F250.000
G0 Z2.000
G0 X19.139 Y-6.772 Z2.000
G0 X19.139 Y-6.772 Z1.000
G1 X19.139 Y-6.772 Z-0.200 F150.000
G3 X19.080 Y-6.694 Z-0.200 I-0.076 J0.004 K0.000 F250.000
G1 X19.078 Y-6.662 Z-0.200 F250.000
G3 X19.113 Y-7.219 Z-0.200 I1.084 J-0.212 K0.000 F250.000
G2 X19.076 Y-6.843 Z-0.200 I0.560 J0.245 K0.000 F250.000
G3 X19.139 Y-6.772 Z-0.200 I-0.013 J0.075 K0.000 F250.000
G0 Z2.000
G0 Z2.000
G0 X19.139 Y-6.772
G0 X16.810 Y-12.798
G0 X16.810 Y-12.798 Z1.000
G1 X16.810 Y-12.798 Z-0.150 F150.000
G3 X16.789 Y-12.790 Z-0.150 I-0.356 J-0.922 K0.000 F250.000
G3 X15.747 Y-13.063 Z-0.150 I-0.293 J-1.006 K0.000 F250.000
G3 X15.884 Y-14.802 Z-0.150 I0.982 J-0.798 K0.000 F250.000
G3 X16.842 Y-14.977 Z-0.150 I0.728 J1.269 K0.000 F250.000
G3 X17.341 Y-14.843 Z-0.150 I-0.256 J1.946 K0.000 F250.000
G1 X17.341 Y-14.651 Z-0.150 F250.000
G2 X16.210 Y-14.762 Z-0.150 I-0.695 J1.271 K0.000 F250.000
G2 X15.721 Y-13.921 Z-0.150 I0.314 J0.745 K0.000 F250.000
G1 X15.784 Y-13.888 Z-0.150 F250.000
G1 X17.428 Y-13.888 Z-0.150 F250.000
G3 X16.810 Y-12.798 Z-0.150 I-0.975 J0.167 K0.000 F250.000
G0 Z2.000
G0 X16.789 Y-12.854 Z2.000
G0 X16.789 Y-12.854 Z1.000
G1 X16.789 Y-12.854 Z-0.150 F150.000
G3 X16.773 Y-12.848 Z-0.150 I-0.321 J-0.850 K0.000 F250.000
G3 X15.790 Y-13.105 Z-0.150 I-0.277 J-0.949 K0.000 F250.000
G3 X15.919 Y-14.753 Z-0.150 I0.940 J-0.755 K0.000 F250.000
G3 X16.834 Y-14.918 Z-0.150 I0.693 J1.224 K0.000 F250.000
G3 X17.281 Y-14.801 Z-0.150 I-0.216 J1.743 K0.000 F250.000
G1 X17.281 Y-14.738 Z-0.150 F250.000
G2 X16.180 Y-14.814 Z-0.150 I-0.642 J1.297 K0.000 F250.000
G2 X15.665 Y-13.898 Z-0.150 I0.342 J0.795 K0.000 F250.000
G2 X15.784 Y-13.828 Z-0.150 I0.118 J-0.065 K0.000 F250.000
G1 X17.368 Y-13.828 Z-0.150 F250.000
G3 X16.789 Y-12.854 Z-0.150 I-0.900 J0.123 K0.000 F250.000
G0 Z2.000
G0 X16.764 Y-12.917 Z2.000
G0 X16.764 Y-12.917 Z1.000
G1 X16.764 Y-12.917 Z-0.150 F150.000
G3 X15.664 Y-13.640 Z-0.150 I-0.296 J-0.747 K0.000 F250.000
G3 X15.796 Y-13.807 Z-0.150 I0.131 J-0.031 K0.000 F250.000
G1 X17.129 Y-13.805 Z-0.150 F250.000
G1 X17.244 Y-13.740 Z-0.150 F250.000
G3 X17.223 Y-13.390 Z-0.150 I-0.492 J0.145 K0.000 F250.000
G3 X16.764 Y-12.917 Z-0.150 I-0.755 J-0.274 K0.000 F250.000
G0 Z2.000
G0 X16.742 Y-12.973 Z2.000
G0 X16.742 Y-12.973 Z1.000
G1 X16.742 Y-12.973 Z-0.150 F150.000
G3 X15.723 Y-13.654 Z-0.150 I-0.274 J-0.693 K0.000 F250.000
G3 X15.796 Y-13.747 Z-0.150 I0.073 J-0.017 K0.000 F250.000
G1 X17.129 Y-13.745 Z-0.150 F250.000
G1 X17.190 Y-13.714 Z-0.150 F250.000
G3 X17.164 Y-13.399 Z-0.150 I-0.393 J0.126 K0.000 F250.000
G3 X16.742 Y-12.973 Z-0.150 I-0.696 J-0.267 K0.000 F250.000
G0 Z2.000
G0 X17.305 Y-13.741 Z2.000
G0 X17.305 Y-13.741 Z1.000
G1 X17.305 Y-13.741 Z-0.150 F150.000
G2 X17.294 Y-13.768 Z-0.150 I-0.024 J-0.006 K0.000 F250.000
G1 X17.307 Y-13.768 Z-0.150 F250.000
G1 X17.305 Y-13.741 Z-0.150 F250.000
G0 Z2.000
G0 X15.669 Y-13.803 Z2.000
G0 X15.669 Y-13.803 Z1.000
G1 X15.669 Y-13.803 Z-0.150 F150.000
G3 X15.610 Y-13.732 Z-0.150 I-0.076 J-0.003 K0.000 F250.000
G1 X15.609 Y-13.700 Z-0.150 F250.000
G3 X15.644 Y-14.257 Z-0.150 I1.084 J-0.212 K0.000 F250.000
G2 X15.606 Y-13.881 Z-0.150 I0.560 J0.245 K0.000 F250.000
G3 X15.669 Y-13.803 Z-0.150 I-0.013 J0.075 K0.000 F250.000
G1 X15.669 Y-13.803 Z-0.200 F150.000
G3 X15.610 Y-13.732 Z-0.200 I-0.076 J-0.003 K0.000 F250.000
G1 X15.609 Y-13.700 Z-0.200 F250.000
G3 X15.644 Y-14.257 Z-0.200 I1.084 J-0.212 K0.000 F250.000
G2 X15.606 Y-13.881 Z-0.200 I0.560 J0.245 K0.000 F250.000
G3 X15.669 Y-13.803 Z-0.200 I-0.013 J0.075 K0.000 F250.000
G0 Z2.000
G0 X15.702 Y-13.769 Z2.000
G0 X15.702 Y-13.769 Z1.000
G1 X15.702 Y-13.769 Z-0.200 F150.000
G3 X15.796 Y-13.807 Z-0.200 I0.094 J0.097 K0.000 F250.000
G1 X17.129 Y-13.805 Z-0.200 F250.000
G1 X17.244 Y-13.740 Z-0.200 F250.000
G3 X17.223 Y-13.390 Z-0.200 I-0.492 J0.145 K0.000 F250.000
G3 X15.664 Y-13.640 Z-0.200 I-0.755 J-0.274 K0.000 F250.000
G3 X15.702 Y-13.769 Z-0.200 I0.131 J-0.031 K0.000 F250.000
G0 Z2.000
G0 X15.744 Y-13.726 Z2.000
G0 X15.744 Y-13.726 Z1.000
G1 X15.744 Y-13.726 Z-0.200 F150.000
G3 X15.796 Y-13.747 Z-0.200 I0.052 J0.054 K0.000 F250.000
G1 X17.129 Y-13.745 Z-0.200 F250.000
G1 X17.190 Y-13.714 Z-0.200 F250.000
G3 X17.164 Y-13.399 Z-0.200 I-0.393 J0.126 K0.000 F250.000
G3 X15.723 Y-13.654 Z-0.200 I-0.696 J-0.267 K0.000 F250.000
G3 X15.744 Y-13.726 Z-0.200 I0.073 J-0.017 K0.000 F250.000
G0 Z2.000
G0 X15.761 Y-13.829 Z2.000
G0 X15.761 Y-13.829 Z1.000
G1 X15.761 Y-13.829 Z-0.200 F150.000
G2 X15.784 Y-13.828 Z-0.200 I0.022 J-0.133 K0.000 F250.000
G1 X17.368 Y-13.828 Z-0.200 F250.000
G3 X16.773 Y-12.848 Z-0.200 I-0.900 J0.123 K0.000 F250.000
G3 X15.790 Y-13.105 Z-0.200 I-0.277 J-0.949 K0.000 F250.000
G3 X15.919 Y-14.753 Z-0.200 I0.940 J-0.755 K0.000 F250.000
G3 X16.834 Y-14.918 Z-0.200 I0.693 J1.224 K0.000 F250.000
G3 X17.281 Y-14.801 Z-0.200 I-0.216 J1.743 K0.000 F250.000
G1 X17.281 Y-14.738 Z-0.200 F250.000
G2 X16.180 Y-14.814 Z-0.200 I-0.642 J1.297 K0.000 F250.000
G2 X15.665 Y-13.898 Z-0.200 I0.342 J0.795 K0.000 F250.000
G2 X15.761 Y-13.829 Z-0.200 I0.118 J-0.065 K0.000 F250.000
G0 Z2.000
G0 X15.784 Y-13.888 Z2.000
G0 X15.784 Y-13.888 Z1.000
G1 X15.784 Y-13.888 Z-0.200 F150.000
G1 X17.428 Y-13.888 Z-0.200 F250.000
G3 X16.789 Y-12.790 Z-0.200 I-0.975 J0.167 K0.000 F250.000
G3 X15.747 Y-13.063 Z-0.200 I-0.293 J-1.006 K0.000 F250.000
G3 X15.884 Y-14.802 Z-0.200 I0.982 J-0.798 K0.000 F250.000
G3 X16.842 Y-14.977 Z-0.200 I0.728 J1.269 K0.000 F250.000
G3 X17.341 Y-14.843 Z-0.200 I-0.256 J1.946 K0.000 F250.000
G1 X17.341 Y-14.651 Z-0.200 F250.000
G2 X16.210 Y-14.762 Z-0.200 I-0.695 J1.271 K0.000 F250.000
G2 X15.721 Y-13.921 Z-0.200 I0.314 J0.745 K0.000 F250.000
G1 X15.784 Y-13.888 Z-0.200 F250.000
G0 Z2.000
G0 X17.294 Y-13.768 Z2.000
G0 X17.294 Y-13.768 Z1.000
G1 X17.294 Y-13.768 Z-0.200 F150.000
G1 X17.307 Y-13.768 Z-0.200 F250.000
G1 X17.305 Y-13.741 Z-0.200 F250.000
G2 X17.294 Y-13.768 Z-0.200 I-0.024 J-0.006 K0.000 F250.000
G0 Z2.000
G0 Z2.000
G0 X17.294 Y-13.768
G0 X14.735
G0 X14.735 Z1.000
G1 X14.735 Y-13.768 Z-0.150 F150.000
G1 X14.735 Y-13.642 Z-0.150 F250.000
G3 X14.549 Y-12.971 Z-0.150 I-0.948 J0.099 K0.000 F250.000
G3 X13.336 Y-13.137 Z-0.150 I-0.540 J-0.564 K0.000 F250.000
G2 X13.204 Y-13.089 Z-0.150 I-0.057 J0.049 K0.000 F250.000
G1 X13.204 Y-12.810 Z-0.150 F250.000
G1 X12.978 Y-12.810 Z-0.150 F250.000
G1 X12.978 Y-14.936 Z-0.150 F250.000
G1 X13.204 Y-14.936 Z-0.150 F250.000
G1 X13.205 Y-13.715 Z-0.150 F250.000
G2 X14.124 Y-12.957 Z-0.150 I0.709 J0.077 K0.000 F250.000
G2 X14.477 Y-13.350 Z-0.150 I-0.156 J-0.495 K0.000 F250.000
G1 X14.511 Y-13.650 Z-0.150 F250.000
G1 X14.511 Y-14.936 Z-0.150 F250.000
G1 X14.735 Y-14.936 Z-0.150 F250.000
G1 X14.735 Y-13.768 Z-0.150 F250.000
G0 Z2.000
G0 X14.675 Z2.000
G0 X14.675 Z1.000
G1 X14.675 Y-13.768 Z-0.150 F150.000
G1 X14.675 Y-13.645 Z-0.150 F250.000
G3 X14.502 Y-13.008 Z-0.150 I-0.891 J0.100 K0.000 F250.000
G3 X13.608 Y-12.937 Z-0.150 I-0.492 J-0.533 K0.000 F250.000
G2 X14.536 Y-13.343 Z-0.150 I0.307 J-0.561 K0.000 F250.000
G1 X14.571 Y-13.650 Z-0.150 F250.000
G1 X14.571 Y-14.876 Z-0.150 F250.000
G1 X14.675 Y-14.876 Z-0.150 F250.000
G1 X14.675 Y-13.768 Z-0.150 F250.000
G0 Z2.000
G0 X14.551 Y-13.219 Z2.000
G0 X14.551 Y-13.219 Z1.000
G1 X14.551 Y-13.219 Z-0.150 F150.000
G3 X14.528 Y-13.169 Z-0.150 I-0.127 J-0.030 K0.000 F250.000
G1 X14.551 Y-13.219 Z-0.150 F250.000
G0 Z2.000
G0 X13.285 Y-13.219 Z2.000
G0 X13.285 Y-13.219 Z1.000
G1 X13.285 Y-13.219 Z-0.150 F150.000
G2 X13.144 Y-13.089 Z-0.150 I-0.015 J0.125 K0.000 F250.000
G1 X13.144 Y-12.870 Z-0.150 F250.000
G1 X13.038 Y-12.870 Z-0.150 F250.000
G1 X13.038 Y-14.876 Z-0.150 F250.000
G1 X13.144 Y-14.876 Z-0.150 F250.000
G1 X13.146 Y-13.707 Z-0.150 F250.000
G2 X13.285 Y-13.219 Z-0.150 I0.776 J0.042 K0.000 F250.000
G0 Z2.000
G0 X13.195 Y-13.261 Z2.000
G0 X13.195 Y-13.261 Z1.000
G1 X13.195 Y-13.261 Z-0.150 F150.000
G2 X13.098 Y-13.138 Z-0.150 I0.043 J0.134 K0.000 F250.000
G1 X13.098 Y-13.609 Z-0.150 F250.000
G2 X13.195 Y-13.261 Z-0.150 I0.579 J0.027 K0.000 F250.000
G0 Z2.000
G0 X13.149 Y-13.273 Z2.000
G0 X13.149 Y-13.273 Z1.000
G1 X13.149 Y-13.273 Z-0.150 F150.000
G3 X13.136 Y-13.262 Z-0.150 I-0.014 J-0.004 K0.000 F250.000
G1 X13.136 Y-13.291 Z-0.150 F250.000
G3 X13.149 Y-13.273 Z-0.150 I-0.001 J0.015 K0.000 F250.000
G1 X13.149 Y-13.273 Z-0.200 F150.000
G3 X13.136 Y-13.262 Z-0.200 I-0.014 J-0.004 K0.000 F250.000
G1 X13.136 Y-13.291 Z-0.200 F250.000
G3 X13.149 Y-13.273 Z-0.200 I-0.001 J0.015 K0.000 F250.000
G0 Z2.000
G0 X13.165 Y-13.247 Z2.000
G0 X13.165 Y-13.247 Z1.000
G1 X13.165 Y-13.247 Z-0.200 F150.000
G2 X13.098 Y-13.138 Z-0.200 I0.073 J0.120 K0.000 F250.000
G1 X13.098 Y-13.609 Z-0.200 F250.000
G2 X13.195 Y-13.261 Z-0.200 I0.579 J0.027 K0.000 F250.000
G2 X13.165 Y-13.247 Z-0.200 I0.043 J0.134 K0.000 F250.000
G0 Z2.000
G0 X13.199 Y-13.198 Z2.000
G0 X13.199 Y-13.198 Z1.000
G1 X13.199 Y-13.198 Z-0.200 F150.000
G2 X13.144 Y-13.089 Z-0.200 I0.071 J0.104 K0.000 F250.000
G1 X13.144 Y-12.870 Z-0.200 F250.000
G1 X13.038 Y-12.870 Z-0.200 F250.000
G1 X13.038 Y-14.876 Z-0.200 F250.000
G1 X13.144 Y-14.876 Z-0.200 F250.000
G1 X13.146 Y-13.707 Z-0.200 F250.000
G2 X13.285 Y-13.219 Z-0.200 I0.776 J0.042 K0.000 F250.000
G2 X13.199 Y-13.198 Z-0.200 I-0.015 J0.125 K0.000 F250.000
G0 Z2.000
G0 X13.235 Y-13.149 Z2.000
G0 X13.235 Y-13.149 Z1.000
G1 X13.235 Y-13.149 Z-0.200 F150.000
G2 X13.204 Y-13.089 Z-0.200 I0.045 J0.060 K0.000 F250.000
G1 X13.204 Y-12.810 Z-0.200 F250.000
G1 X12.978 Y-12.810 Z-0.200 F250.000
G1 X12.978 Y-14.936 Z-0.200 F250.000
G1 X13.204 Y-14.936 Z-0.200 F250.000
G1 X13.205 Y-13.715 Z-0.200 F250.000
G2 X14.124 Y-12.957 Z-0.200 I0.709 J0.077 K0.000 F250.000
G2 X14.477 Y-13.350 Z-0.200 I-0.156 J-0.495 K0.000 F250.000
G1 X14.511 Y-13.650 Z-0.200 F250.000
G1 X14.511 Y-14.936 Z-0.200 F250.000
G1 X14.735 Y-14.936 Z-0.200 F250.000
G1 X14.735 Y-13.642 Z-0.200 F250.000
G3 X14.549 Y-12.971 Z-0.200 I-0.948 J0.099 K0.000 F250.000
G3 X13.336 Y-13.137 Z-0.200 I-0.540 J-0.564 K0.000 F250.000
G2 X13.235 Y-13.149 Z-0.200 I-0.057 J0.049 K0.000 F250.000
G0 Z2.000
G0 X13.608 Y-12.937 Z2.000
G0 X13.608 Y-12.937 Z1.000
G1 X13.608 Y-12.937 Z-0.200 F150.000
G2 X14.536 Y-13.343 Z-0.200 I0.307 J-0.561 K0.000 F250.000
G1 X14.571 Y-13.650 Z-0.200 F250.000
G1 X14.571 Y-14.876 Z-0.200 F250.000
G1 X14.675 Y-14.876 Z-0.200 F250.000
G1 X14.675 Y-13.645 Z-0.200 F250.000
G3 X14.502 Y-13.008 Z-0.200 I-0.891 J0.100 K0.000 F250.000
G3 X13.608 Y-12.937 Z-0.200 I-0.492 J-0.533 K0.000 F250.000
G0 Z2.000
G0 X14.528 Y-13.169 Z2.000
G0 X14.528 Y-13.169 Z1.000
G1 X14.528 Y-13.169 Z-0.200 F150.000
G1 X14.551 Y-13.219 Z-0.200 F250.000
G3 X14.528 Y-13.169 Z-0.200 I-0.127 J-0.030 K0.000 F250.000
G0 Z2.000
G0 Z2.000
G0 X14.528 Y-13.169
G0 X12.198 Y-13.577
G0 X12.198 Y-13.577 Z1.000
G1 X12.198 Y-13.577 Z-0.150 F150.000
G3 X12.161 Y-13.414 Z-0.150 I-1.598 J-0.279 K0.000 F250.000
G3 X11.254 Y-12.756 Z-0.150 I-0.854 J-0.223 K0.000 F250.000
G3 X10.318 Y-13.514 Z-0.150 I-0.051 J-0.894 K0.000 F250.000
G3 X10.542 Y-14.704 Z-0.150 I1.308 J-0.371 K0.000 F250.000
G3 X12.048 Y-14.589 Z-0.150 I0.706 J0.667 K0.000 F250.000
G3 X12.198 Y-13.577 Z-0.150 I-1.447 J0.733 K0.000 F250.000
G0 Z2.000
G0 X12.138 Y-13.587 Z2.000
G0 X12.138 Y-13.587 Z1.000
G1 X12.138 Y-13.587 Z-0.150 F150.000
G3 X12.103 Y-13.430 Z-0.150 I-1.680 J-0.289 K0.000 F250.000
G3 X11.254 Y-12.816 Z-0.150 I-0.796 J-0.207 K0.000 F250.000
G3 X10.378 Y-13.524 Z-0.150 I-0.051 J-0.834 K0.000 F250.000
G3 X10.587 Y-14.664 Z-0.150 I1.248 J-0.360 K0.000 F250.000
G3 X12.106 Y-14.310 Z-0.150 I0.658 J0.613 K0.000 F250.000
G3 X12.138 Y-13.587 Z-0.150 I-1.648 J0.435 K0.000 F250.000
G0 Z2.000
G0 X12.079 Y-13.597 Z2.000
G0 X12.079 Y-13.597 Z1.000
G1 X12.079 Y-13.597 Z-0.150 F150.000
G3 X12.045 Y-13.447 Z-0.150 I-1.556 J-0.270 K0.000 F250.000
G3 X11.941 Y-13.232 Z-0.150 I-0.546 J-0.132 K0.000 F250.000
G2 X12.095 Y-13.899 Z-0.150 I-1.005 J-0.583 K0.000 F250.000
G2 X12.036 Y-14.320 Z-0.150 I-1.040 J-0.069 K0.000 F250.000
G3 X12.079 Y-13.597 Z-0.150 I-1.513 J0.453 K0.000 F250.000
G0 Z2.000
G0 X12.008 Y-13.611 Z2.000
G0 X12.008 Y-13.611 Z1.000
G1 X12.008 Y-13.611 Z-0.150 F150.000
G3 X11.848 Y-13.177 Z-0.150 I-1.440 J-0.282 K0.000 F250.000
G3 X10.658 Y-13.170 Z-0.150 I-0.598 J-0.404 K0.000 F250.000
G3 X10.653 Y-14.577 Z-0.150 I1.189 J-0.708 K0.000 F250.000
G3 X11.954 Y-14.376 Z-0.150 I0.600 J0.424 K0.000 F250.000
G3 X12.008 Y-13.611 Z-0.150 I-1.386 J0.482 K0.000 F250.000
G0 Z2.000
G0 X11.949 Y-13.623 Z2.000
G0 X11.949 Y-13.623 Z1.000
G1 X11.949 Y-13.623 Z-0.150 F150.000
G3 X11.794 Y-13.203 Z-0.150 I-1.381 J-0.272 K0.000 F250.000
G3 X10.728 Y-13.177 Z-0.150 I-0.543 J-0.379 K0.000 F250.000
G3 X10.707 Y-14.551 Z-0.150 I1.105 J-0.704 K0.000 F250.000
G3 X11.901 Y-14.348 Z-0.150 I0.546 J0.400 K0.000 F250.000
G3 X11.949 Y-13.623 Z-0.150 I-1.333 J0.454 K0.000 F250.000
G0 Z2.000
G0 X11.966 Y-14.478 Z2.000
G0 X11.966 Y-14.478 Z1.000
G1 X11.966 Y-14.478 Z-0.150 F150.000
G1 X11.921 Y-14.558 Z-0.150 F250.000
G3 X11.966 Y-14.478 Z-0.150 I-0.158 J0.140 K0.000 F250.000
G0 Z2.000
G0 X10.548 Y-14.493 Z2.000
G0 X10.548 Y-14.493 Z1.000
G1 X10.548 Y-14.493 Z-0.150 F150.000
G2 X10.455 Y-14.274 Z-0.150 I0.637 J0.399 K0.000 F250.000
G3 X10.548 Y-14.493 Z-0.150 I0.490 J0.078 K0.000 F250.000
G0 Z2.000
G0 X10.453 Y-14.263 Z2.000
G0 X10.453 Y-14.263 Z1.000
G1 X10.453 Y-14.263 Z-0.150 F150.000
G2 X10.413 Y-13.785 Z-0.150 I1.325 J0.352 K0.000 F250.000
G3 X10.453 Y-14.263 Z-0.150 I1.232 J-0.137 K0.000 F250.000
G0 Z2.000
G0 X10.430 Y-13.604 Z2.000
G0 X10.430 Y-13.604 Z1.000
G1 X10.430 Y-13.604 Z-0.150 F150.000
G2 X10.464 Y-13.440 Z-0.150 I0.595 J-0.037 K0.000 F250.000
G3 X10.430 Y-13.604 Z-0.150 I0.429 J-0.173 K0.000 F250.000
G0 Z2.000
G0 X10.557 Y-13.232 Z2.000
G0 X10.557 Y-13.232 Z1.000
G1 X10.557 Y-13.232 Z-0.150 F150.000
G1 X10.566 Y-13.214 Z-0.150 F250.000
G3 X10.557 Y-13.232 Z-0.150 I0.036 J-0.030 K0.000 F250.000
G1 X10.557 Y-13.232 Z-0.200 F150.000
G1 X10.566 Y-13.214 Z-0.200 F250.000
G3 X10.557 Y-13.232 Z-0.200 I0.036 J-0.030 K0.000 F250.000
G0 Z2.000
G0 X10.609 Y-13.259 Z2.000
G0 X10.609 Y-13.259 Z1.000
G1 X10.609 Y-13.259 Z-0.200 F150.000
G3 X10.653 Y-14.577 Z-0.200 I1.237 J-0.619 K0.000 F250.000
G3 X11.954 Y-14.376 Z-0.200 I0.600 J0.424 K0.000 F250.000
G3 X11.848 Y-13.177 Z-0.200 I-1.386 J0.482 K0.000 F250.000
G3 X10.658 Y-13.170 Z-0.200 I-0.598 J-0.404 K0.000 F250.000
G3 X10.609 Y-13.259 Z-0.200 I1.189 J-0.708 K0.000 F250.000
G0 Z2.000
G0 X10.665 Y-13.287 Z2.000
G0 X10.665 Y-13.287 Z1.000
G1 X10.665 Y-13.287 Z-0.200 F150.000
G3 X10.707 Y-14.551 Z-0.200 I1.168 J-0.594 K0.000 F250.000
G3 X11.901 Y-14.348 Z-0.200 I0.546 J0.400 K0.000 F250.000
G3 X11.794 Y-13.203 Z-0.200 I-1.333 J0.454 K0.000 F250.000
G3 X10.728 Y-13.177 Z-0.200 I-0.543 J-0.379 K0.000 F250.000
G3 X10.665 Y-13.287 Z-0.200 I1.105 J-0.704 K0.000 F250.000
G0 Z2.000
G0 X10.511 Y-13.183 Z2.000
G0 X10.511 Y-13.183 Z1.000
G1 X10.511 Y-13.183 Z-0.200 F150.000
G3 X10.378 Y-13.524 Z-0.200 I0.693 J-0.467 K0.000 F250.000
G3 X10.587 Y-14.664 Z-0.200 I1.248 J-0.360 K0.000 F250.000
G3 X12.106 Y-14.310 Z-0.200 I0.658 J0.613 K0.000 F250.000
G3 X12.103 Y-13.430 Z-0.200 I-1.648 J0.435 K0.000 F250.000
G3 X11.254 Y-12.816 Z-0.200 I-0.796 J-0.207 K0.000 F250.000
G3 X10.511 Y-13.183 Z-0.200 I-0.051 J-0.834 K0.000 F250.000
G0 Z2.000
G0 X10.461 Y-13.149 Z2.000
G0 X10.461 Y-13.149 Z1.000
G1 X10.461 Y-13.149 Z-0.200 F150.000
G3 X10.318 Y-13.514 Z-0.200 I0.742 J-0.500 K0.000 F250.000
G3 X10.542 Y-14.704 Z-0.200 I1.308 J-0.371 K0.000 F250.000
G3 X12.048 Y-14.589 Z-0.200 I0.706 J0.667 K0.000 F250.000
G3 X12.161 Y-13.414 Z-0.200 I-1.447 J0.733 K0.000 F250.000
G3 X11.254 Y-12.756 Z-0.200 I-0.854 J-0.223 K0.000 F250.000
G3 X10.461 Y-13.149 Z-0.200 I-0.051 J-0.894 K0.000 F250.000
G0 Z2.000
G0 X10.464 Y-13.440 Z2.000
G0 X10.464 Y-13.440 Z1.000
G1 X10.464 Y-13.440 Z-0.200 F150.000
G3 X10.430 Y-13.604 Z-0.200 I0.429 J-0.173 K0.000 F250.000
G2 X10.464 Y-13.440 Z-0.200 I0.595 J-0.037 K0.000 F250.000
G0 Z2.000
G0 X10.413 Y-13.785 Z2.000
G0 X10.413 Y-13.785 Z1.000
G1 X10.413 Y-13.785 Z-0.200 F150.000
G3 X10.453 Y-14.263 Z-0.200 I1.232 J-0.137 K0.000 F250.000
G2 X10.413 Y-13.785 Z-0.200 I1.325 J0.352 K0.000 F250.000
G0 Z2.000
G0 X10.455 Y-14.274 Z2.000
G0 X10.455 Y-14.274 Z1.000
G1 X10.455 Y-14.274 Z-0.200 F150.000
G3 X10.548 Y-14.493 Z-0.200 I0.490 J0.078 K0.000 F250.000
G2 X10.455 Y-14.274 Z-0.200 I0.637 J0.399 K0.000 F250.000
G0 Z2.000
G0 X11.921 Y-14.558 Z2.000
G0 X11.921 Y-14.558 Z1.000
G1 X11.921 Y-14.558 Z-0.200 F150.000
G3 X11.966 Y-14.478 Z-0.200 I-0.158 J0.140 K0.000 F250.000
G1 X11.921 Y-14.558 Z-0.200 F250.000
G0 Z2.000
G0 X12.036 Y-14.320 Z2.000
G0 X12.036 Y-14.320 Z1.000
G1 X12.036 Y-14.320 Z-0.200 F150.000
G3 X12.045 Y-13.447 Z-0.200 I-1.513 J0.453 K0.000 F250.000
G3 X11.941 Y-13.232 Z-0.200 I-0.546 J-0.132 K0.000 F250.000
G2 X12.095 Y-13.899 Z-0.200 I-1.005 J-0.583 K0.000 F250.000
G2 X12.036 Y-14.320 Z-0.200 I-1.040 J-0.069 K0.000 F250.000
G0 Z2.000
G0 Z2.000
G0 X12.036 Y-14.320
G0 X9.804 Y-14.773
G0 X9.804 Y-14.773 Z1.000
G1 X9.804 Y-14.773 Z-0.150 F150.000
G2 X9.251 Y-14.741 Z-0.150 I-0.156 J2.069 K0.000 F250.000
G2 X9.061 Y-14.534 Z-0.150 I0.071 J0.256 K0.000 F250.000
G1 X9.033 Y-14.261 Z-0.150 F250.000
G1 X9.033 Y-13.026 Z-0.150 F250.000
G2 X9.108 Y-12.951 Z-0.150 I0.075 J-0.000 K0.000 F250.000
G1 X9.804 Y-12.951 Z-0.150 F250.000
G1 X9.804 Y-12.810 Z-0.150 F250.000
G1 X9.108 Y-12.810 Z-0.150 F250.000
G2 X9.033 Y-12.735 Z-0.150 I0.000 J0.075 K0.000 F250.000
G1 X9.033 Y-12.163 Z-0.150 F250.000
G1 X8.807 Y-12.163 Z-0.150 F250.000
G1 X8.807 Y-12.735 Z-0.150 F250.000
G2 X8.732 Y-12.810 Z-0.150 I-0.075 J0.000 K0.000 F250.000
G1 X8.533 Y-12.810 Z-0.150 F250.000
G1 X8.533 Y-12.951 Z-0.150 F250.000
G2 X8.785 Y-12.972 Z-0.150 I0.100 J-0.316 K0.000 F250.000
G1 X8.807 Y-13.026 Z-0.150 F250.000
G3 X8.817 Y-14.445 Z-0.150 I13.976 J-0.617 K0.000 F250.000
G3 X9.138 Y-14.895 Z-0.150 I0.416 J-0.043 K0.000 F250.000
G3 X9.804 Y-14.936 Z-0.150 I0.514 J2.907 K0.000 F250.000
G1 X9.804 Y-14.773 Z-0.150 F250.000
G0 Z2.000
G0 X9.744 Y-14.833 Z2.000
G0 X9.744 Y-14.833 Z1.000
G1 X9.744 Y-14.833 Z-0.150 F150.000
G2 X9.119 Y-14.738 Z-0.150 I-0.195 J0.814 K0.000 F250.000
G2 X8.973 Y-14.261 Z-0.150 I0.393 J0.381 K0.000 F250.000
G1 X8.973 Y-13.026 Z-0.150 F250.000
G2 X9.108 Y-12.891 Z-0.150 I0.135 J-0.000 K0.000 F250.000
G1 X9.744 Y-12.891 Z-0.150 F250.000
G1 X9.744 Y-12.870 Z-0.150 F250.000
G1 X9.108 Y-12.870 Z-0.150 F250.000
G2 X8.973 Y-12.735 Z-0.150 I0.000 J0.135 K0.000 F250.000
G1 X8.973 Y-12.223 Z-0.150 F250.000
G1 X8.867 Y-12.223 Z-0.150 F250.000
G1 X8.867 Y-12.735 Z-0.150 F250.000
G2 X8.593 Y-12.870 Z-0.150 I-0.205 J0.070 K0.000 F250.000
G1 X8.593 Y-12.891 Z-0.150 F250.000
G2 X8.819 Y-12.922 Z-0.150 I0.070 J-0.327 K0.000 F250.000
G1 X8.867 Y-13.026 Z-0.150 F250.000
G3 X8.877 Y-14.437 Z-0.150 I13.905 J-0.616 K0.000 F250.000
G3 X9.152 Y-14.837 Z-0.150 I0.360 J-0.046 K0.000 F250.000
G3 X9.744 Y-14.876 Z-0.150 I0.471 J2.581 K0.000 F250.000
G1 X9.744 Y-14.833 Z-0.150 F250.000
G0 Z2.000
G0 X8.919 Y-13.009 Z2.000
G0 X8.919 Y-13.009 Z1.000
G1 X8.919 Y-13.009 Z-0.150 F150.000
G2 X8.992 Y-12.890 Z-0.150 I0.096 J0.023 K0.000 F250.000
G1 X8.922 Y-12.752 Z-0.150 F250.000
G2 X8.849 Y-12.871 Z-0.150 I-0.096 J-0.023 K0.000 F250.000
G1 X8.919 Y-13.009 Z-0.150 F250.000
G0 Z2.000
G0 X8.920 Y-12.897 Z2.000
G0 X8.920 Y-12.897 Z1.000
G1 X8.920 Y-12.897 Z-0.150 F150.000
G3 X8.938 Y-12.878 Z-0.150 I0.000 J0.017 K0.000 F250.000
G3 X8.919 Y-12.863 Z-0.150 I-0.017 J-0.002 K0.000 F250.000
G3 X8.903 Y-12.882 Z-0.150 I0.002 J-0.017 K0.000 F250.000
G3 X8.920 Y-12.897 Z-0.150 I0.017 J0.002 K0.000 F250.000
G1 X8.920 Y-12.897 Z-0.200 F150.000
G3 X8.938 Y-12.878 Z-0.200 I0.000 J0.017 K0.000 F250.000
G3 X8.919 Y-12.863 Z-0.200 I-0.017 J-0.002 K0.000 F250.000
G3 X8.903 Y-12.882 Z-0.200 I0.002 J-0.017 K0.000 F250.000
G3 X8.920 Y-12.897 Z-0.200 I0.017 J0.002 K0.000 F250.000
G0 Z2.000
G0 X8.943 Y-12.918 Z2.000
G0 X8.943 Y-12.918 Z1.000
G1 X8.943 Y-12.918 Z-0.200 F150.000
G2 X8.992 Y-12.890 Z-0.200 I0.072 J-0.067 K0.000 F250.000
G1 X8.922 Y-12.752 Z-0.200 F250.000
G2 X8.849 Y-12.871 Z-0.200 I-0.096 J-0.023 K0.000 F250.000
G1 X8.919 Y-13.009 Z-0.200 F250.000
G2 X8.943 Y-12.918 Z-0.200 I0.096 J0.023 K0.000 F250.000
G0 Z2.000
G0 X8.995 Y-12.952 Z2.000
G0 X8.995 Y-12.952 Z1.000
G1 X8.995 Y-12.952 Z-0.200 F150.000
G2 X9.108 Y-12.891 Z-0.200 I0.113 J-0.073 K0.000 F250.000
G1 X9.744 Y-12.891 Z-0.200 F250.000
G1 X9.744 Y-12.870 Z-0.200 F250.000
G1 X9.108 Y-12.870 Z-0.200 F250.000
G2 X8.973 Y-12.735 Z-0.200 I0.000 J0.135 K0.000 F250.000
G1 X8.973 Y-12.223 Z-0.200 F250.000
G1 X8.867 Y-12.223 Z-0.200 F250.000
G1 X8.867 Y-12.735 Z-0.200 F250.000
G2 X8.593 Y-12.870 Z-0.200 I-0.205 J0.070 K0.000 F250.000
G1 X8.593 Y-12.891 Z-0.200 F250.000
G2 X8.819 Y-12.922 Z-0.200 I0.070 J-0.327 K0.000 F250.000
G1 X8.867 Y-13.026 Z-0.200 F250.000
G3 X8.877 Y-14.437 Z-0.200 I13.905 J-0.616 K0.000 F250.000
G3 X9.152 Y-14.837 Z-0.200 I0.360 J-0.046 K0.000 F250.000
G3 X9.744 Y-14.876 Z-0.200 I0.471 J2.581 K0.000 F250.000
G1 X9.744 Y-14.833 Z-0.200 F250.000
G2 X9.119 Y-14.738 Z-0.200 I-0.195 J0.814 K0.000 F250.000
G2 X8.973 Y-14.261 Z-0.200 I0.393 J0.381 K0.000 F250.000
G1 X8.973 Y-13.026 Z-0.200 F250.000
G2 X8.995 Y-12.952 Z-0.200 I0.135 J-0.000 K0.000 F250.000
G0 Z2.000
G0 X9.045 Y-12.985 Z2.000
G0 X9.045 Y-12.985 Z1.000
G1 X9.045 Y-12.985 Z-0.200 F150.000
G2 X9.108 Y-12.951 Z-0.200 I0.063 J-0.041 K0.000 F250.000
G1 X9.804 Y-12.951 Z-0.200 F250.000
G1 X9.804 Y-12.810 Z-0.200 F250.000
G1 X9.108 Y-12.810 Z-0.200 F250.000
G2 X9.033 Y-12.735 Z-0.200 I0.000 J0.075 K0.000 F250.000
G1 X9.033 Y-12.163 Z-0.200 F250.000
G1 X8.807 Y-12.163 Z-0.200 F250.000
G1 X8.807 Y-12.735 Z-0.200 F250.000
G2 X8.732 Y-12.810 Z-0.200 I-0.075 J0.000 K0.000 F250.000
G1 X8.533 Y-12.810 Z-0.200 F250.000
G1 X8.533 Y-12.951 Z-0.200 F250.000
G2 X8.785 Y-12.972 Z-0.200 I0.100 J-0.316 K0.000 F250.000
G1 X8.807 Y-13.026 Z-0.200 F250.000
G3 X8.817 Y-14.445 Z-0.200 I13.976 J-0.617 K0.000 F250.000
G3 X9.138 Y-14.895 Z-0.200 I0.416 J-0.043 K0.000 F250.000
G3 X9.804 Y-14.936 Z-0.200 I0.514 J2.907 K0.000 F250.000
G1 X9.804 Y-14.773 Z-0.200 F250.000
G2 X9.251 Y-14.741 Z-0.200 I-0.156 J2.069 K0.000 F250.000
G2 X9.061 Y-14.534 Z-0.200 I0.071 J0.256 K0.000 F250.000
G1 X9.033 Y-14.261 Z-0.200 F250.000
G1 X9.033 Y-13.026 Z-0.200 F250.000
G2 X9.045 Y-12.985 Z-0.200 I0.075 J-0.000 K0.000 F250.000
G0 Z2.000
G0 Z2.000
(Finish operation: ENGRAVE 0.2mm)
(Begin operation: ENGRAVE 0.15mm)
(Path: ENGRAVE 0.15mm)
(ENGRAVE 0.15mm)
G0 Z1.000
G0 X43.469 Y-6.092
G0 Z0.500
G1 X43.469 Y-6.092 Z-0.200 F150.000
G1 X43.346 Y-6.092 Z-0.200 F250.000
G2 X43.330 Y-7.161 Z-0.200 I-0.918 J-0.521 K0.000 F250.000
G2 X42.729 Y-7.394 Z-0.200 I-0.532 J0.480 K0.000 F250.000
G1 X42.695 Y-7.331 Z-0.200 F250.000
G1 X42.695 Y-6.022 Z-0.200 F250.000
G3 X41.922 Y-6.341 Z-0.200 I-0.114 J-0.820 K0.000 F250.000
G3 X42.715 Y-7.570 Z-0.200 I0.694 J-0.423 K0.000 F250.000
G3 X43.476 Y-7.174 Z-0.200 I0.070 J0.794 K0.000 F250.000
G3 X43.469 Y-6.092 Z-0.200 I-1.286 J0.533 K0.000 F250.000
G0 Z1.000
G0 X42.635 Z1.000
G0 X42.635 Z0.500
G1 X42.635 Y-6.092 Z-0.200 F150.000
G1 X42.635 Y-6.082 Z-0.200 F250.000
G3 X41.973 Y-6.374 Z-0.200 I-0.069 J-0.740 K0.000 F250.000
G1 X41.968 Y-6.384 Z-0.200 F250.000
G2 X42.603 Y-6.131 Z-0.200 I0.518 J-0.377 K0.000 F250.000
G1 X42.635 Y-6.188 Z-0.200 F250.000
G1 X42.635 Y-6.092 Z-0.200 F250.000
G0 Z1.000
G0 X42.575 Y-6.185 Z1.000
G0 X42.575 Y-6.185 Z0.500
G1 X42.575 Y-6.185 Z-0.200 F150.000
G3 X42.522 Y-6.174 Z-0.200 I-0.041 J-0.063 K0.000 F250.000
G3 X42.520 Y-7.395 Z-0.200 I0.005 J-0.610 K0.000 F250.000
G3 X42.611 Y-7.321 Z-0.200 I0.016 J0.073 K0.000 F250.000
G1 X42.610 Y-6.248 Z-0.200 F250.000
G3 X42.575 Y-6.185 Z-0.200 I-0.075 J-0.000 K0.000 F250.000
G0 Z1.000
G0 X42.067 Y-7.270 Z1.000
G0 X42.067 Y-7.270 Z0.500
G1 X42.067 Y-7.270 Z-0.200 F150.000
G3 X43.226 Y-7.366 Z-0.200 I0.641 J0.701 K0.000 F250.000
G3 X43.462 Y-7.047 Z-0.200 I-0.322 J0.484 K0.000 F250.000
G2 X42.707 Y-7.450 Z-0.200 I-0.652 J0.313 K0.000 F250.000
G1 X42.648 Y-7.385 Z-0.200 F250.000
G2 X42.507 Y-7.453 Z-0.200 I-0.112 J0.052 K0.000 F250.000
G2 X42.067 Y-7.270 Z-0.200 I-0.002 J0.614 K0.000 F250.000
G0 Z1.000
G0 X42.623 Y-7.461 Z1.000
G0 X42.623 Y-7.461 Z0.500
G1 X42.623 Y-7.461 Z-0.200 F150.000
G1 X42.676 Y-7.467 Z-0.200 F250.000
G3 X42.623 Y-7.461 Z-0.200 I-0.027 J-0.003 K0.000 F250.000
G0 Z1.000
G0 Z1.000
G0 X42.623 Y-7.461
G0 X42.643 Y-8.362
G0 X42.643 Y-8.362 Z0.500
G1 X42.643 Y-8.362 Z-0.200 F150.000
G3 X42.375 Y-8.396 Z-0.200 I0.029 J-1.295 K0.000 F250.000
G3 X42.114 Y-9.378 Z-0.200 I0.098 J-0.552 K0.000 F250.000
G1 X42.315 Y-9.484 Z-0.200 F250.000
G3 X42.979 Y-9.501 Z-0.200 I0.365 J1.258 K0.000 F250.000
G3 X43.038 Y-8.414 Z-0.200 I-0.099 J0.551 K0.000 F250.000
G3 X42.643 Y-8.362 Z-0.200 I-0.366 J-1.243 K0.000 F250.000
G0 Z1.000
G0 X42.641 Y-8.303 Z1.000
G0 X42.641 Y-8.303 Z0.500
G1 X42.641 Y-8.303 Z-0.200 F150.000
G2 X43.167 Y-8.412 Z-0.200 I0.040 J-1.123 K0.000 F250.000
G2 X43.292 Y-8.301 Z-0.200 I0.123 J-0.011 K0.000 F250.000
G2 X43.977 Y-8.467 Z-0.200 I0.146 J-0.889 K0.000 F250.000
G2 X44.136 Y-8.689 Z-0.200 I-0.336 J-0.408 K0.000 F250.000
G3 X43.748 Y-8.314 Z-0.200 I-0.492 J-0.121 K0.000 F250.000
G1 X43.379 Y-8.270 Z-0.200 F250.000
G1 X41.917 Y-8.270 Z-0.200 F250.000
G1 X41.917 Y-8.301 Z-0.200 F250.000
G2 X42.147 Y-8.332 Z-0.200 I0.072 J-0.332 K0.000 F250.000
G2 X42.193 Y-8.414 Z-0.200 I-0.026 J-0.068 K0.000 F250.000
G2 X42.641 Y-8.303 Z-0.200 I0.489 J-1.012 K0.000 F250.000
G0 Z1.000
G0 X42.225 Y-8.330 Z1.000
G0 X42.225 Y-8.330 Z0.500
G1 X42.225 Y-8.330 Z-0.200 F150.000
G1 X42.212 Y-8.330 Z-0.200 F250.000
G3 X42.225 Y-8.330 Z-0.200 I0.007 J0.001 K0.000 F250.000
G0 Z1.000
G0 Y-8.210 Z1.000
G0 Y-8.210 Z0.500
G1 X42.225 Y-8.210 Z-0.200 F150.000
G1 X41.857 Y-8.210 Z-0.200 F250.000
G1 X41.857 Y-8.361 Z-0.200 F250.000
G2 X42.113 Y-8.383 Z-0.200 I0.102 J-0.320 K0.000 F250.000
G2 X41.984 Y-8.584 Z-0.200 I-0.150 J-0.045 K0.000 F250.000
G3 X42.321 Y-9.650 Z-0.200 I0.470 J-0.438 K0.000 F250.000
G3 X43.030 Y-9.651 Z-0.200 I0.356 J1.283 K0.000 F250.000
G3 X43.245 Y-8.494 Z-0.200 I-0.125 J0.622 K0.000 F250.000
G2 X43.292 Y-8.361 Z-0.200 I0.047 J0.058 K0.000 F250.000
G2 X43.772 Y-8.415 Z-0.200 I0.072 J-1.518 K0.000 F250.000
G2 X44.138 Y-9.032 Z-0.200 I-0.239 J-0.559 K0.000 F250.000
G2 X44.034 Y-9.477 Z-0.200 I-0.930 J-0.017 K0.000 F250.000
G1 X44.160 Y-9.477 Z-0.200 F250.000
G3 X44.054 Y-8.419 Z-0.200 I-1.105 J0.423 K0.000 F250.000
G3 X43.762 Y-8.256 Z-0.200 I-0.456 J-0.470 K0.000 F250.000
G1 X43.383 Y-8.210 Z-0.200 F250.000
G1 X42.225 Y-8.210 Z-0.200 F250.000
G0 Z1.000
G0 X41.875 Y-9.059 Z1.000
G0 X41.875 Y-9.059 Z0.500
G1 X41.875 Y-9.059 Z-0.200 F150.000
G3 X41.889 Y-9.146 Z-0.200 I0.191 J-0.014 K0.000 F250.000
G1 X41.875 Y-9.059 Z-0.200 F250.000
G0 Z1.000
G0 X41.907 Y-9.202 Z1.000
G0 X41.907 Y-9.202 Z0.500
G1 X41.907 Y-9.202 Z-0.200 F150.000
G3 X42.336 Y-9.592 Z-0.200 I0.569 J0.195 K0.000 F250.000
G3 X43.014 Y-9.593 Z-0.200 I0.342 J1.222 K0.000 F250.000
G3 X43.454 Y-9.179 Z-0.200 I-0.108 J0.555 K0.000 F250.000
G2 X42.987 Y-9.561 Z-0.200 I-0.582 J0.235 K0.000 F250.000
G2 X42.288 Y-9.538 Z-0.200 I-0.305 J1.329 K0.000 F250.000
G2 X41.907 Y-9.202 Z-0.200 I0.181 J0.589 K0.000 F250.000
G0 Z1.000
G0 X43.137 Y-8.330 Z1.000
G0 X43.137 Y-8.330 Z0.500
G1 X43.137 Y-8.330 Z-0.200 F150.000
G3 X43.139 Y-8.330 Z-0.200 I0.001 J0.000 K0.000 F250.000
G1 X43.137 Y-8.330 Z-0.200 F250.000
G0 Z1.000
G0 Z1.000
G0 X43.137 Y-8.330
G0 X45.231 Y-8.076
G0 X45.231 Y-8.076 Z0.500
G1 X45.231 Y-8.076 Z-0.200 F150.000
G3 X46.137 Y-8.785 Z-0.200 I0.807 J0.098 K0.000 F250.000
G3 X46.898 Y-8.390 Z-0.200 I0.070 J0.794 K0.000 F250.000
G3 X46.891 Y-7.307 Z-0.200 I-1.286 J0.533 K0.000 F250.000
G1 X46.768 Y-7.307 Z-0.200 F250.000
G2 X46.753 Y-8.376 Z-0.200 I-0.918 J-0.521 K0.000 F250.000
G2 X46.152 Y-8.609 Z-0.200 I-0.532 J0.480 K0.000 F250.000
G1 X46.117 Y-8.547 Z-0.200 F250.000
G1 X46.117 Y-7.237 Z-0.200 F250.000
G3 X45.344 Y-7.556 Z-0.200 I-0.114 J-0.820 K0.000 F250.000
G3 X45.231 Y-8.076 Z-0.200 I0.694 J-0.423 K0.000 F250.000
G0 Z1.000
G0 X45.489 Y-8.486 Z1.000
G0 X45.489 Y-8.486 Z0.500
G1 X45.489 Y-8.486 Z-0.200 F150.000
G3 X46.648 Y-8.582 Z-0.200 I0.641 J0.701 K0.000 F250.000
G3 X46.884 Y-8.263 Z-0.200 I-0.322 J0.484 K0.000 F250.000
G2 X46.129 Y-8.666 Z-0.200 I-0.652 J0.313 K0.000 F250.000
G1 X46.070 Y-8.601 Z-0.200 F250.000
G2 X45.929 Y-8.668 Z-0.200 I-0.112 J0.052 K0.000 F250.000
G2 X45.489 Y-8.486 Z-0.200 I-0.002 J0.614 K0.000 F250.000
G0 Z1.000
G0 X45.530 Y-8.443 Z1.000
G0 X45.530 Y-8.443 Z0.500
G1 X45.530 Y-8.443 Z-0.200 F150.000
G3 X45.942 Y-8.610 Z-0.200 I0.419 J0.444 K0.000 F250.000
G3 X46.033 Y-8.537 Z-0.200 I0.016 J0.073 K0.000 F250.000
G1 X46.032 Y-7.463 Z-0.200 F250.000
G3 X45.944 Y-7.389 Z-0.200 I-0.075 J-0.000 K0.000 F250.000
G3 X45.530 Y-8.443 Z-0.200 I0.005 J-0.610 K0.000 F250.000
G0 Z1.000
G0 X46.045 Y-8.677 Z1.000
G0 X46.045 Y-8.677 Z0.500
G1 X46.045 Y-8.677 Z-0.200 F150.000
G1 X46.098 Y-8.683 Z-0.200 F250.000
G3 X46.045 Y-8.677 Z-0.200 I-0.027 J-0.003 K0.000 F250.000
G0 Z1.000
G0 X45.390 Y-7.600 Z1.000
G0 X45.390 Y-7.600 Z0.500
G1 X45.390 Y-7.600 Z-0.200 F150.000
G2 X46.025 Y-7.347 Z-0.200 I0.518 J-0.377 K0.000 F250.000
G1 X46.057 Y-7.403 Z-0.200 F250.000
G1 X46.057 Y-7.297 Z-0.200 F250.000
G3 X45.395 Y-7.589 Z-0.200 I-0.069 J-0.740 K0.000 F250.000
G1 X45.390 Y-7.600 Z-0.200 F250.000
G0 Z1.000
G0 Z1.000
G0 X45.390 Y-7.600
G0 X47.371 Y-7.599
G0 X47.371 Y-7.599 Z0.500
G1 X47.371 Y-7.599 Z-0.200 F150.000
G1 X47.371 Y-7.750 Z-0.200 F250.000
G1 X47.602 Y-7.750 Z-0.200 F250.000
G1 X47.602 Y-7.599 Z-0.200 F250.000
G1 X47.371 Y-7.599 Z-0.200 F250.000
G0 Z1.000
G0 X47.431 Y-7.659 Z1.000
G0 X47.431 Y-7.659 Z0.500
G1 X47.431 Y-7.659 Z-0.200 F150.000
G1 X47.431 Y-7.690 Z-0.200 F250.000
G1 X47.542 Y-7.690 Z-0.200 F250.000
G1 X47.542 Y-7.659 Z-0.200 F250.000
G1 X47.431 Y-7.659 Z-0.200 F250.000
G0 Z1.000
G0 Z1.000
G0 X47.431 Y-7.659
G0 X46.962 Y-9.435
G0 X46.962 Y-9.435 Z0.500
G1 X46.962 Y-9.435 Z-0.200 F150.000
G1 X44.565 Y-9.435 Z-0.200 F250.000
G1 X44.565 Y-9.586 Z-0.200 F250.000
G1 X46.962 Y-9.586 Z-0.200 F250.000
G1 X46.962 Y-9.435 Z-0.200 F250.000
G0 Z1.000
G0 X46.902 Y-9.495 Z1.000
G0 X46.902 Y-9.495 Z0.500
G1 X46.902 Y-9.495 Z-0.200 F150.000
G1 X44.625 Y-9.495 Z-0.200 F250.000
G1 X44.625 Y-9.526 Z-0.200 F250.000
G1 X46.902 Y-9.526 Z-0.200 F250.000
G1 X46.902 Y-9.495 Z-0.200 F250.000
G0 Z1.000
G0 Z1.000
G0 X46.902 Y-9.495
G0 X46.026 Y-10.575
G0 X46.026 Y-10.575 Z0.500
G1 X46.026 Y-10.575 Z-0.200 F150.000
G1 X45.978 Y-10.575 Z-0.200 F250.000
G1 X45.978 Y-11.400 Z-0.200 F250.000
G2 X45.903 Y-11.475 Z-0.200 I-0.075 J0.000 K0.000 F250.000
G1 X43.101 Y-11.475 Z-0.200 F250.000
G2 X43.026 Y-11.400 Z-0.200 I0.000 J0.075 K0.000 F250.000
G1 X43.026 Y-10.577 Z-0.200 F250.000
G1 X42.977 Y-10.577 Z-0.200 F250.000
G1 X42.977 Y-11.526 Z-0.200 F250.000
G1 X45.900 Y-11.526 Z-0.200 F250.000
G2 X45.975 Y-11.601 Z-0.200 I-0.000 J-0.075 K0.000 F250.000
G1 X45.975 Y-17.525 Z-0.200 F250.000
G1 X46.026 Y-17.525 Z-0.200 F250.000
G1 X46.024 Y-11.601 Z-0.200 F250.000
G2 X46.099 Y-11.526 Z-0.200 I0.075 J0.000 K0.000 F250.000
G1 X49.119 Y-11.526 Z-0.200 F250.000
G1 X49.119 Y-10.577 Z-0.200 F250.000
G1 X49.068 Y-10.577 Z-0.200 F250.000
G1 X49.068 Y-11.400 Z-0.200 F250.000
G2 X48.993 Y-11.475 Z-0.200 I-0.075 J0.000 K0.000 F250.000
G1 X46.101 Y-11.475 Z-0.200 F250.000
G2 X46.026 Y-11.400 Z-0.200 I0.000 J0.075 K0.000 F250.000
G1 X46.026 Y-10.575 Z-0.200 F250.000
G0 Z1.000
G0 X46.006 Y-11.486 Z1.000
G0 X46.006 Y-11.486 Z0.500
G1 X46.006 Y-11.486 Z-0.200 F150.000
G2 X45.985 Y-11.497 Z-0.200 I-0.016 J0.005 K0.000 F250.000
G2 X45.996 Y-11.516 Z-0.200 I-0.004 J-0.015 K0.000 F250.000
G2 X46.017 Y-11.505 Z-0.200 I0.016 J-0.005 K0.000 F250.000
G2 X46.006 Y-11.486 Z-0.200 I0.004 J0.015 K0.000 F250.000
G0 Z1.000
G0 Z1.000
G0 X46.006 Y-11.486
G0 X48.187 Y-9.488
G0 X48.187 Y-9.488 Z0.500
G1 X48.187 Y-9.488 Z-0.200 F150.000
G3 X48.860 Y-9.408 Z-0.200 I0.308 J0.282 K0.000 F250.000
G2 X49.104 Y-8.665 Z-0.200 I9.275 J-2.621 K0.000 F250.000
G2 X49.695 Y-8.864 Z-0.200 I0.259 J-0.208 K0.000 F250.000
G2 X49.575 Y-9.630 Z-0.200 I-1.206 J-0.203 K0.000 F250.000
G1 X49.717 Y-9.630 Z-0.200 F250.000
G3 X49.680 Y-8.554 Z-0.200 I-1.201 J0.498 K0.000 F250.000
G3 X48.961 Y-8.618 Z-0.200 I-0.342 J-0.236 K0.000 F250.000
G2 X48.726 Y-9.352 Z-0.200 I-7.452 J1.983 K0.000 F250.000
G2 X48.159 Y-9.151 Z-0.200 I-0.250 J0.196 K0.000 F250.000
G2 X48.233 Y-8.478 Z-0.200 I1.220 J0.206 K0.000 F250.000
G1 X48.121 Y-8.478 Z-0.200 F250.000
G3 X48.166 Y-9.463 Z-0.200 I1.142 J-0.441 K0.000 F250.000
G3 X48.187 Y-9.488 Z-0.200 I0.329 J0.257 K0.000 F250.000
G0 Z1.000
G0 X48.236 Y-9.445 Z1.000
G0 X48.236 Y-9.445 Z0.500
G1 X48.236 Y-9.445 Z-0.200 F150.000
G3 X48.719 Y-9.495 Z-0.200 I0.269 J0.238 K0.000 F250.000
G3 X48.984 Y-8.774 Z-0.200 I-1.866 J1.096 K0.000 F250.000
G2 X49.646 Y-8.618 Z-0.200 I0.369 J-0.086 K0.000 F250.000
G3 X49.015 Y-8.644 Z-0.200 I-0.309 J-0.171 K0.000 F250.000
G2 X48.780 Y-9.376 Z-0.200 I-7.356 J1.957 K0.000 F250.000
G2 X48.197 Y-9.392 Z-0.200 I-0.297 J0.199 K0.000 F250.000
G3 X48.236 Y-9.445 Z-0.200 I0.307 J0.186 K0.000 F250.000
G0 Z1.000
G0 X49.663 Y-9.570 Z1.000
G0 X49.663 Y-9.570 Z0.500
G1 X49.663 Y-9.570 Z-0.200 F150.000
G3 X49.682 Y-9.523 Z-0.200 I0.003 J0.026 K0.000 F250.000
G1 X49.663 Y-9.570 Z-0.200 F250.000
G0 Z1.000
G0 Z1.000
G0 X49.663 Y-9.570
G0 Y-7.750
G0 Y-7.750 Z0.500
G1 X49.663 Y-7.750 Z-0.200 F150.000
G1 X49.767 Y-7.750 Z-0.200 F250.000
G1 X49.767 Y-7.599 Z-0.200 F250.000
G1 X48.084 Y-7.599 Z-0.200 F250.000
G1 X48.084 Y-7.750 Z-0.200 F250.000
G1 X49.663 Y-7.750 Z-0.200 F250.000
G0 Z1.000
G0 Y-7.690 Z1.000
G0 Y-7.690 Z0.500
G1 X49.663 Y-7.690 Z-0.200 F150.000
G1 X49.707 Y-7.690 Z-0.200 F250.000
G1 X49.707 Y-7.659 Z-0.200 F250.000
G1 X48.144 Y-7.659 Z-0.200 F250.000
G1 X48.144 Y-7.690 Z-0.200 F250.000
G1 X49.663 Y-7.690 Z-0.200 F250.000
G0 Z1.000
G0 Z1.000
G0 X49.663 Y-7.690
G0 X46.943 Y-6.330
G0 X46.943 Y-6.330 Z0.500
G1 X46.943 Y-6.330 Z-0.200 F150.000
G3 X46.714 Y-5.520 Z-0.200 I-0.559 J0.280 K0.000 F250.000
G2 X46.762 Y-5.387 Z-0.200 I0.048 J0.058 K0.000 F250.000
G1 X46.962 Y-5.387 Z-0.200 F250.000
G1 X46.962 Y-5.236 Z-0.200 F250.000
G1 X44.565 Y-5.236 Z-0.200 F250.000
G1 X44.565 Y-5.387 Z-0.200 F250.000
G1 X45.482 Y-5.387 Z-0.200 F250.000
G2 X45.525 Y-5.524 Z-0.200 I0.000 J-0.075 K0.000 F250.000
G3 X45.759 Y-6.676 Z-0.200 I0.341 J-0.531 K0.000 F250.000
G3 X46.571 Y-6.647 Z-0.200 I0.364 J1.196 K0.000 F250.000
G3 X46.943 Y-6.330 Z-0.200 I-0.188 J0.596 K0.000 F250.000
G0 Z1.000
G0 X46.891 Y-6.308 Z1.000
G0 X46.891 Y-6.308 Z0.500
G1 X46.891 Y-6.308 Z-0.200 F150.000
G3 X46.923 Y-6.202 Z-0.200 I-0.447 J0.191 K0.000 F250.000
G2 X46.438 Y-6.587 Z-0.200 I-0.603 J0.262 K0.000 F250.000
G2 X45.728 Y-6.564 Z-0.200 I-0.311 J1.372 K0.000 F250.000
G2 X45.295 Y-6.049 Z-0.200 I0.125 J0.544 K0.000 F250.000
G3 X45.773 Y-6.618 Z-0.200 I0.580 J0.003 K0.000 F250.000
G3 X46.546 Y-6.592 Z-0.200 I0.349 J1.137 K0.000 F250.000
G3 X46.891 Y-6.308 Z-0.200 I-0.102 J0.475 K0.000 F250.000
G0 Z1.000
G0 X46.826 Y-6.268 Z1.000
G0 X46.826 Y-6.268 Z0.500
G1 X46.826 Y-6.268 Z-0.200 F150.000
G3 X46.490 Y-5.440 Z-0.200 I-0.473 J0.290 K0.000 F250.000
G3 X45.815 Y-5.422 Z-0.200 I-0.372 J-1.287 K0.000 F250.000
G3 X45.546 Y-6.402 Z-0.200 I0.075 J-0.547 K0.000 F250.000
G1 X45.754 Y-6.510 Z-0.200 F250.000
G3 X46.431 Y-6.527 Z-0.200 I0.371 J1.301 K0.000 F250.000
G3 X46.826 Y-6.268 Z-0.200 I-0.078 J0.549 K0.000 F250.000
G0 Z1.000
G0 X46.636 Y-5.445 Z1.000
G0 X46.636 Y-5.445 Z0.500
G1 X46.636 Y-5.445 Z-0.200 F150.000
G2 X46.902 Y-5.327 Z-0.200 I0.179 J-0.045 K0.000 F250.000
G1 X46.902 Y-5.296 Z-0.200 F250.000
G1 X44.625 Y-5.296 Z-0.200 F250.000
G1 X44.625 Y-5.327 Z-0.200 F250.000
G1 X45.482 Y-5.327 Z-0.200 F250.000
G2 X45.613 Y-5.447 Z-0.200 I0.031 J-0.098 K0.000 F250.000
G2 X46.636 Y-5.445 Z-0.200 I0.513 J-1.048 K0.000 F250.000
G0 Z1.000
G0 X46.609 Y-5.356 Z1.000
G0 X46.609 Y-5.356 Z0.500
G1 X46.609 Y-5.356 Z-0.200 F150.000
G1 X46.591 Y-5.356 Z-0.200 F250.000
G3 X46.609 Y-5.356 Z-0.200 I0.009 J0.002 K0.000 F250.000
G0 Z1.000
G0 X45.664 Z1.000
G0 X45.664 Z0.500
G1 X45.664 Y-5.356 Z-0.200 F150.000
G1 X45.634 Y-5.356 Z-0.200 F250.000
G3 X45.664 Y-5.356 Z-0.200 I0.015 J0.003 K0.000 F250.000
G0 Z1.000
G0 Z1.000
(Finish operation: ENGRAVE 0.15mm)
(Begin postamble)
M5
G17 G90
M2
