(Exported by FreeCAD)
(Post Processor: grbl_post)
(Output Time:2022-11-12 11:33:51.823978)
(Begin preamble)
G17 G90
G21
(Begin operation: G54)
(Path: G54)
G54
G0 Z5.000
(Finish operation: G54)
(Begin operation: endmill-2_5mm001)
(Path: endmill-2_5mm001)
(endmill-2_5mm001)
(Begin toolchange)
( M6 T2 )
M3 S10000
(Finish operation: endmill-2_5mm001)
(Begin operation: Profile)
(Path: Profile)
(Profile)
(Compensated Tool Path. Diameter: 2.5)
G0 Z5.000
G0 X4.065 Y-7.935
G0 Z3.000
G1 X4.065 Y-7.935 Z-1.000 F100.000
G3 X-1.195 Y-6.377 Z-1.000 I-4.065 J-4.065 K0.000 F250.000
G3 X-5.623 Y-13.195 Z-1.000 I1.195 J-5.623 K0.000 F250.000
G3 X1.195 Y-17.623 Z-1.000 I5.623 J1.195 K0.000 F250.000
G3 X4.065 Y-7.935 Z-1.000 I-1.195 J5.623 K0.000 F250.000
G1 X4.065 Y-7.935 Z-2.000 F100.000
G3 X-1.195 Y-6.377 Z-2.000 I-4.065 J-4.065 K0.000 F250.000
G3 X-5.623 Y-13.195 Z-2.000 I1.195 J-5.623 K0.000 F250.000
G3 X1.195 Y-17.623 Z-2.000 I5.623 J1.195 K0.000 F250.000
G3 X4.065 Y-7.935 Z-2.000 I-1.195 J5.623 K0.000 F250.000
G1 X4.065 Y-7.935 Z-2.500 F100.000
G3 X-1.195 Y-6.377 Z-2.500 I-4.065 J-4.065 K0.000 F250.000
G3 X-5.623 Y-13.195 Z-2.500 I1.195 J-5.623 K0.000 F250.000
G3 X1.195 Y-17.623 Z-2.500 I5.623 J1.195 K0.000 F250.000
G3 X4.065 Y-7.935 Z-2.500 I-1.195 J5.623 K0.000 F250.000
G0 Z5.000
G0 Z5.000
G0 X4.065 Y-7.935
G0 X9.350 Y-2.650
G0 X9.350 Y-2.650 Z3.000
G1 X9.350 Y-2.650 Z-1.000 F100.000
G3 X13.158 Y-3.564 Z-1.000 I2.650 J2.650 K0.000 F250.000
G3 X15.564 Y1.158 Z-1.000 I-1.158 J3.564 K0.000 F250.000
G3 X10.842 Y3.564 Z-1.000 I-3.564 J-1.158 K0.000 F250.000
G3 X9.350 Y-2.650 Z-1.000 I1.158 J-3.564 K0.000 F250.000
G1 X9.350 Y-2.650 Z-2.000 F100.000
G3 X13.158 Y-3.564 Z-2.000 I2.650 J2.650 K0.000 F250.000
G3 X15.564 Y1.158 Z-2.000 I-1.158 J3.564 K0.000 F250.000
G3 X10.842 Y3.564 Z-2.000 I-3.564 J-1.158 K0.000 F250.000
G3 X9.350 Y-2.650 Z-2.000 I1.158 J-3.564 K0.000 F250.000
G1 X9.350 Y-2.650 Z-2.500 F100.000
G3 X13.158 Y-3.564 Z-2.500 I2.650 J2.650 K0.000 F250.000
G3 X15.564 Y1.158 Z-2.500 I-1.158 J3.564 K0.000 F250.000
G3 X10.842 Y3.564 Z-2.500 I-3.564 J-1.158 K0.000 F250.000
G3 X9.350 Y-2.650 Z-2.500 I1.158 J-3.564 K0.000 F250.000
G0 Z5.000
G0 Z5.000
G0 X9.350 Y-2.650
G0 X1.482 Y6.312
G0 X1.482 Y6.312 Z3.000
G1 X1.482 Y6.312 Z-1.000 F100.000
G3 X2.250 Y8.047 Z-1.000 I-1.489 J1.697 K0.000 F250.000
G1 X2.250 Y17.955 Z-1.000 F250.000
G3 X-2.224 Y18.320 Z-1.000 I-2.248 J0.043 K0.000 F250.000
G1 X-2.250 Y17.955 Z-1.000 F250.000
G1 X-2.250 Y8.047 Z-1.000 F250.000
G3 X0.821 Y5.909 Z-1.000 I2.250 J-0.042 K0.000 F250.000
G3 X1.482 Y6.312 Z-1.000 I-0.828 J2.100 K0.000 F250.000
G1 X1.482 Y6.312 Z-2.000 F100.000
G3 X2.250 Y8.047 Z-2.000 I-1.489 J1.697 K0.000 F250.000
G1 X2.250 Y17.955 Z-2.000 F250.000
G3 X-2.224 Y18.320 Z-2.000 I-2.248 J0.043 K0.000 F250.000
G1 X-2.250 Y17.955 Z-2.000 F250.000
G1 X-2.250 Y8.047 Z-2.000 F250.000
G3 X0.821 Y5.909 Z-2.000 I2.250 J-0.042 K0.000 F250.000
G3 X1.482 Y6.312 Z-2.000 I-0.828 J2.100 K0.000 F250.000
G1 X1.482 Y6.312 Z-2.500 F100.000
G3 X2.250 Y8.047 Z-2.500 I-1.489 J1.697 K0.000 F250.000
G1 X2.250 Y17.955 Z-2.500 F250.000
G3 X-2.224 Y18.320 Z-2.500 I-2.248 J0.043 K0.000 F250.000
G1 X-2.250 Y17.955 Z-2.500 F250.000
G1 X-2.250 Y8.047 Z-2.500 F250.000
G3 X0.821 Y5.909 Z-2.500 I2.250 J-0.042 K0.000 F250.000
G3 X1.482 Y6.312 Z-2.500 I-0.828 J2.100 K0.000 F250.000
G0 Z5.000
G0 Z5.000
G0 X1.482 Y6.312
G0 X-12.902 Y0.803
G0 X-12.902 Y0.803 Z3.000
G1 X-12.902 Y0.803 Z-1.000 F100.000
G3 X-15.821 Y2.091 Z-1.000 I-2.098 J-0.803 K0.000 F250.000
G3 X-17.091 Y-0.821 Z-1.000 I0.821 J-2.091 K0.000 F250.000
G3 X-14.179 Y-2.091 Z-1.000 I2.091 J0.821 K0.000 F250.000
G3 X-12.902 Y0.803 Z-1.000 I-0.821 J2.091 K0.000 F250.000
G1 X-12.902 Y0.803 Z-2.000 F100.000
G3 X-15.821 Y2.091 Z-2.000 I-2.098 J-0.803 K0.000 F250.000
G3 X-17.091 Y-0.821 Z-2.000 I0.821 J-2.091 K0.000 F250.000
G3 X-14.179 Y-2.091 Z-2.000 I2.091 J0.821 K0.000 F250.000
G3 X-12.902 Y0.803 Z-2.000 I-0.821 J2.091 K0.000 F250.000
G1 X-12.902 Y0.803 Z-2.500 F100.000
G3 X-15.821 Y2.091 Z-2.500 I-2.098 J-0.803 K0.000 F250.000
G3 X-17.091 Y-0.821 Z-2.500 I0.821 J-2.091 K0.000 F250.000
G3 X-14.179 Y-2.091 Z-2.500 I2.091 J0.821 K0.000 F250.000
G3 X-12.902 Y0.803 Z-2.500 I-0.821 J2.091 K0.000 F250.000
G0 Z5.000
G0 Z5.000
G0 X-12.902 Y0.803
G0 X-25.611 Y8.141
G0 X-25.611 Y8.141 Z3.000
G1 X-25.611 Y8.141 Z-1.000 F100.000
G1 X-15.516 Y25.625 Z-1.000 F250.000
G2 X-14.434 Y26.250 Z-1.000 I1.083 J-0.625 K0.000 F250.000
G1 X14.434 Y26.250 Z-1.000 F250.000
G2 X15.516 Y25.625 Z-1.000 I-0.000 J-1.250 K0.000 F250.000
G1 X29.950 Y0.625 Z-1.000 F250.000
G2 X29.950 Y-0.625 Z-1.000 I-1.083 J-0.625 K0.000 F250.000
G1 X15.516 Y-25.625 Z-1.000 F250.000
G2 X14.434 Y-26.250 Z-1.000 I-1.083 J0.625 K0.000 F250.000
G1 X-14.434 Y-26.250 Z-1.000 F250.000
G2 X-15.516 Y-25.625 Z-1.000 I0.000 J1.250 K0.000 F250.000
G1 X-29.950 Y-0.625 Z-1.000 F250.000
G2 X-29.950 Y0.625 Z-1.000 I1.083 J0.625 K0.000 F250.000
G1 X-25.611 Y8.141 Z-1.000 F250.000
G1 X-25.611 Y8.141 Z-2.000 F100.000
G1 X-15.516 Y25.625 Z-2.000 F250.000
G2 X-14.434 Y26.250 Z-2.000 I1.083 J-0.625 K0.000 F250.000
G1 X14.434 Y26.250 Z-2.000 F250.000
G2 X15.516 Y25.625 Z-2.000 I-0.000 J-1.250 K0.000 F250.000
G1 X29.950 Y0.625 Z-2.000 F250.000
G2 X29.950 Y-0.625 Z-2.000 I-1.083 J-0.625 K0.000 F250.000
G1 X15.516 Y-25.625 Z-2.000 F250.000
G2 X14.434 Y-26.250 Z-2.000 I-1.083 J0.625 K0.000 F250.000
G1 X-14.434 Y-26.250 Z-2.000 F250.000
G2 X-15.516 Y-25.625 Z-2.000 I0.000 J1.250 K0.000 F250.000
G1 X-29.950 Y-0.625 Z-2.000 F250.000
G2 X-29.950 Y0.625 Z-2.000 I1.083 J0.625 K0.000 F250.000
G1 X-25.611 Y8.141 Z-2.000 F250.000
G1 X-25.611 Y8.141 Z-2.500 F100.000
G1 X-15.516 Y25.625 Z-2.500 F250.000
G2 X-14.434 Y26.250 Z-2.500 I1.083 J-0.625 K0.000 F250.000
G1 X14.434 Y26.250 Z-2.500 F250.000
G2 X15.516 Y25.625 Z-2.500 I-0.000 J-1.250 K0.000 F250.000
G1 X29.950 Y0.625 Z-2.500 F250.000
G2 X29.950 Y-0.625 Z-2.500 I-1.083 J-0.625 K0.000 F250.000
G1 X15.516 Y-25.625 Z-2.500 F250.000
G2 X14.434 Y-26.250 Z-2.500 I-1.083 J0.625 K0.000 F250.000
G1 X-14.434 Y-26.250 Z-2.500 F250.000
G2 X-15.516 Y-25.625 Z-2.500 I0.000 J1.250 K0.000 F250.000
G1 X-29.950 Y-0.625 Z-2.500 F250.000
G2 X-29.950 Y0.625 Z-2.500 I1.083 J0.625 K0.000 F250.000
G1 X-25.611 Y8.141 Z-2.500 F250.000
G0 Z5.000
G0 Z5.000
(Finish operation: Profile)
(Begin postamble)
M5
G17 G90
M2
