(Exported by FreeCAD)
(Post Processor: grbl_post)
(Output Time:2023-04-04 21:16:24.221431)
(Begin preamble)
G17 G90
G21
(Begin operation: G54)
(Path: G54)
G54
G0 Z5.000
(Finish operation: G54)
(Begin operation: ballend-015mm001)
(Path: ballend-015mm001)
(ballend-015mm001)
(Begin toolchange)
( M6 T3 )
M3 S10000
(Finish operation: ballend-015mm001)
(Begin operation: ENGRAVE 0.15MM)
(Path: ENGRAVE 0.15MM)
(ENGRAVE 0.15MM001)
G0 Z0.500
G0 X27.290 Y-1.346
G0 Z0.300
G1 X27.290 Y-1.346 Z-0.200 F150.000
G1 X27.247 Y-1.346 Z-0.200 F250.000
G2 X27.225 Y-1.674 Z-0.200 I-0.407 J-0.138 K0.000 F250.000
G2 X26.895 Y-1.696 Z-0.200 I-0.191 J0.387 K0.000 F250.000
G1 X26.895 Y-1.740 Z-0.200 F250.000
G2 X27.225 Y-1.762 Z-0.200 I0.138 J-0.409 K0.000 F250.000
G2 X27.247 Y-2.092 Z-0.200 I-0.387 J-0.191 K0.000 F250.000
G1 X27.290 Y-2.092 Z-0.200 F250.000
G2 X27.312 Y-1.762 Z-0.200 I0.409 J0.138 K0.000 F250.000
G2 X27.641 Y-1.740 Z-0.200 I0.191 J-0.385 K0.000 F250.000
G1 X27.641 Y-1.696 Z-0.200 F250.000
G2 X27.312 Y-1.674 Z-0.200 I-0.138 J0.407 K0.000 F250.000
G2 X27.290 Y-1.346 Z-0.200 I0.385 J0.191 K0.000 F250.000
G0 Z0.500
G0 X27.272 Y-1.710 Z0.500
G0 X27.272 Y-1.710 Z0.300
G1 X27.272 Y-1.710 Z-0.200 F150.000
G3 X27.266 Y-1.726 Z-0.200 I-0.003 J-0.008 K0.000 F250.000
G3 X27.272 Y-1.710 Z-0.200 I0.003 J0.008 K0.000 F250.000
G0 Z0.500
G0 Z0.500
G0 X27.272 Y-1.710
G0 X27.709 Y-1.059
G0 X27.709 Y-1.059 Z0.300
G1 X27.709 Y-1.059 Z-0.200 F150.000
G3 X26.697 Y-2.276 Z-0.200 I-0.444 J-0.660 K0.000 F250.000
G3 X27.822 Y-2.287 Z-0.200 I0.569 J0.557 K0.000 F250.000
G3 X27.833 Y-1.162 Z-0.200 I-0.557 J0.568 K0.000 F250.000
G3 X27.709 Y-1.059 Z-0.200 I-0.568 J-0.557 K0.000 F250.000
G0 Z0.500
G0 X27.726 Y-1.034 Z0.500
G0 X27.726 Y-1.034 Z0.300
G1 X27.726 Y-1.034 Z-0.200 F150.000
G3 X26.460 Y-1.902 Z-0.200 I-0.461 J-0.685 K0.000 F250.000
G3 X27.553 Y-2.492 Z-0.200 I0.804 J0.183 K0.000 F250.000
G3 X28.088 Y-1.787 Z-0.200 I-0.292 J0.778 K0.000 F250.000
G2 X28.161 Y-1.733 Z-0.200 I0.072 J-0.021 K0.000 F250.000
G1 X30.276 Y-1.733 Z-0.200 F250.000
G2 X30.384 Y-1.961 Z-0.200 I-0.086 J-0.180 K0.000 F250.000
G3 X31.588 Y-2.429 Z-0.200 I0.786 J0.239 K0.000 F250.000
G1 X31.588 Y-2.382 Z-0.200 F250.000
G2 X30.619 Y-1.147 Z-0.200 I-0.424 J0.664 K0.000 F250.000
G2 X31.588 Y-1.056 Z-0.200 I0.539 J-0.536 K0.000 F250.000
G1 X31.588 Y-1.011 Z-0.200 F250.000
G3 X30.351 Y-1.645 Z-0.200 I-0.419 J-0.706 K0.000 F250.000
G2 X30.277 Y-1.705 Z-0.200 I-0.074 J0.015 K0.000 F250.000
G1 X28.162 Y-1.705 Z-0.200 F250.000
G2 X28.060 Y-1.495 Z-0.200 I0.076 J0.167 K0.000 F250.000
G3 X27.726 Y-1.034 Z-0.200 I-0.795 J-0.224 K0.000 F250.000
G0 Z0.500
G0 X28.096 Y-1.715 Z0.500
G0 X28.096 Y-1.715 Z0.300
G1 X28.096 Y-1.715 Z-0.200 F150.000
G1 X28.096 Y-1.722 Z-0.200 F250.000
G1 X28.100 Y-1.717 Z-0.200 F250.000
G1 X28.096 Y-1.715 Z-0.200 F250.000
G0 Z0.500
G0 Z0.500
G0 X28.096 Y-1.715
G0 X34.353
G0 X34.353 Z0.300
G1 X34.353 Y-1.715 Z-0.200 F150.000
G1 X34.353 Y-1.744 Z-0.200 F250.000
G1 X35.208 Y-1.744 Z-0.200 F250.000
G1 X35.208 Y-1.694 Z-0.200 F250.000
G1 X34.353 Y-1.694 Z-0.200 F250.000
G1 X34.353 Y-1.715 Z-0.200 F250.000
G0 Z0.500
G0 Z0.500
G0 X34.353 Y-1.715
G0 X33.913 Y-1.650
G0 X33.913 Y-1.650 Z0.300
G1 X33.913 Y-1.650 Z-0.200 F150.000
G2 X33.841 Y-1.705 Z-0.200 I-0.072 J0.021 K0.000 F250.000
G1 X31.654 Y-1.705 Z-0.200 F250.000
G2 X31.517 Y-1.490 Z-0.200 I0.090 J0.209 K0.000 F250.000
G3 X30.788 Y-1.869 Z-0.200 I-0.344 J-0.229 K0.000 F250.000
G3 X31.583 Y-1.783 Z-0.200 I0.386 J0.152 K0.000 F250.000
G2 X31.654 Y-1.733 Z-0.200 I0.071 J-0.024 K0.000 F250.000
G1 X33.840 Y-1.733 Z-0.200 F250.000
G2 X33.912 Y-1.787 Z-0.200 I0.000 J-0.075 K0.000 F250.000
G3 X35.046 Y-2.484 Z-0.200 I0.824 J0.070 K0.000 F250.000
G3 X34.448 Y-0.946 Z-0.200 I-0.310 J0.765 K0.000 F250.000
G3 X33.913 Y-1.650 Z-0.200 I0.293 J-0.778 K0.000 F250.000
G0 Z0.500
G0 X33.944 Y-1.653 Z0.500
G0 X33.944 Y-1.653 Z0.300
G1 X33.944 Y-1.653 Z-0.200 F150.000
G3 X34.729 Y-2.515 Z-0.200 I0.793 J-0.066 K0.000 F250.000
G3 X34.751 Y-0.924 Z-0.200 I0.008 J0.796 K0.000 F250.000
G3 X33.944 Y-1.653 Z-0.200 I-0.013 J-0.796 K0.000 F250.000
G0 Z0.500
G0 X31.559 Y-1.720 Z0.500
G0 X31.559 Y-1.720 Z0.300
G1 X31.559 Y-1.720 Z-0.200 F150.000
G3 X31.529 Y-1.680 Z-0.200 I-0.043 J-0.001 K0.000 F250.000
G3 X30.820 Y-1.719 Z-0.200 I-0.353 J-0.041 K0.000 F250.000
G3 X31.397 Y-1.992 Z-0.200 I0.353 J0.001 K0.000 F250.000
G3 X31.526 Y-1.764 Z-0.200 I-0.257 J0.297 K0.000 F250.000
G3 X31.559 Y-1.720 Z-0.200 I-0.010 J0.042 K0.000 F250.000
G0 Z0.500
G0 X31.470 Y-1.721 Z0.500
G0 X31.470 Y-1.721 Z0.300
G1 X31.470 Y-1.721 Z-0.200 F150.000
G3 X30.901 Y-1.615 Z-0.200 I-0.295 J-0.002 K0.000 F250.000
G3 X31.356 Y-1.946 Z-0.200 I0.273 J-0.104 K0.000 F250.000
G3 X31.470 Y-1.744 Z-0.200 I-0.228 J0.260 K0.000 F250.000
G3 X31.470 Y-1.721 Z-0.200 I-0.294 J0.021 K0.000 F250.000
G0 Z0.500
G0 X31.287 Y-1.719 Z0.500
G0 X31.287 Y-1.719 Z0.300
G1 X31.287 Y-1.719 Z-0.200 F150.000
G3 X31.197 Y-1.612 Z-0.200 I-0.108 J0.001 K0.000 F250.000
G3 X31.137 Y-1.820 Z-0.200 I-0.023 J-0.106 K0.000 F250.000
G1 X31.170 Y-1.826 Z-0.200 F250.000
G3 X31.287 Y-1.719 Z-0.200 I0.008 J0.108 K0.000 F250.000
G0 Z0.500
G0 X31.222 Y-1.719 Z0.500
G0 X31.222 Y-1.719 Z0.300
G1 X31.222 Y-1.719 Z-0.200 F150.000
G3 X31.208 Y-1.686 Z-0.200 I-0.047 J0.000 K0.000 F250.000
G3 X31.138 Y-1.749 Z-0.200 I-0.034 J-0.032 K0.000 F250.000
G3 X31.170 Y-1.765 Z-0.200 I0.036 J0.029 K0.000 F250.000
G3 X31.222 Y-1.719 Z-0.200 I0.005 J0.046 K0.000 F250.000
G0 Z0.500
G0 X31.178 Y-1.712 Z0.500
G0 X31.178 Y-1.712 Z0.300
G1 X31.178 Y-1.712 Z-0.200 F150.000
G3 X31.166 Y-1.722 Z-0.200 I-0.005 J-0.006 K0.000 F250.000
G1 X31.173 Y-1.727 Z-0.200 F250.000
G3 X31.178 Y-1.712 Z-0.200 I0.001 J0.008 K0.000 F250.000
G0 Z0.500
G0 X31.216 Y-1.554 Z0.500
G0 X31.216 Y-1.554 Z0.300
G1 X31.216 Y-1.554 Z-0.200 F150.000
G3 X31.114 Y-1.877 Z-0.200 I-0.042 J-0.164 K0.000 F250.000
G1 X31.171 Y-1.888 Z-0.200 F250.000
G3 X31.216 Y-1.554 Z-0.200 I0.011 J0.168 K0.000 F250.000
G0 Z0.500
G0 X31.235 Y-1.496 Z0.500
G0 X31.235 Y-1.496 Z0.300
G1 X31.235 Y-1.496 Z-0.200 F150.000
G3 X31.091 Y-1.933 Z-0.200 I-0.062 J-0.222 K0.000 F250.000
G1 X31.171 Y-1.949 Z-0.200 F250.000
G3 X31.235 Y-1.496 Z-0.200 I0.012 J0.229 K0.000 F250.000
G0 Z0.500
G0 Z0.500
(Finish operation: ENGRAVE 0.15MM)
(Begin operation: ballend-012mm001)
(Path: ballend-012mm001)
(ballend-012mm001)
(Begin toolchange)
( M6 T6 )
M3 S10000
(Finish operation: ballend-012mm001)
(Begin operation: ENGRAVE 0.12MM)
(Path: ENGRAVE 0.12MM)
(ENGRAVE 0.12MM001)
G0 Z0.500
G0 X16.346 Y-1.342
G0 Z0.300
G1 X16.346 Y-1.342 Z-0.200 F150.000
G3 X16.263 Y-1.277 Z-0.200 I-0.358 J-0.370 K0.000 F250.000
G2 X16.414 Y-2.003 Z-0.200 I-0.322 J-0.446 K0.000 F250.000
G3 X16.346 Y-1.342 Z-0.200 I-0.426 J0.290 K0.000 F250.000
G0 Z0.500
G0 X16.243 Y-1.263 Z0.500
G0 X16.243 Y-1.263 Z0.300
G1 X16.243 Y-1.263 Z-0.200 F150.000
G3 X15.532 Y-2.040 Z-0.200 I-0.286 J-0.452 K0.000 F250.000
G3 X15.804 Y-2.225 Z-0.200 I0.359 J0.237 K0.000 F250.000
G2 X16.123 Y-1.210 Z-0.200 I0.171 J0.504 K0.000 F250.000
G1 X16.243 Y-1.263 Z-0.200 F250.000
G0 Z0.500
G0 X16.387 Y-2.045 Z0.500
G0 X16.387 Y-2.045 Z0.300
G1 X16.387 Y-2.045 Z-0.200 F150.000
G2 X16.290 Y-2.142 Z-0.200 I-0.265 J0.168 K0.000 F250.000
G3 X16.387 Y-2.045 Z-0.200 I-0.067 J0.164 K0.000 F250.000
G0 Z0.500
G0 X16.227 Y-2.185 Z0.500
G0 X16.227 Y-2.185 Z0.300
G1 X16.227 Y-2.185 Z-0.200 F150.000
G2 X15.849 Y-2.233 Z-0.200 I-0.253 J0.479 K0.000 F250.000
G3 X16.183 Y-2.216 Z-0.200 I0.143 J0.471 K0.000 F250.000
G1 X16.227 Y-2.185 Z-0.200 F250.000
G0 Z0.500
G0 Z0.500
G0 X16.227 Y-2.185
G0 X16.845 Y-1.992
G0 X16.845 Y-1.992 Z0.300
G1 X16.845 Y-1.992 Z-0.200 F150.000
G3 X17.141 Y-2.234 Z-0.200 I0.331 J0.103 K0.000 F250.000
G2 X16.830 Y-1.804 Z-0.200 I0.093 J0.394 K0.000 F250.000
G1 X16.830 Y-1.195 Z-0.200 F250.000
G1 X16.818 Y-1.195 Z-0.200 F250.000
G3 X16.832 Y-1.931 Z-0.200 I3.396 J-0.301 K0.000 F250.000
G3 X16.845 Y-1.992 Z-0.200 I0.344 J0.042 K0.000 F250.000
G0 Z0.500
G0 X17.162 Y-2.238 Z0.500
G0 X17.162 Y-2.238 Z0.300
G1 X17.162 Y-2.238 Z-0.200 F150.000
G3 X17.483 Y-2.198 Z-0.200 I0.114 J0.393 K0.000 F250.000
G3 X17.691 Y-1.797 Z-0.200 I-0.235 J0.377 K0.000 F250.000
G1 X17.691 Y-1.195 Z-0.200 F250.000
G1 X17.679 Y-1.195 Z-0.200 F250.000
G2 X17.661 Y-1.948 Z-0.200 I-3.044 J-0.306 K0.000 F250.000
G2 X17.162 Y-2.238 Z-0.200 I-0.400 J0.115 K0.000 F250.000
G0 Z0.500
G0 Z0.500
G0 X17.162 Y-2.238
G0 X18.372 Y-2.243
G0 X18.372 Y-2.243 Z0.300
G1 X18.372 Y-2.243 Z-0.200 F150.000
G1 X18.384 Y-2.243 Z-0.200 F250.000
G1 X18.384 Y-1.260 Z-0.200 F250.000
G2 X18.444 Y-1.200 Z-0.200 I0.060 J0.000 K0.000 F250.000
G1 X18.792 Y-1.200 Z-0.200 F250.000
G1 X18.792 Y-1.195 Z-0.200 F250.000
G1 X17.964 Y-1.195 Z-0.200 F250.000
G1 X17.964 Y-1.200 Z-0.200 F250.000
G1 X18.312 Y-1.200 Z-0.200 F250.000
G2 X18.372 Y-1.260 Z-0.200 I0.000 J-0.060 K0.000 F250.000
G1 X18.372 Y-2.243 Z-0.200 F250.000
G0 Z0.500
G0 Z0.500
G0 X18.372 Y-2.243
G0 X30.058 Y-3.630
G0 X30.058 Y-3.630 Z0.300
G1 X30.058 Y-3.630 Z-0.200 F150.000
G3 X30.281 Y-3.947 Z-0.200 I0.288 J-0.034 K0.000 F250.000
G2 X30.154 Y-3.447 Z-0.200 I0.093 J0.290 K0.000 F250.000
G3 X30.058 Y-3.630 Z-0.200 I0.193 J-0.217 K0.000 F250.000
G0 Z0.500
G0 X30.186 Y-3.418 Z0.500
G0 X30.186 Y-3.418 Z0.300
G1 X30.186 Y-3.418 Z-0.200 F150.000
G2 X30.687 Y-3.812 Z-0.200 I0.210 J-0.249 K0.000 F250.000
G2 X30.757 Y-3.878 Z-0.200 I0.012 J-0.057 K0.000 F250.000
G2 X30.603 Y-4.326 Z-0.200 I-0.624 J-0.036 K0.000 F250.000
G2 X30.119 Y-4.247 Z-0.200 I-0.210 J0.236 K0.000 F250.000
G3 X30.586 Y-4.359 Z-0.200 I0.278 J0.127 K0.000 F250.000
G3 X30.600 Y-3.395 Z-0.200 I-0.566 J0.490 K0.000 F250.000
G3 X30.186 Y-3.418 Z-0.200 I-0.193 J-0.285 K0.000 F250.000
G0 Z0.500
G0 X30.350 Y-3.964 Z0.500
G0 X30.350 Y-3.964 Z0.300
G1 X30.350 Y-3.964 Z-0.200 F150.000
G3 X30.503 Y-3.956 Z-0.200 I0.065 J0.230 K0.000 F250.000
G1 X30.535 Y-3.941 Z-0.200 F250.000
G2 X30.350 Y-3.964 Z-0.200 I-0.125 J0.251 K0.000 F250.000
G0 Z0.500
G0 X30.725 Y-3.791 Z0.500
G0 X30.725 Y-3.791 Z0.300
G1 X30.725 Y-3.791 Z-0.200 F150.000
G1 X30.729 Y-3.792 Z-0.200 F250.000
G1 X30.728 Y-3.783 Z-0.200 F250.000
G1 X30.725 Y-3.791 Z-0.200 F250.000
G0 Z0.500
G0 Z0.500
G0 X30.725 Y-3.791
G0 X31.114 Y-3.634
G0 X31.114 Y-3.634 Z0.300
G1 X31.114 Y-3.634 Z-0.200 F150.000
G1 X31.424 Y-4.399 Z-0.200 F250.000
G1 X31.495 Y-4.399 Z-0.200 F250.000
G1 X31.919 Y-3.351 Z-0.200 F250.000
G1 X31.904 Y-3.351 Z-0.200 F250.000
G1 X31.515 Y-4.331 Z-0.200 F250.000
G2 X31.404 Y-4.331 Z-0.200 I-0.056 J0.022 K0.000 F250.000
G1 X31.015 Y-3.351 Z-0.200 F250.000
G1 X31.000 Y-3.351 Z-0.200 F250.000
G1 X31.114 Y-3.634 Z-0.200 F250.000
G0 Z0.500
G0 Z0.500
G0 X31.114 Y-3.634
G0 X44.239 Y-2.243
G0 X44.239 Y-2.243 Z0.300
G1 X44.239 Y-2.243 Z-0.200 F150.000
G1 X44.251 Y-2.243 Z-0.200 F250.000
G1 X44.251 Y-1.195 Z-0.200 F250.000
G1 X44.239 Y-1.195 Z-0.200 F250.000
G1 X44.239 Y-2.243 Z-0.200 F250.000
G0 Z0.500
G0 Z0.500
G0 X44.239 Y-2.243
G0 X44.657
G0 X44.657 Z0.300
G1 X44.657 Y-2.243 Z-0.200 F150.000
G1 X44.669 Y-2.243 Z-0.200 F250.000
G1 X44.669 Y-1.317 Z-0.200 F250.000
G2 X44.777 Y-1.281 Z-0.200 I0.060 J0.000 K0.000 F250.000
G1 X45.481 Y-2.243 Z-0.200 F250.000
G1 X45.544 Y-2.243 Z-0.200 F250.000
G1 X45.544 Y-1.195 Z-0.200 F250.000
G1 X45.532 Y-1.195 Z-0.200 F250.000
G1 X45.532 Y-2.117 Z-0.200 F250.000
G2 X45.423 Y-2.153 Z-0.200 I-0.060 J0.000 K0.000 F250.000
G1 X44.719 Y-1.195 Z-0.200 F250.000
G1 X44.657 Y-1.195 Z-0.200 F250.000
G1 X44.657 Y-2.243 Z-0.200 F250.000
G0 Z0.500
G0 X45.487 Y-2.201 Z0.500
G0 X45.487 Y-2.201 Z0.300
G1 X45.487 Y-2.201 Z-0.200 F150.000
G3 X45.514 Y-2.213 Z-0.200 I0.018 J0.004 K0.000 F250.000
G1 X45.514 Y-2.190 Z-0.200 F250.000
G1 X45.487 Y-2.201 Z-0.200 F250.000
G0 Z0.500
G0 X44.711 Y-1.234 Z0.500
G0 X44.711 Y-1.234 Z0.300
G1 X44.711 Y-1.234 Z-0.200 F150.000
G3 X44.687 Y-1.225 Z-0.200 I-0.016 J-0.004 K0.000 F250.000
G1 X44.687 Y-1.244 Z-0.200 F250.000
G1 X44.711 Y-1.234 Z-0.200 F250.000
G0 Z0.500
G0 Z0.500
(Finish operation: ENGRAVE 0.12MM)
(Begin operation: ballend-020mm001)
(Path: ballend-020mm001)
(ballend-020mm001)
(Begin toolchange)
( M6 T4 )
M3 S10000
(Finish operation: ballend-020mm001)
(Begin operation: ENGRAVE 0.20MM)
(Path: ENGRAVE 0.20MM)
(ENGRAVE 0.2MM001)
G0 Z0.500
G0 X7.637 Y-24.992
G0 Z0.300
G1 X7.637 Y-24.992 Z-0.200 F150.000
G1 X7.511 Y-24.992 Z-0.200 F250.000
G1 X6.882 Y-26.675 Z-0.200 F250.000
G2 X6.695 Y-26.675 Z-0.200 I-0.094 J0.035 K0.000 F250.000
G1 X6.062 Y-24.992 Z-0.200 F250.000
G1 X5.936 Y-24.992 Z-0.200 F250.000
G1 X6.673 Y-26.873 Z-0.200 F250.000
G1 X6.903 Y-26.873 Z-0.200 F250.000
G1 X7.637 Y-24.992 Z-0.200 F250.000
G0 Z0.500
G0 X7.564 Y-25.042 Z0.500
G0 X7.564 Y-25.042 Z0.300
G1 X7.564 Y-25.042 Z-0.200 F150.000
G1 X7.546 Y-25.042 Z-0.200 F250.000
G1 X7.127 Y-26.161 Z-0.200 F250.000
G1 X7.564 Y-25.042 Z-0.200 F250.000
G0 Z0.500
G0 X6.217 Y-25.548 Z0.500
G0 X6.217 Y-25.548 Z0.300
G1 X6.217 Y-25.548 Z-0.200 F150.000
G1 X6.027 Y-25.042 Z-0.200 F250.000
G1 X6.009 Y-25.042 Z-0.200 F250.000
G1 X6.445 Y-26.154 Z-0.200 F250.000
G1 X6.217 Y-25.548 Z-0.200 F250.000
G0 Z0.500
G0 X6.661 Y-26.703 Z0.500
G0 X6.661 Y-26.703 Z0.300
G1 X6.661 Y-26.703 Z-0.200 F150.000
G1 X6.708 Y-26.823 Z-0.200 F250.000
G1 X6.869 Y-26.823 Z-0.200 F250.000
G1 X6.913 Y-26.711 Z-0.200 F250.000
G2 X6.661 Y-26.703 Z-0.200 I-0.125 J0.058 K0.000 F250.000
G0 Z0.500
G0 Z0.500
G0 X6.661 Y-26.703
G0 X8.086 Y-26.263
G0 X8.086 Y-26.263 Z0.300
G1 X8.086 Y-26.263 Z-0.200 F150.000
G3 X9.256 Y-26.872 Z-0.200 I0.885 J0.273 K0.000 F250.000
G3 X9.875 Y-25.643 Z-0.200 I-0.316 J0.929 K0.000 F250.000
G1 X9.797 Y-25.439 Z-0.200 F250.000
G3 X8.046 Y-25.930 Z-0.200 I-0.821 J-0.439 K0.000 F250.000
G3 X8.086 Y-26.263 Z-0.200 I0.924 J-0.060 K0.000 F250.000
G0 Z0.500
G0 X8.147 Y-26.243 Z0.500
G0 X8.147 Y-26.243 Z0.300
G1 X8.147 Y-26.243 Z-0.200 F150.000
G3 X8.383 Y-26.634 Z-0.200 I0.961 J0.315 K0.000 F250.000
G2 X8.365 Y-25.242 Z-0.200 I0.760 J0.706 K0.000 F250.000
G3 X8.147 Y-26.243 Z-0.200 I0.743 J-0.686 K0.000 F250.000
G0 Z0.500
G0 X8.185 Y-26.232 Z0.500
G0 X8.185 Y-26.232 Z0.300
G1 X8.185 Y-26.232 Z-0.200 F150.000
G3 X9.698 Y-26.383 Z-0.200 I0.786 J0.224 K0.000 F250.000
G3 X9.786 Y-25.770 Z-0.200 I-0.955 J0.451 K0.000 F250.000
G3 X8.158 Y-25.922 Z-0.200 I-0.813 J-0.087 K0.000 F250.000
G3 X8.185 Y-26.232 Z-0.200 I0.813 J-0.086 K0.000 F250.000
G0 Z0.500
G0 X9.601 Y-26.608 Z0.500
G0 X9.601 Y-26.608 Z0.300
G1 X9.601 Y-26.608 Z-0.200 F150.000
G3 X9.752 Y-25.463 Z-0.200 I-0.762 J0.683 K0.000 F250.000
G1 X9.634 Y-25.297 Z-0.200 F250.000
G2 X9.601 Y-26.608 Z-0.200 I-0.837 J-0.635 K0.000 F250.000
G0 Z0.500
G0 X9.610 Y-25.264 Z0.500
G0 X9.610 Y-25.264 Z0.300
G1 X9.610 Y-25.264 Z-0.200 F150.000
G3 X9.570 Y-25.228 Z-0.200 I-0.083 J-0.052 K0.000 F250.000
G1 X9.610 Y-25.264 Z-0.200 F250.000
G0 Z0.500
G0 Z0.500
G0 X9.610 Y-25.264
G0 X10.523
G0 X10.523 Z0.300
G1 X10.523 Y-25.264 Z-0.200 F150.000
G1 X10.523 Y-26.873 Z-0.200 F250.000
G1 X10.635 Y-26.873 Z-0.200 F250.000
G1 X10.635 Y-24.159 Z-0.200 F250.000
G1 X10.523 Y-24.159 Z-0.200 F250.000
G1 X10.523 Y-25.264 Z-0.200 F250.000
G0 Z0.500
G0 X10.573 Z0.500
G0 X10.573 Z0.300
G1 X10.573 Y-25.264 Z-0.200 F150.000
G1 X10.573 Y-26.823 Z-0.200 F250.000
G1 X10.585 Y-26.823 Z-0.200 F250.000
G1 X10.585 Y-24.209 Z-0.200 F250.000
G1 X10.573 Y-24.209 Z-0.200 F250.000
G1 X10.573 Y-25.264 Z-0.200 F250.000
G0 Z0.500
G0 Z0.500
G0 X10.573 Y-25.264
G0 X11.355
G0 X11.355 Z0.300
G1 X11.355 Y-25.264 Z-0.200 F150.000
G1 X11.355 Y-26.097 Z-0.200 F250.000
G3 X12.454 Y-26.815 Z-0.200 I0.736 J-0.074 K0.000 F250.000
G3 X12.770 Y-26.548 Z-0.200 I-4.895 J6.127 K0.000 F250.000
G2 X12.879 Y-26.648 Z-0.200 I0.008 J-0.100 K0.000 F250.000
G1 X12.879 Y-26.873 Z-0.200 F250.000
G1 X12.991 Y-26.873 Z-0.200 F250.000
G1 X12.991 Y-24.992 Z-0.200 F250.000
G1 X12.878 Y-24.992 Z-0.200 F250.000
G1 X12.877 Y-26.107 Z-0.200 F250.000
G2 X11.491 Y-26.303 Z-0.200 I-0.706 J-0.006 K0.000 F250.000
G1 X11.467 Y-26.095 Z-0.200 F250.000
G1 X11.467 Y-24.992 Z-0.200 F250.000
G1 X11.355 Y-24.992 Z-0.200 F250.000
G1 X11.355 Y-25.264 Z-0.200 F250.000
G0 Z0.500
G0 X12.888 Y-26.387 Z0.500
G0 X12.888 Y-26.387 Z0.300
G1 X12.888 Y-26.387 Z-0.200 F150.000
G3 X12.911 Y-26.536 Z-0.200 I0.086 J-0.063 K0.000 F250.000
G1 X12.911 Y-26.364 Z-0.200 F250.000
G3 X12.888 Y-26.387 Z-0.200 I0.063 J-0.086 K0.000 F250.000
G0 Z0.500
G0 Z0.500
G0 X12.888 Y-26.387
G0 X13.732
G0 X13.732 Z0.300
G1 X13.732 Y-26.387 Z-0.200 F150.000
G1 X13.732 Y-26.873 Z-0.200 F250.000
G1 X13.844 Y-26.873 Z-0.200 F250.000
G1 X13.846 Y-25.713 Z-0.200 F250.000
G2 X13.976 Y-25.296 Z-0.200 I0.672 J0.018 K0.000 F250.000
G2 X13.844 Y-25.208 Z-0.200 I-0.039 J0.085 K0.000 F250.000
G1 X13.844 Y-24.992 Z-0.200 F250.000
G1 X13.732 Y-24.992 Z-0.200 F250.000
G1 X13.732 Y-26.387 Z-0.200 F250.000
G0 Z0.500
G0 X13.812 Y-25.439 Z0.500
G0 X13.812 Y-25.439 Z0.300
G1 X13.812 Y-25.439 Z-0.200 F150.000
G3 X13.812 Y-25.323 Z-0.200 I-0.011 J0.058 K0.000 F250.000
G1 X13.812 Y-25.439 Z-0.200 F250.000
G0 Z0.500
G0 X14.076 Y-25.199 Z0.500
G0 X14.076 Y-25.199 Z0.300
G1 X14.076 Y-25.199 Z-0.200 F150.000
G2 X15.122 Y-25.724 Z-0.200 I0.419 J-0.469 K0.000 F250.000
G1 X15.122 Y-26.873 Z-0.200 F250.000
G1 X15.235 Y-26.873 Z-0.200 F250.000
G1 X15.236 Y-25.713 Z-0.200 F250.000
G2 X16.490 Y-25.527 Z-0.200 I0.636 J0.034 K0.000 F250.000
G1 X16.513 Y-25.724 Z-0.200 F250.000
G1 X16.513 Y-26.873 Z-0.200 F250.000
G1 X16.625 Y-26.873 Z-0.200 F250.000
G1 X16.625 Y-25.722 Z-0.200 F250.000
G3 X15.319 Y-25.339 Z-0.200 I-0.688 J0.074 K0.000 F250.000
G2 X15.156 Y-25.335 Z-0.200 I-0.080 J0.060 K0.000 F250.000
G3 X14.076 Y-25.199 Z-0.200 I-0.581 J-0.260 K0.000 F250.000
G0 Z0.500
G0 X15.137 Y-25.416 Z0.500
G0 X15.137 Y-25.416 Z0.300
G1 X15.137 Y-25.416 Z-0.200 F150.000
G2 X15.182 Y-25.539 Z-0.200 I-0.192 J-0.139 K0.000 F250.000
G2 X15.199 Y-25.449 Z-0.200 I0.280 J-0.007 K0.000 F250.000
G2 X15.137 Y-25.416 Z-0.200 I-0.008 J0.059 K0.000 F250.000
G0 Z0.500
G0 Z0.500
G0 X15.137 Y-25.416
G0 X17.221 Y-25.788
G0 X17.221 Y-25.788 Z0.300
G1 X17.221 Y-25.788 Z-0.200 F150.000
G3 X18.714 Y-26.749 Z-0.200 I0.947 J-0.169 K0.000 F250.000
G3 X18.959 Y-26.474 Z-0.200 I-0.517 J0.706 K0.000 F250.000
G3 X18.779 Y-26.547 Z-0.200 I-0.065 J-0.098 K0.000 F250.000
G2 X17.352 Y-26.005 Z-0.200 I-0.616 J0.529 K0.000 F250.000
G1 X17.437 Y-25.957 Z-0.200 F250.000
G1 X19.081 Y-25.957 Z-0.200 F250.000
G3 X17.233 Y-25.731 Z-0.200 I-0.929 J0.073 K0.000 F250.000
G3 X17.221 Y-25.788 Z-0.200 I0.935 J-0.227 K0.000 F250.000
G0 Z0.500
G0 X17.302 Y-25.867 Z0.500
G0 X17.302 Y-25.867 Z0.300
G1 X17.302 Y-25.867 Z-0.200 F150.000
G3 X17.300 Y-25.953 Z-0.200 I0.207 J-0.048 K0.000 F250.000
G1 X17.336 Y-25.912 Z-0.200 F250.000
G2 X17.302 Y-25.867 Z-0.200 I0.014 J0.046 K0.000 F250.000
G0 Z0.500
G0 X17.360 Y-25.825 Z0.500
G0 X17.360 Y-25.825 Z0.300
G1 X17.360 Y-25.825 Z-0.200 F150.000
G3 X17.441 Y-25.866 Z-0.200 I0.081 J0.059 K0.000 F250.000
G1 X18.856 Y-25.866 Z-0.200 F250.000
G1 X18.942 Y-25.817 Z-0.200 F250.000
G3 X17.346 Y-25.735 Z-0.200 I-0.801 J-0.014 K0.000 F250.000
G3 X17.360 Y-25.825 Z-0.200 I0.095 J-0.031 K0.000 F250.000
G0 Z0.500
G0 X18.986 Y-25.877 Z0.500
G0 X18.986 Y-25.877 Z0.300
G1 X18.986 Y-25.877 Z-0.200 F150.000
G1 X18.993 Y-25.877 Z-0.200 F250.000
G1 X18.992 Y-25.870 Z-0.200 F250.000
G1 X18.986 Y-25.877 Z-0.200 F250.000
G0 Z0.500
G0 Z0.500
G0 X18.986 Y-25.877
G0 X45.851
G0 X45.851 Z0.300
G1 X45.851 Y-25.877 Z-0.200 F150.000
G1 X45.851 Y-26.873 Z-0.200 F250.000
G1 X45.964 Y-26.873 Z-0.200 F250.000
G2 X46.006 Y-25.741 Z-0.200 I4.251 J0.410 K0.000 F250.000
G2 X46.145 Y-25.453 Z-0.200 I0.707 J-0.166 K0.000 F250.000
G2 X45.964 Y-25.404 Z-0.200 I-0.085 J0.048 K0.000 F250.000
G1 X45.964 Y-24.992 Z-0.200 F250.000
G1 X45.851 Y-24.992 Z-0.200 F250.000
G1 X45.851 Y-25.877 Z-0.200 F250.000
G0 Z0.500
G0 X45.931 Y-25.711 Z0.500
G0 X45.931 Y-25.711 Z0.300
G1 X45.931 Y-25.711 Z-0.200 F150.000
G2 X45.988 Y-25.557 Z-0.200 I0.799 J-0.209 K0.000 F250.000
G2 X45.931 Y-25.509 Z-0.200 I-0.002 J0.056 K0.000 F250.000
G1 X45.931 Y-25.711 Z-0.200 F250.000
G0 Z0.500
G0 X46.163 Y-25.426 Z0.500
G0 X46.163 Y-25.426 Z0.300
G1 X46.163 Y-25.426 Z-0.200 F150.000
G2 X46.750 Y-25.075 Z-0.200 I0.621 J-0.372 K0.000 F250.000
G1 X46.750 Y-24.965 Z-0.200 F250.000
G3 X46.163 Y-25.426 Z-0.200 I0.058 J-0.678 K0.000 F250.000
G0 Z0.500
G0 Z0.500
G0 X46.163 Y-25.426
G0 X47.125 Y-25.650
G0 X47.125 Y-25.650 Z0.300
G1 X47.125 Y-25.650 Z-0.200 F150.000
G3 X47.105 Y-25.930 Z-0.200 I0.869 J-0.203 K0.000 F250.000
G3 X48.405 Y-26.818 Z-0.200 I0.898 J-0.080 K0.000 F250.000
G3 X48.683 Y-26.573 Z-0.200 I-0.366 J0.695 K0.000 F250.000
G2 X48.857 Y-26.640 Z-0.200 I0.074 J-0.067 K0.000 F250.000
G1 X48.857 Y-26.873 Z-0.200 F250.000
G1 X48.969 Y-26.873 Z-0.200 F250.000
G1 X48.969 Y-24.992 Z-0.200 F250.000
G1 X48.857 Y-24.992 Z-0.200 F250.000
G2 X48.828 Y-25.299 Z-0.200 I-0.386 J-0.118 K0.000 F250.000
G2 X48.628 Y-25.224 Z-0.200 I-0.067 J0.125 K0.000 F250.000
G3 X47.125 Y-25.650 Z-0.200 I-0.634 J-0.629 K0.000 F250.000
G0 Z0.500
G0 X47.242 Y-25.684 Z0.500
G0 X47.242 Y-25.684 Z0.300
G1 X47.242 Y-25.684 Z-0.200 F150.000
G3 X47.592 Y-26.690 Z-0.200 I0.879 J-0.258 K0.000 F250.000
G3 X48.873 Y-25.942 Z-0.200 I0.459 J0.685 K0.000 F250.000
G3 X47.900 Y-25.053 Z-0.200 I-0.824 J0.075 K0.000 F250.000
G3 X47.242 Y-25.684 Z-0.200 I0.222 J-0.889 K0.000 F250.000
G0 Z0.500
G0 X48.811 Y-25.428 Z0.500
G0 X48.811 Y-25.428 Z0.300
G1 X48.811 Y-25.428 Z-0.200 F150.000
G3 X48.863 Y-25.485 Z-0.200 I0.071 J0.012 K0.000 F250.000
G1 X48.889 Y-25.578 Z-0.200 F250.000
G1 X48.889 Y-25.344 Z-0.200 F250.000
G3 X48.811 Y-25.428 Z-0.200 I-0.007 J-0.072 K0.000 F250.000
G0 Z0.500
G0 X48.889 Y-26.291 Z0.500
G0 X48.889 Y-26.291 Z0.300
G1 X48.889 Y-26.291 Z-0.200 F150.000
G2 X48.809 Y-26.473 Z-0.200 I-0.388 J0.062 K0.000 F250.000
G2 X48.889 Y-26.528 Z-0.200 I0.002 J-0.083 K0.000 F250.000
G1 X48.889 Y-26.291 Z-0.200 F250.000
G0 Z0.500
G0 Z0.500
G0 X48.889 Y-26.291
G0 X49.935
G0 X49.935 Z0.300
G1 X49.935 Y-26.291 Z-0.200 F150.000
G1 X49.935 Y-26.873 Z-0.200 F250.000
G1 X50.047 Y-26.873 Z-0.200 F250.000
G1 X50.047 Y-25.166 Z-0.200 F250.000
G2 X50.147 Y-25.066 Z-0.200 I0.100 J0.000 K0.000 F250.000
G1 X50.526 Y-25.066 Z-0.200 F250.000
G1 X50.526 Y-24.992 Z-0.200 F250.000
G1 X50.147 Y-24.992 Z-0.200 F250.000
G2 X50.047 Y-24.892 Z-0.200 I0.000 J0.100 K0.000 F250.000
G1 X50.047 Y-24.246 Z-0.200 F250.000
G1 X49.935 Y-24.246 Z-0.200 F250.000
G1 X49.935 Y-24.892 Z-0.200 F250.000
G2 X49.835 Y-24.992 Z-0.200 I-0.100 J0.000 K0.000 F250.000
G1 X49.510 Y-24.992 Z-0.200 F250.000
G1 X49.510 Y-25.066 Z-0.200 F250.000
G1 X49.835 Y-25.066 Z-0.200 F250.000
G2 X49.935 Y-25.166 Z-0.200 I0.000 J-0.100 K0.000 F250.000
G1 X49.935 Y-26.291 Z-0.200 F250.000
G0 Z0.500
G0 X49.986 Y-25.109 Z0.500
G0 X49.986 Y-25.109 Z0.300
G1 X49.986 Y-25.109 Z-0.200 F150.000
G2 X50.045 Y-25.038 Z-0.200 I0.065 J0.006 K0.000 F250.000
G2 X49.997 Y-24.949 Z-0.200 I0.020 J0.069 K0.000 F250.000
G2 X49.937 Y-25.020 Z-0.200 I-0.065 J-0.006 K0.000 F250.000
G2 X49.986 Y-25.109 Z-0.200 I-0.020 J-0.069 K0.000 F250.000
G0 Z0.500
G0 Z0.500
G0 X49.986 Y-25.109
G0 X51.055 Y-24.442
G0 X51.055 Y-24.442 Z0.300
G1 X51.055 Y-24.442 Z-0.200 F150.000
G1 X51.192 Y-24.442 Z-0.200 F250.000
G1 X51.192 Y-24.234 Z-0.200 F250.000
G1 X51.055 Y-24.234 Z-0.200 F250.000
G1 X51.055 Y-24.442 Z-0.200 F250.000
G0 Z0.500
G0 X51.105 Y-24.392 Z0.500
G0 X51.105 Y-24.392 Z0.300
G1 X51.105 Y-24.392 Z-0.200 F150.000
G1 X51.142 Y-24.392 Z-0.200 F250.000
G1 X51.142 Y-24.284 Z-0.200 F250.000
G1 X51.105 Y-24.284 Z-0.200 F250.000
G1 X51.105 Y-24.392 Z-0.200 F250.000
G0 Z0.500
G0 Z0.500
G0 X51.105 Y-24.392
G0 Y-24.992
G0 Y-24.992 Z0.300
G1 X51.105 Y-24.992 Z-0.200 F150.000
G1 X51.067 Y-24.992 Z-0.200 F250.000
G1 X51.067 Y-26.873 Z-0.200 F250.000
G1 X51.180 Y-26.873 Z-0.200 F250.000
G1 X51.180 Y-24.992 Z-0.200 F250.000
G1 X51.105 Y-24.992 Z-0.200 F250.000
G0 Z0.500
G0 X51.117 Y-25.042 Z0.500
G0 X51.117 Y-25.042 Z0.300
G1 X51.117 Y-25.042 Z-0.200 F150.000
G1 X51.117 Y-26.823 Z-0.200 F250.000
G1 X51.130 Y-26.823 Z-0.200 F250.000
G1 X51.130 Y-25.042 Z-0.200 F250.000
G1 X51.117 Y-25.042 Z-0.200 F250.000
G0 Z0.500
G0 Z0.500
G0 X51.117 Y-25.042
G0 X51.893 Y-25.460
G0 X51.893 Y-25.460 Z0.300
G1 X51.893 Y-25.460 Z-0.200 F150.000
G3 X51.828 Y-26.221 Z-0.200 I0.844 J-0.456 K0.000 F250.000
G3 X53.002 Y-26.871 Z-0.200 I0.884 J0.210 K0.000 F250.000
G1 X53.222 Y-26.778 Z-0.200 F250.000
G3 X53.019 Y-24.999 Z-0.200 I-0.566 J0.837 K0.000 F250.000
G3 X51.893 Y-25.460 Z-0.200 I-0.282 J-0.917 K0.000 F250.000
G0 Z0.500
G0 X51.946 Y-25.486 Z0.500
G0 X51.946 Y-25.486 Z0.300
G1 X51.946 Y-25.486 Z-0.200 F150.000
G3 X52.084 Y-26.593 Z-0.200 I0.919 J-0.447 K0.000 F250.000
G2 X52.110 Y-25.244 Z-0.200 I0.831 J0.659 K0.000 F250.000
G3 X51.946 Y-25.486 Z-0.200 I0.755 J-0.689 K0.000 F250.000
G0 Z0.500
G0 X51.998 Y-25.512 Z0.500
G0 X51.998 Y-25.512 Z0.300
G1 X51.998 Y-25.512 Z-0.200 F150.000
G3 X52.268 Y-26.691 Z-0.200 I0.858 J-0.424 K0.000 F250.000
G3 X53.544 Y-25.942 Z-0.200 I0.456 J0.684 K0.000 F250.000
G3 X52.330 Y-25.136 Z-0.200 I-0.820 J0.083 K0.000 F250.000
G3 X51.998 Y-25.512 Z-0.200 I0.526 J-0.800 K0.000 F250.000
G0 Z0.500
G0 X53.300 Y-25.214 Z0.500
G0 X53.300 Y-25.214 Z0.300
G1 X53.300 Y-25.214 Z-0.200 F150.000
G1 X53.347 Y-25.256 Z-0.200 F250.000
G3 X53.300 Y-25.214 Z-0.200 I-0.095 J-0.059 K0.000 F250.000
G0 Z0.500
G0 X53.399 Y-25.327 Z0.500
G0 X53.399 Y-25.327 Z0.300
G1 X53.399 Y-25.327 Z-0.200 F150.000
G2 X53.340 Y-26.619 Z-0.200 I-0.853 J-0.608 K0.000 F250.000
G3 X53.399 Y-25.327 Z-0.200 I-0.739 J0.681 K0.000 F250.000
G0 Z0.500
G0 Z0.500
G0 X53.399 Y-25.327
G0 X50.797 Y-54.197
G0 X50.797 Y-54.197 Z0.300
G1 X50.797 Y-54.197 Z-0.200 F150.000
G1 X50.685 Y-54.197 Z-0.200 F250.000
G1 X50.685 Y-56.912 Z-0.200 F250.000
G1 X50.797 Y-56.912 Z-0.200 F250.000
G1 X50.798 Y-55.797 Z-0.200 F250.000
G2 X52.185 Y-55.599 Z-0.200 I0.706 J0.006 K0.000 F250.000
G1 X52.209 Y-55.808 Z-0.200 F250.000
G1 X52.209 Y-56.912 Z-0.200 F250.000
G1 X52.321 Y-56.912 Z-0.200 F250.000
G1 X52.321 Y-55.806 Z-0.200 F250.000
G3 X50.971 Y-55.322 Z-0.200 I-0.737 J0.070 K0.000 F250.000
G2 X50.797 Y-55.255 Z-0.200 I-0.074 J0.067 K0.000 F250.000
G1 X50.797 Y-54.197 Z-0.200 F250.000
G0 Z0.500
G0 X50.765 Y-55.366 Z0.500
G0 X50.765 Y-55.366 Z0.300
G1 X50.765 Y-55.366 Z-0.200 F150.000
G1 X50.765 Y-55.530 Z-0.200 F250.000
G2 X50.816 Y-55.412 Z-0.200 I0.402 J-0.105 K0.000 F250.000
G1 X50.765 Y-55.366 Z-0.200 F250.000
G0 Z0.500
G0 Z0.500
G0 X50.765 Y-55.366
G0 X49.991 Y-55.388
G0 X49.991 Y-55.388 Z0.300
G1 X49.991 Y-55.388 Z-0.200 F150.000
G3 X49.305 Y-54.997 Z-0.200 I-0.606 J-0.268 K0.000 F250.000
G3 X48.751 Y-55.137 Z-0.200 I-0.070 J-0.890 K0.000 F250.000
G3 X48.882 Y-55.873 Z-0.200 I0.235 J-0.338 K0.000 F250.000
G3 X49.554 Y-56.049 Z-0.200 I2.291 J7.382 K0.000 F250.000
G2 X49.947 Y-56.316 Z-0.200 I-0.048 J-0.493 K0.000 F250.000
G2 X49.695 Y-56.817 Z-0.200 I-0.356 J-0.134 K0.000 F250.000
G2 X48.754 Y-56.629 Z-0.200 I-0.340 J0.746 K0.000 F250.000
G2 X48.687 Y-56.458 Z-0.200 I0.393 J0.254 K0.000 F250.000
G1 X48.555 Y-56.458 Z-0.200 F250.000
G3 X49.335 Y-56.944 Z-0.200 I0.671 J0.207 K0.000 F250.000
G3 X49.894 Y-56.803 Z-0.200 I0.057 J0.955 K0.000 F250.000
G3 X49.790 Y-56.026 Z-0.200 I-0.226 J0.365 K0.000 F250.000
G3 X49.119 Y-55.855 Z-0.200 I-2.015 J-6.483 K0.000 F250.000
G2 X48.728 Y-55.599 Z-0.200 I0.052 J0.504 K0.000 F250.000
G2 X49.131 Y-55.072 Z-0.200 I0.367 J0.136 K0.000 F250.000
G2 X49.745 Y-55.193 Z-0.200 I0.181 J-0.698 K0.000 F250.000
G2 X49.874 Y-55.388 Z-0.200 I-0.202 J-0.275 K0.000 F250.000
G1 X49.991 Y-55.388 Z-0.200 F250.000
G0 Z0.500
G0 X49.911 Y-55.338 Z0.500
G0 X49.911 Y-55.338 Z0.300
G1 X49.911 Y-55.338 Z-0.200 F150.000
G1 X49.909 Y-55.333 Z-0.200 F250.000
G3 X49.911 Y-55.338 Z-0.200 I0.002 J-0.002 K0.000 F250.000
G0 Z0.500
G0 X49.744 Y-56.055 Z0.500
G0 X49.744 Y-56.055 Z0.300
G1 X49.744 Y-56.055 Z-0.200 F150.000
G3 X49.675 Y-56.046 Z-0.200 I-0.086 J-0.367 K0.000 F250.000
G2 X50.008 Y-56.563 Z-0.200 I-0.063 J-0.407 K0.000 F250.000
G3 X49.744 Y-56.055 Z-0.200 I-0.349 J0.141 K0.000 F250.000
G0 Z0.500
G0 X49.984 Y-56.628 Z0.500
G0 X49.984 Y-56.628 Z0.300
G1 X49.984 Y-56.628 Z-0.200 F150.000
G1 X49.971 Y-56.650 Z-0.200 F250.000
G3 X49.984 Y-56.628 Z-0.200 I-0.020 J0.026 K0.000 F250.000
G0 Z0.500
G0 X48.710 Y-56.651 Z0.500
G0 X48.710 Y-56.651 Z0.300
G1 X48.710 Y-56.651 Z-0.200 F150.000
G2 X48.651 Y-56.508 Z-0.200 I0.327 J0.219 K0.000 F250.000
G1 X48.623 Y-56.508 Z-0.200 F250.000
G3 X48.710 Y-56.651 Z-0.200 I0.270 J0.067 K0.000 F250.000
G0 Z0.500
G0 X48.906 Y-55.836 Z0.500
G0 X48.906 Y-55.836 Z0.300
G1 X48.906 Y-55.836 Z-0.200 F150.000
G3 X48.968 Y-55.846 Z-0.200 I0.084 J0.350 K0.000 F250.000
G2 X48.689 Y-55.288 Z-0.200 I0.076 J0.386 K0.000 F250.000
G3 X48.906 Y-55.836 Z-0.200 I0.301 J-0.198 K0.000 F250.000
G0 Z0.500
G0 X48.690 Y-55.286 Z0.500
G0 X48.690 Y-55.286 Z0.300
G1 X48.690 Y-55.286 Z-0.200 F150.000
G1 X48.704 Y-55.262 Z-0.200 F250.000
G3 X48.690 Y-55.286 Z-0.200 I0.023 J-0.029 K0.000 F250.000
G0 Z0.500
G0 Z0.500
G0 X48.690 Y-55.286
G0 X48.024 Y-55.567
G0 X48.024 Y-55.567 Z0.300
G1 X48.024 Y-55.567 Z-0.200 F150.000
G3 X46.248 Y-55.769 Z-0.200 I-0.858 J-0.363 K0.000 F250.000
G3 X47.729 Y-56.787 Z-0.200 I0.935 J-0.227 K0.000 F250.000
G3 X47.974 Y-56.512 Z-0.200 I-0.517 J0.706 K0.000 F250.000
G3 X47.794 Y-56.586 Z-0.200 I-0.065 J-0.098 K0.000 F250.000
G2 X46.366 Y-56.043 Z-0.200 I-0.616 J0.529 K0.000 F250.000
G1 X46.451 Y-55.996 Z-0.200 F250.000
G1 X48.096 Y-55.996 Z-0.200 F250.000
G3 X48.024 Y-55.567 Z-0.200 I-0.930 J0.066 K0.000 F250.000
G0 Z0.500
G0 X47.912 Y-55.606 Z0.500
G0 X47.912 Y-55.606 Z0.300
G1 X47.912 Y-55.606 Z-0.200 F150.000
G3 X46.360 Y-55.773 Z-0.200 I-0.756 J-0.264 K0.000 F250.000
G3 X46.456 Y-55.904 Z-0.200 I0.095 J-0.031 K0.000 F250.000
G1 X47.871 Y-55.904 Z-0.200 F250.000
G1 X47.957 Y-55.856 Z-0.200 F250.000
G3 X47.912 Y-55.606 Z-0.200 I-0.801 J-0.014 K0.000 F250.000
G0 Z0.500
G0 X48.007 Y-55.909 Z0.500
G0 X48.007 Y-55.909 Z0.300
G1 X48.007 Y-55.909 Z-0.200 F150.000
G1 X48.001 Y-55.916 Z-0.200 F250.000
G1 X48.008 Y-55.916 Z-0.200 F250.000
G1 X48.007 Y-55.909 Z-0.200 F250.000
G0 Z0.500
G0 X46.351 Y-55.950 Z0.500
G0 X46.351 Y-55.950 Z0.300
G1 X46.351 Y-55.950 Z-0.200 F150.000
G2 X46.317 Y-55.905 Z-0.200 I0.014 J0.046 K0.000 F250.000
G3 X46.315 Y-55.992 Z-0.200 I0.207 J-0.048 K0.000 F250.000
G1 X46.351 Y-55.950 Z-0.200 F250.000
G0 Z0.500
G0 Z0.500
G0 X46.351 Y-55.950
G0 X45.877 Y-55.115
G0 X45.877 Y-55.115 Z0.300
G1 X45.877 Y-55.115 Z-0.200 F150.000
G1 X45.877 Y-55.004 Z-0.200 F250.000
G3 X45.289 Y-55.466 Z-0.200 I0.059 J-0.680 K0.000 F250.000
G2 X45.877 Y-55.115 Z-0.200 I0.618 J-0.367 K0.000 F250.000
G0 Z0.500
G0 X45.273 Y-55.491 Z0.500
G0 X45.273 Y-55.491 Z0.300
G1 X45.273 Y-55.491 Z-0.200 F150.000
G2 X45.090 Y-55.442 Z-0.200 I-0.085 J0.047 K0.000 F250.000
G1 X45.090 Y-55.030 Z-0.200 F250.000
G1 X44.978 Y-55.030 Z-0.200 F250.000
G1 X44.978 Y-56.912 Z-0.200 F250.000
G1 X45.090 Y-56.912 Z-0.200 F250.000
G2 X45.133 Y-55.776 Z-0.200 I4.155 J0.411 K0.000 F250.000
G2 X45.273 Y-55.491 Z-0.200 I0.706 J-0.169 K0.000 F250.000
G0 Z0.500
G0 X45.116 Y-55.597 Z0.500
G0 X45.116 Y-55.597 Z0.300
G1 X45.116 Y-55.597 Z-0.200 F150.000
G2 X45.058 Y-55.549 Z-0.200 I-0.003 J0.056 K0.000 F250.000
G1 X45.058 Y-55.749 Z-0.200 F250.000
G2 X45.116 Y-55.597 Z-0.200 I0.368 J-0.053 K0.000 F250.000
G0 Z0.500
G0 Z0.500
G0 X45.116 Y-55.597
G0 X44.258 Y-55.671
G0 X44.258 Y-55.671 Z0.300
G1 X44.258 Y-55.671 Z-0.200 F150.000
G3 X42.908 Y-55.322 Z-0.200 I-0.737 J-0.064 K0.000 F250.000
G2 X42.734 Y-55.255 Z-0.200 I-0.074 J0.067 K0.000 F250.000
G1 X42.734 Y-54.197 Z-0.200 F250.000
G1 X42.622 Y-54.197 Z-0.200 F250.000
G1 X42.622 Y-56.912 Z-0.200 F250.000
G1 X42.734 Y-56.912 Z-0.200 F250.000
G1 X42.735 Y-55.801 Z-0.200 F250.000
G2 X44.120 Y-55.593 Z-0.200 I0.706 J0.015 K0.000 F250.000
G1 X44.145 Y-55.808 Z-0.200 F250.000
G1 X44.145 Y-56.912 Z-0.200 F250.000
G1 X44.257 Y-56.912 Z-0.200 F250.000
G1 X44.257 Y-55.806 Z-0.200 F250.000
G3 X44.258 Y-55.671 Z-0.200 I-0.736 J0.071 K0.000 F250.000
G0 Z0.500
G0 X42.757 Y-55.415 Z0.500
G0 X42.757 Y-55.415 Z0.300
G1 X42.757 Y-55.415 Z-0.200 F150.000
G1 X42.702 Y-55.366 Z-0.200 F250.000
G1 X42.702 Y-55.538 Z-0.200 F250.000
G1 X42.757 Y-55.415 Z-0.200 F250.000
G0 Z0.500
G0 Z0.500
G0 X42.757 Y-55.415
G0 X42.080 Y-55.105
G0 X42.080 Y-55.105 Z0.300
G1 X42.080 Y-55.105 Z-0.200 F150.000
G1 X42.080 Y-55.030 Z-0.200 F250.000
G1 X41.702 Y-55.030 Z-0.200 F250.000
G2 X41.602 Y-54.930 Z-0.200 I0.000 J0.100 K0.000 F250.000
G1 X41.602 Y-54.285 Z-0.200 F250.000
G1 X41.490 Y-54.285 Z-0.200 F250.000
G1 X41.490 Y-54.930 Z-0.200 F250.000
G2 X41.390 Y-55.030 Z-0.200 I-0.100 J0.000 K0.000 F250.000
G1 X41.065 Y-55.030 Z-0.200 F250.000
G1 X41.065 Y-55.105 Z-0.200 F250.000
G1 X41.390 Y-55.105 Z-0.200 F250.000
G2 X41.490 Y-55.205 Z-0.200 I0.000 J-0.100 K0.000 F250.000
G1 X41.490 Y-56.912 Z-0.200 F250.000
G1 X41.602 Y-56.912 Z-0.200 F250.000
G1 X41.602 Y-55.205 Z-0.200 F250.000
G2 X41.702 Y-55.105 Z-0.200 I0.100 J0.000 K0.000 F250.000
G1 X42.080 Y-55.105 Z-0.200 F250.000
G0 Z0.500
G0 X41.600 Y-55.077 Z0.500
G0 X41.600 Y-55.077 Z0.300
G1 X41.600 Y-55.077 Z-0.200 F150.000
G2 X41.551 Y-54.987 Z-0.200 I0.020 J0.069 K0.000 F250.000
G2 X41.492 Y-55.058 Z-0.200 I-0.065 J-0.006 K0.000 F250.000
G2 X41.540 Y-55.148 Z-0.200 I-0.020 J-0.069 K0.000 F250.000
G2 X41.600 Y-55.077 Z-0.200 I0.065 J0.006 K0.000 F250.000
G0 Z0.500
G0 Z0.500
G0 X41.600 Y-55.077
G0 X36.610 Y-55.030
G0 X36.610 Y-55.030 Z0.300
G1 X36.610 Y-55.030 Z-0.200 F150.000
G1 X36.460 Y-55.030 Z-0.200 F250.000
G1 X35.486 Y-56.032 Z-0.200 F250.000
G2 X35.314 Y-55.962 Z-0.200 I-0.072 J0.070 K0.000 F250.000
G1 X35.314 Y-54.197 Z-0.200 F250.000
G1 X35.202 Y-54.197 Z-0.200 F250.000
G1 X35.202 Y-56.912 Z-0.200 F250.000
G1 X35.314 Y-56.912 Z-0.200 F250.000
G1 X35.314 Y-56.354 Z-0.200 F250.000
G1 X35.344 Y-56.283 Z-0.200 F250.000
G1 X35.736 Y-55.895 Z-0.200 F250.000
G2 X35.888 Y-55.909 Z-0.200 I0.070 J-0.071 K0.000 F250.000
G1 X36.586 Y-56.912 Z-0.200 F250.000
G1 X36.724 Y-56.912 Z-0.200 F250.000
G1 X35.937 Y-55.808 Z-0.200 F250.000
G2 X35.948 Y-55.679 Z-0.200 I0.081 J0.058 K0.000 F250.000
G1 X36.610 Y-55.030 Z-0.200 F250.000
G0 Z0.500
G0 X35.847 Y-55.776 Z0.500
G0 X35.847 Y-55.776 Z0.300
G1 X35.847 Y-55.776 Z-0.200 F150.000
G1 X35.827 Y-55.797 Z-0.200 F250.000
G1 X35.855 Y-55.801 Z-0.200 F250.000
G1 X35.847 Y-55.776 Z-0.200 F250.000
G0 Z0.500
G0 X35.384 Y-56.131 Z0.500
G0 X35.384 Y-56.131 Z0.300
G1 X35.384 Y-56.131 Z-0.200 F150.000
G2 X35.282 Y-56.073 Z-0.200 I-0.011 J0.099 K0.000 F250.000
G1 X35.282 Y-56.239 Z-0.200 F250.000
G2 X35.384 Y-56.131 Z-0.200 I0.180 J-0.067 K0.000 F250.000
G0 Z0.500
G0 Z0.500
G0 X35.384 Y-56.131
G0 X34.559 Y-56.458
G0 X34.559 Y-56.458 Z0.300
G1 X34.559 Y-56.458 Z-0.200 F150.000
G3 X34.357 Y-56.589 Z-0.200 I-0.062 J-0.126 K0.000 F250.000
G2 X32.922 Y-55.957 Z-0.200 I-0.610 J0.559 K0.000 F250.000
G2 X34.437 Y-55.484 Z-0.200 I0.813 J0.058 K0.000 F250.000
G1 X34.559 Y-55.484 Z-0.200 F250.000
G3 X33.461 Y-55.032 Z-0.200 I-0.807 J-0.401 K0.000 F250.000
G3 X32.880 Y-56.370 Z-0.200 I0.322 J-0.935 K0.000 F250.000
G3 X34.165 Y-56.855 Z-0.200 I0.865 J0.347 K0.000 F250.000
G3 X34.559 Y-56.458 Z-0.200 I-0.279 J0.671 K0.000 F250.000
G0 Z0.500
G0 X34.463 Y-56.508 Z0.500
G0 X34.463 Y-56.508 Z0.300
G1 X34.463 Y-56.508 Z-0.200 F150.000
G1 X34.406 Y-56.602 Z-0.200 F250.000
G3 X34.463 Y-56.508 Z-0.200 I0.003 J0.063 K0.000 F250.000
G0 Z0.500
G0 X34.466 Y-55.434 Z0.500
G0 X34.466 Y-55.434 Z0.300
G1 X34.466 Y-55.434 Z-0.200 F150.000
G1 X34.480 Y-55.434 Z-0.200 F250.000
G3 X34.318 Y-55.249 Z-0.200 I-0.516 J-0.290 K0.000 F250.000
G2 X34.466 Y-55.434 Z-0.200 I-0.264 J-0.363 K0.000 F250.000
G0 Z0.500
G0 X33.508 Y-55.077 Z0.500
G0 X33.508 Y-55.077 Z0.300
G1 X33.508 Y-55.077 Z-0.200 F150.000
G3 X32.893 Y-56.247 Z-0.200 I0.251 J-0.879 K0.000 F250.000
G3 X33.415 Y-56.837 Z-0.200 I0.799 J0.182 K0.000 F250.000
G2 X33.508 Y-55.077 Z-0.200 I0.396 J0.862 K0.000 F250.000
G0 Z0.500
G0 Z0.500
G0 X33.508 Y-55.077
G0 X32.197
G0 X32.197 Z0.300
G1 X32.197 Y-55.077 Z-0.200 F150.000
G1 X32.197 Y-55.030 Z-0.200 F250.000
G1 X32.085 Y-55.030 Z-0.200 F250.000
G2 X32.055 Y-55.338 Z-0.200 I-0.387 J-0.119 K0.000 F250.000
G2 X31.803 Y-55.208 Z-0.200 I-0.066 J0.181 K0.000 F250.000
G3 X30.332 Y-55.969 Z-0.200 I-0.577 J-0.686 K0.000 F250.000
G3 X31.631 Y-56.857 Z-0.200 I0.899 J-0.080 K0.000 F250.000
G3 X31.908 Y-56.614 Z-0.200 I-0.359 J0.687 K0.000 F250.000
G2 X32.085 Y-56.678 Z-0.200 I0.077 J-0.064 K0.000 F250.000
G1 X32.085 Y-56.912 Z-0.200 F250.000
G1 X32.197 Y-56.912 Z-0.200 F250.000
G1 X32.197 Y-55.077 Z-0.200 F250.000
G0 Z0.500
G0 X32.117 Y-55.383 Z0.500
G0 X32.117 Y-55.383 Z0.300
G1 X32.117 Y-55.383 Z-0.200 F150.000
G3 X32.090 Y-55.524 Z-0.200 I-0.010 J-0.071 K0.000 F250.000
G1 X32.117 Y-55.617 Z-0.200 F250.000
G1 X32.117 Y-55.383 Z-0.200 F250.000
G0 Z0.500
G0 X31.982 Y-55.466 Z0.500
G0 X31.982 Y-55.466 Z0.300
G1 X31.982 Y-55.466 Z-0.200 F150.000
G3 X30.897 Y-55.167 Z-0.200 I-0.703 J-0.433 K0.000 F250.000
G3 X30.822 Y-56.730 Z-0.200 I0.476 J-0.807 K0.000 F250.000
G3 X32.101 Y-55.981 Z-0.200 I0.457 J0.686 K0.000 F250.000
G3 X31.982 Y-55.466 Z-0.200 I-0.821 J0.082 K0.000 F250.000
G0 Z0.500
G0 X32.117 Y-56.328 Z0.500
G0 X32.117 Y-56.328 Z0.300
G1 X32.117 Y-56.328 Z-0.200 F150.000
G2 X32.036 Y-56.510 Z-0.200 I-0.365 J0.053 K0.000 F250.000
G2 X32.117 Y-56.565 Z-0.200 I0.002 J-0.083 K0.000 F250.000
G1 X32.117 Y-56.328 Z-0.200 F250.000
G0 Z0.500
G0 Z0.500
G0 X32.117 Y-56.328
G0 X29.961 Y-55.105
G0 X29.961 Y-55.105 Z0.300
G1 X29.961 Y-55.105 Z-0.200 F150.000
G1 X29.961 Y-55.030 Z-0.200 F250.000
G1 X29.583 Y-55.030 Z-0.200 F250.000
G2 X29.483 Y-54.930 Z-0.200 I0.000 J0.100 K0.000 F250.000
G1 X29.483 Y-54.285 Z-0.200 F250.000
G1 X29.371 Y-54.285 Z-0.200 F250.000
G1 X29.371 Y-54.930 Z-0.200 F250.000
G2 X29.271 Y-55.030 Z-0.200 I-0.100 J0.000 K0.000 F250.000
G1 X28.946 Y-55.030 Z-0.200 F250.000
G1 X28.946 Y-55.105 Z-0.200 F250.000
G1 X29.271 Y-55.105 Z-0.200 F250.000
G2 X29.371 Y-55.205 Z-0.200 I0.000 J-0.100 K0.000 F250.000
G1 X29.371 Y-56.912 Z-0.200 F250.000
G1 X29.483 Y-56.912 Z-0.200 F250.000
G1 X29.483 Y-55.205 Z-0.200 F250.000
G2 X29.583 Y-55.105 Z-0.200 I0.100 J0.000 K0.000 F250.000
G1 X29.961 Y-55.105 Z-0.200 F250.000
G0 Z0.500
G0 X29.481 Y-55.077 Z0.500
G0 X29.481 Y-55.077 Z0.300
G1 X29.481 Y-55.077 Z-0.200 F150.000
G2 X29.432 Y-54.987 Z-0.200 I0.020 J0.069 K0.000 F250.000
G2 X29.373 Y-55.058 Z-0.200 I-0.065 J-0.006 K0.000 F250.000
G2 X29.421 Y-55.148 Z-0.200 I-0.020 J-0.069 K0.000 F250.000
G2 X29.481 Y-55.077 Z-0.200 I0.065 J0.006 K0.000 F250.000
G0 Z0.500
G0 Z0.500
G0 X29.481 Y-55.077
G0 X28.604
G0 X28.604 Z0.300
G1 X28.604 Y-55.077 Z-0.200 F150.000
G1 X28.604 Y-55.030 Z-0.200 F250.000
G1 X28.226 Y-55.030 Z-0.200 F250.000
G2 X28.126 Y-54.930 Z-0.200 I0.000 J0.100 K0.000 F250.000
G1 X28.126 Y-54.285 Z-0.200 F250.000
G1 X28.014 Y-54.285 Z-0.200 F250.000
G1 X28.014 Y-54.930 Z-0.200 F250.000
G2 X27.914 Y-55.030 Z-0.200 I-0.100 J0.000 K0.000 F250.000
G1 X27.589 Y-55.030 Z-0.200 F250.000
G1 X27.589 Y-55.105 Z-0.200 F250.000
G1 X27.914 Y-55.105 Z-0.200 F250.000
G2 X28.014 Y-55.205 Z-0.200 I0.000 J-0.100 K0.000 F250.000
G1 X28.014 Y-56.912 Z-0.200 F250.000
G1 X28.126 Y-56.912 Z-0.200 F250.000
G1 X28.126 Y-55.205 Z-0.200 F250.000
G2 X28.226 Y-55.105 Z-0.200 I0.100 J0.000 K0.000 F250.000
G1 X28.604 Y-55.105 Z-0.200 F250.000
G1 X28.604 Y-55.077 Z-0.200 F250.000
G0 Z0.500
G0 X28.124 Z0.500
G0 X28.124 Z0.300
G1 X28.124 Y-55.077 Z-0.200 F150.000
G2 X28.075 Y-54.987 Z-0.200 I0.020 J0.069 K0.000 F250.000
G2 X28.016 Y-55.058 Z-0.200 I-0.065 J-0.006 K0.000 F250.000
G2 X28.064 Y-55.148 Z-0.200 I-0.020 J-0.069 K0.000 F250.000
G2 X28.124 Y-55.077 Z-0.200 I0.065 J0.006 K0.000 F250.000
G0 Z0.500
G0 Z0.500
G0 X28.124 Y-55.077
G0 X27.047
G0 X27.047 Z0.300
G1 X27.047 Y-55.077 Z-0.200 F150.000
G1 X27.047 Y-55.030 Z-0.200 F250.000
G1 X26.935 Y-55.030 Z-0.200 F250.000
G2 X26.906 Y-55.338 Z-0.200 I-0.387 J-0.119 K0.000 F250.000
G2 X26.654 Y-55.208 Z-0.200 I-0.066 J0.181 K0.000 F250.000
G3 X25.183 Y-55.969 Z-0.200 I-0.577 J-0.685 K0.000 F250.000
G3 X26.482 Y-56.857 Z-0.200 I0.898 J-0.080 K0.000 F250.000
G3 X26.758 Y-56.614 Z-0.200 I-0.359 J0.687 K0.000 F250.000
G2 X26.935 Y-56.678 Z-0.200 I0.077 J-0.064 K0.000 F250.000
G1 X26.935 Y-56.912 Z-0.200 F250.000
G1 X27.047 Y-56.912 Z-0.200 F250.000
G1 X27.047 Y-55.077 Z-0.200 F250.000
G0 Z0.500
G0 X26.967 Y-55.383 Z0.500
G0 X26.967 Y-55.383 Z0.300
G1 X26.967 Y-55.383 Z-0.200 F150.000
G3 X26.941 Y-55.524 Z-0.200 I-0.003 J-0.072 K0.000 F250.000
G1 X26.967 Y-55.617 Z-0.200 F250.000
G1 X26.967 Y-55.383 Z-0.200 F250.000
G0 Z0.500
G0 X26.831 Y-55.467 Z0.500
G0 X26.831 Y-55.467 Z0.300
G1 X26.831 Y-55.467 Z-0.200 F150.000
G3 X25.748 Y-55.167 Z-0.200 I-0.704 J-0.436 K0.000 F250.000
G3 X25.671 Y-56.729 Z-0.200 I0.475 J-0.806 K0.000 F250.000
G3 X26.951 Y-55.981 Z-0.200 I0.459 J0.684 K0.000 F250.000
G3 X26.831 Y-55.467 Z-0.200 I-0.824 J0.078 K0.000 F250.000
G0 Z0.500
G0 X26.967 Y-56.328 Z0.500
G0 X26.967 Y-56.328 Z0.300
G1 X26.967 Y-56.328 Z-0.200 F150.000
G2 X26.887 Y-56.510 Z-0.200 I-0.365 J0.053 K0.000 F250.000
G2 X26.967 Y-56.565 Z-0.200 I0.002 J-0.083 K0.000 F250.000
G1 X26.967 Y-56.328 Z-0.200 F250.000
G0 Z0.500
G0 Z0.500
G0 X26.967 Y-56.328
G0 X19.024 Y-55.972
G0 X19.024 Y-55.972 Z0.300
G1 X19.024 Y-55.972 Z-0.200 F150.000
G3 X17.175 Y-55.769 Z-0.200 I-0.931 J0.042 K0.000 F250.000
G3 X18.656 Y-56.787 Z-0.200 I0.935 J-0.226 K0.000 F250.000
G3 X18.890 Y-56.512 Z-0.200 I-0.357 J0.542 K0.000 F250.000
G3 X18.721 Y-56.586 Z-0.200 I-0.059 J-0.095 K0.000 F250.000
G2 X17.291 Y-56.048 Z-0.200 I-0.616 J0.531 K0.000 F250.000
G1 X17.379 Y-55.996 Z-0.200 F250.000
G1 X19.023 Y-55.996 Z-0.200 F250.000
G3 X19.024 Y-55.972 Z-0.200 I-0.930 J0.066 K0.000 F250.000
G0 Z0.500
G0 X18.935 Y-55.916 Z0.500
G0 X18.935 Y-55.916 Z0.300
G1 X18.935 Y-55.916 Z-0.200 F150.000
G1 X18.934 Y-55.908 Z-0.200 F250.000
G1 X18.928 Y-55.916 Z-0.200 F250.000
G1 X18.935 Y-55.916 Z-0.200 F250.000
G0 Z0.500
G0 X18.884 Y-55.856 Z0.500
G0 X18.884 Y-55.856 Z0.300
G1 X18.884 Y-55.856 Z-0.200 F150.000
G3 X17.288 Y-55.773 Z-0.200 I-0.801 J-0.014 K0.000 F250.000
G3 X17.383 Y-55.904 Z-0.200 I0.095 J-0.031 K0.000 F250.000
G1 X18.798 Y-55.904 Z-0.200 F250.000
G1 X18.884 Y-55.856 Z-0.200 F250.000
G0 Z0.500
G0 X17.276 Y-55.946 Z0.500
G0 X17.276 Y-55.946 Z0.300
G1 X17.276 Y-55.946 Z-0.200 F150.000
G3 X17.244 Y-55.904 Z-0.200 I-0.046 J-0.003 K0.000 F250.000
G3 X17.242 Y-55.993 Z-0.200 I0.211 J-0.049 K0.000 F250.000
G3 X17.276 Y-55.946 Z-0.200 I-0.012 J0.045 K0.000 F250.000
G0 Z0.500
G0 Z0.500
G0 X17.276 Y-55.946
G0 X16.655 Y-56.249
G0 X16.655 Y-56.249 Z0.300
G1 X16.655 Y-56.249 Z-0.200 F150.000
G3 X16.394 Y-56.027 Z-0.200 I-0.386 J-0.189 K0.000 F250.000
G3 X15.721 Y-55.855 Z-0.200 I-2.044 J-6.592 K0.000 F250.000
G2 X15.334 Y-55.611 Z-0.200 I0.062 J0.526 K0.000 F250.000
G2 X15.733 Y-55.072 Z-0.200 I0.364 J0.147 K0.000 F250.000
G2 X16.347 Y-55.193 Z-0.200 I0.181 J-0.698 K0.000 F250.000
G2 X16.476 Y-55.388 Z-0.200 I-0.202 J-0.275 K0.000 F250.000
G1 X16.593 Y-55.388 Z-0.200 F250.000
G3 X15.907 Y-54.997 Z-0.200 I-0.587 J-0.233 K0.000 F250.000
G3 X15.353 Y-55.137 Z-0.200 I-0.070 J-0.890 K0.000 F250.000
G3 X15.484 Y-55.873 Z-0.200 I0.236 J-0.338 K0.000 F250.000
G3 X16.156 Y-56.049 Z-0.200 I2.260 J7.260 K0.000 F250.000
G2 X16.549 Y-56.316 Z-0.200 I-0.048 J-0.493 K0.000 F250.000
G2 X16.296 Y-56.817 Z-0.200 I-0.356 J-0.134 K0.000 F250.000
G2 X15.356 Y-56.629 Z-0.200 I-0.340 J0.746 K0.000 F250.000
G2 X15.289 Y-56.458 Z-0.200 I0.393 J0.254 K0.000 F250.000
G1 X15.155 Y-56.458 Z-0.200 F250.000
G3 X15.936 Y-56.944 Z-0.200 I0.695 J0.245 K0.000 F250.000
G3 X16.496 Y-56.803 Z-0.200 I0.057 J0.956 K0.000 F250.000
G3 X16.655 Y-56.249 Z-0.200 I-0.227 J0.365 K0.000 F250.000
G0 Z0.500
G0 X16.605 Y-56.271 Z0.500
G0 X16.605 Y-56.271 Z0.300
G1 X16.605 Y-56.271 Z-0.200 F150.000
G3 X16.277 Y-56.046 Z-0.200 I-0.345 J-0.151 K0.000 F250.000
G2 X16.610 Y-56.563 Z-0.200 I-0.063 J-0.406 K0.000 F250.000
G3 X16.605 Y-56.271 Z-0.200 I-0.349 J0.141 K0.000 F250.000
G0 Z0.500
G0 X16.586 Y-56.628 Z0.500
G0 X16.586 Y-56.628 Z0.300
G1 X16.586 Y-56.628 Z-0.200 F150.000
G1 X16.573 Y-56.650 Z-0.200 F250.000
G3 X16.586 Y-56.628 Z-0.200 I-0.020 J0.026 K0.000 F250.000
G0 Z0.500
G0 X15.312 Y-56.651 Z0.500
G0 X15.312 Y-56.651 Z0.300
G1 X15.312 Y-56.651 Z-0.200 F150.000
G2 X15.253 Y-56.508 Z-0.200 I0.327 J0.219 K0.000 F250.000
G1 X15.231 Y-56.508 Z-0.200 F250.000
G3 X15.312 Y-56.651 Z-0.200 I0.238 J0.041 K0.000 F250.000
G0 Z0.500
G0 X15.512 Y-55.836 Z0.500
G0 X15.512 Y-55.836 Z0.300
G1 X15.512 Y-55.836 Z-0.200 F150.000
G3 X15.570 Y-55.846 Z-0.200 I0.087 J0.353 K0.000 F250.000
G2 X15.291 Y-55.288 Z-0.200 I0.070 J0.384 K0.000 F250.000
G3 X15.512 Y-55.836 Z-0.200 I0.307 J-0.195 K0.000 F250.000
G0 Z0.500
G0 X15.292 Y-55.286 Z0.500
G0 X15.292 Y-55.286 Z0.300
G1 X15.292 Y-55.286 Z-0.200 F150.000
G1 X15.306 Y-55.262 Z-0.200 F250.000
G3 X15.292 Y-55.286 Z-0.200 I0.023 J-0.029 K0.000 F250.000
G0 Z0.500
G0 X16.491 Y-55.290 Z0.500
G0 X16.491 Y-55.290 Z0.300
G1 X16.491 Y-55.290 Z-0.200 F150.000
G1 X16.491 Y-55.290 Z-0.200 F250.000
G3 X16.491 Y-55.290 Z-0.200 I-0.000 J-0.000 K0.000 F250.000
G0 Z0.500
G0 X16.506 Y-55.318 Z0.500
G0 X16.506 Y-55.318 Z0.300
G1 X16.506 Y-55.318 Z-0.200 F150.000
G3 X16.516 Y-55.338 Z-0.200 I0.009 J-0.008 K0.000 F250.000
G1 X16.506 Y-55.318 Z-0.200 F250.000
G0 Z0.500
G0 Z0.500
G0 X16.506 Y-55.318
G0 X14.539
G0 X14.539 Z0.300
G1 X14.539 Y-55.318 Z-0.200 F150.000
G1 X14.539 Y-55.030 Z-0.200 F250.000
G1 X14.427 Y-55.030 Z-0.200 F250.000
G2 X14.398 Y-55.338 Z-0.200 I-0.387 J-0.119 K0.000 F250.000
G2 X14.146 Y-55.208 Z-0.200 I-0.066 J0.181 K0.000 F250.000
G3 X12.676 Y-55.969 Z-0.200 I-0.577 J-0.685 K0.000 F250.000
G3 X13.974 Y-56.857 Z-0.200 I0.898 J-0.080 K0.000 F250.000
G3 X14.250 Y-56.614 Z-0.200 I-0.359 J0.687 K0.000 F250.000
G2 X14.427 Y-56.678 Z-0.200 I0.077 J-0.064 K0.000 F250.000
G1 X14.427 Y-56.912 Z-0.200 F250.000
G1 X14.539 Y-56.912 Z-0.200 F250.000
G1 X14.539 Y-55.318 Z-0.200 F250.000
G0 Z0.500
G0 X14.459 Y-55.383 Z0.500
G0 X14.459 Y-55.383 Z0.300
G1 X14.459 Y-55.383 Z-0.200 F150.000
G3 X14.433 Y-55.524 Z-0.200 I-0.010 J-0.071 K0.000 F250.000
G1 X14.459 Y-55.617 Z-0.200 F250.000
G1 X14.459 Y-55.383 Z-0.200 F250.000
G0 Z0.500
G0 X14.325 Y-55.466 Z0.500
G0 X14.325 Y-55.466 Z0.300
G1 X14.325 Y-55.466 Z-0.200 F150.000
G3 X13.219 Y-55.178 Z-0.200 I-0.703 J-0.433 K0.000 F250.000
G3 X13.164 Y-56.730 Z-0.200 I0.499 J-0.795 K0.000 F250.000
G3 X14.443 Y-55.981 Z-0.200 I0.457 J0.686 K0.000 F250.000
G3 X14.325 Y-55.466 Z-0.200 I-0.821 J0.082 K0.000 F250.000
G0 Z0.500
G0 X14.459 Y-56.328 Z0.500
G0 X14.459 Y-56.328 Z0.300
G1 X14.459 Y-56.328 Z-0.200 F150.000
G2 X14.379 Y-56.510 Z-0.200 I-0.365 J0.053 K0.000 F250.000
G2 X14.459 Y-56.565 Z-0.200 I0.002 J-0.083 K0.000 F250.000
G1 X14.459 Y-56.328 Z-0.200 F250.000
G0 Z0.500
G0 Z0.500
G0 X14.459 Y-56.328
G0 X12.221 Y-55.996
G0 X12.221 Y-55.996 Z0.300
G1 X12.221 Y-55.996 Z-0.200 F150.000
G3 X10.378 Y-55.743 Z-0.200 I-0.930 J0.066 K0.000 F250.000
G3 X11.855 Y-56.787 Z-0.200 I0.932 J-0.248 K0.000 F250.000
G3 X12.086 Y-56.512 Z-0.200 I-0.358 J0.535 K0.000 F250.000
G3 X11.919 Y-56.586 Z-0.200 I-0.058 J-0.094 K0.000 F250.000
G2 X10.489 Y-56.048 Z-0.200 I-0.617 J0.531 K0.000 F250.000
G1 X10.577 Y-55.996 Z-0.200 F250.000
G1 X12.221 Y-55.996 Z-0.200 F250.000
G0 Z0.500
G0 X12.133 Y-55.916 Z0.500
G0 X12.133 Y-55.916 Z0.300
G1 X12.133 Y-55.916 Z-0.200 F150.000
G1 X12.132 Y-55.909 Z-0.200 F250.000
G1 X12.126 Y-55.916 Z-0.200 F250.000
G1 X12.133 Y-55.916 Z-0.200 F250.000
G0 Z0.500
G0 X12.082 Y-55.856 Z0.500
G0 X12.082 Y-55.856 Z0.300
G1 X12.082 Y-55.856 Z-0.200 F150.000
G3 X10.486 Y-55.773 Z-0.200 I-0.801 J-0.014 K0.000 F250.000
G3 X10.581 Y-55.904 Z-0.200 I0.095 J-0.031 K0.000 F250.000
G1 X11.996 Y-55.904 Z-0.200 F250.000
G1 X12.082 Y-55.856 Z-0.200 F250.000
G0 Z0.500
G0 X10.474 Y-55.946 Z0.500
G0 X10.474 Y-55.946 Z0.300
G1 X10.474 Y-55.946 Z-0.200 F150.000
G3 X10.443 Y-55.906 Z-0.200 I-0.045 J-0.003 K0.000 F250.000
G3 X10.440 Y-55.992 Z-0.200 I0.195 J-0.050 K0.000 F250.000
G3 X10.474 Y-55.946 Z-0.200 I-0.011 J0.044 K0.000 F250.000
G0 Z0.500
G0 Z0.500
G0 X10.474 Y-55.946
G0 X9.744
G0 X9.744 Z0.300
G1 X9.744 Y-55.946 Z-0.200 F150.000
G1 X9.744 Y-54.197 Z-0.200 F250.000
G1 X9.632 Y-54.197 Z-0.200 F250.000
G1 X9.632 Y-56.912 Z-0.200 F250.000
G1 X9.744 Y-56.912 Z-0.200 F250.000
G1 X9.744 Y-55.946 Z-0.200 F250.000
G0 Z0.500
G0 X9.694 Z0.500
G0 X9.694 Z0.300
G1 X9.694 Y-55.946 Z-0.200 F150.000
G1 X9.694 Y-54.247 Z-0.200 F250.000
G1 X9.682 Y-54.247 Z-0.200 F250.000
G1 X9.682 Y-56.862 Z-0.200 F250.000
G1 X9.694 Y-56.862 Z-0.200 F250.000
G1 X9.694 Y-55.946 Z-0.200 F250.000
G0 Z0.500
G0 Z0.500
G0 X9.694 Y-55.946
G0 X9.051 Y-55.940
G0 X9.051 Y-55.940 Z0.300
G1 X9.051 Y-55.940 Z-0.200 F150.000
G3 X7.201 Y-55.769 Z-0.200 I-0.932 J0.010 K0.000 F250.000
G3 X8.682 Y-56.787 Z-0.200 I0.935 J-0.227 K0.000 F250.000
G3 X8.916 Y-56.512 Z-0.200 I-0.357 J0.541 K0.000 F250.000
G1 X8.800 Y-56.512 Z-0.200 F250.000
G2 X7.317 Y-56.048 Z-0.200 I-0.670 J0.460 K0.000 F250.000
G1 X7.405 Y-55.996 Z-0.200 F250.000
G1 X9.049 Y-55.996 Z-0.200 F250.000
G3 X9.051 Y-55.940 Z-0.200 I-0.930 J0.066 K0.000 F250.000
G0 Z0.500
G0 X8.961 Y-55.916 Z0.500
G0 X8.961 Y-55.916 Z0.300
G1 X8.961 Y-55.916 Z-0.200 F150.000
G1 X8.960 Y-55.909 Z-0.200 F250.000
G1 X8.954 Y-55.916 Z-0.200 F250.000
G1 X8.961 Y-55.916 Z-0.200 F250.000
G0 Z0.500
G0 X8.910 Y-55.856 Z0.500
G0 X8.910 Y-55.856 Z0.300
G1 X8.910 Y-55.856 Z-0.200 F150.000
G3 X7.314 Y-55.773 Z-0.200 I-0.801 J-0.014 K0.000 F250.000
G3 X7.409 Y-55.904 Z-0.200 I0.095 J-0.031 K0.000 F250.000
G1 X8.824 Y-55.904 Z-0.200 F250.000
G1 X8.910 Y-55.856 Z-0.200 F250.000
G0 Z0.500
G0 X7.302 Y-55.946 Z0.500
G0 X7.302 Y-55.946 Z0.300
G1 X7.302 Y-55.946 Z-0.200 F150.000
G3 X7.270 Y-55.904 Z-0.200 I-0.046 J-0.003 K0.000 F250.000
G3 X7.268 Y-55.993 Z-0.200 I0.211 J-0.049 K0.000 F250.000
G3 X7.302 Y-55.946 Z-0.200 I-0.012 J0.045 K0.000 F250.000
G0 Z0.500
G0 Z0.500
G0 X7.302 Y-55.946
G0 X6.830 Y-55.113
G0 X6.830 Y-55.113 Z0.300
G1 X6.830 Y-55.113 Z-0.200 F150.000
G1 X6.830 Y-55.004 Z-0.200 F250.000
G3 X6.243 Y-55.464 Z-0.200 I0.059 J-0.680 K0.000 F250.000
G2 X6.830 Y-55.113 Z-0.200 I0.621 J-0.373 K0.000 F250.000
G0 Z0.500
G0 X6.225 Y-55.492 Z0.500
G0 X6.225 Y-55.492 Z0.300
G1 X6.225 Y-55.492 Z-0.200 F150.000
G2 X6.043 Y-55.442 Z-0.200 I-0.084 J0.048 K0.000 F250.000
G1 X6.043 Y-55.030 Z-0.200 F250.000
G1 X5.931 Y-55.030 Z-0.200 F250.000
G1 X5.931 Y-56.912 Z-0.200 F250.000
G1 X6.043 Y-56.912 Z-0.200 F250.000
G2 X6.085 Y-55.780 Z-0.200 I4.251 J0.410 K0.000 F250.000
G2 X6.225 Y-55.492 Z-0.200 I0.707 J-0.166 K0.000 F250.000
G0 Z0.500
G0 X6.068 Y-55.596 Z0.500
G0 X6.068 Y-55.596 Z0.300
G1 X6.068 Y-55.596 Z-0.200 F150.000
G2 X6.011 Y-55.549 Z-0.200 I-0.002 J0.055 K0.000 F250.000
G1 X6.011 Y-55.748 Z-0.200 F250.000
G2 X6.068 Y-55.596 Z-0.200 I0.793 J-0.208 K0.000 F250.000
G0 Z0.500
G0 Z0.500
G0 X6.068 Y-55.596
G0 X4.818 Y-74.267
G0 X4.818 Y-74.267 Z0.300
G1 X4.818 Y-74.267 Z-0.200 F150.000
G3 X4.409 Y-74.282 Z-0.200 I-0.131 J-1.952 K0.000 F250.000
G3 X2.771 Y-75.857 Z-0.200 I0.161 J-1.806 K0.000 F250.000
G3 X4.015 Y-76.540 Z-0.200 I0.757 J-0.095 K0.000 F250.000
G3 X3.574 Y-75.323 Z-0.200 I-0.493 J0.510 K0.000 F250.000
G2 X3.572 Y-75.063 Z-0.200 I0.045 J0.130 K0.000 F250.000
G2 X5.632 Y-75.096 Z-0.200 I1.013 J-1.060 K0.000 F250.000
G2 X6.104 Y-76.892 Z-0.200 I-1.707 J-1.408 K0.000 F250.000
G2 X4.226 Y-79.623 Z-0.200 I-3.902 J0.673 K0.000 F250.000
G1 X4.088 Y-79.719 Z-0.200 F250.000
G3 X3.935 Y-79.931 Z-0.200 I0.029 J-0.182 K0.000 F250.000
G3 X5.485 Y-78.975 Z-0.200 I-0.765 J2.972 K0.000 F250.000
G3 X6.610 Y-75.856 Z-0.200 I-2.233 J2.568 K0.000 F250.000
G3 X4.818 Y-74.267 Z-0.200 I-1.923 J-0.363 K0.000 F250.000
G0 Z0.500
G0 X4.811 Y-74.342 Z0.500
G0 X4.811 Y-74.342 Z0.300
G1 X4.811 Y-74.342 Z-0.200 F150.000
G3 X4.747 Y-74.337 Z-0.200 I-0.184 J-1.942 K0.000 F250.000
G3 X2.853 Y-75.817 Z-0.200 I-0.108 J-1.813 K0.000 F250.000
G3 X3.957 Y-76.484 Z-0.200 I0.676 J-0.129 K0.000 F250.000
G3 X3.569 Y-75.402 Z-0.200 I-0.435 J0.454 K0.000 F250.000
G2 X3.523 Y-75.000 Z-0.200 I0.047 J0.209 K0.000 F250.000
G2 X5.694 Y-75.045 Z-0.200 I1.063 J-1.121 K0.000 F250.000
G2 X6.183 Y-76.905 Z-0.200 I-1.769 J-1.459 K0.000 F250.000
G2 X4.271 Y-79.689 Z-0.200 I-3.981 J0.685 K0.000 F250.000
G1 X4.134 Y-79.784 Z-0.200 F250.000
G1 X4.134 Y-79.784 Z-0.200 F250.000
G3 X4.061 Y-79.835 Z-0.200 I137.835 J-197.325 K0.000 F250.000
G3 X6.529 Y-77.042 Z-0.200 I-1.638 J3.934 K0.000 F250.000
G3 X6.570 Y-76.108 Z-0.200 I-3.047 J0.598 K0.000 F250.000
G3 X4.811 Y-74.342 Z-0.200 I-1.943 J-0.176 K0.000 F250.000
G0 Z0.500
G0 X4.803 Y-74.421 Z0.500
G0 X4.803 Y-74.421 Z0.300
G1 X4.803 Y-74.421 Z-0.200 F150.000
G3 X4.748 Y-74.417 Z-0.200 I-0.177 J-1.863 K0.000 F250.000
G3 X2.933 Y-75.824 Z-0.200 I-0.108 J-1.734 K0.000 F250.000
G3 X3.900 Y-76.428 Z-0.200 I0.596 J-0.121 K0.000 F250.000
G3 X3.565 Y-75.482 Z-0.200 I-0.378 J0.398 K0.000 F250.000
G2 X3.474 Y-74.937 Z-0.200 I0.048 J0.288 K0.000 F250.000
G2 X5.756 Y-74.994 Z-0.200 I1.112 J-1.183 K0.000 F250.000
G2 X6.262 Y-76.917 Z-0.200 I-1.831 J-1.510 K0.000 F250.000
G2 X5.237 Y-78.988 Z-0.200 I-3.736 J0.559 K0.000 F250.000
G3 X6.490 Y-76.117 Z-0.200 I-2.138 J2.642 K0.000 F250.000
G3 X4.803 Y-74.421 Z-0.200 I-1.864 J-0.168 K0.000 F250.000
G0 Z0.500
G0 X5.828 Y-74.956 Z0.500
G0 X5.828 Y-74.956 Z0.300
G1 X5.828 Y-74.956 Z-0.200 F150.000
G2 X6.341 Y-76.929 Z-0.200 I-1.903 J-1.549 K0.000 F250.000
G2 X6.234 Y-77.463 Z-0.200 I-2.338 J0.194 K0.000 F250.000
G3 X6.410 Y-76.125 Z-0.200 I-2.490 J1.010 K0.000 F250.000
G3 X5.828 Y-74.956 Z-0.200 I-1.979 J-0.256 K0.000 F250.000
G0 Z0.500
G0 X3.946 Y-75.821 Z0.500
G0 X3.946 Y-75.821 Z0.300
G1 X3.946 Y-75.821 Z-0.200 F150.000
G3 X3.560 Y-75.562 Z-0.200 I-0.427 J-0.218 K0.000 F250.000
G2 X3.245 Y-75.221 Z-0.200 I0.015 J0.330 K0.000 F250.000
G3 X3.127 Y-76.272 Z-0.200 I0.671 J-0.608 K0.000 F250.000
G3 X3.946 Y-75.821 Z-0.200 I0.398 J0.245 K0.000 F250.000
G0 Z0.500
G0 X3.871 Y-75.852 Z0.500
G0 X3.871 Y-75.852 Z0.300
G1 X3.871 Y-75.852 Z-0.200 F150.000
G3 X3.555 Y-75.642 Z-0.200 I-0.349 J-0.184 K0.000 F250.000
G2 X3.220 Y-75.421 Z-0.200 I-0.015 J0.341 K0.000 F250.000
G3 X3.193 Y-76.227 Z-0.200 I0.596 J-0.424 K0.000 F250.000
G3 X3.871 Y-75.852 Z-0.200 I0.332 J0.200 K0.000 F250.000
G0 Z0.500
G0 X3.797 Y-75.884 Z0.500
G0 X3.797 Y-75.884 Z0.300
G1 X3.797 Y-75.884 Z-0.200 F150.000
G3 X3.361 Y-75.672 Z-0.200 I-0.416 J-0.302 K0.000 F250.000
G1 X3.236 Y-75.577 Z-0.200 F250.000
G3 X3.272 Y-76.197 Z-0.200 I0.442 J-0.285 K0.000 F250.000
G3 X3.797 Y-75.884 Z-0.200 I0.255 J0.169 K0.000 F250.000
G0 Z0.500
G0 X3.723 Y-75.918 Z0.500
G0 X3.723 Y-75.918 Z0.300
G1 X3.723 Y-75.918 Z-0.200 F150.000
G3 X3.338 Y-75.750 Z-0.200 I-0.352 J-0.283 K0.000 F250.000
G1 X3.275 Y-75.705 Z-0.200 F250.000
G3 X3.514 Y-76.254 Z-0.200 I0.351 J-0.173 K0.000 F250.000
G3 X3.723 Y-75.918 Z-0.200 I0.015 J0.223 K0.000 F250.000
G0 Z0.500
G0 X3.649 Y-75.951 Z0.500
G0 X3.649 Y-75.951 Z0.300
G1 X3.649 Y-75.951 Z-0.200 F150.000
G3 X3.335 Y-75.834 Z-0.200 I-0.271 J-0.248 K0.000 F250.000
G3 X3.625 Y-76.134 Z-0.200 I0.195 J-0.102 K0.000 F250.000
G3 X3.649 Y-75.951 Z-0.200 I-0.125 J0.109 K0.000 F250.000
G0 Z0.500
G0 X3.576 Y-75.992 Z0.500
G0 X3.576 Y-75.992 Z0.300
G1 X3.576 Y-75.992 Z-0.200 F150.000
G3 X3.564 Y-75.975 Z-0.200 I-0.065 J-0.036 K0.000 F250.000
G3 X3.505 Y-75.955 Z-0.200 I-0.070 J-0.107 K0.000 F250.000
G1 X3.505 Y-75.955 Z-0.200 F250.000
G1 X3.412 Y-75.934 Z-0.200 F250.000
G3 X3.565 Y-76.080 Z-0.200 I0.129 J-0.018 K0.000 F250.000
G3 X3.576 Y-75.992 Z-0.200 I-0.053 J0.052 K0.000 F250.000
G0 Z0.500
G0 X3.530 Y-76.012 Z0.500
G0 X3.530 Y-76.012 Z0.300
G1 X3.530 Y-76.012 Z-0.200 F150.000
G3 X3.497 Y-76.004 Z-0.200 I-0.026 J-0.036 K0.000 F250.000
G3 X3.489 Y-76.002 Z-0.200 I-0.004 J0.001 K0.000 F250.000
G3 X3.530 Y-76.034 Z-0.200 I0.095 J0.078 K0.000 F250.000
G3 X3.530 Y-76.012 Z-0.200 I-0.011 J0.011 K0.000 F250.000
G0 Z0.500
G0 Z0.500
G0 X3.530 Y-76.012
G0 X7.750 Y-75.378
G0 X7.750 Y-75.378 Z0.300
G1 X7.750 Y-75.378 Z-0.200 F150.000
G3 X8.179 Y-75.745 Z-0.200 I0.426 J0.064 K0.000 F250.000
G1 X8.233 Y-75.733 Z-0.200 F250.000
G3 X8.139 Y-74.884 Z-0.200 I-0.075 J0.421 K0.000 F250.000
G3 X7.750 Y-75.378 Z-0.200 I0.037 J-0.429 K0.000 F250.000
G0 Z0.500
G0 X8.064 Y-75.327 Z0.500
G0 X8.064 Y-75.327 Z0.300
G1 X8.064 Y-75.327 Z-0.200 F150.000
G3 X8.174 Y-75.418 Z-0.200 I0.106 J0.017 K0.000 F250.000
G3 X8.165 Y-75.203 Z-0.200 I-0.015 J0.107 K0.000 F250.000
G3 X8.064 Y-75.327 Z-0.200 I0.005 J-0.107 K0.000 F250.000
G0 Z0.500
G0 X8.142 Y-75.311 Z0.500
G0 X8.142 Y-75.311 Z0.300
G1 X8.142 Y-75.311 Z-0.200 F150.000
G3 X8.147 Y-75.321 Z-0.200 I0.023 J0.005 K0.000 F250.000
G3 X8.185 Y-75.318 Z-0.200 I0.018 J0.012 K0.000 F250.000
G3 X8.170 Y-75.283 Z-0.200 I-0.008 J0.017 K0.000 F250.000
G3 X8.142 Y-75.311 Z-0.200 I-0.006 J-0.023 K0.000 F250.000
G0 Z0.500
G0 X7.984 Y-75.308 Z0.500
G0 X7.984 Y-75.308 Z0.300
G1 X7.984 Y-75.308 Z-0.200 F150.000
G3 X8.178 Y-75.499 Z-0.200 I0.188 J-0.003 K0.000 F250.000
G1 X8.215 Y-75.490 Z-0.200 F250.000
G3 X8.159 Y-75.124 Z-0.200 I-0.056 J0.179 K0.000 F250.000
G3 X7.984 Y-75.308 Z-0.200 I0.013 J-0.188 K0.000 F250.000
G0 Z0.500
G0 X7.905 Y-75.306 Z0.500
G0 X7.905 Y-75.306 Z0.300
G1 X7.905 Y-75.306 Z-0.200 F150.000
G3 X8.170 Y-75.583 Z-0.200 I0.270 J-0.007 K0.000 F250.000
G3 X8.152 Y-75.044 Z-0.200 I-0.014 J0.269 K0.000 F250.000
G3 X7.905 Y-75.306 Z-0.200 I0.022 J-0.269 K0.000 F250.000
G0 Z0.500
G0 X7.825 Y-75.303 Z0.500
G0 X7.825 Y-75.303 Z0.300
G1 X7.825 Y-75.303 Z-0.200 F150.000
G3 X8.168 Y-75.665 Z-0.200 I0.351 J-0.010 K0.000 F250.000
G3 X8.146 Y-74.964 Z-0.200 I-0.013 J0.350 K0.000 F250.000
G3 X7.825 Y-75.303 Z-0.200 I0.031 J-0.350 K0.000 F250.000
G0 Z0.500
G0 Z0.500
G0 X7.825 Y-75.303
G0 X8.104 Y-77.223
G0 X8.104 Y-77.223 Z0.300
G1 X8.104 Y-77.223 Z-0.200 F150.000
G3 X7.962 Y-77.270 Z-0.200 I0.062 J-0.426 K0.000 F250.000
G3 X8.261 Y-78.061 Z-0.200 I0.198 J-0.377 K0.000 F250.000
G1 X8.394 Y-78.013 Z-0.200 F250.000
G3 X8.104 Y-77.223 Z-0.200 I-0.228 J0.365 K0.000 F250.000
G0 Z0.500
G0 X8.116 Y-77.300 Z0.500
G0 X8.116 Y-77.300 Z0.300
G1 X8.116 Y-77.300 Z-0.200 F150.000
G3 X8.005 Y-77.338 Z-0.200 I0.054 J-0.345 K0.000 F250.000
G3 X8.244 Y-77.982 Z-0.200 I0.156 J-0.309 K0.000 F250.000
G1 X8.354 Y-77.943 Z-0.200 F250.000
G3 X8.116 Y-77.300 Z-0.200 I-0.184 J0.297 K0.000 F250.000
G0 Z0.500
G0 X8.128 Y-77.381 Z0.500
G0 X8.128 Y-77.381 Z0.300
G1 X8.128 Y-77.381 Z-0.200 F150.000
G3 X8.041 Y-77.411 Z-0.200 I0.041 J-0.265 K0.000 F250.000
G3 X8.227 Y-77.903 Z-0.200 I0.119 J-0.236 K0.000 F250.000
G1 X8.314 Y-77.872 Z-0.200 F250.000
G3 X8.128 Y-77.381 Z-0.200 I-0.145 J0.226 K0.000 F250.000
G0 Z0.500
G0 X8.140 Y-77.463 Z0.500
G0 X8.140 Y-77.463 Z0.300
G1 X8.140 Y-77.463 Z-0.200 F150.000
G3 X8.078 Y-77.483 Z-0.200 I0.027 J-0.185 K0.000 F250.000
G3 X8.209 Y-77.825 Z-0.200 I0.087 J-0.163 K0.000 F250.000
G1 X8.274 Y-77.801 Z-0.200 F250.000
G3 X8.140 Y-77.463 Z-0.200 I-0.107 J0.154 K0.000 F250.000
G0 Z0.500
G0 X8.153 Y-77.543 Z0.500
G0 X8.153 Y-77.543 Z0.300
G1 X8.153 Y-77.543 Z-0.200 F150.000
G3 X8.112 Y-77.558 Z-0.200 I0.016 J-0.105 K0.000 F250.000
G3 X8.192 Y-77.746 Z-0.200 I0.047 J-0.091 K0.000 F250.000
G1 X8.234 Y-77.731 Z-0.200 F250.000
G3 X8.153 Y-77.543 Z-0.200 I-0.065 J0.083 K0.000 F250.000
G0 Z0.500
G0 X8.162 Y-77.631 Z0.500
G0 X8.162 Y-77.631 Z0.300
G1 X8.162 Y-77.631 Z-0.200 F150.000
G3 X8.147 Y-77.638 Z-0.200 I0.003 J-0.023 K0.000 F250.000
G3 X8.186 Y-77.663 Z-0.200 I0.023 J-0.007 K0.000 F250.000
G3 X8.162 Y-77.631 Z-0.200 I-0.021 J0.010 K0.000 F250.000
G0 Z0.500
G0 Z0.500
G0 X8.162 Y-77.631
G0 X10.927 Y-76.869
G0 X10.927 Y-76.869 Z0.300
G1 X10.927 Y-76.869 Z-0.200 F150.000
G3 X11.055 Y-77.207 Z-0.200 I1.849 J0.509 K0.000 F250.000
G3 X12.237 Y-77.786 Z-0.200 I1.065 J0.677 K0.000 F250.000
G1 X12.784 Y-77.737 Z-0.200 F250.000
G3 X12.947 Y-77.372 Z-0.200 I-0.021 J0.228 K0.000 F250.000
G3 X12.833 Y-77.353 Z-0.200 I-0.075 J-0.095 K0.000 F250.000
G2 X11.821 Y-77.274 Z-0.200 I-0.399 J1.402 K0.000 F250.000
G2 X11.464 Y-76.338 Z-0.200 I0.723 J0.811 K0.000 F250.000
G2 X11.575 Y-75.703 Z-0.200 I1.446 J0.075 K0.000 F250.000
G2 X12.286 Y-75.290 Z-0.200 I0.644 J-0.291 K0.000 F250.000
G3 X12.854 Y-75.336 Z-0.200 I0.545 J3.215 K0.000 F250.000
G3 X12.742 Y-74.947 Z-0.200 I-0.115 J0.177 K0.000 F250.000
G3 X11.854 Y-74.936 Z-0.200 I-0.481 J-2.883 K0.000 F250.000
G3 X10.882 Y-76.057 Z-0.200 I0.181 J-1.140 K0.000 F250.000
G3 X10.927 Y-76.869 Z-0.200 I1.894 J-0.303 K0.000 F250.000
G0 Z0.500
G0 X11.004 Y-76.848 Z0.500
G0 X11.004 Y-76.848 Z0.300
G1 X11.004 Y-76.848 Z-0.200 F150.000
G3 X11.125 Y-77.168 Z-0.200 I1.764 J0.487 K0.000 F250.000
G3 X12.237 Y-77.706 Z-0.200 I0.995 J0.639 K0.000 F250.000
G1 X12.766 Y-77.658 Z-0.200 F250.000
G3 X12.895 Y-77.435 Z-0.200 I-0.008 J0.153 K0.000 F250.000
G3 X12.844 Y-77.432 Z-0.200 I-0.027 J-0.037 K0.000 F250.000
G2 X11.768 Y-77.335 Z-0.200 I-0.410 J1.456 K0.000 F250.000
G2 X11.385 Y-76.329 Z-0.200 I0.690 J0.839 K0.000 F250.000
G2 X11.506 Y-75.663 Z-0.200 I1.497 J0.073 K0.000 F250.000
G2 X12.293 Y-75.211 Z-0.200 I0.729 J-0.358 K0.000 F250.000
G3 X12.835 Y-75.256 Z-0.200 I0.530 J3.069 K0.000 F250.000
G3 X12.726 Y-75.027 Z-0.200 I-0.103 J0.092 K0.000 F250.000
G3 X11.867 Y-75.015 Z-0.200 I-0.467 J-2.791 K0.000 F250.000
G3 X10.961 Y-76.067 Z-0.200 I0.170 J-1.062 K0.000 F250.000
G3 X11.004 Y-76.848 Z-0.200 I1.806 J-0.294 K0.000 F250.000
G0 Z0.500
G0 X11.081 Y-76.827 Z0.500
G0 X11.081 Y-76.827 Z0.300
G1 X11.081 Y-76.827 Z-0.200 F150.000
G3 X11.196 Y-77.128 Z-0.200 I1.678 J0.466 K0.000 F250.000
G3 X12.238 Y-77.626 Z-0.200 I0.926 J0.600 K0.000 F250.000
G1 X12.748 Y-77.580 Z-0.200 F250.000
G3 X12.831 Y-77.515 Z-0.200 I-0.014 J0.102 K0.000 F250.000
G2 X11.783 Y-77.437 Z-0.200 I-0.426 J1.342 K0.000 F250.000
G2 X11.305 Y-76.321 Z-0.200 I0.652 J0.939 K0.000 F250.000
G2 X11.437 Y-75.622 Z-0.200 I1.552 J0.070 K0.000 F250.000
G2 X12.301 Y-75.131 Z-0.200 I0.787 J-0.378 K0.000 F250.000
G3 X12.793 Y-75.176 Z-0.200 I0.502 J2.787 K0.000 F250.000
G3 X12.710 Y-75.106 Z-0.200 I-0.084 J-0.015 K0.000 F250.000
G3 X11.880 Y-75.094 Z-0.200 I-0.452 J-2.700 K0.000 F250.000
G3 X11.041 Y-76.077 Z-0.200 I0.158 J-0.984 K0.000 F250.000
G3 X11.081 Y-76.827 Z-0.200 I1.718 J-0.284 K0.000 F250.000
G0 Z0.500
G0 X11.155 Y-76.805 Z0.500
G0 X11.155 Y-76.805 Z0.300
G1 X11.155 Y-76.805 Z-0.200 F150.000
G3 X11.402 Y-77.271 Z-0.200 I1.248 J0.363 K0.000 F250.000
G3 X11.604 Y-77.404 Z-0.200 I0.429 J0.432 K0.000 F250.000
G2 X11.225 Y-76.313 Z-0.200 I0.872 J0.913 K0.000 F250.000
G2 X11.367 Y-75.582 Z-0.200 I1.610 J0.066 K0.000 F250.000
G2 X11.583 Y-75.292 Z-0.200 I0.821 J-0.385 K0.000 F250.000
G3 X11.107 Y-76.343 Z-0.200 I0.647 J-0.927 K0.000 F250.000
G3 X11.155 Y-76.805 Z-0.200 I1.296 J-0.099 K0.000 F250.000
G0 Z0.500
G0 X11.210 Y-76.792 Z0.500
G0 X11.210 Y-76.792 Z0.300
G1 X11.210 Y-76.792 Z-0.200 F150.000
G3 X11.227 Y-76.857 Z-0.200 I1.849 J0.448 K0.000 F250.000
G2 X11.237 Y-75.795 Z-0.200 I2.312 J0.509 K0.000 F250.000
G3 X11.210 Y-76.792 Z-0.200 I1.822 J-0.548 K0.000 F250.000
G0 Z0.500
G0 Z0.500
G0 X11.210 Y-76.792
G0 X13.992 Y-76.517
G0 X13.992 Y-76.517 Z0.300
G1 X13.992 Y-76.517 Z-0.200 F150.000
G3 X14.164 Y-77.086 Z-0.200 I1.523 J0.150 K0.000 F250.000
G3 X14.308 Y-77.273 Z-0.200 I0.499 J0.235 K0.000 F250.000
G2 X14.136 Y-76.836 Z-0.200 I0.944 J0.623 K0.000 F250.000
G2 X14.141 Y-75.830 Z-0.200 I2.688 J0.490 K0.000 F250.000
G2 X14.304 Y-75.431 Z-0.200 I0.840 J-0.109 K0.000 F250.000
G3 X13.992 Y-76.517 Z-0.200 I1.211 J-0.936 K0.000 F250.000
G0 Z0.500
G0 X14.063 Y-76.565 Z0.500
G0 X14.063 Y-76.565 Z0.300
G1 X14.063 Y-76.565 Z-0.200 F150.000
G3 X14.065 Y-76.579 Z-0.200 I0.060 J-0.002 K0.000 F250.000
G1 X14.063 Y-76.565 Z-0.200 F250.000
G0 Z0.500
G0 X14.168 Y-76.554 Z0.500
G0 X14.168 Y-76.554 Z0.300
G1 X14.168 Y-76.554 Z-0.200 F150.000
G3 X14.216 Y-76.828 Z-0.200 I2.020 J0.209 K0.000 F250.000
G3 X15.912 Y-77.079 Z-0.200 I0.886 J0.133 K0.000 F250.000
G3 X15.987 Y-75.849 Z-0.200 I-2.235 J0.754 K0.000 F250.000
G3 X14.288 Y-75.629 Z-0.200 I-0.883 J-0.150 K0.000 F250.000
G3 X14.168 Y-76.554 Z-0.200 I1.901 J-0.716 K0.000 F250.000
G0 Z0.500
G0 X14.248 Y-76.546 Z0.500
G0 X14.248 Y-76.546 Z0.300
G1 X14.248 Y-76.546 Z-0.200 F150.000
G3 X14.295 Y-76.821 Z-0.200 I1.964 J0.199 K0.000 F250.000
G3 X15.842 Y-77.041 Z-0.200 I0.805 J0.114 K0.000 F250.000
G3 X15.908 Y-75.862 Z-0.200 I-2.174 J0.714 K0.000 F250.000
G3 X14.359 Y-75.667 Z-0.200 I-0.803 J-0.128 K0.000 F250.000
G3 X14.248 Y-76.546 Z-0.200 I1.853 J-0.680 K0.000 F250.000
G0 Z0.500
G0 X14.327 Y-76.538 Z0.500
G0 X14.327 Y-76.538 Z0.300
G1 X14.327 Y-76.538 Z-0.200 F150.000
G3 X14.375 Y-76.813 Z-0.200 I1.911 J0.190 K0.000 F250.000
G3 X15.771 Y-77.003 Z-0.200 I0.725 J0.102 K0.000 F250.000
G3 X15.829 Y-75.875 Z-0.200 I-2.115 J0.674 K0.000 F250.000
G3 X14.429 Y-75.704 Z-0.200 I-0.724 J-0.111 K0.000 F250.000
G3 X14.327 Y-76.538 Z-0.200 I1.809 J-0.645 K0.000 F250.000
G0 Z0.500
G0 X13.936 Y-76.598 Z0.500
G0 X13.936 Y-76.598 Z0.300
G1 X13.936 Y-76.598 Z-0.200 F150.000
G3 X14.226 Y-77.307 Z-0.200 I1.621 J0.249 K0.000 F250.000
G3 X15.994 Y-77.289 Z-0.200 I0.874 J0.985 K0.000 F250.000
G3 X16.285 Y-76.342 Z-0.200 I-1.072 J0.848 K0.000 F250.000
G3 X15.863 Y-75.290 Z-0.200 I-1.191 J0.132 K0.000 F250.000
G3 X14.220 Y-75.399 Z-0.200 I-0.753 J-1.097 K0.000 F250.000
G3 X13.936 Y-76.598 Z-0.200 I1.336 J-0.950 K0.000 F250.000
G0 Z0.500
G0 X13.857 Y-76.610 Z0.500
G0 X13.857 Y-76.610 Z0.300
G1 X13.857 Y-76.610 Z-0.200 F150.000
G3 X14.168 Y-77.363 Z-0.200 I1.697 J0.262 K0.000 F250.000
G3 X16.057 Y-77.338 Z-0.200 I0.931 J1.036 K0.000 F250.000
G3 X16.365 Y-76.344 Z-0.200 I-1.135 J0.897 K0.000 F250.000
G3 X15.911 Y-75.226 Z-0.200 I-1.271 J0.134 K0.000 F250.000
G3 X14.158 Y-75.348 Z-0.200 I-0.800 J-1.158 K0.000 F250.000
G3 X13.857 Y-76.610 Z-0.200 I1.396 J-1.000 K0.000 F250.000
G0 Z0.500
G0 X13.778 Y-76.623 Z0.500
G0 X13.778 Y-76.623 Z0.300
G1 X13.778 Y-76.623 Z-0.200 F150.000
G3 X14.110 Y-77.418 Z-0.200 I1.822 J0.295 K0.000 F250.000
G3 X15.491 Y-77.747 Z-0.200 I0.993 J1.109 K0.000 F250.000
G3 X16.400 Y-76.805 Z-0.200 I-0.229 J1.131 K0.000 F250.000
G3 X16.390 Y-75.847 Z-0.200 I-2.164 J0.455 K0.000 F250.000
G3 X15.103 Y-74.909 Z-0.200 I-1.175 J-0.260 K0.000 F250.000
G3 X13.950 Y-75.501 Z-0.200 I-0.115 J-1.197 K0.000 F250.000
G3 X13.778 Y-76.623 Z-0.200 I1.650 J-0.828 K0.000 F250.000
G0 Z0.500
G0 X15.898 Y-77.270 Z0.500
G0 X15.898 Y-77.270 Z0.300
G1 X15.898 Y-77.270 Z-0.200 F150.000
G3 X16.163 Y-76.762 Z-0.200 I-0.711 J0.694 K0.000 F250.000
G3 X16.157 Y-75.911 Z-0.200 I-1.905 J0.412 K0.000 F250.000
G3 X15.894 Y-75.426 Z-0.200 I-0.888 J-0.169 K0.000 F250.000
G2 X16.115 Y-76.380 Z-0.200 I-1.389 J-0.824 K0.000 F250.000
G2 X15.982 Y-77.117 Z-0.200 I-1.746 J-0.067 K0.000 F250.000
G2 X15.898 Y-77.270 Z-0.200 I-0.586 J0.223 K0.000 F250.000
G0 Z0.500
G0 Z0.500
G0 X15.898 Y-77.270
G0 X17.233
G0 X17.233 Z0.300
G1 X17.233 Y-77.270 Z-0.200 F150.000
G1 X17.233 Y-77.497 Z-0.200 F250.000
G3 X17.791 Y-77.497 Z-0.200 I0.279 J0.045 K0.000 F250.000
G1 X17.795 Y-75.769 Z-0.200 F250.000
G2 X18.690 Y-75.417 Z-0.200 I0.544 J-0.070 K0.000 F250.000
G2 X18.829 Y-76.063 Z-0.200 I-0.829 J-0.516 K0.000 F250.000
G1 X18.829 Y-77.497 Z-0.200 F250.000
G3 X19.370 Y-77.495 Z-0.200 I0.270 J0.037 K0.000 F250.000
G1 X19.373 Y-75.769 Z-0.200 F250.000
G2 X20.317 Y-75.483 Z-0.200 I0.534 J-0.061 K0.000 F250.000
G2 X20.402 Y-76.063 Z-0.200 I-1.514 J-0.519 K0.000 F250.000
G1 X20.402 Y-77.497 Z-0.200 F250.000
G3 X20.840 Y-77.694 Z-0.200 I0.278 J0.033 K0.000 F250.000
G3 X20.943 Y-77.495 Z-0.200 I-0.137 J0.198 K0.000 F250.000
G3 X20.920 Y-75.579 Z-0.200 I-15.049 J0.772 K0.000 F250.000
G3 X20.730 Y-75.100 Z-0.200 I-0.721 J-0.008 K0.000 F250.000
G3 X19.407 Y-75.326 Z-0.200 I-0.558 J-0.719 K0.000 F250.000
G2 X19.238 Y-75.302 Z-0.200 I-0.073 J0.091 K0.000 F250.000
G3 X18.280 Y-74.999 Z-0.200 I-0.606 J-0.252 K0.000 F250.000
G3 X17.919 Y-75.308 Z-0.200 I0.647 J-1.123 K0.000 F250.000
G2 X17.757 Y-75.190 Z-0.200 I-0.054 J0.096 K0.000 F250.000
G3 X17.233 Y-75.200 Z-0.200 I-0.261 J-0.037 K0.000 F250.000
G1 X17.233 Y-77.270 Z-0.200 F250.000
G0 Z0.500
G0 X17.313 Z0.500
G0 X17.313 Z0.300
G1 X17.313 Y-77.270 Z-0.200 F150.000
G1 X17.313 Y-77.490 Z-0.200 F250.000
G3 X17.663 Y-77.604 Z-0.200 I0.202 J0.028 K0.000 F250.000
G3 X17.711 Y-77.491 Z-0.200 I-0.105 J0.112 K0.000 F250.000
G1 X17.718 Y-75.748 Z-0.200 F250.000
G2 X17.926 Y-75.388 Z-0.200 I0.550 J-0.078 K0.000 F250.000
G2 X17.663 Y-75.137 Z-0.200 I-0.059 J0.201 K0.000 F250.000
G3 X17.313 Y-75.207 Z-0.200 I-0.163 J-0.094 K0.000 F250.000
G1 X17.313 Y-77.270 Z-0.200 F250.000
G0 Z0.500
G0 X17.393 Z0.500
G0 X17.393 Z0.300
G1 X17.393 Y-77.270 Z-0.200 F150.000
G1 X17.393 Y-77.484 Z-0.200 F250.000
G3 X17.605 Y-77.546 Z-0.200 I0.126 J0.036 K0.000 F250.000
G3 X17.632 Y-77.484 Z-0.200 I-0.058 J0.062 K0.000 F250.000
G1 X17.640 Y-75.727 Z-0.200 F250.000
G2 X17.765 Y-75.447 Z-0.200 I0.474 J-0.043 K0.000 F250.000
G2 X17.588 Y-75.171 Z-0.200 I0.102 J0.259 K0.000 F250.000
G3 X17.393 Y-75.214 Z-0.200 I-0.089 J-0.060 K0.000 F250.000
G1 X17.393 Y-77.270 Z-0.200 F250.000
G0 Z0.500
G0 X17.473 Z0.500
G0 X17.473 Z0.300
G1 X17.473 Y-77.270 Z-0.200 F150.000
G1 X17.473 Y-77.477 Z-0.200 F250.000
G3 X17.551 Y-77.481 Z-0.200 I0.039 J0.008 K0.000 F250.000
G1 X17.551 Y-77.479 Z-0.200 F250.000
G1 X17.551 Y-75.795 Z-0.200 F250.000
G2 X17.645 Y-75.482 Z-0.200 I0.633 J-0.019 K0.000 F250.000
G2 X17.516 Y-75.211 Z-0.200 I0.213 J0.268 K0.000 F250.000
G3 X17.473 Y-75.222 Z-0.200 I-0.018 J-0.017 K0.000 F250.000
G1 X17.473 Y-77.270 Z-0.200 F250.000
G0 Z0.500
G0 X18.917 Y-77.341 Z0.500
G0 X18.917 Y-77.341 Z0.300
G1 X18.917 Y-77.341 Z-0.200 F150.000
G2 X18.909 Y-77.490 Z-0.200 I-11.475 J0.565 K0.000 F250.000
G3 X19.290 Y-77.487 Z-0.200 I0.190 J0.030 K0.000 F250.000
G1 X19.296 Y-75.748 Z-0.200 F250.000
G2 X20.310 Y-75.341 Z-0.200 I0.624 J-0.089 K0.000 F250.000
G2 X20.482 Y-76.063 Z-0.200 I-0.842 J-0.583 K0.000 F250.000
G1 X20.482 Y-77.491 Z-0.200 F250.000
G3 X20.793 Y-77.628 Z-0.200 I0.199 J0.030 K0.000 F250.000
G3 X20.863 Y-77.487 Z-0.200 I-0.102 J0.139 K0.000 F250.000
G3 X20.840 Y-75.591 Z-0.200 I-14.888 J0.767 K0.000 F250.000
G3 X20.676 Y-75.159 Z-0.200 I-0.643 J0.003 K0.000 F250.000
G3 X19.687 Y-75.161 Z-0.200 I-0.494 J-0.628 K0.000 F250.000
G2 X19.385 Y-75.426 Z-0.200 I-0.557 J0.330 K0.000 F250.000
G2 X19.171 Y-75.346 Z-0.200 I-0.050 J0.193 K0.000 F250.000
G3 X18.317 Y-75.071 Z-0.200 I-0.539 J-0.212 K0.000 F250.000
G3 X18.045 Y-75.303 Z-0.200 I0.434 J-0.784 K0.000 F250.000
G2 X18.875 Y-75.637 Z-0.200 I0.311 J-0.425 K0.000 F250.000
G2 X18.917 Y-77.341 Z-0.200 I-11.432 J-1.139 K0.000 F250.000
G0 Z0.500
G0 X18.997 Y-77.345 Z0.500
G0 X18.997 Y-77.345 Z0.300
G1 X18.997 Y-77.345 Z-0.200 F150.000
G2 X18.989 Y-77.484 Z-0.200 I-11.546 J0.572 K0.000 F250.000
G3 X19.189 Y-77.543 Z-0.200 I0.112 J0.013 K0.000 F250.000
G3 X19.210 Y-77.478 Z-0.200 I-0.064 J0.057 K0.000 F250.000
G1 X19.219 Y-75.727 Z-0.200 F250.000
G2 X19.306 Y-75.494 Z-0.200 I0.388 J-0.012 K0.000 F250.000
G2 X19.104 Y-75.389 Z-0.200 I-0.024 J0.202 K0.000 F250.000
G3 X18.390 Y-75.130 Z-0.200 I-0.464 J-0.164 K0.000 F250.000
G2 X18.954 Y-75.626 Z-0.200 I0.007 J-0.561 K0.000 F250.000
G2 X18.997 Y-77.345 Z-0.200 I-11.504 J-1.147 K0.000 F250.000
G0 Z0.500
G0 X19.072 Y-77.347 Z0.500
G0 X19.072 Y-77.347 Z0.300
G1 X19.072 Y-77.347 Z-0.200 F150.000
G2 X19.069 Y-77.477 Z-0.200 I-25.121 J0.577 K0.000 F250.000
G3 X19.127 Y-77.488 Z-0.200 I0.040 J0.055 K0.000 F250.000
G1 X19.130 Y-77.471 Z-0.200 F250.000
G1 X19.130 Y-75.795 Z-0.200 F250.000
G2 X19.182 Y-75.558 Z-0.200 I1.301 J-0.162 K0.000 F250.000
G2 X18.865 Y-75.200 Z-0.200 I0.623 J0.872 K0.000 F250.000
G3 X18.754 Y-75.163 Z-0.200 I-0.122 J-0.176 K0.000 F250.000
G2 X19.062 Y-75.837 Z-0.200 I-0.416 J-0.597 K0.000 F250.000
G2 X19.072 Y-77.347 Z-0.200 I-25.110 J-0.933 K0.000 F250.000
G0 Z0.500
G0 X20.574 Y-77.407 Z0.500
G0 X20.574 Y-77.407 Z0.300
G1 X20.574 Y-77.407 Z-0.200 F150.000
G2 X20.569 Y-77.526 Z-0.200 I-13.734 J0.554 K0.000 F250.000
G3 X20.751 Y-77.558 Z-0.200 I0.114 J0.112 K0.000 F250.000
G3 X20.783 Y-77.479 Z-0.200 I-0.076 J0.076 K0.000 F250.000
G3 X20.761 Y-75.604 Z-0.200 I-14.728 J0.761 K0.000 F250.000
G3 X20.621 Y-75.218 Z-0.200 I-0.757 J-0.057 K0.000 F250.000
G3 X19.904 Y-75.128 Z-0.200 I-0.432 J-0.549 K0.000 F250.000
G2 X20.530 Y-75.627 Z-0.200 I0.068 J-0.557 K0.000 F250.000
G2 X20.574 Y-77.407 Z-0.200 I-13.691 J-1.226 K0.000 F250.000
G0 Z0.500
G0 X20.644 Y-77.409 Z0.500
G0 X20.644 Y-77.409 Z0.300
G1 X20.644 Y-77.409 Z-0.200 F150.000
G2 X20.642 Y-77.479 Z-0.200 I-27.551 J0.638 K0.000 F250.000
G3 X20.703 Y-77.471 Z-0.200 I0.029 J0.018 K0.000 F250.000
G3 X20.681 Y-75.616 Z-0.200 I-14.567 J0.756 K0.000 F250.000
G3 X20.560 Y-75.272 Z-0.200 I-0.673 J-0.045 K0.000 F250.000
G3 X20.353 Y-75.170 Z-0.200 I-0.246 J-0.237 K0.000 F250.000
G2 X20.636 Y-75.837 Z-0.200 I-0.507 J-0.608 K0.000 F250.000
G2 X20.644 Y-77.409 Z-0.200 I-27.543 J-0.934 K0.000 F250.000
G0 Z0.500
G0 X19.093 Y-75.693 Z0.500
G0 X19.093 Y-75.693 Z0.300
G1 X19.093 Y-75.693 Z-0.200 F150.000
G3 X19.050 Y-75.509 Z-0.200 I-0.068 J0.081 K0.000 F250.000
G2 X19.093 Y-75.693 Z-0.200 I-0.454 J-0.205 K0.000 F250.000
G0 Z0.500
G0 X17.583 Y-75.496 Z0.500
G0 X17.583 Y-75.496 Z0.300
G1 X17.583 Y-75.496 Z-0.200 F150.000
G2 X17.523 Y-75.402 Z-0.200 I0.176 J0.177 K0.000 F250.000
G1 X17.523 Y-75.662 Z-0.200 F250.000
G2 X17.583 Y-75.496 Z-0.200 I0.419 J-0.057 K0.000 F250.000
G0 Z0.500
G0 Z0.500
G0 X17.583 Y-75.496
G0 X21.901
G0 X21.901 Z0.300
G1 X21.901 Y-75.496 Z-0.200 F150.000
G1 X21.901 Y-78.750 Z-0.200 F250.000
G3 X22.390 Y-78.916 Z-0.200 I0.285 J0.037 K0.000 F250.000
G3 X22.460 Y-78.750 Z-0.200 I-0.157 J0.163 K0.000 F250.000
G1 X22.460 Y-77.527 Z-0.200 F250.000
G2 X22.638 Y-77.448 Z-0.200 I0.108 J-0.004 K0.000 F250.000
G3 X24.420 Y-76.996 Z-0.200 I0.773 J0.689 K0.000 F250.000
G3 X24.215 Y-75.277 Z-0.200 I-1.940 J0.641 K0.000 F250.000
G3 X22.610 Y-75.309 Z-0.200 I-0.789 J-0.662 K0.000 F250.000
G2 X22.432 Y-75.203 Z-0.200 I-0.071 J0.084 K0.000 F250.000
G3 X21.901 Y-75.199 Z-0.200 I-0.265 J-0.027 K0.000 F250.000
G1 X21.901 Y-75.496 Z-0.200 F250.000
G0 Z0.500
G0 X21.981 Z0.500
G0 X21.981 Z0.300
G1 X21.981 Y-75.496 Z-0.200 F150.000
G1 X21.981 Y-78.743 Z-0.200 F250.000
G3 X22.332 Y-78.858 Z-0.200 I0.204 J0.031 K0.000 F250.000
G3 X22.380 Y-78.743 Z-0.200 I-0.110 J0.113 K0.000 F250.000
G1 X22.380 Y-77.527 Z-0.200 F250.000
G2 X22.687 Y-77.385 Z-0.200 I0.188 J-0.002 K0.000 F250.000
G3 X24.343 Y-76.972 Z-0.200 I0.723 J0.628 K0.000 F250.000
G3 X24.153 Y-75.328 Z-0.200 I-1.866 J0.617 K0.000 F250.000
G3 X22.656 Y-75.375 Z-0.200 I-0.730 J-0.616 K0.000 F250.000
G2 X22.352 Y-75.213 Z-0.200 I-0.116 J0.148 K0.000 F250.000
G3 X21.981 Y-75.206 Z-0.200 I-0.185 J-0.017 K0.000 F250.000
G1 X21.981 Y-75.496 Z-0.200 F250.000
G0 Z0.500
G0 X22.061 Z0.500
G0 X22.061 Z0.300
G1 X22.061 Y-75.496 Z-0.200 F150.000
G1 X22.061 Y-78.737 Z-0.200 F250.000
G3 X22.274 Y-78.801 Z-0.200 I0.124 J0.025 K0.000 F250.000
G3 X22.300 Y-78.736 Z-0.200 I-0.063 J0.063 K0.000 F250.000
G1 X22.300 Y-77.527 Z-0.200 F250.000
G2 X22.519 Y-77.269 Z-0.200 I0.263 J-0.001 K0.000 F250.000
G2 X22.294 Y-76.735 Z-0.200 I0.517 J0.532 K0.000 F250.000
G2 X22.311 Y-75.806 Z-0.200 I3.891 J0.394 K0.000 F250.000
G2 X22.465 Y-75.482 Z-0.200 I0.814 J-0.188 K0.000 F250.000
G2 X22.281 Y-75.255 Z-0.200 I0.057 J0.234 K0.000 F250.000
G3 X22.231 Y-75.140 Z-0.200 I-0.378 J-0.097 K0.000 F250.000
G3 X22.061 Y-75.214 Z-0.200 I-0.066 J-0.080 K0.000 F250.000
G1 X22.061 Y-75.496 Z-0.200 F250.000
G0 Z0.500
G0 X22.141 Z0.500
G0 X22.141 Z0.300
G1 X22.141 Y-75.496 Z-0.200 F150.000
G1 X22.141 Y-78.730 Z-0.200 F250.000
G3 X22.217 Y-78.741 Z-0.200 I0.042 J0.021 K0.000 F250.000
G1 X22.220 Y-78.729 Z-0.200 F250.000
G1 X22.220 Y-77.527 Z-0.200 F250.000
G2 X22.394 Y-77.240 Z-0.200 I0.283 J0.025 K0.000 F250.000
G2 X22.214 Y-76.735 Z-0.200 I0.603 J0.499 K0.000 F250.000
G2 X22.231 Y-75.796 Z-0.200 I3.955 J0.396 K0.000 F250.000
G2 X22.353 Y-75.503 Z-0.200 I0.772 J-0.150 K0.000 F250.000
G2 X22.186 Y-75.212 Z-0.200 I0.170 J0.291 K0.000 F250.000
G3 X22.141 Y-75.221 Z-0.200 I-0.022 J-0.007 K0.000 F250.000
G1 X22.141 Y-75.496 Z-0.200 F250.000
G0 Z0.500
G0 X22.221 Y-75.514 Z0.500
G0 X22.221 Y-75.514 Z0.300
G1 X22.221 Y-75.514 Z-0.200 F150.000
G1 X22.221 Y-75.589 Z-0.200 F250.000
G3 X22.221 Y-75.514 Z-0.200 I-0.036 J0.038 K0.000 F250.000
G0 Z0.500
G0 X22.459 Y-75.638 Z0.500
G0 X22.459 Y-75.638 Z0.300
G1 X22.459 Y-75.638 Z-0.200 F150.000
G3 X22.390 Y-75.815 Z-0.200 I0.728 J-0.382 K0.000 F250.000
G3 X22.374 Y-76.735 Z-0.200 I3.811 J-0.528 K0.000 F250.000
G3 X22.888 Y-77.433 Z-0.200 I0.758 J0.019 K0.000 F250.000
G3 X23.815 Y-77.200 Z-0.200 I0.313 J0.712 K0.000 F250.000
G3 X23.947 Y-75.709 Z-0.200 I-1.627 J0.896 K0.000 F250.000
G3 X22.459 Y-75.638 Z-0.200 I-0.761 J-0.311 K0.000 F250.000
G0 Z0.500
G0 X22.534 Y-75.677 Z0.500
G0 X22.534 Y-75.677 Z0.300
G1 X22.534 Y-75.677 Z-0.200 F150.000
G3 X22.455 Y-75.948 Z-0.200 I0.655 J-0.339 K0.000 F250.000
G1 X22.454 Y-76.735 Z-0.200 F250.000
G3 X22.669 Y-77.202 Z-0.200 I0.623 J0.004 K0.000 F250.000
G3 X23.759 Y-77.143 Z-0.200 I0.519 J0.501 K0.000 F250.000
G3 X23.871 Y-75.734 Z-0.200 I-1.588 J0.835 K0.000 F250.000
G3 X22.534 Y-75.677 Z-0.200 I-0.682 J-0.282 K0.000 F250.000
G0 Z0.500
G0 X23.073 Y-75.141 Z0.500
G0 X23.073 Y-75.141 Z0.300
G1 X23.073 Y-75.141 Z-0.200 F150.000
G2 X24.070 Y-75.837 Z-0.200 I0.170 J-0.819 K0.000 F250.000
G2 X23.994 Y-77.059 Z-0.200 I-2.105 J-0.483 K0.000 F250.000
G2 X23.092 Y-77.561 Z-0.200 I-0.764 J0.310 K0.000 F250.000
G3 X23.745 Y-77.568 Z-0.200 I0.336 J0.841 K0.000 F250.000
G3 X24.333 Y-76.649 Z-0.200 I-0.483 J0.956 K0.000 F250.000
G3 X24.186 Y-75.525 Z-0.200 I-1.987 J0.312 K0.000 F250.000
G3 X23.073 Y-75.141 Z-0.200 I-0.758 J-0.393 K0.000 F250.000
G0 Z0.500
G0 X23.794 Y-75.232 Z0.500
G0 X23.794 Y-75.232 Z0.300
G1 X23.794 Y-75.232 Z-0.200 F150.000
G2 X24.199 Y-76.157 Z-0.200 I-0.829 J-0.913 K0.000 F250.000
G2 X24.064 Y-77.098 Z-0.200 I-1.772 J-0.226 K0.000 F250.000
G2 X23.792 Y-77.446 Z-0.200 I-0.877 J0.403 K0.000 F250.000
G3 X24.253 Y-76.637 Z-0.200 I-0.515 J0.829 K0.000 F250.000
G3 X24.115 Y-75.563 Z-0.200 I-1.910 J0.301 K0.000 F250.000
G3 X23.794 Y-75.232 Z-0.200 I-0.620 J-0.280 K0.000 F250.000
G0 Z0.500
G0 X22.242 Y-77.135 Z0.500
G0 X22.242 Y-77.135 Z0.300
G1 X22.242 Y-77.135 Z-0.200 F150.000
G3 X22.221 Y-77.122 Z-0.200 I-0.059 J-0.073 K0.000 F250.000
G1 X22.221 Y-77.294 Z-0.200 F250.000
G3 X22.242 Y-77.135 Z-0.200 I-0.039 J0.086 K0.000 F250.000
G0 Z0.500
G0 Z0.500
G0 X22.242 Y-77.135
G0 X32.200 Y-73.719
G0 X32.200 Y-73.719 Z0.300
G1 X32.200 Y-73.719 Z-0.200 F150.000
G2 X32.188 Y-73.650 Z-0.200 I0.212 J0.073 K0.000 F250.000
G2 X32.104 Y-68.202 Z-0.200 I924226.128 J14130.975 K0.000 F250.000
G2 X32.440 Y-68.002 Z-0.200 I0.223 J0.007 K0.000 F250.000
G3 X37.191 Y-70.649 Z-0.200 I3752.114 J6728.333 K0.000 F250.000
G2 X37.197 Y-71.046 Z-0.200 I-0.105 J-0.200 K0.000 F250.000
G3 X32.530 Y-73.837 Z-0.200 I4740.305 J-7931.982 K0.000 F250.000
G2 X32.200 Y-73.719 Z-0.200 I-0.118 J0.190 K0.000 F250.000
G0 Z0.500
G0 X32.276 Y-73.692 Z0.500
G0 X32.276 Y-73.692 Z0.300
G1 X32.276 Y-73.692 Z-0.200 F150.000
G2 X32.268 Y-73.646 Z-0.200 I0.138 J0.049 K0.000 F250.000
G2 X32.185 Y-68.206 Z-0.200 I937975.659 J14341.157 K0.000 F250.000
G2 X32.407 Y-68.075 Z-0.200 I0.145 J0.009 K0.000 F250.000
G3 X37.142 Y-70.714 Z-0.200 I3740.625 J6707.727 K0.000 F250.000
G2 X37.147 Y-70.983 Z-0.200 I-0.063 J-0.136 K0.000 F250.000
G3 X32.494 Y-73.765 Z-0.200 I4725.314 J-7906.897 K0.000 F250.000
G2 X32.276 Y-73.692 Z-0.200 I-0.080 J0.122 K0.000 F250.000
G0 Z0.500
G0 X32.352 Y-73.664 Z0.500
G0 X32.352 Y-73.664 Z0.300
G1 X32.352 Y-73.664 Z-0.200 F150.000
G2 X32.348 Y-73.641 Z-0.200 I0.064 J0.024 K0.000 F250.000
G2 X32.265 Y-68.210 Z-0.200 I937352.457 J14331.624 K0.000 F250.000
G2 X32.373 Y-68.148 Z-0.200 I0.067 J0.008 K0.000 F250.000
G3 X37.094 Y-70.778 Z-0.200 I3729.059 J6686.985 K0.000 F250.000
G2 X37.096 Y-70.920 Z-0.200 I-0.022 J-0.071 K0.000 F250.000
G3 X32.458 Y-73.693 Z-0.200 I4711.341 J-7883.513 K0.000 F250.000
G2 X32.352 Y-73.664 Z-0.200 I-0.042 J0.054 K0.000 F250.000
G0 Z0.500
G0 X32.427 Y-73.619 Z0.500
G0 X32.427 Y-73.619 Z0.300
G1 X32.427 Y-73.619 Z-0.200 F150.000
G1 X32.753 Y-73.424 Z-0.200 F250.000
G2 X32.421 Y-73.203 Z-0.200 I-0.041 J0.297 K0.000 F250.000
G1 X32.427 Y-73.619 Z-0.200 F250.000
G0 Z0.500
G0 X32.505 Y-73.479 Z0.500
G0 X32.505 Y-73.479 Z0.300
G1 X32.505 Y-73.479 Z-0.200 F150.000
G1 X32.541 Y-73.457 Z-0.200 F250.000
G1 X32.504 Y-73.437 Z-0.200 F250.000
G1 X32.505 Y-73.479 Z-0.200 F250.000
G0 Z0.500
G0 X32.596 Y-73.315 Z0.500
G0 X32.596 Y-73.315 Z0.300
G1 X32.596 Y-73.315 Z-0.200 F150.000
G3 X32.856 Y-73.311 Z-0.200 I0.126 J0.227 K0.000 F250.000
G2 X36.584 Y-71.082 Z-0.200 I2706.409 J-4523.334 K0.000 F250.000
G3 X36.578 Y-70.632 Z-0.200 I-0.133 J0.223 K0.000 F250.000
G2 X32.783 Y-68.517 Z-0.200 I3232.730 J5805.839 K0.000 F250.000
G3 X32.396 Y-68.748 Z-0.200 I-0.127 J-0.227 K0.000 F250.000
G3 X32.462 Y-73.092 Z-0.200 I8502.764 J127.478 K0.000 F250.000
G3 X32.596 Y-73.315 Z-0.200 I0.260 J0.004 K0.000 F250.000
G0 Z0.500
G0 X32.635 Y-73.245 Z0.500
G0 X32.635 Y-73.245 Z0.300
G1 X32.635 Y-73.245 Z-0.200 F150.000
G3 X32.815 Y-73.242 Z-0.200 I0.087 J0.157 K0.000 F250.000
G2 X36.543 Y-71.014 Z-0.200 I2706.648 J-4523.735 K0.000 F250.000
G3 X36.539 Y-70.702 Z-0.200 I-0.092 J0.155 K0.000 F250.000
G2 X32.744 Y-68.587 Z-0.200 I3232.724 J5805.828 K0.000 F250.000
G3 X32.476 Y-68.747 Z-0.200 I-0.088 J-0.157 K0.000 F250.000
G3 X32.542 Y-73.091 Z-0.200 I8502.515 J127.474 K0.000 F250.000
G3 X32.635 Y-73.245 Z-0.200 I0.180 J0.003 K0.000 F250.000
G0 Z0.500
G0 X32.674 Y-73.175 Z0.500
G0 X32.674 Y-73.175 Z0.300
G1 X32.674 Y-73.175 Z-0.200 F150.000
G3 X32.774 Y-73.174 Z-0.200 I0.049 J0.087 K0.000 F250.000
G2 X36.502 Y-70.945 Z-0.200 I2706.578 J-4523.616 K0.000 F250.000
G3 X36.500 Y-70.772 Z-0.200 I-0.051 J0.086 K0.000 F250.000
G2 X32.705 Y-68.657 Z-0.200 I3232.671 J5805.733 K0.000 F250.000
G3 X32.556 Y-68.746 Z-0.200 I-0.049 J-0.087 K0.000 F250.000
G3 X32.622 Y-73.089 Z-0.200 I8502.242 J127.470 K0.000 F250.000
G3 X32.674 Y-73.175 Z-0.200 I0.100 J0.002 K0.000 F250.000
G0 Z0.500
G0 X36.702 Y-71.062 Z0.500
G0 X36.702 Y-71.062 Z0.300
G1 X36.702 Y-71.062 Z-0.200 F150.000
G1 X37.046 Y-70.856 Z-0.200 F250.000
G3 X37.046 Y-70.843 Z-0.200 I-0.000 J0.007 K0.000 F250.000
G1 X36.728 Y-70.666 Z-0.200 F250.000
G2 X36.702 Y-71.062 Z-0.200 I-0.238 J-0.183 K0.000 F250.000
G0 Z0.500
G0 X36.862 Y-70.873 Z0.500
G0 X36.862 Y-70.873 Z0.300
G1 X36.862 Y-70.873 Z-0.200 F150.000
G1 X36.898 Y-70.852 Z-0.200 F250.000
G1 X36.861 Y-70.832 Z-0.200 F250.000
G1 X36.862 Y-70.873 Z-0.200 F250.000
G0 Z0.500
G0 X32.708 Y-68.426 Z0.500
G0 X32.708 Y-68.426 Z0.300
G1 X32.708 Y-68.426 Z-0.200 F150.000
G1 X32.345 Y-68.224 Z-0.200 F250.000
G1 X32.351 Y-68.601 Z-0.200 F250.000
G2 X32.708 Y-68.426 Z-0.200 I0.278 J-0.115 K0.000 F250.000
G0 Z0.500
G0 X32.463 Y-68.381 Z0.500
G0 X32.463 Y-68.381 Z0.300
G1 X32.463 Y-68.381 Z-0.200 F150.000
G1 X32.427 Y-68.361 Z-0.200 F250.000
G1 X32.428 Y-68.403 Z-0.200 F250.000
G1 X32.463 Y-68.381 Z-0.200 F250.000
G0 Z0.500
G0 Z0.500
G0 X32.463 Y-68.381
G0 X38.229
G0 X38.229 Z0.300
G1 X38.229 Y-68.381 Z-0.200 F150.000
G1 X38.229 Y-77.614 Z-0.200 F250.000
G3 X38.657 Y-77.779 Z-0.200 I0.257 J0.028 K0.000 F250.000
G3 X38.726 Y-77.614 Z-0.200 I-0.165 J0.166 K0.000 F250.000
G1 X38.726 Y-64.234 Z-0.200 F250.000
G3 X38.229 Y-64.230 Z-0.200 I-0.249 J-0.015 K0.000 F250.000
G1 X38.229 Y-68.381 Z-0.200 F250.000
G0 Z0.500
G0 X38.309 Z0.500
G0 X38.309 Z0.300
G1 X38.309 Y-68.381 Z-0.200 F150.000
G1 X38.309 Y-77.608 Z-0.200 F250.000
G3 X38.597 Y-77.724 Z-0.200 I0.176 J0.021 K0.000 F250.000
G3 X38.646 Y-77.608 Z-0.200 I-0.116 J0.117 K0.000 F250.000
G1 X38.646 Y-64.243 Z-0.200 F250.000
G3 X38.309 Y-64.236 Z-0.200 I-0.169 J-0.006 K0.000 F250.000
G1 X38.309 Y-68.381 Z-0.200 F250.000
G0 Z0.500
G0 X38.389 Z0.500
G0 X38.389 Z0.300
G1 X38.389 Y-68.381 Z-0.200 F150.000
G1 X38.389 Y-77.602 Z-0.200 F250.000
G3 X38.561 Y-77.629 Z-0.200 I0.090 J0.008 K0.000 F250.000
G1 X38.566 Y-77.601 Z-0.200 F250.000
G1 X38.566 Y-64.253 Z-0.200 F250.000
G3 X38.389 Y-64.242 Z-0.200 I-0.089 J0.004 K0.000 F250.000
G1 X38.389 Y-68.381 Z-0.200 F250.000
G0 Z0.500
G0 X38.469 Z0.500
G0 X38.469 Z0.300
G1 X38.469 Y-68.381 Z-0.200 F150.000
G1 X38.469 Y-77.595 Z-0.200 F250.000
G3 X38.470 Y-77.602 Z-0.200 I0.004 J-0.002 K0.000 F250.000
G3 X38.486 Y-77.595 Z-0.200 I0.006 J0.006 K0.000 F250.000
G1 X38.486 Y-64.262 Z-0.200 F250.000
G3 X38.486 Y-64.245 Z-0.200 I-0.008 J0.008 K0.000 F250.000
G3 X38.469 Y-64.245 Z-0.200 I-0.008 J-0.008 K0.000 F250.000
G1 X38.469 Y-64.248 Z-0.200 F250.000
G1 X38.469 Y-68.381 Z-0.200 F250.000
G0 Z0.500
G0 Z0.500
G0 X38.469 Y-68.381
G0 X42.456 Y-72.127
G0 X42.456 Y-72.127 Z0.300
G1 X42.456 Y-72.127 Z-0.200 F150.000
G3 X43.661 Y-76.179 Z-0.200 I1.783 J-1.675 K0.000 F250.000
G3 X46.721 Y-73.586 Z-0.200 I0.598 J2.395 K0.000 F250.000
G3 X46.729 Y-68.428 Z-0.200 I-1244.495 J4.656 K0.000 F250.000
G2 X46.829 Y-68.328 Z-0.200 I0.100 J0.000 K0.000 F250.000
G3 X49.462 Y-68.326 Z-0.200 I1.096 J353.873 K0.000 F250.000
G3 X50.888 Y-67.750 Z-0.200 I0.242 J1.454 K0.000 F250.000
G3 X51.142 Y-66.442 Z-0.200 I-1.732 J1.016 K0.000 F250.000
G3 X51.094 Y-65.696 Z-0.200 I-1.875 J0.254 K0.000 F250.000
G3 X50.935 Y-65.595 Z-0.200 I-0.204 J-0.147 K0.000 F250.000
G3 X47.392 Y-65.605 Z-0.200 I-1.551 J-77.754 K0.000 F250.000
G3 X46.210 Y-67.034 Z-0.200 I0.182 J-1.354 K0.000 F250.000
G3 X46.201 Y-72.107 Z-0.200 I1994.874 J-6.034 K0.000 F250.000
G2 X46.034 Y-72.181 Z-0.200 I-0.100 J0.000 K0.000 F250.000
G3 X44.709 Y-71.401 Z-0.200 I-1.825 J-1.587 K0.000 F250.000
G3 X42.456 Y-72.127 Z-0.200 I-0.470 J-2.401 K0.000 F250.000
G0 Z0.500
G0 X42.515 Y-72.182 Z0.500
G0 X42.515 Y-72.182 Z0.300
G1 X42.515 Y-72.182 Z-0.200 F150.000
G3 X43.682 Y-76.102 Z-0.200 I1.725 J-1.620 K0.000 F250.000
G3 X46.641 Y-73.585 Z-0.200 I0.578 J2.318 K0.000 F250.000
G3 X46.649 Y-68.428 Z-0.200 I-1245.057 J4.655 K0.000 F250.000
G2 X46.829 Y-68.248 Z-0.200 I0.180 J0.000 K0.000 F250.000
G3 X49.461 Y-68.246 Z-0.200 I1.096 J353.822 K0.000 F250.000
G3 X50.626 Y-67.922 Z-0.200 I0.230 J1.426 K0.000 F250.000
G3 X51.062 Y-66.660 Z-0.200 I-1.009 J1.055 K0.000 F250.000
G3 X51.043 Y-65.774 Z-0.200 I-7.055 J0.293 K0.000 F250.000
G3 X50.929 Y-65.675 Z-0.200 I-0.177 J-0.088 K0.000 F250.000
G3 X47.394 Y-65.686 Z-0.200 I-1.580 J-60.162 K0.000 F250.000
G3 X46.290 Y-67.035 Z-0.200 I0.180 J-1.274 K0.000 F250.000
G3 X46.281 Y-72.107 Z-0.200 I1996.092 J-6.035 K0.000 F250.000
G2 X45.980 Y-72.240 Z-0.200 I-0.180 J0.001 K0.000 F250.000
G3 X44.695 Y-71.480 Z-0.200 I-1.776 J-1.537 K0.000 F250.000
G3 X42.515 Y-72.182 Z-0.200 I-0.455 J-2.322 K0.000 F250.000
G0 Z0.500
G0 X42.573 Y-72.237 Z0.500
G0 X42.573 Y-72.237 Z0.300
G1 X42.573 Y-72.237 Z-0.200 F150.000
G3 X43.703 Y-76.024 Z-0.200 I1.666 J-1.565 K0.000 F250.000
G3 X46.561 Y-73.584 Z-0.200 I0.557 J2.241 K0.000 F250.000
G3 X46.569 Y-68.428 Z-0.200 I-1245.693 J4.655 K0.000 F250.000
G2 X46.829 Y-68.168 Z-0.200 I0.260 J0.000 K0.000 F250.000
G3 X49.461 Y-68.166 Z-0.200 I1.096 J353.873 K0.000 F250.000
G3 X50.572 Y-67.862 Z-0.200 I0.228 J1.349 K0.000 F250.000
G3 X50.982 Y-66.660 Z-0.200 I-0.958 J0.998 K0.000 F250.000
G3 X50.962 Y-65.789 Z-0.200 I-3.293 J0.358 K0.000 F250.000
G3 X50.915 Y-65.755 Z-0.200 I-0.126 J-0.123 K0.000 F250.000
G3 X47.410 Y-65.765 Z-0.200 I-1.325 J-158.707 K0.000 F250.000
G3 X46.370 Y-67.036 Z-0.200 I0.165 J-1.196 K0.000 F250.000
G3 X46.361 Y-72.107 Z-0.200 I1997.216 J-6.035 K0.000 F250.000
G2 X45.926 Y-72.299 Z-0.200 I-0.260 J0.001 K0.000 F250.000
G3 X44.680 Y-71.559 Z-0.200 I-1.726 J-1.488 K0.000 F250.000
G3 X42.573 Y-72.237 Z-0.200 I-0.441 J-2.243 K0.000 F250.000
G0 Z0.500
G0 X42.636 Y-72.297 Z0.500
G0 X42.636 Y-72.297 Z0.300
G1 X42.636 Y-72.297 Z-0.200 F150.000
G3 X43.098 Y-75.688 Z-0.200 I1.588 J-1.511 K0.000 F250.000
G3 X46.481 Y-73.583 Z-0.200 I1.159 J1.908 K0.000 F250.000
G3 X46.486 Y-71.818 Z-0.200 I-524.739 J2.522 K0.000 F250.000
G3 X46.489 Y-68.428 Z-0.200 I-1256.524 J2.835 K0.000 F250.000
G2 X46.829 Y-68.088 Z-0.200 I0.340 J0.000 K0.000 F250.000
G3 X49.460 Y-68.086 Z-0.200 I1.096 J353.895 K0.000 F250.000
G3 X50.518 Y-67.803 Z-0.200 I0.226 J1.272 K0.000 F250.000
G3 X50.902 Y-66.660 Z-0.200 I-0.908 J0.941 K0.000 F250.000
G3 X50.892 Y-65.835 Z-0.200 I-9.750 J0.293 K0.000 F250.000
G3 X47.421 Y-65.844 Z-0.200 I-1.505 J-89.412 K0.000 F250.000
G3 X46.450 Y-67.037 Z-0.200 I0.155 J-1.118 K0.000 F250.000
G3 X46.441 Y-72.108 Z-0.200 I1998.393 J-6.036 K0.000 F250.000
G2 X45.889 Y-72.368 Z-0.200 I-0.337 J-0.002 K0.000 F250.000
G2 X42.799 Y-75.423 Z-0.200 I-1.638 J-1.433 K0.000 F250.000
G2 X45.293 Y-71.893 Z-0.200 I1.464 J1.612 K0.000 F250.000
G3 X42.636 Y-72.297 Z-0.200 I-1.068 J-1.914 K0.000 F250.000
G0 Z0.500
G0 X42.718 Y-72.374 Z0.500
G0 X42.718 Y-72.374 Z0.300
G1 X42.718 Y-72.374 Z-0.200 F150.000
G3 X44.059 Y-75.889 Z-0.200 I1.523 J-1.432 K0.000 F250.000
G1 X44.121 Y-75.892 Z-0.200 F250.000
G3 X44.429 Y-71.725 Z-0.200 I0.149 J2.084 K0.000 F250.000
G3 X42.718 Y-72.374 Z-0.200 I-0.188 J-2.082 K0.000 F250.000
G0 Z0.500
G0 X42.777 Y-72.429 Z0.500
G0 X42.777 Y-72.429 Z0.300
G1 X42.777 Y-72.429 Z-0.200 F150.000
G3 X44.065 Y-75.810 Z-0.200 I1.464 J-1.378 K0.000 F250.000
G1 X44.124 Y-75.812 Z-0.200 F250.000
G3 X44.425 Y-71.804 Z-0.200 I0.146 J2.004 K0.000 F250.000
G3 X42.777 Y-72.429 Z-0.200 I-0.184 J-2.002 K0.000 F250.000
G0 Z0.500
G0 X42.835 Y-72.484 Z0.500
G0 X42.835 Y-72.484 Z0.300
G1 X42.835 Y-72.484 Z-0.200 F150.000
G3 X44.072 Y-75.730 Z-0.200 I1.406 J-1.323 K0.000 F250.000
G1 X44.127 Y-75.732 Z-0.200 F250.000
G3 X44.420 Y-71.884 Z-0.200 I0.147 J1.924 K0.000 F250.000
G3 X42.835 Y-72.484 Z-0.200 I-0.179 J-1.922 K0.000 F250.000
G0 Z0.500
G0 X46.111 Y-72.518 Z0.500
G0 X46.111 Y-72.518 Z0.300
G1 X46.111 Y-72.518 Z-0.200 F150.000
G2 X46.403 Y-73.096 Z-0.200 I-1.303 J-1.020 K0.000 F250.000
G1 X46.405 Y-72.387 Z-0.200 F250.000
G2 X46.111 Y-72.518 Z-0.200 I-0.268 J0.205 K0.000 F250.000
G0 Z0.500
G0 X46.247 Y-72.578 Z0.500
G0 X46.247 Y-72.578 Z0.300
G1 X46.247 Y-72.578 Z-0.200 F150.000
G1 X46.324 Y-72.725 Z-0.200 F250.000
G1 X46.324 Y-72.547 Z-0.200 F250.000
G2 X46.247 Y-72.578 Z-0.200 I-0.076 J0.078 K0.000 F250.000
G0 Z0.500
G0 X46.523 Y-68.150 Z0.500
G0 X46.523 Y-68.150 Z0.300
G1 X46.523 Y-68.150 Z-0.200 F150.000
G2 X46.620 Y-68.074 Z-0.200 I0.134 J-0.071 K0.000 F250.000
G1 X46.524 Y-68.004 Z-0.200 F250.000
G1 X46.523 Y-68.150 Z-0.200 F250.000
G0 Z0.500
G0 X46.633 Y-67.996 Z0.500
G0 X46.633 Y-67.996 Z0.300
G1 X46.633 Y-67.996 Z-0.200 F150.000
G3 X46.830 Y-68.058 Z-0.200 I0.197 J0.277 K0.000 F250.000
G3 X49.893 Y-68.051 Z-0.200 I-5.802 J3076.521 K0.000 F250.000
G3 X50.810 Y-67.310 Z-0.200 I-0.144 J1.116 K0.000 F250.000
G3 X50.870 Y-66.208 Z-0.200 I-3.939 J0.766 K0.000 F250.000
G3 X50.529 Y-65.865 Z-0.200 I-0.340 J0.003 K0.000 F250.000
G2 X47.443 Y-65.871 Z-0.200 I-15.522 J6894.785 K0.000 F250.000
G3 X46.546 Y-66.602 Z-0.200 I0.172 J-1.127 K0.000 F250.000
G3 X46.489 Y-67.718 Z-0.200 I3.343 J-0.728 K0.000 F250.000
G3 X46.633 Y-67.996 Z-0.200 I0.340 J0.000 K0.000 F250.000
G0 Z0.500
G0 X46.679 Y-67.930 Z0.500
G0 X46.679 Y-67.930 Z0.300
G1 X46.679 Y-67.930 Z-0.200 F150.000
G3 X46.830 Y-67.978 Z-0.200 I0.150 J0.212 K0.000 F250.000
G3 X49.893 Y-67.971 Z-0.200 I-5.801 J3076.464 K0.000 F250.000
G3 X50.736 Y-67.279 Z-0.200 I-0.145 J1.037 K0.000 F250.000
G3 X50.790 Y-66.207 Z-0.200 I-4.039 J0.738 K0.000 F250.000
G3 X50.529 Y-65.945 Z-0.200 I-0.260 J0.002 K0.000 F250.000
G2 X47.443 Y-65.951 Z-0.200 I-15.521 J6894.280 K0.000 F250.000
G3 X46.620 Y-66.633 Z-0.200 I0.173 J-1.047 K0.000 F250.000
G3 X46.569 Y-67.718 Z-0.200 I3.373 J-0.701 K0.000 F250.000
G3 X46.679 Y-67.930 Z-0.200 I0.260 J0.000 K0.000 F250.000
G0 Z0.500
G0 X46.725 Y-67.865 Z0.500
G0 X46.725 Y-67.865 Z0.300
G1 X46.725 Y-67.865 Z-0.200 F150.000
G3 X46.830 Y-67.898 Z-0.200 I0.104 J0.147 K0.000 F250.000
G3 X49.892 Y-67.891 Z-0.200 I-5.801 J3076.408 K0.000 F250.000
G3 X50.663 Y-67.248 Z-0.200 I-0.155 J0.968 K0.000 F250.000
G3 X50.710 Y-66.206 Z-0.200 I-4.197 J0.711 K0.000 F250.000
G3 X50.529 Y-66.025 Z-0.200 I-0.180 J0.002 K0.000 F250.000
G2 X47.443 Y-66.031 Z-0.200 I-15.521 J6894.379 K0.000 F250.000
G3 X46.694 Y-66.663 Z-0.200 I0.190 J-0.986 K0.000 F250.000
G3 X46.649 Y-67.718 Z-0.200 I3.433 J-0.673 K0.000 F250.000
G3 X46.725 Y-67.865 Z-0.200 I0.180 J0.000 K0.000 F250.000
G0 Z0.500
G0 X46.771 Y-67.800 Z0.500
G0 X46.771 Y-67.800 Z0.300
G1 X46.771 Y-67.800 Z-0.200 F150.000
G3 X46.829 Y-67.818 Z-0.200 I0.058 J0.082 K0.000 F250.000
G3 X49.892 Y-67.811 Z-0.200 I-5.801 J3076.350 K0.000 F250.000
G3 X50.589 Y-67.217 Z-0.200 I-0.157 J0.890 K0.000 F250.000
G3 X50.630 Y-66.206 Z-0.200 I-4.448 J0.685 K0.000 F250.000
G3 X50.529 Y-66.105 Z-0.200 I-0.100 J0.001 K0.000 F250.000
G2 X47.443 Y-66.111 Z-0.200 I-15.522 J6894.956 K0.000 F250.000
G3 X46.768 Y-66.693 Z-0.200 I0.176 J-0.887 K0.000 F250.000
G3 X46.729 Y-67.718 Z-0.200 I3.539 J-0.646 K0.000 F250.000
G3 X46.771 Y-67.800 Z-0.200 I0.100 J0.000 K0.000 F250.000
G0 Z0.500
G0 Z0.500
G0 X46.771 Y-67.800
G0 Y-64.443
G0 Y-64.443 Z0.300
G1 X46.771 Y-64.443 Z-0.200 F150.000
G1 X40.087 Y-64.443 Z-0.200 F250.000
G3 X39.987 Y-64.543 Z-0.200 I0.000 J-0.100 K0.000 F250.000
G1 X39.987 Y-77.300 Z-0.200 F250.000
G3 X40.087 Y-77.400 Z-0.200 I0.100 J0.000 K0.000 F250.000
G1 X52.844 Y-77.400 Z-0.200 F250.000
G3 X52.944 Y-77.300 Z-0.200 I0.000 J0.100 K0.000 F250.000
G1 X52.944 Y-64.543 Z-0.200 F250.000
G3 X52.844 Y-64.443 Z-0.200 I-0.100 J0.000 K0.000 F250.000
G1 X46.771 Y-64.443 Z-0.200 F250.000
G0 Z0.500
G0 Y-64.363 Z0.500
G0 Y-64.363 Z0.300
G1 X46.771 Y-64.363 Z-0.200 F150.000
G1 X40.087 Y-64.363 Z-0.200 F250.000
G3 X39.907 Y-64.543 Z-0.200 I0.000 J-0.180 K0.000 F250.000
G1 X39.907 Y-77.300 Z-0.200 F250.000
G3 X40.087 Y-77.480 Z-0.200 I0.180 J0.000 K0.000 F250.000
G1 X52.844 Y-77.480 Z-0.200 F250.000
G3 X53.024 Y-77.300 Z-0.200 I0.000 J0.180 K0.000 F250.000
G1 X53.024 Y-64.543 Z-0.200 F250.000
G3 X52.844 Y-64.363 Z-0.200 I-0.180 J0.000 K0.000 F250.000
G1 X46.771 Y-64.363 Z-0.200 F250.000
G0 Z0.500
G0 Y-64.283 Z0.500
G0 Y-64.283 Z0.300
G1 X46.771 Y-64.283 Z-0.200 F150.000
G1 X40.087 Y-64.283 Z-0.200 F250.000
G3 X39.827 Y-64.543 Z-0.200 I0.000 J-0.260 K0.000 F250.000
G1 X39.827 Y-77.300 Z-0.200 F250.000
G3 X40.087 Y-77.560 Z-0.200 I0.260 J0.000 K0.000 F250.000
G1 X52.844 Y-77.560 Z-0.200 F250.000
G3 X53.104 Y-77.300 Z-0.200 I0.000 J0.260 K0.000 F250.000
G1 X53.104 Y-64.543 Z-0.200 F250.000
G3 X52.844 Y-64.283 Z-0.200 I-0.260 J0.000 K0.000 F250.000
G1 X46.771 Y-64.283 Z-0.200 F250.000
G0 Z0.500
G0 Y-64.160 Z0.500
G0 Y-64.160 Z0.300
G1 X46.771 Y-64.160 Z-0.200 F150.000
G1 X39.797 Y-64.160 Z-0.200 F250.000
G3 X39.704 Y-64.243 Z-0.200 I-0.011 J-0.080 K0.000 F250.000
G1 X39.704 Y-77.602 Z-0.200 F250.000
G3 X39.786 Y-77.683 Z-0.200 I0.080 J-0.002 K0.000 F250.000
G1 X53.135 Y-77.683 Z-0.200 F250.000
G3 X53.227 Y-77.602 Z-0.200 I0.011 J0.080 K0.000 F250.000
G1 X53.227 Y-64.242 Z-0.200 F250.000
G3 X53.146 Y-64.160 Z-0.200 I-0.080 J0.002 K0.000 F250.000
G1 X46.771 Y-64.160 Z-0.200 F250.000
G0 Z0.500
G0 Y-64.080 Z0.500
G0 Y-64.080 Z0.300
G1 X46.771 Y-64.080 Z-0.200 F150.000
G1 X39.787 Y-64.080 Z-0.200 F250.000
G3 X39.624 Y-64.236 Z-0.200 I-0.012 J-0.150 K0.000 F250.000
G1 X39.624 Y-77.608 Z-0.200 F250.000
G3 X39.780 Y-77.763 Z-0.200 I0.154 J-0.001 K0.000 F250.000
G1 X53.144 Y-77.763 Z-0.200 F250.000
G3 X53.307 Y-77.608 Z-0.200 I0.012 J0.150 K0.000 F250.000
G1 X53.307 Y-64.236 Z-0.200 F250.000
G3 X53.152 Y-64.080 Z-0.200 I-0.154 J0.001 K0.000 F250.000
G1 X46.771 Y-64.080 Z-0.200 F250.000
G0 Z0.500
G0 Y-64.000 Z0.500
G0 Y-64.000 Z0.300
G1 X46.771 Y-64.000 Z-0.200 F150.000
G1 X39.778 Y-64.000 Z-0.200 F250.000
G3 X39.544 Y-64.230 Z-0.200 I-0.007 J-0.226 K0.000 F250.000
G1 X39.544 Y-77.614 Z-0.200 F250.000
G3 X39.774 Y-77.843 Z-0.200 I0.229 J-0.000 K0.000 F250.000
G1 X53.154 Y-77.843 Z-0.200 F250.000
G3 X53.387 Y-77.614 Z-0.200 I0.007 J0.226 K0.000 F250.000
G1 X53.387 Y-64.230 Z-0.200 F250.000
G3 X53.158 Y-64.000 Z-0.200 I-0.229 J0.001 K0.000 F250.000
G1 X46.771 Y-64.000 Z-0.200 F250.000
G0 Z0.500
G0 X52.994 Y-64.240 Z0.500
G0 X52.994 Y-64.240 Z0.300
G1 X52.994 Y-64.240 Z-0.200 F150.000
G2 X53.147 Y-64.425 Z-0.200 I-0.069 J-0.212 K0.000 F250.000
G3 X53.146 Y-64.243 Z-0.200 I-0.586 J0.088 K0.000 F250.000
G3 X53.139 Y-64.240 Z-0.200 I-0.006 J-0.005 K0.000 F250.000
G1 X52.994 Y-64.240 Z-0.200 F250.000
G0 Z0.500
G0 X39.969 Z0.500
G0 X39.969 Z0.300
G1 X39.969 Y-64.240 Z-0.200 F150.000
G3 X39.785 Y-64.246 Z-0.200 I-0.081 J-0.389 K0.000 F250.000
G3 X39.784 Y-64.393 Z-0.200 I0.471 J-0.076 K0.000 F250.000
G2 X39.969 Y-64.240 Z-0.200 I0.212 J-0.069 K0.000 F250.000
G0 Z0.500
G0 X39.784 Y-77.419 Z0.500
G0 X39.784 Y-77.419 Z0.300
G1 X39.784 Y-77.419 Z-0.200 F150.000
G3 X39.785 Y-77.601 Z-0.200 I0.580 J-0.088 K0.000 F250.000
G3 X39.792 Y-77.603 Z-0.200 I0.006 J0.006 K0.000 F250.000
G1 X39.937 Y-77.603 Z-0.200 F250.000
G2 X39.784 Y-77.419 Z-0.200 I0.069 J0.212 K0.000 F250.000
G0 Z0.500
G0 X52.963 Y-77.603 Z0.500
G0 X52.963 Y-77.603 Z0.300
G1 X52.963 Y-77.603 Z-0.200 F150.000
G3 X53.147 Y-77.598 Z-0.200 I0.081 J0.386 K0.000 F250.000
G1 X53.147 Y-77.595 Z-0.200 F250.000
G1 X53.147 Y-77.450 Z-0.200 F250.000
G2 X52.963 Y-77.603 Z-0.200 I-0.212 J0.069 K0.000 F250.000
G0 Z0.500
G0 Z0.500
G0 X52.963 Y-77.603
G0 X54.206
G0 X54.206 Z0.300
G1 X54.206 Y-77.603 Z-0.200 F150.000
G1 X54.206 Y-77.614 Z-0.200 F250.000
G3 X54.636 Y-77.777 Z-0.200 I0.256 J0.027 K0.000 F250.000
G3 X54.704 Y-77.614 Z-0.200 I-0.161 J0.163 K0.000 F250.000
G1 X54.704 Y-64.234 Z-0.200 F250.000
G3 X54.206 Y-64.230 Z-0.200 I-0.249 J-0.015 K0.000 F250.000
G1 X54.206 Y-77.603 Z-0.200 F250.000
G0 Z0.500
G0 X54.286 Y-77.608 Z0.500
G0 X54.286 Y-77.608 Z0.300
G1 X54.286 Y-77.608 Z-0.200 F150.000
G3 X54.578 Y-77.719 Z-0.200 I0.174 J0.019 K0.000 F250.000
G3 X54.624 Y-77.608 Z-0.200 I-0.110 J0.110 K0.000 F250.000
G1 X54.624 Y-64.243 Z-0.200 F250.000
G3 X54.286 Y-64.236 Z-0.200 I-0.169 J-0.006 K0.000 F250.000
G1 X54.286 Y-77.608 Z-0.200 F250.000
G0 Z0.500
G0 X54.366 Y-77.602 Z0.500
G0 X54.366 Y-77.602 Z0.300
G1 X54.366 Y-77.602 Z-0.200 F150.000
G3 X54.520 Y-77.660 Z-0.200 I0.092 J0.010 K0.000 F250.000
G3 X54.544 Y-77.602 Z-0.200 I-0.058 J0.058 K0.000 F250.000
G1 X54.544 Y-64.253 Z-0.200 F250.000
G3 X54.366 Y-64.242 Z-0.200 I-0.089 J0.004 K0.000 F250.000
G1 X54.366 Y-77.602 Z-0.200 F250.000
G0 Z0.500
G0 X54.446 Y-77.595 Z0.500
G0 X54.446 Y-77.595 Z0.300
G1 X54.446 Y-77.595 Z-0.200 F150.000
G3 X54.463 Y-77.600 Z-0.200 I0.009 J0.002 K0.000 F250.000
G1 X54.464 Y-77.595 Z-0.200 F250.000
G1 X54.464 Y-64.262 Z-0.200 F250.000
G3 X54.464 Y-64.245 Z-0.200 I-0.008 J0.008 K0.000 F250.000
G3 X54.447 Y-64.245 Z-0.200 I-0.008 J-0.008 K0.000 F250.000
G1 X54.446 Y-64.248 Z-0.200 F250.000
G1 X54.446 Y-77.595 Z-0.200 F250.000
G0 Z0.500
G0 Z0.500
G0 X54.446 Y-77.595
G0 X57.674 Y-72.198
G0 X57.674 Y-72.198 Z0.300
G1 X57.674 Y-72.198 Z-0.200 F150.000
G2 X60.418 Y-73.839 Z-0.200 I-14225.022 J-23787.855 K0.000 F250.000
G3 X60.715 Y-73.777 Z-0.200 I0.115 J0.194 K0.000 F250.000
G3 X60.756 Y-73.646 Z-0.200 I-0.183 J0.129 K0.000 F250.000
G3 X60.840 Y-68.204 Z-0.200 I-14067.678 J219.109 K0.000 F250.000
G3 X60.506 Y-68.001 Z-0.200 I-0.224 J0.008 K0.000 F250.000
G2 X55.754 Y-70.649 Z-0.200 I-3757.456 J6737.915 K0.000 F250.000
G3 X55.748 Y-71.046 Z-0.200 I0.105 J-0.200 K0.000 F250.000
G2 X57.674 Y-72.198 Z-0.200 I-14223.096 J-23789.007 K0.000 F250.000
G0 Z0.500
G0 X57.715 Y-72.129 Z0.500
G0 X57.715 Y-72.129 Z0.300
G1 X57.715 Y-72.129 Z-0.200 F150.000
G2 X60.456 Y-73.769 Z-0.200 I-14188.013 J-23725.972 K0.000 F250.000
G3 X60.651 Y-73.727 Z-0.200 I0.074 J0.130 K0.000 F250.000
G3 X60.676 Y-73.639 Z-0.200 I-0.124 J0.083 K0.000 F250.000
G1 X60.718 Y-70.924 Z-0.200 F250.000
G1 X60.718 Y-70.924 Z-0.200 F250.000
G1 X60.760 Y-68.210 Z-0.200 F250.000
G3 X60.542 Y-68.073 Z-0.200 I-0.145 J0.011 K0.000 F250.000
G2 X55.802 Y-70.714 Z-0.200 I-3747.673 J6720.369 K0.000 F250.000
G3 X55.798 Y-70.983 Z-0.200 I0.063 J-0.136 K0.000 F250.000
G2 X57.715 Y-72.129 Z-0.200 I-14186.095 J-23727.118 K0.000 F250.000
G0 Z0.500
G0 X57.756 Y-72.061 Z0.500
G0 X57.756 Y-72.061 Z0.300
G1 X57.756 Y-72.061 Z-0.200 F150.000
G2 X60.494 Y-73.698 Z-0.200 I-14149.080 J-23660.874 K0.000 F250.000
G3 X60.587 Y-73.676 Z-0.200 I0.034 J0.064 K0.000 F250.000
G3 X60.596 Y-73.632 Z-0.200 I-0.065 J0.037 K0.000 F250.000
G1 X60.638 Y-70.922 Z-0.200 F250.000
G1 X60.680 Y-68.215 Z-0.200 F250.000
G3 X60.577 Y-68.144 Z-0.200 I-0.067 J0.013 K0.000 F250.000
G2 X55.850 Y-70.778 Z-0.200 I-3738.073 J6703.151 K0.000 F250.000
