(Exported by FreeCAD)
(Post Processor: grbl_post)
(Output Time:2023-04-04 21:11:03.713188)
(Begin preamble)
G17 G90
G21
(Begin operation: G54)
(Path: G54)
G54
G0 Z5.000
(Finish operation: G54)
(Begin operation: endmill-2mm001)
(Path: endmill-2mm001)
(endmill-2mm001)
(Begin toolchange)
( M6 T2 )
(Post processing added : Ramp up the spindle speed)
M3 S100
G4 P.25
M3 S200
G4 P.25
M3 S400
G4 P.25
M3 S600
G4 P.25
M3 S800
G4 P.25
M3 S1000
G4 P.25
M3 S2000
G4 P.25
M3 S4000
G4 P.25
M3 S6000
G4 P.25
M3 S10000
(End post processing)
(Finish operation: endmill-2mm001)
(Begin operation: HOLES001)
(Path: HOLES001)
(Profile)
(Compensated Tool Path. Diameter: 2.0)
G0 Z5.000
G0 X14.619 Y-12.383
G0 Z3.000
G1 X14.619 Y-12.383 Z-1.300 F150.000
G3 X11.865 Y-11.573 Z-1.300 I-2.120 J-2.120 K0.000 F250.000
G3 X9.568 Y-15.137 Z-1.300 I0.634 J-2.931 K0.000 F250.000
G3 X13.133 Y-17.434 Z-1.300 I2.931 J0.634 K0.000 F250.000
G3 X14.619 Y-12.383 Z-1.300 I-0.634 J2.931 K0.000 F250.000
G0 Z5.000
G0 Z5.000
G0 X14.619 Y-12.383
G0 X12.695 Y-41.811
G0 X12.695 Y-41.811 Z3.000
G1 X12.695 Y-41.811 Z-1.300 F150.000
G3 X9.568 Y-45.437 Z-1.300 I-0.196 J-2.992 K0.000 F250.000
G3 X15.429 Y-44.169 Z-1.300 I2.931 J0.634 K0.000 F250.000
G3 X12.695 Y-41.811 Z-1.300 I-2.931 J-0.634 K0.000 F250.000
G0 Z5.000
G0 Z5.000
G0 X12.695 Y-41.811
G0 X28.040 Y-44.320
G0 X28.040 Y-44.320 Z3.000
G1 X28.040 Y-44.320 Z-1.300 F150.000
G3 X31.633 Y-47.734 Z-1.300 I2.959 J-0.484 K0.000 F250.000
G3 X33.930 Y-44.169 Z-1.300 I-0.634 J2.931 K0.000 F250.000
G3 X30.365 Y-41.873 Z-1.300 I-2.931 J-0.634 K0.000 F250.000
G3 X28.040 Y-44.320 Z-1.300 I0.634 J-2.931 K0.000 F250.000
G0 Z5.000
G0 Z5.000
G0 X28.040 Y-44.320
G0 X46.501 Y-44.736
G0 X46.501 Y-44.736 Z3.000
G1 X46.501 Y-44.736 Z-1.300 F150.000
G3 X50.133 Y-47.734 Z-1.300 I2.998 J-0.068 K0.000 F250.000
G3 X52.429 Y-44.169 Z-1.300 I-0.634 J2.931 K0.000 F250.000
G3 X48.865 Y-41.873 Z-1.300 I-2.931 J-0.634 K0.000 F250.000
G3 X46.501 Y-44.736 Z-1.300 I0.634 J-2.931 K0.000 F250.000
G0 Z5.000
G0 Z5.000
G0 X46.501 Y-44.736
G0 X49.203 Y-17.487
G0 X49.203 Y-17.487 Z3.000
G1 X49.203 Y-17.487 Z-1.300 F150.000
G3 X50.133 Y-17.434 Z-1.300 I0.296 J2.984 K0.000 F250.000
G3 X48.865 Y-11.573 Z-1.300 I-0.634 J2.931 K0.000 F250.000
G3 X49.203 Y-17.487 Z-1.300 I0.634 J-2.931 K0.000 F250.000
G0 Z5.000
G0 Z5.000
G0 X49.203 Y-17.487
G0 X32.001 Y-101.607
G0 X32.001 Y-101.607 Z3.000
G1 X32.001 Y-101.607 Z-1.300 F150.000
G3 X26.121 Y-107.592 Z-1.300 I-1.001 J-4.897 K0.000 F250.000
G3 X35.879 Y-105.416 Z-1.300 I4.879 J1.088 K0.000 F250.000
G3 X32.001 Y-101.607 Z-1.300 I-4.879 J-1.088 K0.000 F250.000
G0 Z5.000
G0 Z5.000
G0 X32.001 Y-101.607
G0 X15.683 Y-105.818
G0 X15.683 Y-105.818 Z3.000
G1 X15.683 Y-105.818 Z-1.300 F150.000
G3 X12.443 Y-103.817 Z-1.300 I-2.661 J-0.687 K0.000 F250.000
G3 X13.600 Y-109.191 Z-1.300 I0.579 J-2.687 K0.000 F250.000
G3 X15.683 Y-105.818 Z-1.300 I-0.579 J2.687 K0.000 F250.000
G0 Z5.000
G0 Z5.000
(Finish operation: HOLES001)
(Begin operation: CONTOUR)
(Path: CONTOUR)
(Profile001)
(Compensated Tool Path. Diameter: 2.0)
G0 Z5.000
G0 X61.534 Y-0.465
G0 Z3.000
G1 X61.534 Y-0.465 Z-1.300 F150.000
G2 X62.998 Y-3.935 Z-1.300 I-3.537 J-3.536 K0.000 F250.000
G1 X63.000 Y-113.000 Z-1.300 F250.000
G2 X58.065 Y-117.998 Z-1.300 I-5.001 J0.003 K0.000 F250.000
G1 X4.000 Y-118.000 Z-1.300 F250.000
G2 X-0.998 Y-113.065 Z-1.300 I0.003 J5.001 K0.000 F250.000
G1 X-1.000 Y-4.000 Z-1.300 F250.000
G2 X3.935 Y0.998 Z-1.300 I5.001 J-0.003 K0.000 F250.000
G1 X58.000 Y1.000 Z-1.300 F250.000
G2 X61.534 Y-0.465 Z-1.300 I-0.003 J-5.001 K0.000 F250.000
G0 Z5.000
G0 Z5.000
(Finish operation: CONTOUR)
(Begin postamble)
M5
G17 G90
M2
