(Exported by FreeCAD)
(Post Processor: grbl_post)
(Output Time:2023-02-27 20:20:57.685395)
(Begin preamble)
G17 G90
G21
(Begin operation: G54)
(Path: G54)
G54
G0 Z5.200
(Finish operation: G54)
(Begin operation: ballend-010mm001)
(Path: ballend-010mm001)
(ballend-010mm001)
(Begin toolchange)
( M6 T2 )
(Finish operation: ballend-010mm001)
(Begin operation: Profile)
(Path: Profile)
(Profile)
(Compensated Tool Path. Diameter: 0.1)
G0 Z5.200
G0 X5.950 Y-1.050
G0 Z3.200
G1 X5.950 Y-1.050 Z-0.100 F100.000
G1 X1.050 Y-1.050 Z-0.100 F100.000
G1 X1.050 Y-2.950 Z-0.100 F100.000
G1 X5.950 Y-2.950 Z-0.100 F100.000
G1 X5.950 Y-1.050 Z-0.100 F100.000
G1 X5.950 Y-1.050 Z-0.200 F100.000
G1 X1.050 Y-1.050 Z-0.200 F100.000
G1 X1.050 Y-2.950 Z-0.200 F100.000
G1 X5.950 Y-2.950 Z-0.200 F100.000
G1 X5.950 Y-1.050 Z-0.200 F100.000
G1 X5.950 Y-1.050 Z-0.300 F100.000
G1 X1.050 Y-1.050 Z-0.300 F100.000
G1 X1.050 Y-2.950 Z-0.300 F100.000
G1 X5.950 Y-2.950 Z-0.300 F100.000
G1 X5.950 Y-1.050 Z-0.300 F100.000
G1 X5.950 Y-1.050 Z-0.400 F100.000
G1 X1.050 Y-1.050 Z-0.400 F100.000
G1 X1.050 Y-2.950 Z-0.400 F100.000
G1 X5.950 Y-2.950 Z-0.400 F100.000
G1 X5.950 Y-1.050 Z-0.400 F100.000
G1 X5.950 Y-1.050 Z-0.500 F100.000
G1 X1.050 Y-1.050 Z-0.500 F100.000
G1 X1.050 Y-2.950 Z-0.500 F100.000
G1 X5.950 Y-2.950 Z-0.500 F100.000
G1 X5.950 Y-1.050 Z-0.500 F100.000
G0 Z5.200
G0 Z5.200
G0 X5.950 Y-1.050
G0 X4.433 Y-4.735
G0 X4.433 Y-4.735 Z3.200
G1 X4.433 Y-4.735 Z-0.100 F100.000
G3 X2.662 Y-4.698 Z-0.100 I-0.933 J-2.265 K0.000 F100.000
G3 X4.338 Y-9.302 Z-0.100 I0.838 J-2.302 K0.000 F100.000
G3 X4.433 Y-4.735 Z-0.100 I-0.838 J2.302 K0.000 F100.000
G1 X4.433 Y-4.735 Z-0.200 F100.000
G3 X2.662 Y-4.698 Z-0.200 I-0.933 J-2.265 K0.000 F100.000
G3 X4.338 Y-9.302 Z-0.200 I0.838 J-2.302 K0.000 F100.000
G3 X4.433 Y-4.735 Z-0.200 I-0.838 J2.302 K0.000 F100.000
G1 X4.433 Y-4.735 Z-0.300 F100.000
G3 X2.662 Y-4.698 Z-0.300 I-0.933 J-2.265 K0.000 F100.000
G3 X4.338 Y-9.302 Z-0.300 I0.838 J-2.302 K0.000 F100.000
G3 X4.433 Y-4.735 Z-0.300 I-0.838 J2.302 K0.000 F100.000
G1 X4.433 Y-4.735 Z-0.400 F100.000
G3 X2.662 Y-4.698 Z-0.400 I-0.933 J-2.265 K0.000 F100.000
G3 X4.338 Y-9.302 Z-0.400 I0.838 J-2.302 K0.000 F100.000
G3 X4.433 Y-4.735 Z-0.400 I-0.838 J2.302 K0.000 F100.000
G1 X4.433 Y-4.735 Z-0.500 F100.000
G3 X2.662 Y-4.698 Z-0.500 I-0.933 J-2.265 K0.000 F100.000
G3 X4.338 Y-9.302 Z-0.500 I0.838 J-2.302 K0.000 F100.000
G3 X4.433 Y-4.735 Z-0.500 I-0.838 J2.302 K0.000 F100.000
G0 Z5.200
G0 Z5.200
(Finish operation: Profile)
(Begin postamble)
M5
G17 G90
M2
