(Exported by FreeCAD)
(Post Processor: grbl_post)
(Output Time:2023-02-25 12:22:23.989499)
(Begin preamble)
G17 G90
G21
(Begin operation: G54)
(Path: G54)
G54
G0 Z5.000
(Finish operation: G54)
(Begin operation: ballend-010mm001)
(Path: ballend-010mm001)
(ballend-010mm001)
(Begin toolchange)
( M6 T2 )
(Finish operation: ballend-010mm001)
(Begin operation: Profile)
(Path: Profile)
(Profile)
(Compensated Tool Path. Diameter: 0.1)
G0 Z5.000
G0 X19.950 Y-10.050
G0 Z3.000
G1 X19.950 Y-10.050 Z-0.400 F100.000
G1 X10.050 Y-10.050 Z-0.400 F50.000
G1 X10.050 Y-14.950 Z-0.400 F50.000
G1 X19.950 Y-14.950 Z-0.400 F50.000
G1 X19.950 Y-10.050 Z-0.400 F50.000
G0 Z5.000
G0 Z5.000
G0 X19.950 Y-10.050
G0 X16.192 Y-25.196
G0 X16.192 Y-25.196 Z3.000
G1 X16.192 Y-25.196 Z-0.400 F100.000
G3 X13.470 Y-25.292 Z-0.400 I-1.192 J-4.804 K0.000 F50.000
G3 X16.530 Y-34.708 Z-0.400 I1.530 J-4.708 K0.000 F50.000
G3 X16.192 Y-25.196 Z-0.400 I-1.530 J4.708 K0.000 F50.000
G0 Z5.000
G0 Z5.000
G0 X16.192 Y-25.196
G0 X26.269 Y-28.702
G0 X26.269 Y-28.702 Z3.000
G1 X26.269 Y-28.702 Z-0.400 F100.000
G3 X31.323 Y-33.722 Z-0.400 I3.731 J-1.298 K0.000 F50.000
G3 X33.722 Y-28.677 Z-0.400 I-1.323 J3.722 K0.000 F50.000
G3 X28.677 Y-26.278 Z-0.400 I-3.722 J-1.323 K0.000 F50.000
G3 X26.269 Y-28.702 Z-0.400 I1.323 J-3.722 K0.000 F50.000
G0 Z5.000
G0 Z5.000
G0 X26.269 Y-28.702
G0 X39.060 Y-29.757
G0 X39.060 Y-29.757 Z3.000
G1 X39.060 Y-29.757 Z-0.400 F100.000
G3 X42.912 Y-32.805 Z-0.400 I2.940 J-0.243 K0.000 F50.000
G3 X41.088 Y-27.195 Z-0.400 I-0.912 J2.805 K0.000 F50.000
G3 X39.060 Y-29.757 Z-0.400 I0.912 J-2.805 K0.000 F50.000
G0 Z5.000
G0 Z5.000
G0 X39.060 Y-29.757
G0 X49.051 Y-29.945
G0 X49.051 Y-29.945 Z3.000
G1 X49.051 Y-29.945 Z-0.400 F100.000
G3 X52.912 Y-32.805 Z-0.400 I2.949 J-0.055 K0.000 F50.000
G3 X51.088 Y-27.195 Z-0.400 I-0.912 J2.805 K0.000 F50.000
G3 X49.051 Y-29.945 Z-0.400 I0.912 J-2.805 K0.000 F50.000
G0 Z5.000
G0 Z5.000
G0 X49.051 Y-29.945
G0 X58.050 Y-29.990
G0 X58.050 Y-29.990 Z3.000
G1 X58.050 Y-29.990 Z-0.400 F100.000
G3 X60.746 Y-31.801 Z-0.400 I1.950 J-0.010 K0.000 F50.000
G3 X59.254 Y-28.199 Z-0.400 I-0.746 J1.801 K0.000 F50.000
G3 X58.050 Y-29.990 Z-0.400 I0.746 J-1.801 K0.000 F50.000
G0 Z5.000
G0 Z5.000
G0 X58.050 Y-29.990
G0 X64.550 Y-29.998
G0 X64.550 Y-29.998 Z3.000
G1 X64.550 Y-29.998 Z-0.400 F100.000
G3 X66.629 Y-31.306 Z-0.400 I1.450 J-0.002 K0.000 F50.000
G3 X65.371 Y-28.694 Z-0.400 I-0.629 J1.306 K0.000 F50.000
G3 X64.550 Y-29.998 Z-0.400 I0.629 J-1.306 K0.000 F50.000
G0 Z5.000
G0 Z5.000
G0 X64.550 Y-29.998
G0 X69.050 Y-30.000
G0 X69.050 Y-30.000 Z3.000
G1 X69.050 Y-30.000 Z-0.400 F100.000
G3 X69.178 Y-30.475 Z-0.400 I0.950 J-0.000 K0.000 F50.000
G3 X70.822 Y-29.525 Z-0.400 I0.822 J0.475 K0.000 F50.000
G3 X69.050 Y-30.000 Z-0.400 I-0.822 J-0.475 K0.000 F50.000
G0 Z5.000
G0 Z5.000
G0 X69.050 Y-30.000
G0 Y-11.950
G0 Y-11.950 Z3.000
G1 X69.050 Y-11.950 Z-0.400 F100.000
G1 X71.950 Y-11.950 Z-0.400 F50.000
G1 X71.950 Y-10.050 Z-0.400 F50.000
G1 X68.050 Y-10.050 Z-0.400 F50.000
G1 X68.050 Y-11.950 Z-0.400 F50.000
G1 X69.050 Y-11.950 Z-0.400 F50.000
G0 Z5.000
G0 Z5.000
G0 X69.050 Y-11.950
G0 X74.050 Y-10.950
G0 X74.050 Y-10.950 Z3.000
G1 X74.050 Y-10.950 Z-0.400 F100.000
G1 X75.950 Y-10.950 Z-0.400 F50.000
G1 X75.950 Y-10.050 Z-0.400 F50.000
G1 X74.050 Y-10.050 Z-0.400 F50.000
G1 X74.050 Y-10.950 Z-0.400 F50.000
G0 Z5.000
G0 Z5.000
G0 X74.050 Y-10.950
G0 X77.050 Y-10.450
G0 X77.050 Y-10.450 Z3.000
G1 X77.050 Y-10.450 Z-0.400 F100.000
G1 X77.950 Y-10.450 Z-0.400 F50.000
G1 X77.950 Y-10.050 Z-0.400 F50.000
G1 X77.050 Y-10.050 Z-0.400 F50.000
G1 X77.050 Y-10.450 Z-0.400 F50.000
G0 Z5.000
G0 Z5.000
G0 X77.050 Y-10.450
G0 X63.950
G0 X63.950 Z3.000
G1 X63.950 Y-10.450 Z-0.400 F100.000
G1 X63.950 Y-10.050 Z-0.400 F50.000
G1 X59.050 Y-10.050 Z-0.400 F50.000
G1 X59.050 Y-12.950 Z-0.400 F50.000
G1 X63.950 Y-12.950 Z-0.400 F50.000
G1 X63.950 Y-10.450 Z-0.400 F50.000
G0 Z5.000
G0 Z5.000
G0 X63.950 Y-10.450
G0 X52.950
G0 X52.950 Z3.000
G1 X52.950 Y-10.450 Z-0.400 F100.000
G1 X52.950 Y-10.050 Z-0.400 F50.000
G1 X46.050 Y-10.050 Z-0.400 F50.000
G1 X46.050 Y-12.950 Z-0.400 F50.000
G1 X52.950 Y-12.950 Z-0.400 F50.000
G1 X52.950 Y-10.450 Z-0.400 F50.000
G0 Z5.000
G0 Z5.000
G0 X52.950 Y-10.450
G0 X37.950
G0 X37.950 Z3.000
G1 X37.950 Y-10.450 Z-0.400 F100.000
G1 X37.950 Y-10.050 Z-0.400 F50.000
G1 X30.050 Y-10.050 Z-0.400 F50.000
G1 X30.050 Y-13.950 Z-0.400 F50.000
G1 X37.950 Y-13.950 Z-0.400 F50.000
G1 X37.950 Y-10.450 Z-0.400 F50.000
G0 Z5.000
G0 Z5.000
(Finish operation: Profile)
(Begin postamble)
M5
G17 G90
M2
