(Exported by FreeCAD)
(Post Processor: grbl_post)
(Output Time:2023-03-04 12:06:18.543537)
(Begin preamble)
G17 G90
G21
(Begin operation: G54)
(Path: G54)
G54
G0 Z5.100
(Finish operation: G54)
(Begin operation: ballend-010mm001)
(Path: ballend-010mm001)
(ballend-010mm001)
(Begin toolchange)
( M6 T2 )
(Post processing added : Ramp up the spindle speed)
M3 S100
G4 P.25
M3 S200
G4 P.25
M3 S400
G4 P.25
M3 S600
G4 P.25
M3 S800
G4 P.25
M3 S1000
G4 P.25
M3 S2000
G4 P.25
M3 S4000
G4 P.25
M3 S6000
G4 P.25
M3 S10000
(End post processing)
(Begin operation: Profile)
(Path: Profile)
(Profile)
(Compensated Tool Path. Diameter: 0.1)
G0 Z5.100
G0 X10.950 Y-1.050
G0 Z3.100
G1 X10.950 Y-1.050 Z-0.100 F100.000
G1 X1.050 Y-1.050 Z-0.100 F100.000
G1 X1.050 Y-5.950 Z-0.100 F100.000
G1 X10.950 Y-5.950 Z-0.100 F100.000
G1 X10.950 Y-1.050 Z-0.100 F100.000
G1 X10.950 Y-1.050 Z-0.200 F100.000
G1 X1.050 Y-1.050 Z-0.200 F100.000
G1 X1.050 Y-5.950 Z-0.200 F100.000
G1 X10.950 Y-5.950 Z-0.200 F100.000
G1 X10.950 Y-1.050 Z-0.200 F100.000
G1 X10.950 Y-1.050 Z-0.300 F100.000
G1 X1.050 Y-1.050 Z-0.300 F100.000
G1 X1.050 Y-5.950 Z-0.300 F100.000
G1 X10.950 Y-5.950 Z-0.300 F100.000
G1 X10.950 Y-1.050 Z-0.300 F100.000
G1 X10.950 Y-1.050 Z-0.400 F100.000
G1 X1.050 Y-1.050 Z-0.400 F100.000
G1 X1.050 Y-5.950 Z-0.400 F100.000
G1 X10.950 Y-5.950 Z-0.400 F100.000
G1 X10.950 Y-1.050 Z-0.400 F100.000
G1 X10.950 Y-1.050 Z-0.500 F100.000
G1 X1.050 Y-1.050 Z-0.500 F100.000
G1 X1.050 Y-5.950 Z-0.500 F100.000
G1 X10.950 Y-5.950 Z-0.500 F100.000
G1 X10.950 Y-1.050 Z-0.500 F100.000
G1 X10.950 Y-1.050 Z-0.600 F100.000
G1 X1.050 Y-1.050 Z-0.600 F100.000
G1 X1.050 Y-5.950 Z-0.600 F100.000
G1 X10.950 Y-5.950 Z-0.600 F100.000
G1 X10.950 Y-1.050 Z-0.600 F100.000
G0 Z5.100
G0 Z5.100
G0 X10.950 Y-1.050
G0 X7.655 Y-10.335
G0 X7.655 Y-10.335 Z3.100
G1 X7.655 Y-10.335 Z-0.100 F100.000
G3 X4.470 Y-10.292 Z-0.100 I-1.655 J-4.665 K0.000 F100.000
G3 X7.530 Y-19.708 Z-0.100 I1.530 J-4.708 K0.000 F100.000
G3 X7.655 Y-10.335 Z-0.100 I-1.530 J4.708 K0.000 F100.000
G1 X7.655 Y-10.335 Z-0.200 F100.000
G3 X4.470 Y-10.292 Z-0.200 I-1.655 J-4.665 K0.000 F100.000
G3 X7.530 Y-19.708 Z-0.200 I1.530 J-4.708 K0.000 F100.000
G3 X7.655 Y-10.335 Z-0.200 I-1.530 J4.708 K0.000 F100.000
G1 X7.655 Y-10.335 Z-0.300 F100.000
G3 X4.470 Y-10.292 Z-0.300 I-1.655 J-4.665 K0.000 F100.000
G3 X7.530 Y-19.708 Z-0.300 I1.530 J-4.708 K0.000 F100.000
G3 X7.655 Y-10.335 Z-0.300 I-1.530 J4.708 K0.000 F100.000
G1 X7.655 Y-10.335 Z-0.400 F100.000
G3 X4.470 Y-10.292 Z-0.400 I-1.655 J-4.665 K0.000 F100.000
G3 X7.530 Y-19.708 Z-0.400 I1.530 J-4.708 K0.000 F100.000
G3 X7.655 Y-10.335 Z-0.400 I-1.530 J4.708 K0.000 F100.000
G1 X7.655 Y-10.335 Z-0.500 F100.000
G3 X4.470 Y-10.292 Z-0.500 I-1.655 J-4.665 K0.000 F100.000
G3 X7.530 Y-19.708 Z-0.500 I1.530 J-4.708 K0.000 F100.000
G3 X7.655 Y-10.335 Z-0.500 I-1.530 J4.708 K0.000 F100.000
G1 X7.655 Y-10.335 Z-0.600 F100.000
G3 X4.470 Y-10.292 Z-0.600 I-1.655 J-4.665 K0.000 F100.000
G3 X7.530 Y-19.708 Z-0.600 I1.530 J-4.708 K0.000 F100.000
G3 X7.655 Y-10.335 Z-0.600 I-1.530 J4.708 K0.000 F100.000
G0 Z5.100
G0 Z5.100
G0 X7.655 Y-10.335
G0 X14.399 Y-13.376
G0 X14.399 Y-13.376 Z3.100
G1 X14.399 Y-13.376 Z-0.100 F100.000
G3 X19.323 Y-18.722 Z-0.100 I3.601 J-1.624 K0.000 F100.000
G3 X21.722 Y-13.677 Z-0.100 I-1.323 J3.722 K0.000 F100.000
G3 X16.677 Y-11.278 Z-0.100 I-3.722 J-1.323 K0.000 F100.000
G3 X14.399 Y-13.376 Z-0.100 I1.323 J-3.722 K0.000 F100.000
G1 X14.399 Y-13.376 Z-0.200 F100.000
G3 X19.323 Y-18.722 Z-0.200 I3.601 J-1.624 K0.000 F100.000
G3 X21.722 Y-13.677 Z-0.200 I-1.323 J3.722 K0.000 F100.000
G3 X16.677 Y-11.278 Z-0.200 I-3.722 J-1.323 K0.000 F100.000
G3 X14.399 Y-13.376 Z-0.200 I1.323 J-3.722 K0.000 F100.000
G1 X14.399 Y-13.376 Z-0.300 F100.000
G3 X19.323 Y-18.722 Z-0.300 I3.601 J-1.624 K0.000 F100.000
G3 X21.722 Y-13.677 Z-0.300 I-1.323 J3.722 K0.000 F100.000
G3 X16.677 Y-11.278 Z-0.300 I-3.722 J-1.323 K0.000 F100.000
G3 X14.399 Y-13.376 Z-0.300 I1.323 J-3.722 K0.000 F100.000
G1 X14.399 Y-13.376 Z-0.400 F100.000
G3 X19.323 Y-18.722 Z-0.400 I3.601 J-1.624 K0.000 F100.000
G3 X21.722 Y-13.677 Z-0.400 I-1.323 J3.722 K0.000 F100.000
G3 X16.677 Y-11.278 Z-0.400 I-3.722 J-1.323 K0.000 F100.000
G3 X14.399 Y-13.376 Z-0.400 I1.323 J-3.722 K0.000 F100.000
G1 X14.399 Y-13.376 Z-0.500 F100.000
G3 X19.323 Y-18.722 Z-0.500 I3.601 J-1.624 K0.000 F100.000
G3 X21.722 Y-13.677 Z-0.500 I-1.323 J3.722 K0.000 F100.000
G3 X16.677 Y-11.278 Z-0.500 I-3.722 J-1.323 K0.000 F100.000
G3 X14.399 Y-13.376 Z-0.500 I1.323 J-3.722 K0.000 F100.000
G1 X14.399 Y-13.376 Z-0.600 F100.000
G3 X19.323 Y-18.722 Z-0.600 I3.601 J-1.624 K0.000 F100.000
G3 X21.722 Y-13.677 Z-0.600 I-1.323 J3.722 K0.000 F100.000
G3 X16.677 Y-11.278 Z-0.600 I-3.722 J-1.323 K0.000 F100.000
G3 X14.399 Y-13.376 Z-0.600 I1.323 J-3.722 K0.000 F100.000
G0 Z5.100
G0 Z5.100
G0 X14.399 Y-13.376
G0 X25.071 Y-14.650
G0 X25.071 Y-14.650 Z3.100
G1 X25.071 Y-14.650 Z-0.100 F100.000
G3 X25.195 Y-15.912 Z-0.100 I2.929 J-0.350 K0.000 F100.000
G3 X28.912 Y-17.805 Z-0.100 I2.805 J0.912 K0.000 F100.000
G3 X30.805 Y-14.088 Z-0.100 I-0.912 J2.805 K0.000 F100.000
G3 X25.071 Y-14.650 Z-0.100 I-2.805 J-0.912 K0.000 F100.000
G1 X25.071 Y-14.650 Z-0.200 F100.000
G3 X25.195 Y-15.912 Z-0.200 I2.929 J-0.350 K0.000 F100.000
G3 X28.912 Y-17.805 Z-0.200 I2.805 J0.912 K0.000 F100.000
G3 X30.805 Y-14.088 Z-0.200 I-0.912 J2.805 K0.000 F100.000
G3 X25.071 Y-14.650 Z-0.200 I-2.805 J-0.912 K0.000 F100.000
G1 X25.071 Y-14.650 Z-0.300 F100.000
G3 X25.195 Y-15.912 Z-0.300 I2.929 J-0.350 K0.000 F100.000
G3 X28.912 Y-17.805 Z-0.300 I2.805 J0.912 K0.000 F100.000
G3 X30.805 Y-14.088 Z-0.300 I-0.912 J2.805 K0.000 F100.000
G3 X25.071 Y-14.650 Z-0.300 I-2.805 J-0.912 K0.000 F100.000
G1 X25.071 Y-14.650 Z-0.400 F100.000
G3 X25.195 Y-15.912 Z-0.400 I2.929 J-0.350 K0.000 F100.000
G3 X28.912 Y-17.805 Z-0.400 I2.805 J0.912 K0.000 F100.000
G3 X30.805 Y-14.088 Z-0.400 I-0.912 J2.805 K0.000 F100.000
G3 X25.071 Y-14.650 Z-0.400 I-2.805 J-0.912 K0.000 F100.000
G1 X25.071 Y-14.650 Z-0.500 F100.000
G3 X25.195 Y-15.912 Z-0.500 I2.929 J-0.350 K0.000 F100.000
G3 X28.912 Y-17.805 Z-0.500 I2.805 J0.912 K0.000 F100.000
G3 X30.805 Y-14.088 Z-0.500 I-0.912 J2.805 K0.000 F100.000
G3 X25.071 Y-14.650 Z-0.500 I-2.805 J-0.912 K0.000 F100.000
G1 X25.071 Y-14.650 Z-0.600 F100.000
G3 X25.195 Y-15.912 Z-0.600 I2.929 J-0.350 K0.000 F100.000
G3 X28.912 Y-17.805 Z-0.600 I2.805 J0.912 K0.000 F100.000
G3 X30.805 Y-14.088 Z-0.600 I-0.912 J2.805 K0.000 F100.000
G3 X25.071 Y-14.650 Z-0.600 I-2.805 J-0.912 K0.000 F100.000
G0 Z5.100
G0 Z5.100
G0 X25.071 Y-14.650
G0 X33.052 Y-14.906
G0 X33.052 Y-14.906 Z3.100
G1 X33.052 Y-14.906 Z-0.100 F100.000
G3 X33.195 Y-15.912 Z-0.100 I2.948 J-0.094 K0.000 F100.000
G3 X36.912 Y-17.805 Z-0.100 I2.805 J0.912 K0.000 F100.000
G3 X38.805 Y-14.088 Z-0.100 I-0.912 J2.805 K0.000 F100.000
G3 X33.052 Y-14.906 Z-0.100 I-2.805 J-0.912 K0.000 F100.000
G1 X33.052 Y-14.906 Z-0.200 F100.000
G3 X33.195 Y-15.912 Z-0.200 I2.948 J-0.094 K0.000 F100.000
G3 X36.912 Y-17.805 Z-0.200 I2.805 J0.912 K0.000 F100.000
G3 X38.805 Y-14.088 Z-0.200 I-0.912 J2.805 K0.000 F100.000
G3 X33.052 Y-14.906 Z-0.200 I-2.805 J-0.912 K0.000 F100.000
G1 X33.052 Y-14.906 Z-0.300 F100.000
G3 X33.195 Y-15.912 Z-0.300 I2.948 J-0.094 K0.000 F100.000
G3 X36.912 Y-17.805 Z-0.300 I2.805 J0.912 K0.000 F100.000
G3 X38.805 Y-14.088 Z-0.300 I-0.912 J2.805 K0.000 F100.000
G3 X33.052 Y-14.906 Z-0.300 I-2.805 J-0.912 K0.000 F100.000
G1 X33.052 Y-14.906 Z-0.400 F100.000
G3 X33.195 Y-15.912 Z-0.400 I2.948 J-0.094 K0.000 F100.000
G3 X36.912 Y-17.805 Z-0.400 I2.805 J0.912 K0.000 F100.000
G3 X38.805 Y-14.088 Z-0.400 I-0.912 J2.805 K0.000 F100.000
G3 X33.052 Y-14.906 Z-0.400 I-2.805 J-0.912 K0.000 F100.000
G1 X33.052 Y-14.906 Z-0.500 F100.000
G3 X33.195 Y-15.912 Z-0.500 I2.948 J-0.094 K0.000 F100.000
G3 X36.912 Y-17.805 Z-0.500 I2.805 J0.912 K0.000 F100.000
G3 X38.805 Y-14.088 Z-0.500 I-0.912 J2.805 K0.000 F100.000
G3 X33.052 Y-14.906 Z-0.500 I-2.805 J-0.912 K0.000 F100.000
G1 X33.052 Y-14.906 Z-0.600 F100.000
G3 X33.195 Y-15.912 Z-0.600 I2.948 J-0.094 K0.000 F100.000
G3 X36.912 Y-17.805 Z-0.600 I2.805 J0.912 K0.000 F100.000
G3 X38.805 Y-14.088 Z-0.600 I-0.912 J2.805 K0.000 F100.000
G3 X33.052 Y-14.906 Z-0.600 I-2.805 J-0.912 K0.000 F100.000
G0 Z5.100
G0 Z5.100
G0 X33.052 Y-14.906
G0 X41.050 Y-14.982
G0 X41.050 Y-14.982 Z3.100
G1 X41.050 Y-14.982 Z-0.100 F100.000
G3 X43.746 Y-16.801 Z-0.100 I1.950 J-0.018 K0.000 F100.000
G3 X42.254 Y-13.199 Z-0.100 I-0.746 J1.801 K0.000 F100.000
G3 X41.050 Y-14.982 Z-0.100 I0.746 J-1.801 K0.000 F100.000
G1 X41.050 Y-14.982 Z-0.200 F100.000
G3 X43.746 Y-16.801 Z-0.200 I1.950 J-0.018 K0.000 F100.000
G3 X42.254 Y-13.199 Z-0.200 I-0.746 J1.801 K0.000 F100.000
G3 X41.050 Y-14.982 Z-0.200 I0.746 J-1.801 K0.000 F100.000
G1 X41.050 Y-14.982 Z-0.300 F100.000
G3 X43.746 Y-16.801 Z-0.300 I1.950 J-0.018 K0.000 F100.000
G3 X42.254 Y-13.199 Z-0.300 I-0.746 J1.801 K0.000 F100.000
G3 X41.050 Y-14.982 Z-0.300 I0.746 J-1.801 K0.000 F100.000
G1 X41.050 Y-14.982 Z-0.400 F100.000
G3 X43.746 Y-16.801 Z-0.400 I1.950 J-0.018 K0.000 F100.000
G3 X42.254 Y-13.199 Z-0.400 I-0.746 J1.801 K0.000 F100.000
G3 X41.050 Y-14.982 Z-0.400 I0.746 J-1.801 K0.000 F100.000
G1 X41.050 Y-14.982 Z-0.500 F100.000
G3 X43.746 Y-16.801 Z-0.500 I1.950 J-0.018 K0.000 F100.000
G3 X42.254 Y-13.199 Z-0.500 I-0.746 J1.801 K0.000 F100.000
G3 X41.050 Y-14.982 Z-0.500 I0.746 J-1.801 K0.000 F100.000
G1 X41.050 Y-14.982 Z-0.600 F100.000
G3 X43.746 Y-16.801 Z-0.600 I1.950 J-0.018 K0.000 F100.000
G3 X42.254 Y-13.199 Z-0.600 I-0.746 J1.801 K0.000 F100.000
G3 X41.050 Y-14.982 Z-0.600 I0.746 J-1.801 K0.000 F100.000
G0 Z5.100
G0 Z5.100
G0 X41.050 Y-14.982
G0 X47.550 Y-14.997
G0 X47.550 Y-14.997 Z3.100
G1 X47.550 Y-14.997 Z-0.100 F100.000
G3 X49.629 Y-16.306 Z-0.100 I1.450 J-0.003 K0.000 F100.000
G3 X48.371 Y-13.694 Z-0.100 I-0.629 J1.306 K0.000 F100.000
G3 X47.550 Y-14.997 Z-0.100 I0.629 J-1.306 K0.000 F100.000
G1 X47.550 Y-14.997 Z-0.200 F100.000
G3 X49.629 Y-16.306 Z-0.200 I1.450 J-0.003 K0.000 F100.000
G3 X48.371 Y-13.694 Z-0.200 I-0.629 J1.306 K0.000 F100.000
G3 X47.550 Y-14.997 Z-0.200 I0.629 J-1.306 K0.000 F100.000
G1 X47.550 Y-14.997 Z-0.300 F100.000
G3 X49.629 Y-16.306 Z-0.300 I1.450 J-0.003 K0.000 F100.000
G3 X48.371 Y-13.694 Z-0.300 I-0.629 J1.306 K0.000 F100.000
G3 X47.550 Y-14.997 Z-0.300 I0.629 J-1.306 K0.000 F100.000
G1 X47.550 Y-14.997 Z-0.400 F100.000
G3 X49.629 Y-16.306 Z-0.400 I1.450 J-0.003 K0.000 F100.000
G3 X48.371 Y-13.694 Z-0.400 I-0.629 J1.306 K0.000 F100.000
G3 X47.550 Y-14.997 Z-0.400 I0.629 J-1.306 K0.000 F100.000
G1 X47.550 Y-14.997 Z-0.500 F100.000
G3 X49.629 Y-16.306 Z-0.500 I1.450 J-0.003 K0.000 F100.000
G3 X48.371 Y-13.694 Z-0.500 I-0.629 J1.306 K0.000 F100.000
G3 X47.550 Y-14.997 Z-0.500 I0.629 J-1.306 K0.000 F100.000
G1 X47.550 Y-14.997 Z-0.600 F100.000
G3 X49.629 Y-16.306 Z-0.600 I1.450 J-0.003 K0.000 F100.000
G3 X48.371 Y-13.694 Z-0.600 I-0.629 J1.306 K0.000 F100.000
G3 X47.550 Y-14.997 Z-0.600 I0.629 J-1.306 K0.000 F100.000
G0 Z5.100
G0 Z5.100
G0 X47.550 Y-14.997
G0 X52.050 Y-14.999
G0 X52.050 Y-14.999 Z3.100
G1 X52.050 Y-14.999 Z-0.100 F100.000
G3 X53.475 Y-15.822 Z-0.100 I0.950 J-0.001 K0.000 F100.000
G3 X52.525 Y-14.178 Z-0.100 I-0.475 J0.822 K0.000 F100.000
G3 X52.050 Y-14.999 Z-0.100 I0.475 J-0.822 K0.000 F100.000
G1 X52.050 Y-14.999 Z-0.200 F100.000
G3 X53.475 Y-15.822 Z-0.200 I0.950 J-0.001 K0.000 F100.000
G3 X52.525 Y-14.178 Z-0.200 I-0.475 J0.822 K0.000 F100.000
G3 X52.050 Y-14.999 Z-0.200 I0.475 J-0.822 K0.000 F100.000
G1 X52.050 Y-14.999 Z-0.300 F100.000
G3 X53.475 Y-15.822 Z-0.300 I0.950 J-0.001 K0.000 F100.000
G3 X52.525 Y-14.178 Z-0.300 I-0.475 J0.822 K0.000 F100.000
G3 X52.050 Y-14.999 Z-0.300 I0.475 J-0.822 K0.000 F100.000
G1 X52.050 Y-14.999 Z-0.400 F100.000
G3 X53.475 Y-15.822 Z-0.400 I0.950 J-0.001 K0.000 F100.000
G3 X52.525 Y-14.178 Z-0.400 I-0.475 J0.822 K0.000 F100.000
G3 X52.050 Y-14.999 Z-0.400 I0.475 J-0.822 K0.000 F100.000
G1 X52.050 Y-14.999 Z-0.500 F100.000
G3 X53.475 Y-15.822 Z-0.500 I0.950 J-0.001 K0.000 F100.000
G3 X52.525 Y-14.178 Z-0.500 I-0.475 J0.822 K0.000 F100.000
G3 X52.050 Y-14.999 Z-0.500 I0.475 J-0.822 K0.000 F100.000
G1 X52.050 Y-14.999 Z-0.600 F100.000
G3 X53.475 Y-15.822 Z-0.600 I0.950 J-0.001 K0.000 F100.000
G3 X52.525 Y-14.178 Z-0.600 I-0.475 J0.822 K0.000 F100.000
G3 X52.050 Y-14.999 Z-0.600 I0.475 J-0.822 K0.000 F100.000
G0 Z5.100
G0 Z5.100
G0 X52.050 Y-14.999
G0 X50.561 Y-25.554
G0 X50.561 Y-25.554 Z3.100
G1 X50.561 Y-25.554 Z-0.100 F100.000
G3 X50.495 Y-25.550 Z-0.100 I-0.063 J-0.448 K0.000 F100.000
G1 X46.505 Y-25.550 Z-0.100 F100.000
G3 X46.050 Y-26.005 Z-0.100 I-0.003 J-0.452 K0.000 F100.000
G1 X46.050 Y-26.995 Z-0.100 F100.000
G3 X46.505 Y-27.450 Z-0.100 I0.452 J-0.003 K0.000 F100.000
G1 X50.495 Y-27.450 Z-0.100 F100.000
G3 X50.950 Y-26.995 Z-0.100 I0.003 J0.452 K0.000 F100.000
G1 X50.950 Y-26.005 Z-0.100 F100.000
G3 X50.561 Y-25.554 Z-0.100 I-0.452 J0.003 K0.000 F100.000
G1 X50.561 Y-25.554 Z-0.200 F100.000
G3 X50.495 Y-25.550 Z-0.200 I-0.063 J-0.448 K0.000 F100.000
G1 X46.505 Y-25.550 Z-0.200 F100.000
G3 X46.050 Y-26.005 Z-0.200 I-0.003 J-0.452 K0.000 F100.000
G1 X46.050 Y-26.995 Z-0.200 F100.000
G3 X46.505 Y-27.450 Z-0.200 I0.452 J-0.003 K0.000 F100.000
G1 X50.495 Y-27.450 Z-0.200 F100.000
G3 X50.950 Y-26.995 Z-0.200 I0.003 J0.452 K0.000 F100.000
G1 X50.950 Y-26.005 Z-0.200 F100.000
G3 X50.561 Y-25.554 Z-0.200 I-0.452 J0.003 K0.000 F100.000
G1 X50.561 Y-25.554 Z-0.300 F100.000
G3 X50.495 Y-25.550 Z-0.300 I-0.063 J-0.448 K0.000 F100.000
G1 X46.505 Y-25.550 Z-0.300 F100.000
G3 X46.050 Y-26.005 Z-0.300 I-0.003 J-0.452 K0.000 F100.000
G1 X46.050 Y-26.995 Z-0.300 F100.000
G3 X46.505 Y-27.450 Z-0.300 I0.452 J-0.003 K0.000 F100.000
G1 X50.495 Y-27.450 Z-0.300 F100.000
G3 X50.950 Y-26.995 Z-0.300 I0.003 J0.452 K0.000 F100.000
G1 X50.950 Y-26.005 Z-0.300 F100.000
G3 X50.561 Y-25.554 Z-0.300 I-0.452 J0.003 K0.000 F100.000
G1 X50.561 Y-25.554 Z-0.400 F100.000
G3 X50.495 Y-25.550 Z-0.400 I-0.063 J-0.448 K0.000 F100.000
G1 X46.505 Y-25.550 Z-0.400 F100.000
G3 X46.050 Y-26.005 Z-0.400 I-0.003 J-0.452 K0.000 F100.000
G1 X46.050 Y-26.995 Z-0.400 F100.000
G3 X46.505 Y-27.450 Z-0.400 I0.452 J-0.003 K0.000 F100.000
G1 X50.495 Y-27.450 Z-0.400 F100.000
G3 X50.950 Y-26.995 Z-0.400 I0.003 J0.452 K0.000 F100.000
G1 X50.950 Y-26.005 Z-0.400 F100.000
G3 X50.561 Y-25.554 Z-0.400 I-0.452 J0.003 K0.000 F100.000
G1 X50.561 Y-25.554 Z-0.500 F100.000
G3 X50.495 Y-25.550 Z-0.500 I-0.063 J-0.448 K0.000 F100.000
G1 X46.505 Y-25.550 Z-0.500 F100.000
G3 X46.050 Y-26.005 Z-0.500 I-0.003 J-0.452 K0.000 F100.000
G1 X46.050 Y-26.995 Z-0.500 F100.000
G3 X46.505 Y-27.450 Z-0.500 I0.452 J-0.003 K0.000 F100.000
G1 X50.495 Y-27.450 Z-0.500 F100.000
G3 X50.950 Y-26.995 Z-0.500 I0.003 J0.452 K0.000 F100.000
G1 X50.950 Y-26.005 Z-0.500 F100.000
G3 X50.561 Y-25.554 Z-0.500 I-0.452 J0.003 K0.000 F100.000
G1 X50.561 Y-25.554 Z-0.600 F100.000
G3 X50.495 Y-25.550 Z-0.600 I-0.063 J-0.448 K0.000 F100.000
G1 X46.505 Y-25.550 Z-0.600 F100.000
G3 X46.050 Y-26.005 Z-0.600 I-0.003 J-0.452 K0.000 F100.000
G1 X46.050 Y-26.995 Z-0.600 F100.000
G3 X46.505 Y-27.450 Z-0.600 I0.452 J-0.003 K0.000 F100.000
G1 X50.495 Y-27.450 Z-0.600 F100.000
G3 X50.950 Y-26.995 Z-0.600 I0.003 J0.452 K0.000 F100.000
G1 X50.950 Y-26.005 Z-0.600 F100.000
G3 X50.561 Y-25.554 Z-0.600 I-0.452 J0.003 K0.000 F100.000
G0 Z5.100
G0 Z5.100
G0 X50.561 Y-25.554
G0 X53.055 Y-25.934
G0 X53.055 Y-25.934 Z3.100
G1 X53.055 Y-25.934 Z-0.100 F100.000
G3 X53.050 Y-26.005 Z-0.100 I0.447 J-0.068 K0.000 F100.000
G3 X53.085 Y-26.672 Z-0.100 I1.694 J-0.245 K0.000 F100.000
G3 X53.505 Y-26.950 Z-0.100 I0.418 J0.175 K0.000 F100.000
G1 X55.495 Y-26.950 Z-0.100 F100.000
G3 X55.950 Y-26.495 Z-0.100 I0.003 J0.452 K0.000 F100.000
G3 X55.915 Y-25.828 Z-0.100 I-1.694 J0.245 K0.000 F100.000
G3 X55.495 Y-25.550 Z-0.100 I-0.418 J-0.175 K0.000 F100.000
G1 X53.505 Y-25.550 Z-0.100 F100.000
G3 X53.055 Y-25.934 Z-0.100 I-0.003 J-0.452 K0.000 F100.000
G1 X53.055 Y-25.934 Z-0.200 F100.000
G3 X53.050 Y-26.005 Z-0.200 I0.447 J-0.068 K0.000 F100.000
G3 X53.085 Y-26.672 Z-0.200 I1.694 J-0.245 K0.000 F100.000
G3 X53.505 Y-26.950 Z-0.200 I0.418 J0.175 K0.000 F100.000
G1 X55.495 Y-26.950 Z-0.200 F100.000
G3 X55.950 Y-26.495 Z-0.200 I0.003 J0.452 K0.000 F100.000
G3 X55.915 Y-25.828 Z-0.200 I-1.694 J0.245 K0.000 F100.000
G3 X55.495 Y-25.550 Z-0.200 I-0.418 J-0.175 K0.000 F100.000
G1 X53.505 Y-25.550 Z-0.200 F100.000
G3 X53.055 Y-25.934 Z-0.200 I-0.003 J-0.452 K0.000 F100.000
G1 X53.055 Y-25.934 Z-0.300 F100.000
G3 X53.050 Y-26.005 Z-0.300 I0.447 J-0.068 K0.000 F100.000
G3 X53.085 Y-26.672 Z-0.300 I1.694 J-0.245 K0.000 F100.000
G3 X53.505 Y-26.950 Z-0.300 I0.418 J0.175 K0.000 F100.000
G1 X55.495 Y-26.950 Z-0.300 F100.000
G3 X55.950 Y-26.495 Z-0.300 I0.003 J0.452 K0.000 F100.000
G3 X55.915 Y-25.828 Z-0.300 I-1.694 J0.245 K0.000 F100.000
G3 X55.495 Y-25.550 Z-0.300 I-0.418 J-0.175 K0.000 F100.000
G1 X53.505 Y-25.550 Z-0.300 F100.000
G3 X53.055 Y-25.934 Z-0.300 I-0.003 J-0.452 K0.000 F100.000
G1 X53.055 Y-25.934 Z-0.400 F100.000
G3 X53.050 Y-26.005 Z-0.400 I0.447 J-0.068 K0.000 F100.000
G3 X53.085 Y-26.672 Z-0.400 I1.694 J-0.245 K0.000 F100.000
G3 X53.505 Y-26.950 Z-0.400 I0.418 J0.175 K0.000 F100.000
G1 X55.495 Y-26.950 Z-0.400 F100.000
G3 X55.950 Y-26.495 Z-0.400 I0.003 J0.452 K0.000 F100.000
G3 X55.915 Y-25.828 Z-0.400 I-1.694 J0.245 K0.000 F100.000
G3 X55.495 Y-25.550 Z-0.400 I-0.418 J-0.175 K0.000 F100.000
G1 X53.505 Y-25.550 Z-0.400 F100.000
G3 X53.055 Y-25.934 Z-0.400 I-0.003 J-0.452 K0.000 F100.000
G1 X53.055 Y-25.934 Z-0.500 F100.000
G3 X53.050 Y-26.005 Z-0.500 I0.447 J-0.068 K0.000 F100.000
G3 X53.085 Y-26.672 Z-0.500 I1.694 J-0.245 K0.000 F100.000
G3 X53.505 Y-26.950 Z-0.500 I0.418 J0.175 K0.000 F100.000
G1 X55.495 Y-26.950 Z-0.500 F100.000
G3 X55.950 Y-26.495 Z-0.500 I0.003 J0.452 K0.000 F100.000
G3 X55.915 Y-25.828 Z-0.500 I-1.694 J0.245 K0.000 F100.000
G3 X55.495 Y-25.550 Z-0.500 I-0.418 J-0.175 K0.000 F100.000
G1 X53.505 Y-25.550 Z-0.500 F100.000
G3 X53.055 Y-25.934 Z-0.500 I-0.003 J-0.452 K0.000 F100.000
G1 X53.055 Y-25.934 Z-0.600 F100.000
G3 X53.050 Y-26.005 Z-0.600 I0.447 J-0.068 K0.000 F100.000
G3 X53.085 Y-26.672 Z-0.600 I1.694 J-0.245 K0.000 F100.000
G3 X53.505 Y-26.950 Z-0.600 I0.418 J0.175 K0.000 F100.000
G1 X55.495 Y-26.950 Z-0.600 F100.000
G3 X55.950 Y-26.495 Z-0.600 I0.003 J0.452 K0.000 F100.000
G3 X55.915 Y-25.828 Z-0.600 I-1.694 J0.245 K0.000 F100.000
G3 X55.495 Y-25.550 Z-0.600 I-0.418 J-0.175 K0.000 F100.000
G1 X53.505 Y-25.550 Z-0.600 F100.000
G3 X53.055 Y-25.934 Z-0.600 I-0.003 J-0.452 K0.000 F100.000
G0 Z5.100
G0 Z5.100
G0 X53.055 Y-25.934
G0 X43.950 Y-26.005
G0 X43.950 Y-26.005 Z3.100
G1 X43.950 Y-26.005 Z-0.100 F100.000
G3 X43.495 Y-25.550 Z-0.100 I-0.452 J0.003 K0.000 F100.000
G1 X38.505 Y-25.550 Z-0.100 F100.000
G3 X38.050 Y-26.005 Z-0.100 I-0.003 J-0.452 K0.000 F100.000
G1 X38.050 Y-27.995 Z-0.100 F100.000
G3 X38.505 Y-28.450 Z-0.100 I0.452 J-0.003 K0.000 F100.000
G1 X43.495 Y-28.450 Z-0.100 F100.000
G3 X43.950 Y-27.995 Z-0.100 I0.003 J0.452 K0.000 F100.000
G1 X43.950 Y-26.005 Z-0.100 F100.000
G1 X43.950 Y-26.005 Z-0.200 F100.000
G3 X43.495 Y-25.550 Z-0.200 I-0.452 J0.003 K0.000 F100.000
G1 X38.505 Y-25.550 Z-0.200 F100.000
G3 X38.050 Y-26.005 Z-0.200 I-0.003 J-0.452 K0.000 F100.000
G1 X38.050 Y-27.995 Z-0.200 F100.000
G3 X38.505 Y-28.450 Z-0.200 I0.452 J-0.003 K0.000 F100.000
G1 X43.495 Y-28.450 Z-0.200 F100.000
G3 X43.950 Y-27.995 Z-0.200 I0.003 J0.452 K0.000 F100.000
G1 X43.950 Y-26.005 Z-0.200 F100.000
G1 X43.950 Y-26.005 Z-0.300 F100.000
G3 X43.495 Y-25.550 Z-0.300 I-0.452 J0.003 K0.000 F100.000
G1 X38.505 Y-25.550 Z-0.300 F100.000
G3 X38.050 Y-26.005 Z-0.300 I-0.003 J-0.452 K0.000 F100.000
G1 X38.050 Y-27.995 Z-0.300 F100.000
G3 X38.505 Y-28.450 Z-0.300 I0.452 J-0.003 K0.000 F100.000
G1 X43.495 Y-28.450 Z-0.300 F100.000
G3 X43.950 Y-27.995 Z-0.300 I0.003 J0.452 K0.000 F100.000
G1 X43.950 Y-26.005 Z-0.300 F100.000
G1 X43.950 Y-26.005 Z-0.400 F100.000
G3 X43.495 Y-25.550 Z-0.400 I-0.452 J0.003 K0.000 F100.000
G1 X38.505 Y-25.550 Z-0.400 F100.000
G3 X38.050 Y-26.005 Z-0.400 I-0.003 J-0.452 K0.000 F100.000
G1 X38.050 Y-27.995 Z-0.400 F100.000
G3 X38.505 Y-28.450 Z-0.400 I0.452 J-0.003 K0.000 F100.000
G1 X43.495 Y-28.450 Z-0.400 F100.000
G3 X43.950 Y-27.995 Z-0.400 I0.003 J0.452 K0.000 F100.000
G1 X43.950 Y-26.005 Z-0.400 F100.000
G1 X43.950 Y-26.005 Z-0.500 F100.000
G3 X43.495 Y-25.550 Z-0.500 I-0.452 J0.003 K0.000 F100.000
G1 X38.505 Y-25.550 Z-0.500 F100.000
G3 X38.050 Y-26.005 Z-0.500 I-0.003 J-0.452 K0.000 F100.000
G1 X38.050 Y-27.995 Z-0.500 F100.000
G3 X38.505 Y-28.450 Z-0.500 I0.452 J-0.003 K0.000 F100.000
G1 X43.495 Y-28.450 Z-0.500 F100.000
G3 X43.950 Y-27.995 Z-0.500 I0.003 J0.452 K0.000 F100.000
G1 X43.950 Y-26.005 Z-0.500 F100.000
G1 X43.950 Y-26.005 Z-0.600 F100.000
G3 X43.495 Y-25.550 Z-0.600 I-0.452 J0.003 K0.000 F100.000
G1 X38.505 Y-25.550 Z-0.600 F100.000
G3 X38.050 Y-26.005 Z-0.600 I-0.003 J-0.452 K0.000 F100.000
G1 X38.050 Y-27.995 Z-0.600 F100.000
G3 X38.505 Y-28.450 Z-0.600 I0.452 J-0.003 K0.000 F100.000
G1 X43.495 Y-28.450 Z-0.600 F100.000
G3 X43.950 Y-27.995 Z-0.600 I0.003 J0.452 K0.000 F100.000
G1 X43.950 Y-26.005 Z-0.600 F100.000
G0 Z5.100
G0 Z5.100
G0 X43.950 Y-26.005
G0 X34.950 Y-26.003
G0 X34.950 Y-26.003 Z3.100
G1 X34.950 Y-26.003 Z-0.100 F100.000
G3 X33.997 Y-25.050 Z-0.100 I-0.951 J0.002 K0.000 F100.000
G1 X29.003 Y-25.050 Z-0.100 F100.000
G3 X28.050 Y-26.003 Z-0.100 I-0.002 J-0.951 K0.000 F100.000
G1 X28.050 Y-27.997 Z-0.100 F100.000
G3 X29.003 Y-28.950 Z-0.100 I0.951 J-0.002 K0.000 F100.000
G1 X33.997 Y-28.950 Z-0.100 F100.000
G3 X34.950 Y-27.997 Z-0.100 I0.002 J0.951 K0.000 F100.000
G1 X34.950 Y-26.003 Z-0.100 F100.000
G1 X34.950 Y-26.003 Z-0.200 F100.000
G3 X33.997 Y-25.050 Z-0.200 I-0.951 J0.002 K0.000 F100.000
G1 X29.003 Y-25.050 Z-0.200 F100.000
G3 X28.050 Y-26.003 Z-0.200 I-0.002 J-0.951 K0.000 F100.000
G1 X28.050 Y-27.997 Z-0.200 F100.000
G3 X29.003 Y-28.950 Z-0.200 I0.951 J-0.002 K0.000 F100.000
G1 X33.997 Y-28.950 Z-0.200 F100.000
G3 X34.950 Y-27.997 Z-0.200 I0.002 J0.951 K0.000 F100.000
G1 X34.950 Y-26.003 Z-0.200 F100.000
G1 X34.950 Y-26.003 Z-0.300 F100.000
G3 X33.997 Y-25.050 Z-0.300 I-0.951 J0.002 K0.000 F100.000
G1 X29.003 Y-25.050 Z-0.300 F100.000
G3 X28.050 Y-26.003 Z-0.300 I-0.002 J-0.951 K0.000 F100.000
G1 X28.050 Y-27.997 Z-0.300 F100.000
G3 X29.003 Y-28.950 Z-0.300 I0.951 J-0.002 K0.000 F100.000
G1 X33.997 Y-28.950 Z-0.300 F100.000
G3 X34.950 Y-27.997 Z-0.300 I0.002 J0.951 K0.000 F100.000
G1 X34.950 Y-26.003 Z-0.300 F100.000
G1 X34.950 Y-26.003 Z-0.400 F100.000
G3 X33.997 Y-25.050 Z-0.400 I-0.951 J0.002 K0.000 F100.000
G1 X29.003 Y-25.050 Z-0.400 F100.000
G3 X28.050 Y-26.003 Z-0.400 I-0.002 J-0.951 K0.000 F100.000
G1 X28.050 Y-27.997 Z-0.400 F100.000
G3 X29.003 Y-28.950 Z-0.400 I0.951 J-0.002 K0.000 F100.000
G1 X33.997 Y-28.950 Z-0.400 F100.000
G3 X34.950 Y-27.997 Z-0.400 I0.002 J0.951 K0.000 F100.000
G1 X34.950 Y-26.003 Z-0.400 F100.000
G1 X34.950 Y-26.003 Z-0.500 F100.000
G3 X33.997 Y-25.050 Z-0.500 I-0.951 J0.002 K0.000 F100.000
G1 X29.003 Y-25.050 Z-0.500 F100.000
G3 X28.050 Y-26.003 Z-0.500 I-0.002 J-0.951 K0.000 F100.000
G1 X28.050 Y-27.997 Z-0.500 F100.000
G3 X29.003 Y-28.950 Z-0.500 I0.951 J-0.002 K0.000 F100.000
G1 X33.997 Y-28.950 Z-0.500 F100.000
G3 X34.950 Y-27.997 Z-0.500 I0.002 J0.951 K0.000 F100.000
G1 X34.950 Y-26.003 Z-0.500 F100.000
G1 X34.950 Y-26.003 Z-0.600 F100.000
G3 X33.997 Y-25.050 Z-0.600 I-0.951 J0.002 K0.000 F100.000
G1 X29.003 Y-25.050 Z-0.600 F100.000
G3 X28.050 Y-26.003 Z-0.600 I-0.002 J-0.951 K0.000 F100.000
G1 X28.050 Y-27.997 Z-0.600 F100.000
G3 X29.003 Y-28.950 Z-0.600 I0.951 J-0.002 K0.000 F100.000
G1 X33.997 Y-28.950 Z-0.600 F100.000
G3 X34.950 Y-27.997 Z-0.600 I0.002 J0.951 K0.000 F100.000
G1 X34.950 Y-26.003 Z-0.600 F100.000
G0 Z5.100
G0 Z5.100
G0 X34.950 Y-26.003
G0 X23.950
G0 X23.950 Z3.100
G1 X23.950 Y-26.003 Z-0.100 F100.000
G3 X22.997 Y-25.050 Z-0.100 I-0.951 J0.002 K0.000 F100.000
G1 X17.003 Y-25.050 Z-0.100 F100.000
G3 X16.050 Y-26.003 Z-0.100 I-0.002 J-0.951 K0.000 F100.000
G1 X16.050 Y-28.997 Z-0.100 F100.000
G3 X17.003 Y-29.950 Z-0.100 I0.951 J-0.002 K0.000 F100.000
G1 X22.997 Y-29.950 Z-0.100 F100.000
G3 X23.950 Y-28.997 Z-0.100 I0.002 J0.951 K0.000 F100.000
G1 X23.950 Y-26.003 Z-0.100 F100.000
G1 X23.950 Y-26.003 Z-0.200 F100.000
G3 X22.997 Y-25.050 Z-0.200 I-0.951 J0.002 K0.000 F100.000
G1 X17.003 Y-25.050 Z-0.200 F100.000
G3 X16.050 Y-26.003 Z-0.200 I-0.002 J-0.951 K0.000 F100.000
G1 X16.050 Y-28.997 Z-0.200 F100.000
G3 X17.003 Y-29.950 Z-0.200 I0.951 J-0.002 K0.000 F100.000
G1 X22.997 Y-29.950 Z-0.200 F100.000
G3 X23.950 Y-28.997 Z-0.200 I0.002 J0.951 K0.000 F100.000
G1 X23.950 Y-26.003 Z-0.200 F100.000
G1 X23.950 Y-26.003 Z-0.300 F100.000
G3 X22.997 Y-25.050 Z-0.300 I-0.951 J0.002 K0.000 F100.000
G1 X17.003 Y-25.050 Z-0.300 F100.000
G3 X16.050 Y-26.003 Z-0.300 I-0.002 J-0.951 K0.000 F100.000
G1 X16.050 Y-28.997 Z-0.300 F100.000
G3 X17.003 Y-29.950 Z-0.300 I0.951 J-0.002 K0.000 F100.000
G1 X22.997 Y-29.950 Z-0.300 F100.000
G3 X23.950 Y-28.997 Z-0.300 I0.002 J0.951 K0.000 F100.000
G1 X23.950 Y-26.003 Z-0.300 F100.000
G1 X23.950 Y-26.003 Z-0.400 F100.000
G3 X22.997 Y-25.050 Z-0.400 I-0.951 J0.002 K0.000 F100.000
G1 X17.003 Y-25.050 Z-0.400 F100.000
G3 X16.050 Y-26.003 Z-0.400 I-0.002 J-0.951 K0.000 F100.000
G1 X16.050 Y-28.997 Z-0.400 F100.000
G3 X17.003 Y-29.950 Z-0.400 I0.951 J-0.002 K0.000 F100.000
G1 X22.997 Y-29.950 Z-0.400 F100.000
G3 X23.950 Y-28.997 Z-0.400 I0.002 J0.951 K0.000 F100.000
G1 X23.950 Y-26.003 Z-0.400 F100.000
G1 X23.950 Y-26.003 Z-0.500 F100.000
G3 X22.997 Y-25.050 Z-0.500 I-0.951 J0.002 K0.000 F100.000
G1 X17.003 Y-25.050 Z-0.500 F100.000
G3 X16.050 Y-26.003 Z-0.500 I-0.002 J-0.951 K0.000 F100.000
G1 X16.050 Y-28.997 Z-0.500 F100.000
G3 X17.003 Y-29.950 Z-0.500 I0.951 J-0.002 K0.000 F100.000
G1 X22.997 Y-29.950 Z-0.500 F100.000
G3 X23.950 Y-28.997 Z-0.500 I0.002 J0.951 K0.000 F100.000
G1 X23.950 Y-26.003 Z-0.500 F100.000
G1 X23.950 Y-26.003 Z-0.600 F100.000
G3 X22.997 Y-25.050 Z-0.600 I-0.951 J0.002 K0.000 F100.000
G1 X17.003 Y-25.050 Z-0.600 F100.000
G3 X16.050 Y-26.003 Z-0.600 I-0.002 J-0.951 K0.000 F100.000
G1 X16.050 Y-28.997 Z-0.600 F100.000
G3 X17.003 Y-29.950 Z-0.600 I0.951 J-0.002 K0.000 F100.000
G1 X22.997 Y-29.950 Z-0.600 F100.000
G3 X23.950 Y-28.997 Z-0.600 I0.002 J0.951 K0.000 F100.000
G1 X23.950 Y-26.003 Z-0.600 F100.000
G0 Z5.100
G0 Z5.100
G0 X23.950 Y-26.003
G0 X10.950
G0 X10.950 Z3.100
G1 X10.950 Y-26.003 Z-0.100 F100.000
G3 X9.997 Y-25.050 Z-0.100 I-0.951 J0.002 K0.000 F100.000
G1 X2.003 Y-25.050 Z-0.100 F100.000
G3 X1.050 Y-26.003 Z-0.100 I-0.002 J-0.951 K0.000 F100.000
G1 X1.050 Y-29.997 Z-0.100 F100.000
G3 X2.003 Y-30.950 Z-0.100 I0.951 J-0.002 K0.000 F100.000
G1 X9.997 Y-30.950 Z-0.100 F100.000
G3 X10.950 Y-29.997 Z-0.100 I0.002 J0.951 K0.000 F100.000
G1 X10.950 Y-26.003 Z-0.100 F100.000
G1 X10.950 Y-26.003 Z-0.200 F100.000
G3 X9.997 Y-25.050 Z-0.200 I-0.951 J0.002 K0.000 F100.000
G1 X2.003 Y-25.050 Z-0.200 F100.000
G3 X1.050 Y-26.003 Z-0.200 I-0.002 J-0.951 K0.000 F100.000
G1 X1.050 Y-29.997 Z-0.200 F100.000
G3 X2.003 Y-30.950 Z-0.200 I0.951 J-0.002 K0.000 F100.000
G1 X9.997 Y-30.950 Z-0.200 F100.000
G3 X10.950 Y-29.997 Z-0.200 I0.002 J0.951 K0.000 F100.000
G1 X10.950 Y-26.003 Z-0.200 F100.000
G1 X10.950 Y-26.003 Z-0.300 F100.000
G3 X9.997 Y-25.050 Z-0.300 I-0.951 J0.002 K0.000 F100.000
G1 X2.003 Y-25.050 Z-0.300 F100.000
G3 X1.050 Y-26.003 Z-0.300 I-0.002 J-0.951 K0.000 F100.000
G1 X1.050 Y-29.997 Z-0.300 F100.000
G3 X2.003 Y-30.950 Z-0.300 I0.951 J-0.002 K0.000 F100.000
G1 X9.997 Y-30.950 Z-0.300 F100.000
G3 X10.950 Y-29.997 Z-0.300 I0.002 J0.951 K0.000 F100.000
G1 X10.950 Y-26.003 Z-0.300 F100.000
G1 X10.950 Y-26.003 Z-0.400 F100.000
G3 X9.997 Y-25.050 Z-0.400 I-0.951 J0.002 K0.000 F100.000
G1 X2.003 Y-25.050 Z-0.400 F100.000
G3 X1.050 Y-26.003 Z-0.400 I-0.002 J-0.951 K0.000 F100.000
G1 X1.050 Y-29.997 Z-0.400 F100.000
G3 X2.003 Y-30.950 Z-0.400 I0.951 J-0.002 K0.000 F100.000
G1 X9.997 Y-30.950 Z-0.400 F100.000
G3 X10.950 Y-29.997 Z-0.400 I0.002 J0.951 K0.000 F100.000
G1 X10.950 Y-26.003 Z-0.400 F100.000
G1 X10.950 Y-26.003 Z-0.500 F100.000
G3 X9.997 Y-25.050 Z-0.500 I-0.951 J0.002 K0.000 F100.000
G1 X2.003 Y-25.050 Z-0.500 F100.000
G3 X1.050 Y-26.003 Z-0.500 I-0.002 J-0.951 K0.000 F100.000
G1 X1.050 Y-29.997 Z-0.500 F100.000
G3 X2.003 Y-30.950 Z-0.500 I0.951 J-0.002 K0.000 F100.000
G1 X9.997 Y-30.950 Z-0.500 F100.000
G3 X10.950 Y-29.997 Z-0.500 I0.002 J0.951 K0.000 F100.000
G1 X10.950 Y-26.003 Z-0.500 F100.000
G1 X10.950 Y-26.003 Z-0.600 F100.000
G3 X9.997 Y-25.050 Z-0.600 I-0.951 J0.002 K0.000 F100.000
G1 X2.003 Y-25.050 Z-0.600 F100.000
G3 X1.050 Y-26.003 Z-0.600 I-0.002 J-0.951 K0.000 F100.000
G1 X1.050 Y-29.997 Z-0.600 F100.000
G3 X2.003 Y-30.950 Z-0.600 I0.951 J-0.002 K0.000 F100.000
G1 X9.997 Y-30.950 Z-0.600 F100.000
G3 X10.950 Y-29.997 Z-0.600 I0.002 J0.951 K0.000 F100.000
G1 X10.950 Y-26.003 Z-0.600 F100.000
G0 Z5.100
G0 Z5.100
G0 X10.950 Y-26.003
G0 X16.050 Y-4.950
G0 X16.050 Y-4.950 Z3.100
G1 X16.050 Y-4.950 Z-0.100 F100.000
G1 X23.950 Y-4.950 Z-0.100 F100.000
G1 X23.950 Y-1.050 Z-0.100 F100.000
G1 X16.050 Y-1.050 Z-0.100 F100.000
G1 X16.050 Y-4.950 Z-0.100 F100.000
G1 X16.050 Y-4.950 Z-0.200 F100.000
G1 X23.950 Y-4.950 Z-0.200 F100.000
G1 X23.950 Y-1.050 Z-0.200 F100.000
G1 X16.050 Y-1.050 Z-0.200 F100.000
G1 X16.050 Y-4.950 Z-0.200 F100.000
G1 X16.050 Y-4.950 Z-0.300 F100.000
G1 X23.950 Y-4.950 Z-0.300 F100.000
G1 X23.950 Y-1.050 Z-0.300 F100.000
G1 X16.050 Y-1.050 Z-0.300 F100.000
G1 X16.050 Y-4.950 Z-0.300 F100.000
G1 X16.050 Y-4.950 Z-0.400 F100.000
G1 X23.950 Y-4.950 Z-0.400 F100.000
G1 X23.950 Y-1.050 Z-0.400 F100.000
G1 X16.050 Y-1.050 Z-0.400 F100.000
G1 X16.050 Y-4.950 Z-0.400 F100.000
G1 X16.050 Y-4.950 Z-0.500 F100.000
G1 X23.950 Y-4.950 Z-0.500 F100.000
G1 X23.950 Y-1.050 Z-0.500 F100.000
G1 X16.050 Y-1.050 Z-0.500 F100.000
G1 X16.050 Y-4.950 Z-0.500 F100.000
G1 X16.050 Y-4.950 Z-0.600 F100.000
G1 X23.950 Y-4.950 Z-0.600 F100.000
G1 X23.950 Y-1.050 Z-0.600 F100.000
G1 X16.050 Y-1.050 Z-0.600 F100.000
G1 X16.050 Y-4.950 Z-0.600 F100.000
G0 Z5.100
G0 Z5.100
G0 X16.050 Y-4.950
G0 X28.050 Y-3.950
G0 X28.050 Y-3.950 Z3.100
G1 X28.050 Y-3.950 Z-0.100 F100.000
G1 X34.950 Y-3.950 Z-0.100 F100.000
G1 X34.950 Y-1.050 Z-0.100 F100.000
G1 X28.050 Y-1.050 Z-0.100 F100.000
G1 X28.050 Y-3.950 Z-0.100 F100.000
G1 X28.050 Y-3.950 Z-0.200 F100.000
G1 X34.950 Y-3.950 Z-0.200 F100.000
G1 X34.950 Y-1.050 Z-0.200 F100.000
G1 X28.050 Y-1.050 Z-0.200 F100.000
G1 X28.050 Y-3.950 Z-0.200 F100.000
G1 X28.050 Y-3.950 Z-0.300 F100.000
G1 X34.950 Y-3.950 Z-0.300 F100.000
G1 X34.950 Y-1.050 Z-0.300 F100.000
G1 X28.050 Y-1.050 Z-0.300 F100.000
G1 X28.050 Y-3.950 Z-0.300 F100.000
G1 X28.050 Y-3.950 Z-0.400 F100.000
G1 X34.950 Y-3.950 Z-0.400 F100.000
G1 X34.950 Y-1.050 Z-0.400 F100.000
G1 X28.050 Y-1.050 Z-0.400 F100.000
G1 X28.050 Y-3.950 Z-0.400 F100.000
G1 X28.050 Y-3.950 Z-0.500 F100.000
G1 X34.950 Y-3.950 Z-0.500 F100.000
G1 X34.950 Y-1.050 Z-0.500 F100.000
G1 X28.050 Y-1.050 Z-0.500 F100.000
G1 X28.050 Y-3.950 Z-0.500 F100.000
G1 X28.050 Y-3.950 Z-0.600 F100.000
G1 X34.950 Y-3.950 Z-0.600 F100.000
G1 X34.950 Y-1.050 Z-0.600 F100.000
G1 X28.050 Y-1.050 Z-0.600 F100.000
G1 X28.050 Y-3.950 Z-0.600 F100.000
G0 Z5.100
G0 Z5.100
G0 X28.050 Y-3.950
G0 X38.050
G0 X38.050 Z3.100
G1 X38.050 Y-3.950 Z-0.100 F100.000
G1 X42.950 Y-3.950 Z-0.100 F100.000
G1 X42.950 Y-1.050 Z-0.100 F100.000
G1 X38.050 Y-1.050 Z-0.100 F100.000
G1 X38.050 Y-3.950 Z-0.100 F100.000
G1 X38.050 Y-3.950 Z-0.200 F100.000
G1 X42.950 Y-3.950 Z-0.200 F100.000
G1 X42.950 Y-1.050 Z-0.200 F100.000
G1 X38.050 Y-1.050 Z-0.200 F100.000
G1 X38.050 Y-3.950 Z-0.200 F100.000
G1 X38.050 Y-3.950 Z-0.300 F100.000
G1 X42.950 Y-3.950 Z-0.300 F100.000
G1 X42.950 Y-1.050 Z-0.300 F100.000
G1 X38.050 Y-1.050 Z-0.300 F100.000
G1 X38.050 Y-3.950 Z-0.300 F100.000
G1 X38.050 Y-3.950 Z-0.400 F100.000
G1 X42.950 Y-3.950 Z-0.400 F100.000
G1 X42.950 Y-1.050 Z-0.400 F100.000
G1 X38.050 Y-1.050 Z-0.400 F100.000
G1 X38.050 Y-3.950 Z-0.400 F100.000
G1 X38.050 Y-3.950 Z-0.500 F100.000
G1 X42.950 Y-3.950 Z-0.500 F100.000
G1 X42.950 Y-1.050 Z-0.500 F100.000
G1 X38.050 Y-1.050 Z-0.500 F100.000
G1 X38.050 Y-3.950 Z-0.500 F100.000
G1 X38.050 Y-3.950 Z-0.600 F100.000
G1 X42.950 Y-3.950 Z-0.600 F100.000
G1 X42.950 Y-1.050 Z-0.600 F100.000
G1 X38.050 Y-1.050 Z-0.600 F100.000
G1 X38.050 Y-3.950 Z-0.600 F100.000
G0 Z5.100
G0 Z5.100
G0 X38.050 Y-3.950
G0 X45.050 Y-2.950
G0 X45.050 Y-2.950 Z3.100
G1 X45.050 Y-2.950 Z-0.100 F100.000
G1 X48.950 Y-2.950 Z-0.100 F100.000
G1 X48.950 Y-1.050 Z-0.100 F100.000
G1 X45.050 Y-1.050 Z-0.100 F100.000
G1 X45.050 Y-2.950 Z-0.100 F100.000
G1 X45.050 Y-2.950 Z-0.200 F100.000
G1 X48.950 Y-2.950 Z-0.200 F100.000
G1 X48.950 Y-1.050 Z-0.200 F100.000
G1 X45.050 Y-1.050 Z-0.200 F100.000
G1 X45.050 Y-2.950 Z-0.200 F100.000
G1 X45.050 Y-2.950 Z-0.300 F100.000
G1 X48.950 Y-2.950 Z-0.300 F100.000
G1 X48.950 Y-1.050 Z-0.300 F100.000
G1 X45.050 Y-1.050 Z-0.300 F100.000
G1 X45.050 Y-2.950 Z-0.300 F100.000
G1 X45.050 Y-2.950 Z-0.400 F100.000
G1 X48.950 Y-2.950 Z-0.400 F100.000
G1 X48.950 Y-1.050 Z-0.400 F100.000
G1 X45.050 Y-1.050 Z-0.400 F100.000
G1 X45.050 Y-2.950 Z-0.400 F100.000
G1 X45.050 Y-2.950 Z-0.500 F100.000
G1 X48.950 Y-2.950 Z-0.500 F100.000
G1 X48.950 Y-1.050 Z-0.500 F100.000
G1 X45.050 Y-1.050 Z-0.500 F100.000
G1 X45.050 Y-2.950 Z-0.500 F100.000
G1 X45.050 Y-2.950 Z-0.600 F100.000
G1 X48.950 Y-2.950 Z-0.600 F100.000
G1 X48.950 Y-1.050 Z-0.600 F100.000
G1 X45.050 Y-1.050 Z-0.600 F100.000
G1 X45.050 Y-2.950 Z-0.600 F100.000
G0 Z5.100
G0 Z5.100
G0 X45.050 Y-2.950
G0 X50.050 Y-1.950
G0 X50.050 Y-1.950 Z3.100
G1 X50.050 Y-1.950 Z-0.100 F100.000
G1 X51.950 Y-1.950 Z-0.100 F100.000
G1 X51.950 Y-1.050 Z-0.100 F100.000
G1 X50.050 Y-1.050 Z-0.100 F100.000
G1 X50.050 Y-1.950 Z-0.100 F100.000
G1 X50.050 Y-1.950 Z-0.200 F100.000
G1 X51.950 Y-1.950 Z-0.200 F100.000
G1 X51.950 Y-1.050 Z-0.200 F100.000
G1 X50.050 Y-1.050 Z-0.200 F100.000
G1 X50.050 Y-1.950 Z-0.200 F100.000
G1 X50.050 Y-1.950 Z-0.300 F100.000
G1 X51.950 Y-1.950 Z-0.300 F100.000
G1 X51.950 Y-1.050 Z-0.300 F100.000
G1 X50.050 Y-1.050 Z-0.300 F100.000
G1 X50.050 Y-1.950 Z-0.300 F100.000
G1 X50.050 Y-1.950 Z-0.400 F100.000
G1 X51.950 Y-1.950 Z-0.400 F100.000
G1 X51.950 Y-1.050 Z-0.400 F100.000
G1 X50.050 Y-1.050 Z-0.400 F100.000
G1 X50.050 Y-1.950 Z-0.400 F100.000
G1 X50.050 Y-1.950 Z-0.500 F100.000
G1 X51.950 Y-1.950 Z-0.500 F100.000
G1 X51.950 Y-1.050 Z-0.500 F100.000
G1 X50.050 Y-1.050 Z-0.500 F100.000
G1 X50.050 Y-1.950 Z-0.500 F100.000
G1 X50.050 Y-1.950 Z-0.600 F100.000
G1 X51.950 Y-1.950 Z-0.600 F100.000
G1 X51.950 Y-1.050 Z-0.600 F100.000
G1 X50.050 Y-1.050 Z-0.600 F100.000
G1 X50.050 Y-1.950 Z-0.600 F100.000
G0 Z5.100
G0 Z5.100
G0 X50.050 Y-1.950
G0 X52.550 Y-1.450
G0 X52.550 Y-1.450 Z3.100
G1 X52.550 Y-1.450 Z-0.100 F100.000
G1 X53.450 Y-1.450 Z-0.100 F100.000
G1 X53.450 Y-1.050 Z-0.100 F100.000
G1 X52.550 Y-1.050 Z-0.100 F100.000
G1 X52.550 Y-1.450 Z-0.100 F100.000
G1 X52.550 Y-1.450 Z-0.200 F100.000
G1 X53.450 Y-1.450 Z-0.200 F100.000
G1 X53.450 Y-1.050 Z-0.200 F100.000
G1 X52.550 Y-1.050 Z-0.200 F100.000
G1 X52.550 Y-1.450 Z-0.200 F100.000
G1 X52.550 Y-1.450 Z-0.300 F100.000
G1 X53.450 Y-1.450 Z-0.300 F100.000
G1 X53.450 Y-1.050 Z-0.300 F100.000
G1 X52.550 Y-1.050 Z-0.300 F100.000
G1 X52.550 Y-1.450 Z-0.300 F100.000
G1 X52.550 Y-1.450 Z-0.400 F100.000
G1 X53.450 Y-1.450 Z-0.400 F100.000
G1 X53.450 Y-1.050 Z-0.400 F100.000
G1 X52.550 Y-1.050 Z-0.400 F100.000
G1 X52.550 Y-1.450 Z-0.400 F100.000
G1 X52.550 Y-1.450 Z-0.500 F100.000
G1 X53.450 Y-1.450 Z-0.500 F100.000
G1 X53.450 Y-1.050 Z-0.500 F100.000
G1 X52.550 Y-1.050 Z-0.500 F100.000
G1 X52.550 Y-1.450 Z-0.500 F100.000
G1 X52.550 Y-1.450 Z-0.600 F100.000
G1 X53.450 Y-1.450 Z-0.600 F100.000
G1 X53.450 Y-1.050 Z-0.600 F100.000
G1 X52.550 Y-1.050 Z-0.600 F100.000
G1 X52.550 Y-1.450 Z-0.600 F100.000
G0 Z5.100
G0 Z5.100
(Finish operation: Profile)
(Begin postamble)
M5
G17 G90
M2
