(Exported by FreeCAD)
(Post Processor: grbl_post)
(Output Time:2023-03-18 20:37:28.883634)
(Begin preamble)
G17 G90
G21
(Begin operation: G54)
(Path: G54)
G54
G0 Z5.000
(Finish operation: G54)
(Begin operation: ballend-010mm004)
(Path: ballend-010mm004)
(ballend-010mm004)
(Begin toolchange)
( M6 T3 )
M3 S10000
(Finish operation: ballend-010mm004)
(Begin operation: ENGRAVE 0.1MM)
(Path: ENGRAVE 0.1MM)
(ENGRAVE 0.1MM)
G0 Z0.500
G0 X16.354 Y-1.331
G1 X16.354 Y-1.331 Z-0.200 F100.000
G3 X15.961 Y-1.171 Z-0.200 I-0.387 J-0.387 K0.000 F200.000
G3 X15.970 Y-2.266 Z-0.200 I0.007 J-0.548 K0.000 F200.000
G3 X16.354 Y-1.331 Z-0.200 I-0.004 J0.548 K0.000 F200.000
G0 Z0.500
G0 X16.336 Y-1.348 Z0.500
G0 X16.336 Y-1.348 Z0.500
G1 X16.336 Y-1.348 Z-0.200 F100.000
G3 X16.243 Y-1.274 Z-0.200 I-0.370 J-0.368 K0.000 F200.000
G3 X15.693 Y-2.167 Z-0.200 I-0.273 J-0.448 K0.000 F200.000
G3 X15.962 Y-2.238 Z-0.200 I0.262 J0.454 K0.000 F200.000
G3 X16.336 Y-1.348 Z-0.200 I0.004 J0.522 K0.000 F200.000
G0 Z0.500
G0 Z0.500
G0 X16.336 Y-1.348
G0 X16.796 Y-1.365
G0 X16.796 Y-1.365
G1 X16.796 Y-1.365 Z-0.200 F100.000
G3 X16.822 Y-1.933 Z-0.200 I3.465 J-0.126 K0.000 F200.000
G3 X17.487 Y-2.207 Z-0.200 I0.431 J0.103 K0.000 F200.000
G3 X17.701 Y-1.797 Z-0.200 I-0.239 J0.385 K0.000 F200.000
G1 X17.701 Y-1.185 Z-0.200 F200.000
G1 X17.669 Y-1.185 Z-0.200 F200.000
G2 X17.652 Y-1.945 Z-0.200 I-3.130 J-0.311 K0.000 F200.000
G2 X16.840 Y-1.804 Z-0.200 I-0.397 J0.120 K0.000 F200.000
G1 X16.840 Y-1.185 Z-0.200 F200.000
G1 X16.808 Y-1.185 Z-0.200 F200.000
G3 X16.796 Y-1.365 Z-0.200 I3.453 J-0.306 K0.000 F200.000
G0 Z0.500
G0 Z0.500
G0 X16.796 Y-1.365
G0 X17.954 Y-1.210
G0 X17.954 Y-1.210
G1 X17.954 Y-1.210 Z-0.200 F100.000
G1 X18.312 Y-1.210 Z-0.200 F200.000
G2 X18.362 Y-1.260 Z-0.200 I-0.000 J-0.050 K0.000 F200.000
G1 X18.362 Y-2.253 Z-0.200 F200.000
G1 X18.394 Y-2.253 Z-0.200 F200.000
G1 X18.394 Y-1.260 Z-0.200 F200.000
G2 X18.444 Y-1.210 Z-0.200 I0.050 J-0.000 K0.000 F200.000
G1 X18.802 Y-1.210 Z-0.200 F200.000
G1 X18.802 Y-1.185 Z-0.200 F200.000
G1 X17.954 Y-1.185 Z-0.200 F200.000
G1 X17.954 Y-1.210 Z-0.200 F200.000
G0 Z0.500
G0 X18.366 Y-1.210 Z0.500
G0 X18.366 Y-1.210 Z0.500
G1 X18.366 Y-1.210 Z-0.200 F100.000
G1 X18.378 Y-1.239 Z-0.200 F200.000
G1 X18.390 Y-1.210 Z-0.200 F200.000
G1 X18.366 Y-1.210 Z-0.200 F200.000
G0 Z0.500
G0 Z0.500
G0 X18.366 Y-1.210
G0 X26.870 Y-1.671
G0 X26.870 Y-1.671
G1 X26.870 Y-1.671 Z-0.200 F100.000
G1 X26.870 Y-1.765 Z-0.200 F200.000
G1 X27.172 Y-1.765 Z-0.200 F200.000
G2 X27.222 Y-1.815 Z-0.200 I-0.000 J-0.050 K0.000 F200.000
G1 X27.222 Y-2.117 Z-0.200 F200.000
G1 X27.315 Y-2.117 Z-0.200 F200.000
G1 X27.315 Y-1.815 Z-0.200 F200.000
G2 X27.365 Y-1.765 Z-0.200 I0.050 J-0.000 K0.000 F200.000
G1 X27.666 Y-1.765 Z-0.200 F200.000
G1 X27.666 Y-1.671 Z-0.200 F200.000
G1 X27.365 Y-1.671 Z-0.200 F200.000
G2 X27.315 Y-1.621 Z-0.200 I0.000 J0.050 K0.000 F200.000
G1 X27.315 Y-1.321 Z-0.200 F200.000
G1 X27.222 Y-1.321 Z-0.200 F200.000
G1 X27.222 Y-1.621 Z-0.200 F200.000
G2 X27.172 Y-1.671 Z-0.200 I-0.050 J0.000 K0.000 F200.000
G1 X26.870 Y-1.671 Z-0.200 F200.000
G0 Z0.500
G0 X27.179 Y-1.718 Z0.500
G0 X27.179 Y-1.718 Z0.500
G1 X27.179 Y-1.718 Z-0.200 F100.000
G2 X27.269 Y-1.807 Z-0.200 I0.000 J-0.089 K0.000 F200.000
G2 X27.358 Y-1.718 Z-0.200 I0.089 J-0.000 K0.000 F200.000
G2 X27.269 Y-1.629 Z-0.200 I-0.000 J0.089 K0.000 F200.000
G2 X27.179 Y-1.718 Z-0.200 I-0.089 J0.000 K0.000 F200.000
G0 Z0.500
G0 X27.240 Z0.500
G0 X27.240 Z0.500
G1 X27.240 Y-1.718 Z-0.200 F100.000
G2 X27.269 Y-1.746 Z-0.200 I0.000 J-0.029 K0.000 F200.000
G2 X27.297 Y-1.718 Z-0.200 I0.029 J-0.000 K0.000 F200.000
G2 X27.269 Y-1.690 Z-0.200 I-0.000 J0.029 K0.000 F200.000
G2 X27.240 Y-1.718 Z-0.200 I-0.029 J0.000 K0.000 F200.000
G0 Z0.500
G0 Z0.500
G0 X27.240 Y-1.718
G0 X30.106 Y-3.486
G0 X30.106 Y-3.486
G1 X30.106 Y-3.486 Z-0.200 F100.000
G3 X30.093 Y-3.827 Z-0.200 I0.296 J-0.182 K0.000 F200.000
G3 X30.692 Y-3.820 Z-0.200 I0.297 J0.208 K0.000 F200.000
G2 X30.747 Y-3.876 Z-0.200 I0.006 J-0.050 K0.000 F200.000
G2 X30.596 Y-4.318 Z-0.200 I-0.614 J-0.037 K0.000 F200.000
G2 X30.145 Y-4.237 Z-0.200 I-0.198 J0.192 K0.000 F200.000
G1 X30.104 Y-4.237 Z-0.200 F200.000
G3 X30.593 Y-4.367 Z-0.200 I0.292 J0.114 K0.000 F200.000
G3 X30.606 Y-3.387 Z-0.200 I-0.571 J0.498 K0.000 F200.000
G3 X30.106 Y-3.486 Z-0.200 I-0.204 J-0.281 K0.000 F200.000
G0 Z0.500
G0 X30.133 Y-3.501 Z0.500
G0 X30.133 Y-3.501 Z0.500
G1 X30.133 Y-3.501 Z-0.200 F100.000
G3 X30.228 Y-3.913 Z-0.200 I0.264 J-0.156 K0.000 F200.000
G1 X30.307 Y-3.948 Z-0.200 F200.000
G3 X30.568 Y-3.402 Z-0.200 I0.107 J0.284 K0.000 F200.000
G3 X30.133 Y-3.501 Z-0.200 I-0.170 J-0.255 K0.000 F200.000
G0 Z0.500
G0 X30.735 Y-3.719 Z0.500
G0 X30.735 Y-3.719 Z0.500
G1 X30.735 Y-3.719 Z-0.200 F100.000
G2 X30.710 Y-3.801 Z-0.200 I-0.184 J0.012 K0.000 F200.000
G2 X30.747 Y-3.819 Z-0.200 I0.012 J-0.024 K0.000 F200.000
G1 X30.735 Y-3.719 Z-0.200 F200.000
G0 Z0.500
G0 X30.660 Y-4.259 Z0.500
G0 X30.660 Y-4.259 Z0.500
G1 X30.660 Y-4.259 Z-0.200 F100.000
G1 X30.652 Y-4.272 Z-0.200 F200.000
G3 X30.660 Y-4.259 Z-0.200 I-0.014 J0.017 K0.000 F200.000
G0 Z0.500
G0 Z0.500
G0 X30.660 Y-4.259
G0 X31.259 Y-4.017
G0 X31.259 Y-4.017
G1 X31.259 Y-4.017 Z-0.200 F100.000
G1 X31.417 Y-4.409 Z-0.200 F200.000
G1 X31.501 Y-4.409 Z-0.200 F200.000
G1 X31.934 Y-3.341 Z-0.200 F200.000
G1 X31.897 Y-3.341 Z-0.200 F200.000
G1 X31.506 Y-4.327 Z-0.200 F200.000
G2 X31.413 Y-4.327 Z-0.200 I-0.046 J0.018 K0.000 F200.000
G1 X31.022 Y-3.341 Z-0.200 F200.000
G1 X30.985 Y-3.341 Z-0.200 F200.000
G1 X31.259 Y-4.017 Z-0.200 F200.000
G0 Z0.500
G0 X31.432 Y-4.378 Z0.500
G0 X31.432 Y-4.378 Z0.500
G1 X31.432 Y-4.378 Z-0.200 F100.000
G3 X31.487 Y-4.378 Z-0.200 I0.027 J0.009 K0.000 F200.000
G1 X31.432 Y-4.378 Z-0.200 F200.000
G0 Z0.500
G0 Z0.500
G0 X31.432 Y-4.378
G0 X31.251 Y-2.564
G0 X31.251 Y-2.564
G1 X31.251 Y-2.564 Z-0.200 F100.000
G3 X31.613 Y-2.441 Z-0.200 I-0.084 J0.840 K0.000 F200.000
G1 X31.613 Y-2.338 Z-0.200 F200.000
G2 X30.634 Y-1.167 Z-0.200 I-0.448 J0.620 K0.000 F200.000
G2 X31.613 Y-1.101 Z-0.200 I0.527 J-0.524 K0.000 F200.000
G1 X31.613 Y-0.995 Z-0.200 F200.000
G3 X30.305 Y-1.672 Z-0.200 I-0.440 J-0.752 K0.000 F200.000
G1 X30.277 Y-1.680 Z-0.200 F200.000
G1 X28.162 Y-1.680 Z-0.200 F200.000
G2 X28.084 Y-1.488 Z-0.200 I0.077 J0.143 K0.000 F200.000
G3 X26.436 Y-1.907 Z-0.200 I-0.819 J-0.231 K0.000 F200.000
G3 X27.563 Y-2.515 Z-0.200 I0.829 J0.188 K0.000 F200.000
G3 X28.112 Y-1.794 Z-0.200 I-0.301 J0.799 K0.000 F200.000
G2 X28.161 Y-1.758 Z-0.200 I0.048 J-0.014 K0.000 F200.000
G1 X30.276 Y-1.758 Z-0.200 F200.000
G2 X30.360 Y-1.969 Z-0.200 I-0.087 J-0.157 K0.000 F200.000
G3 X31.251 Y-2.564 Z-0.200 I0.808 J0.244 K0.000 F200.000
G0 Z0.500
G0 X30.355 Y-1.752 Z0.500
G0 X30.355 Y-1.752 Z0.500
G1 X30.355 Y-1.752 Z-0.200 F100.000
G2 X30.355 Y-1.680 Z-0.200 I0.179 J0.036 K0.000 F200.000
G2 X30.308 Y-1.721 Z-0.200 I-0.048 J0.009 K0.000 F200.000
G2 X30.355 Y-1.752 Z-0.200 I0.005 J-0.044 K0.000 F200.000
G0 Z0.500
G0 X28.128 Y-1.716 Z0.500
G0 X28.128 Y-1.716 Z0.500
G1 X28.128 Y-1.716 Z-0.200 F100.000
G2 X28.081 Y-1.683 Z-0.200 I-0.003 J0.045 K0.000 F200.000
G2 X28.080 Y-1.760 Z-0.200 I-0.134 J-0.037 K0.000 F200.000
G2 X28.128 Y-1.716 Z-0.200 I0.053 J-0.010 K0.000 F200.000
G0 Z0.500
G0 X28.036 Y-1.716 Z0.500
G0 X28.036 Y-1.716 Z0.500
G1 X28.036 Y-1.716 Z-0.200 F100.000
G3 X27.813 Y-1.176 Z-0.200 I-0.771 J-0.003 K0.000 F200.000
G3 X26.717 Y-2.261 Z-0.200 I-0.548 J-0.543 K0.000 F200.000
G3 X28.036 Y-1.716 Z-0.200 I0.548 J0.542 K0.000 F200.000
G0 Z0.500
G0 Z0.500
G0 X28.036 Y-1.716
G0 X34.328
G0 X34.328
G1 X34.328 Y-1.716 Z-0.200 F100.000
G1 X34.328 Y-1.769 Z-0.200 F200.000
G1 X35.233 Y-1.769 Z-0.200 F200.000
G1 X35.233 Y-1.669 Z-0.200 F200.000
G1 X34.328 Y-1.669 Z-0.200 F200.000
G1 X34.328 Y-1.716 Z-0.200 F200.000
G0 Z0.500
G0 X34.378 Y-1.719 Z0.500
G0 X34.378 Y-1.719 Z0.500
G1 X34.378 Y-1.719 Z-0.200 F100.000
G1 X34.378 Y-1.719 Z-0.200 F200.000
G1 X35.183 Y-1.719 Z-0.200 F200.000
G1 X35.183 Y-1.719 Z-0.200 F200.000
G1 X34.378 Y-1.719 Z-0.200 F200.000
G0 Z0.500
G0 Z0.500
G0 X34.378 Y-1.719
G0 X33.928 Y-1.765
G0 X33.928 Y-1.765
G1 X33.928 Y-1.765 Z-0.200 F100.000
G2 X33.922 Y-1.677 Z-0.200 I0.107 J0.052 K0.000 F200.000
G2 X33.874 Y-1.721 Z-0.200 I-0.053 J0.010 K0.000 F200.000
G2 X33.928 Y-1.765 Z-0.200 I-0.002 J-0.058 K0.000 F200.000
G0 Z0.500
G0 X33.888 Y-1.794 Z0.500
G0 X33.888 Y-1.794 Z0.500
G1 X33.888 Y-1.794 Z-0.200 F100.000
G3 X35.056 Y-2.507 Z-0.200 I0.848 J0.076 K0.000 F200.000
G3 X34.439 Y-0.923 Z-0.200 I-0.319 J0.788 K0.000 F200.000
G3 X33.889 Y-1.644 Z-0.200 I0.301 J-0.799 K0.000 F200.000
G2 X33.841 Y-1.680 Z-0.200 I-0.048 J0.014 K0.000 F200.000
G1 X31.654 Y-1.680 Z-0.200 F200.000
G2 X31.539 Y-1.477 Z-0.200 I0.093 J0.187 K0.000 F200.000
G3 X30.764 Y-1.879 Z-0.200 I-0.366 J-0.242 K0.000 F200.000
G3 X31.632 Y-1.763 Z-0.200 I0.417 J0.189 K0.000 F200.000
G1 X31.654 Y-1.758 Z-0.200 F200.000
G1 X33.840 Y-1.758 Z-0.200 F200.000
G2 X33.888 Y-1.794 Z-0.200 I-0.000 J-0.050 K0.000 F200.000
G0 Z0.500
G0 X33.969 Y-1.787 Z0.500
G0 X33.969 Y-1.787 Z0.500
G1 X33.969 Y-1.787 Z-0.200 F100.000
G3 X34.732 Y-2.490 Z-0.200 I0.768 J0.067 K0.000 F200.000
G3 X34.746 Y-0.948 Z-0.200 I0.005 J0.771 K0.000 F200.000
G3 X33.969 Y-1.787 Z-0.200 I-0.009 J-0.771 K0.000 F200.000
G0 Z0.500
G0 X31.619 Y-1.716 Z0.500
G0 X31.619 Y-1.716 Z0.500
G1 X31.619 Y-1.716 Z-0.200 F100.000
G2 X31.495 Y-1.503 Z-0.200 I0.134 J0.221 K0.000 F200.000
G3 X30.811 Y-1.860 Z-0.200 I-0.323 J-0.216 K0.000 F200.000
G3 X31.420 Y-2.019 Z-0.200 I0.362 J0.142 K0.000 F200.000
G3 X31.559 Y-1.775 Z-0.200 I-0.274 J0.318 K0.000 F200.000
G2 X31.619 Y-1.716 Z-0.200 I0.072 J-0.012 K0.000 F200.000
G0 Z0.500
G0 X31.541 Y-1.723 Z0.500
G0 X31.541 Y-1.723 Z0.500
G1 X31.541 Y-1.723 Z-0.200 F100.000
G3 X31.176 Y-1.381 Z-0.200 I-0.387 J-0.048 K0.000 F200.000
G3 X30.836 Y-1.717 Z-0.200 I-0.003 J-0.337 K0.000 F200.000
G3 X31.172 Y-2.056 Z-0.200 I0.337 J-0.002 K0.000 F200.000
G3 X31.541 Y-1.723 Z-0.200 I-0.061 J0.440 K0.000 F200.000
G0 Z0.500
G0 X31.465 Y-1.723 Z0.500
G0 X31.465 Y-1.723 Z0.500
G1 X31.465 Y-1.723 Z-0.200 F100.000
G3 X30.906 Y-1.616 Z-0.200 I-0.290 J-0.000 K0.000 F200.000
G3 X31.353 Y-1.942 Z-0.200 I0.268 J-0.102 K0.000 F200.000
G3 X31.465 Y-1.742 Z-0.200 I-0.226 J0.257 K0.000 F200.000
G3 X31.465 Y-1.723 Z-0.200 I-0.289 J0.020 K0.000 F200.000
G0 Z0.500
G0 X31.260 Y-1.719 Z0.500
G0 X31.260 Y-1.719 Z0.500
G1 X31.260 Y-1.719 Z-0.200 F100.000
G3 X31.189 Y-1.636 Z-0.200 I-0.083 J0.001 K0.000 F200.000
G3 X31.147 Y-1.797 Z-0.200 I-0.015 J-0.082 K0.000 F200.000
G1 X31.170 Y-1.801 Z-0.200 F200.000
G3 X31.260 Y-1.719 Z-0.200 I0.007 J0.083 K0.000 F200.000
G0 Z0.500
G0 X31.207 Y-1.720 Z0.500
G0 X31.207 Y-1.720 Z0.500
G1 X31.207 Y-1.720 Z-0.200 F100.000
G3 X31.196 Y-1.696 Z-0.200 I-0.031 J-0.000 K0.000 F200.000
G3 X31.149 Y-1.738 Z-0.200 I-0.023 J-0.021 K0.000 F200.000
G3 X31.170 Y-1.750 Z-0.200 I0.025 J0.019 K0.000 F200.000
G3 X31.207 Y-1.720 Z-0.200 I0.006 J0.030 K0.000 F200.000
G0 Z0.500
G0 X31.176 Y-1.714 Z0.500
G0 X31.176 Y-1.714 Z0.500
G1 X31.176 Y-1.714 Z-0.200 F100.000
G3 X31.167 Y-1.720 Z-0.200 I-0.002 J-0.005 K0.000 F200.000
G1 X31.173 Y-1.724 Z-0.200 F200.000
G3 X31.176 Y-1.714 Z-0.200 I0.000 J0.005 K0.000 F200.000
G0 Z0.500
G0 X31.205 Y-1.588 Z0.500
G0 X31.205 Y-1.588 Z0.500
G1 X31.205 Y-1.588 Z-0.200 F100.000
G3 X31.128 Y-1.844 Z-0.200 I-0.031 J-0.130 K0.000 F200.000
G1 X31.171 Y-1.852 Z-0.200 F200.000
G3 X31.205 Y-1.588 Z-0.200 I0.009 J0.133 K0.000 F200.000
G0 Z0.500
G0 X31.221 Y-1.540 Z0.500
G0 X31.221 Y-1.540 Z0.500
G1 X31.221 Y-1.540 Z-0.200 F100.000
G3 X31.108 Y-1.891 Z-0.200 I-0.047 J-0.179 K0.000 F200.000
G1 X31.171 Y-1.903 Z-0.200 F200.000
G3 X31.221 Y-1.540 Z-0.200 I0.012 J0.183 K0.000 F200.000
G0 Z0.500
G0 X31.237 Y-1.492 Z0.500
G0 X31.237 Y-1.492 Z0.500
G1 X31.237 Y-1.492 Z-0.200 F100.000
G3 X31.089 Y-1.938 Z-0.200 I-0.064 J-0.227 K0.000 F200.000
G1 X31.171 Y-1.954 Z-0.200 F200.000
G3 X31.237 Y-1.492 Z-0.200 I0.012 J0.234 K0.000 F200.000
G0 Z0.500
G0 Z0.500
G0 X31.237 Y-1.492
G0 X44.229
G0 X44.229
G1 X44.229 Y-1.492 Z-0.200 F100.000
G1 X44.229 Y-2.253 Z-0.200 F200.000
G1 X44.261 Y-2.253 Z-0.200 F200.000
G1 X44.261 Y-1.185 Z-0.200 F200.000
G1 X44.229 Y-1.185 Z-0.200 F200.000
G1 X44.229 Y-1.492 Z-0.200 F200.000
G0 Z0.500
G0 Z0.500
G0 X44.229 Y-1.492
G0 X44.647
G0 X44.647
G1 X44.647 Y-1.492 Z-0.200 F100.000
G1 X44.647 Y-2.253 Z-0.200 F200.000
G1 X44.679 Y-2.253 Z-0.200 F200.000
G1 X44.679 Y-1.317 Z-0.200 F200.000
G2 X44.769 Y-1.287 Z-0.200 I0.050 J-0.000 K0.000 F200.000
G1 X45.476 Y-2.253 Z-0.200 F200.000
G1 X45.554 Y-2.253 Z-0.200 F200.000
G1 X45.554 Y-1.185 Z-0.200 F200.000
G1 X45.522 Y-1.185 Z-0.200 F200.000
G1 X45.522 Y-2.117 Z-0.200 F200.000
G2 X45.431 Y-2.147 Z-0.200 I-0.050 J0.000 K0.000 F200.000
G1 X44.724 Y-1.185 Z-0.200 F200.000
G1 X44.647 Y-1.185 Z-0.200 F200.000
G1 X44.647 Y-1.492 Z-0.200 F200.000
G0 Z0.500
G0 X44.672 Y-1.274 Z0.500
G0 X44.672 Y-1.274 Z0.500
G1 X44.672 Y-1.274 Z-0.200 F100.000
G2 X44.739 Y-1.247 Z-0.200 I0.043 J-0.009 K0.000 F200.000
G3 X44.672 Y-1.210 Z-0.200 I-0.047 J-0.006 K0.000 F200.000
G1 X44.672 Y-1.274 Z-0.200 F200.000
G0 Z0.500
G0 X45.457 Y-2.185 Z0.500
G0 X45.457 Y-2.185 Z0.500
G1 X45.457 Y-2.185 Z-0.200 F100.000
G3 X45.529 Y-2.228 Z-0.200 I0.052 J0.005 K0.000 F200.000
G1 X45.529 Y-2.160 Z-0.200 F200.000
G2 X45.457 Y-2.185 Z-0.200 I-0.044 J0.012 K0.000 F200.000
G0 Z0.500
G0 Z0.500
(Finish operation: ENGRAVE 0.1MM)
(Begin operation: ballend-015mm003)
(Path: ballend-015mm003)
(ballend-015mm003)
(Begin toolchange)
( M6 T4 )
M3 S10000
(Finish operation: ballend-015mm003)
(Begin operation: ENGRAVE 0.15MM)
(Path: ENGRAVE 0.15MM)
(ENGRAVE 0.15MM)
G0 Z0.500
G0 X34.256 Y-53.695
G1 X34.256 Y-53.695 Z-0.200 F100.000
G1 X34.075 Y-53.527 Z-0.200 F200.000
G3 X33.231 Y-53.471 Z-0.200 I-0.505 J-1.210 K0.000 F200.000
G1 X32.848 Y-53.531 Z-0.200 F200.000
G3 X32.604 Y-53.719 Z-0.200 I0.358 J-0.719 K0.000 F200.000
G2 X32.407 Y-53.702 Z-0.200 I-0.078 J0.247 K0.000 F200.000
G2 X32.273 Y-53.921 Z-0.200 I-0.125 J-0.074 K0.000 F200.000
G3 X32.153 Y-54.068 Z-0.200 I-0.037 J-0.093 K0.000 F200.000
G1 X32.792 Y-54.260 Z-0.200 F200.000
G2 X32.758 Y-54.495 Z-0.200 I-0.108 J-0.105 K0.000 F200.000
G3 X32.799 Y-54.563 Z-0.200 I1448.634 J895.211 K0.000 F200.000
G2 X33.031 Y-54.400 Z-0.200 I0.313 J-0.197 K0.000 F200.000
G2 X33.100 Y-54.575 Z-0.200 I-0.063 J-0.127 K0.000 F200.000
G2 X33.103 Y-54.807 Z-0.200 I-72918.483 J-1045.625 K0.000 F200.000
G1 X33.125 Y-54.807 Z-0.200 F200.000
G2 X33.329 Y-54.430 Z-0.200 I0.337 J0.061 K0.000 F200.000
G1 X33.366 Y-54.420 Z-0.200 F200.000
G1 X33.779 Y-54.420 Z-0.200 F200.000
G2 X33.920 Y-54.653 Z-0.200 I-0.099 J-0.219 K0.000 F200.000
G2 X34.127 Y-54.630 Z-0.200 I0.113 J-0.074 K0.000 F200.000
G3 X34.212 Y-54.850 Z-0.200 I54970.180 J21093.829 K0.000 F200.000
G2 X34.244 Y-54.851 Z-0.200 I0.008 J-127.422 K0.000 F200.000
G1 X34.325 Y-54.640 Z-0.200 F200.000
G1 X34.325 Y-54.235 Z-0.200 F200.000
G2 X34.505 Y-53.925 Z-0.200 I3.217 J-1.663 K0.000 F200.000
G1 X34.256 Y-53.695 Z-0.200 F200.000
G0 Z0.500
G0 X34.215 Y-53.739 Z0.500
G0 X34.215 Y-53.739 Z0.500
G1 X34.215 Y-53.739 Z-0.200 F100.000
G1 X34.046 Y-53.582 Z-0.200 F200.000
G3 X33.238 Y-53.531 Z-0.200 I-0.479 J-1.159 K0.000 F200.000
G1 X32.871 Y-53.588 Z-0.200 F200.000
G3 X32.646 Y-53.761 Z-0.200 I0.330 J-0.661 K0.000 F200.000
G2 X32.483 Y-53.789 Z-0.200 I-0.106 J0.131 K0.000 F200.000
G2 X32.213 Y-54.004 Z-0.200 I-0.269 J0.060 K0.000 F200.000
G1 X32.213 Y-54.024 Z-0.200 F200.000
G1 X32.809 Y-54.202 Z-0.200 F200.000
G2 X32.872 Y-54.425 Z-0.200 I-0.043 J-0.132 K0.000 F200.000
G2 X33.159 Y-54.485 Z-0.200 I0.138 J-0.056 K0.000 F200.000
G2 X33.366 Y-54.360 Z-0.200 I0.253 J-0.186 K0.000 F200.000
G1 X33.779 Y-54.360 Z-0.200 F200.000
G2 X33.950 Y-54.564 Z-0.200 I-0.063 J-0.226 K0.000 F200.000
G2 X34.228 Y-54.725 Z-0.200 I0.102 J-0.144 K0.000 F200.000
G1 X34.265 Y-54.628 Z-0.200 F200.000
G1 X34.265 Y-54.235 Z-0.200 F200.000
G2 X34.428 Y-53.936 Z-0.200 I1.993 J-0.890 K0.000 F200.000
G1 X34.215 Y-53.739 Z-0.200 F200.000
G0 Z0.500
G0 X34.174 Y-53.783 Z0.500
G0 X34.174 Y-53.783 Z0.500
G1 X34.174 Y-53.783 Z-0.200 F100.000
G1 X34.016 Y-53.636 Z-0.200 F200.000
G3 X33.245 Y-53.590 Z-0.200 I-0.453 J-1.108 K0.000 F200.000
G1 X32.893 Y-53.646 Z-0.200 F200.000
G2 X32.581 Y-53.858 Z-0.200 I-0.711 J0.708 K0.000 F200.000
G3 X32.519 Y-53.898 Z-0.200 I-0.027 J-0.025 K0.000 F200.000
G2 X32.370 Y-54.008 Z-0.200 I-0.241 J0.172 K0.000 F200.000
G1 X32.827 Y-54.145 Z-0.200 F200.000
G2 X32.956 Y-54.302 Z-0.200 I-0.043 J-0.168 K0.000 F200.000
G2 X33.182 Y-54.375 Z-0.200 I0.079 J-0.140 K0.000 F200.000
G2 X33.366 Y-54.300 Z-0.200 I0.233 J-0.310 K0.000 F200.000
G1 X33.779 Y-54.300 Z-0.200 F200.000
G2 X33.984 Y-54.484 Z-0.200 I-0.031 J-0.240 K0.000 F200.000
G2 X34.205 Y-54.538 Z-0.200 I0.086 J-0.128 K0.000 F200.000
G2 X34.351 Y-53.946 Z-0.200 I0.634 J0.158 K0.000 F200.000
G1 X34.174 Y-53.783 Z-0.200 F200.000
G0 Z0.500
G0 X34.134 Y-53.827 Z0.500
G0 X34.134 Y-53.827 Z0.500
G1 X34.134 Y-53.827 Z-0.200 F100.000
G1 X33.987 Y-53.691 Z-0.200 F200.000
G3 X33.252 Y-53.650 Z-0.200 I-0.427 J-1.057 K0.000 F200.000
G1 X32.916 Y-53.703 Z-0.200 F200.000
G2 X32.504 Y-53.986 Z-0.200 I-5.153 J7.045 K0.000 F200.000
G2 X32.956 Y-54.157 Z-0.200 I-0.093 J-0.928 K0.000 F200.000
G3 X33.112 Y-54.235 Z-0.200 I0.104 J0.013 K0.000 F200.000
G3 X33.240 Y-54.274 Z-0.200 I0.073 J0.011 K0.000 F200.000
G2 X33.907 Y-54.275 Z-0.200 I0.332 J-0.996 K0.000 F200.000
G2 X34.020 Y-54.411 Z-0.200 I-0.135 J-0.228 K0.000 F200.000
G2 X34.145 Y-54.424 Z-0.200 I0.051 J-0.115 K0.000 F200.000
G2 X34.273 Y-53.956 Z-0.200 I0.562 J0.097 K0.000 F200.000
G1 X34.134 Y-53.827 Z-0.200 F200.000
G0 Z0.500
G0 X34.093 Y-53.871 Z0.500
G0 X34.093 Y-53.871 Z0.500
G1 X34.093 Y-53.871 Z-0.200 F100.000
G1 X33.957 Y-53.745 Z-0.200 F200.000
G3 X33.259 Y-53.710 Z-0.200 I-0.401 J-1.006 K0.000 F200.000
G1 X32.938 Y-53.760 Z-0.200 F200.000
G2 X32.646 Y-53.966 Z-0.200 I-0.982 J1.086 K0.000 F200.000
G2 X32.991 Y-54.107 Z-0.200 I-0.114 J-0.771 K0.000 F200.000
G3 X33.109 Y-54.171 Z-0.200 I0.080 J0.007 K0.000 F200.000
G1 X33.204 Y-54.225 Z-0.200 F200.000
G2 X33.926 Y-54.217 Z-0.200 I0.373 J-1.038 K0.000 F200.000
G3 X34.085 Y-54.351 Z-0.200 I0.164 J0.033 K0.000 F200.000
G2 X34.196 Y-53.966 Z-0.200 I0.522 J0.057 K0.000 F200.000
G1 X34.093 Y-53.871 Z-0.200 F200.000
G0 Z0.500
G0 X34.052 Y-53.915 Z0.500
G0 X34.052 Y-53.915 Z0.500
G1 X34.052 Y-53.915 Z-0.200 F100.000
G1 X33.928 Y-53.800 Z-0.200 F200.000
G3 X33.266 Y-53.769 Z-0.200 I-0.375 J-0.954 K0.000 F200.000
G1 X32.960 Y-53.817 Z-0.200 F200.000
G2 X32.791 Y-53.947 Z-0.200 I-0.676 J0.708 K0.000 F200.000
G2 X33.060 Y-54.108 Z-0.200 I-0.004 J-0.311 K0.000 F200.000
G3 X33.366 Y-54.120 Z-0.200 I0.162 J0.226 K0.000 F200.000
G2 X33.942 Y-54.158 Z-0.200 I0.207 J-1.281 K0.000 F200.000
G1 X34.028 Y-54.226 Z-0.200 F200.000
G2 X34.119 Y-53.977 Z-0.200 I0.480 J-0.035 K0.000 F200.000
G1 X34.052 Y-53.915 Z-0.200 F200.000
G0 Z0.500
G0 X34.012 Y-53.958 Z0.500
G0 X34.012 Y-53.958 Z0.500
G1 X34.012 Y-53.958 Z-0.200 F100.000
G3 X33.668 Y-53.796 Z-0.200 I-0.432 J-0.471 K0.000 F200.000
G3 X32.983 Y-53.875 Z-0.200 I0.193 J-4.718 K0.000 F200.000
G1 X32.910 Y-53.923 Z-0.200 F200.000
G2 X33.086 Y-54.044 Z-0.200 I-0.048 J-0.258 K0.000 F200.000
G3 X33.366 Y-54.060 Z-0.200 I0.152 J0.191 K0.000 F200.000
G2 X33.956 Y-54.098 Z-0.200 I0.207 J-1.408 K0.000 F200.000
G1 X33.996 Y-54.127 Z-0.200 F200.000
G2 X34.042 Y-53.987 Z-0.200 I0.267 J-0.010 K0.000 F200.000
G3 X34.012 Y-53.958 Z-0.200 I-0.462 J-0.442 K0.000 F200.000
G0 Z0.500
G0 X33.971 Y-54.003 Z0.500
G0 X33.971 Y-54.003 Z0.500
G1 X33.971 Y-54.003 Z-0.200 F100.000
G3 X33.663 Y-53.857 Z-0.200 I-0.379 J-0.400 K0.000 F200.000
G3 X33.042 Y-53.926 Z-0.200 I0.162 J-4.277 K0.000 F200.000
G3 X33.366 Y-54.000 Z-0.200 I0.206 J0.154 K0.000 F200.000
G2 X33.962 Y-54.037 Z-0.200 I0.207 J-1.516 K0.000 F200.000
G1 X33.971 Y-54.003 Z-0.200 F200.000
G0 Z0.500
G0 X33.750 Y-53.940 Z0.500
G0 X33.750 Y-53.940 Z0.500
G1 X33.750 Y-53.940 Z-0.200 F100.000
G3 X33.380 Y-53.940 Z-0.200 I-0.185 J-0.543 K0.000 F200.000
G1 X33.750 Y-53.940 Z-0.200 F200.000
G0 Z0.500
G0 X33.359 Y-53.942 Z0.500
G0 X33.359 Y-53.942 Z0.500
G1 X33.359 Y-53.942 Z-0.200 F100.000
G3 X33.216 Y-53.959 Z-0.200 I0.046 J-0.985 K0.000 F200.000
G3 X33.359 Y-53.942 Z-0.200 I0.057 J0.126 K0.000 F200.000
G0 Z0.500
G0 Z0.500
(Finish operation: ENGRAVE 0.15MM)
(Begin operation: ballend-020mm003)
(Path: ballend-020mm003)
(ballend-020mm003)
(Begin toolchange)
( M6 T5 )
M3 S10000
(Finish operation: ballend-020mm003)
(Begin operation: ENGRAVE 0.2MM)
(Path: ENGRAVE 0.2MM)
(ENGRAVE 0.2MM)
G0 Z0.500
G0 X7.637 Y-24.992
G1 X7.637 Y-24.992 Z-0.200 F100.000
G1 X7.511 Y-24.992 Z-0.200 F200.000
G1 X6.882 Y-26.675 Z-0.200 F200.000
G2 X6.695 Y-26.675 Z-0.200 I-0.094 J0.035 K0.000 F200.000
G1 X6.062 Y-24.992 Z-0.200 F200.000
G1 X5.936 Y-24.992 Z-0.200 F200.000
G1 X6.673 Y-26.873 Z-0.200 F200.000
G1 X6.903 Y-26.873 Z-0.200 F200.000
G1 X7.637 Y-24.992 Z-0.200 F200.000
G0 Z0.500
G0 X7.564 Y-25.042 Z0.500
G0 X7.564 Y-25.042 Z0.500
G1 X7.564 Y-25.042 Z-0.200 F100.000
G1 X7.546 Y-25.042 Z-0.200 F200.000
G1 X7.127 Y-26.161 Z-0.200 F200.000
G1 X7.564 Y-25.042 Z-0.200 F200.000
G0 Z0.500
G0 X6.217 Y-25.548 Z0.500
G0 X6.217 Y-25.548 Z0.500
G1 X6.217 Y-25.548 Z-0.200 F100.000
G1 X6.027 Y-25.042 Z-0.200 F200.000
G1 X6.009 Y-25.042 Z-0.200 F200.000
G1 X6.445 Y-26.154 Z-0.200 F200.000
G1 X6.217 Y-25.548 Z-0.200 F200.000
G0 Z0.500
G0 X6.661 Y-26.703 Z0.500
G0 X6.661 Y-26.703 Z0.500
G1 X6.661 Y-26.703 Z-0.200 F100.000
G1 X6.708 Y-26.823 Z-0.200 F200.000
G1 X6.869 Y-26.823 Z-0.200 F200.000
G1 X6.913 Y-26.711 Z-0.200 F200.000
G2 X6.661 Y-26.703 Z-0.200 I-0.125 J0.058 K0.000 F200.000
G0 Z0.500
G0 Z0.500
G0 X6.661 Y-26.703
G0 X8.095 Y-26.271
G0 X8.095 Y-26.271
G1 X8.095 Y-26.271 Z-0.200 F100.000
G3 X9.256 Y-26.872 Z-0.200 I0.871 J0.262 K0.000 F200.000
G1 X9.475 Y-26.778 Z-0.200 F200.000
G3 X9.272 Y-24.998 Z-0.200 I-0.584 J0.835 K0.000 F200.000
G3 X8.081 Y-26.219 Z-0.200 I-0.280 J-0.918 K0.000 F200.000
G3 X8.095 Y-26.271 Z-0.200 I0.885 J0.211 K0.000 F200.000
G0 Z0.500
G0 X8.145 Y-26.254 Z0.500
G0 X8.145 Y-26.254 Z0.500
G1 X8.145 Y-26.254 Z-0.200 F100.000
G3 X8.384 Y-26.635 Z-0.200 I0.939 J0.325 K0.000 F200.000
G2 X8.362 Y-25.247 Z-0.200 I0.757 J0.707 K0.000 F200.000
G3 X8.145 Y-26.254 Z-0.200 I0.723 J-0.682 K0.000 F200.000
G0 Z0.500
G0 X8.196 Y-26.237 Z0.500
G0 X8.196 Y-26.237 Z0.500
G1 X8.196 Y-26.237 Z-0.200 F100.000
G3 X8.522 Y-26.691 Z-0.200 I0.886 J0.292 K0.000 F200.000
G3 X9.798 Y-25.942 Z-0.200 I0.456 J0.684 K0.000 F200.000
G3 X8.786 Y-25.061 Z-0.200 I-0.823 J0.077 K0.000 F200.000
G3 X8.196 Y-26.237 Z-0.200 I0.296 J-0.884 K0.000 F200.000
G0 Z0.500
G0 X9.601 Y-26.609 Z0.500
G0 X9.601 Y-26.609 Z0.500
G1 X9.601 Y-26.609 Z-0.200 F100.000
G3 X9.632 Y-25.294 Z-0.200 I-0.744 J0.675 K0.000 F200.000
G2 X9.601 Y-26.609 Z-0.200 I-0.835 J-0.638 K0.000 F200.000
G0 Z0.500
G0 X9.610 Y-25.264 Z0.500
G0 X9.610 Y-25.264 Z0.500
G1 X9.610 Y-25.264 Z-0.200 F100.000
G3 X9.571 Y-25.229 Z-0.200 I-0.080 J-0.050 K0.000 F200.000
G1 X9.610 Y-25.264 Z-0.200 F200.000
G0 Z0.500
G0 Z0.500
G0 X9.610 Y-25.264
G0 X10.523
G0 X10.523
G1 X10.523 Y-25.264 Z-0.200 F100.000
G1 X10.523 Y-26.873 Z-0.200 F200.000
G1 X10.635 Y-26.873 Z-0.200 F200.000
G1 X10.635 Y-24.159 Z-0.200 F200.000
G1 X10.523 Y-24.159 Z-0.200 F200.000
G1 X10.523 Y-25.264 Z-0.200 F200.000
G0 Z0.500
G0 X10.573 Z0.500
G0 X10.573 Z0.500
G1 X10.573 Y-25.264 Z-0.200 F100.000
G1 X10.573 Y-26.823 Z-0.200 F200.000
G1 X10.585 Y-26.823 Z-0.200 F200.000
G1 X10.585 Y-24.209 Z-0.200 F200.000
G1 X10.573 Y-24.209 Z-0.200 F200.000
G1 X10.573 Y-25.264 Z-0.200 F200.000
G0 Z0.500
G0 Z0.500
G0 X10.573 Y-25.264
G0 X11.355
G0 X11.355
G1 X11.355 Y-25.264 Z-0.200 F100.000
G1 X11.355 Y-26.097 Z-0.200 F200.000
G3 X12.454 Y-26.815 Z-0.200 I0.736 J-0.074 K0.000 F200.000
G3 X12.770 Y-26.548 Z-0.200 I-4.895 J6.127 K0.000 F200.000
G2 X12.879 Y-26.648 Z-0.200 I0.008 J-0.100 K0.000 F200.000
G1 X12.879 Y-26.873 Z-0.200 F200.000
G1 X12.991 Y-26.873 Z-0.200 F200.000
G1 X12.991 Y-24.992 Z-0.200 F200.000
G1 X12.878 Y-24.992 Z-0.200 F200.000
G1 X12.877 Y-26.107 Z-0.200 F200.000
G2 X11.491 Y-26.303 Z-0.200 I-0.706 J-0.008 K0.000 F200.000
G1 X11.467 Y-26.095 Z-0.200 F200.000
G1 X11.467 Y-24.992 Z-0.200 F200.000
G1 X11.355 Y-24.992 Z-0.200 F200.000
G1 X11.355 Y-25.264 Z-0.200 F200.000
G0 Z0.500
G0 X12.888 Y-26.387 Z0.500
G0 X12.888 Y-26.387 Z0.500
G1 X12.888 Y-26.387 Z-0.200 F100.000
G3 X12.911 Y-26.536 Z-0.200 I0.086 J-0.063 K0.000 F200.000
G1 X12.911 Y-26.364 Z-0.200 F200.000
G3 X12.888 Y-26.387 Z-0.200 I0.063 J-0.086 K0.000 F200.000
G0 Z0.500
G0 Z0.500
G0 X12.888 Y-26.387
G0 X13.732
G0 X13.732
G1 X13.732 Y-26.387 Z-0.200 F100.000
G1 X13.732 Y-26.873 Z-0.200 F200.000
G1 X13.844 Y-26.873 Z-0.200 F200.000
G1 X13.846 Y-25.713 Z-0.200 F200.000
G2 X13.976 Y-25.296 Z-0.200 I0.672 J0.018 K0.000 F200.000
G2 X13.844 Y-25.208 Z-0.200 I-0.039 J0.085 K0.000 F200.000
G1 X13.844 Y-24.992 Z-0.200 F200.000
G1 X13.732 Y-24.992 Z-0.200 F200.000
G1 X13.732 Y-26.387 Z-0.200 F200.000
G0 Z0.500
G0 X13.812 Y-25.439 Z0.500
G0 X13.812 Y-25.439 Z0.500
G1 X13.812 Y-25.439 Z-0.200 F100.000
G3 X13.812 Y-25.323 Z-0.200 I-0.011 J0.058 K0.000 F200.000
G1 X13.812 Y-25.439 Z-0.200 F200.000
G0 Z0.500
G0 X14.076 Y-25.199 Z0.500
G0 X14.076 Y-25.199 Z0.500
G1 X14.076 Y-25.199 Z-0.200 F100.000
G2 X15.122 Y-25.724 Z-0.200 I0.419 J-0.469 K0.000 F200.000
G1 X15.122 Y-26.873 Z-0.200 F200.000
G1 X15.235 Y-26.873 Z-0.200 F200.000
G1 X15.236 Y-25.713 Z-0.200 F200.000
G2 X16.490 Y-25.527 Z-0.200 I0.636 J0.034 K0.000 F200.000
G1 X16.513 Y-25.724 Z-0.200 F200.000
G1 X16.513 Y-26.873 Z-0.200 F200.000
G1 X16.625 Y-26.873 Z-0.200 F200.000
G1 X16.625 Y-25.722 Z-0.200 F200.000
G3 X15.319 Y-25.339 Z-0.200 I-0.688 J0.074 K0.000 F200.000
G2 X15.156 Y-25.335 Z-0.200 I-0.080 J0.060 K0.000 F200.000
G3 X14.076 Y-25.199 Z-0.200 I-0.581 J-0.260 K0.000 F200.000
G0 Z0.500
G0 X15.137 Y-25.416 Z0.500
G0 X15.137 Y-25.416 Z0.500
G1 X15.137 Y-25.416 Z-0.200 F100.000
G2 X15.182 Y-25.539 Z-0.200 I-0.192 J-0.139 K0.000 F200.000
G2 X15.199 Y-25.449 Z-0.200 I0.280 J-0.007 K0.000 F200.000
G2 X15.137 Y-25.416 Z-0.200 I-0.008 J0.059 K0.000 F200.000
G0 Z0.500
G0 Z0.500
G0 X15.137 Y-25.416
G0 X17.221 Y-25.788
G0 X17.221 Y-25.788
G1 X17.221 Y-25.788 Z-0.200 F100.000
G3 X18.714 Y-26.749 Z-0.200 I0.947 J-0.169 K0.000 F200.000
G3 X18.949 Y-26.474 Z-0.200 I-0.357 J0.542 K0.000 F200.000
G3 X18.786 Y-26.541 Z-0.200 I-0.059 J-0.088 K0.000 F200.000
G2 X17.352 Y-26.005 Z-0.200 I-0.622 J0.522 K0.000 F200.000
G1 X17.437 Y-25.957 Z-0.200 F200.000
G1 X19.081 Y-25.957 Z-0.200 F200.000
G3 X17.233 Y-25.731 Z-0.200 I-0.929 J0.073 K0.000 F200.000
G3 X17.221 Y-25.788 Z-0.200 I0.935 J-0.227 K0.000 F200.000
G0 Z0.500
G0 X17.302 Y-25.867 Z0.500
G0 X17.302 Y-25.867 Z0.500
G1 X17.302 Y-25.867 Z-0.200 F100.000
G3 X17.300 Y-25.953 Z-0.200 I0.207 J-0.048 K0.000 F200.000
G1 X17.336 Y-25.912 Z-0.200 F200.000
G2 X17.302 Y-25.867 Z-0.200 I0.014 J0.046 K0.000 F200.000
G0 Z0.500
G0 X17.360 Y-25.825 Z0.500
G0 X17.360 Y-25.825 Z0.500
G1 X17.360 Y-25.825 Z-0.200 F100.000
G3 X17.441 Y-25.866 Z-0.200 I0.081 J0.059 K0.000 F200.000
G1 X18.856 Y-25.866 Z-0.200 F200.000
G1 X18.942 Y-25.817 Z-0.200 F200.000
G3 X17.346 Y-25.735 Z-0.200 I-0.801 J-0.014 K0.000 F200.000
G3 X17.360 Y-25.825 Z-0.200 I0.095 J-0.031 K0.000 F200.000
G0 Z0.500
G0 X18.986 Y-25.877 Z0.500
G0 X18.986 Y-25.877 Z0.500
G1 X18.986 Y-25.877 Z-0.200 F100.000
G1 X18.993 Y-25.877 Z-0.200 F200.000
G1 X18.992 Y-25.870 Z-0.200 F200.000
G1 X18.986 Y-25.877 Z-0.200 F200.000
G0 Z0.500
G0 Z0.500
G0 X18.986 Y-25.877
G0 X45.720 Y-25.988
G0 X45.720 Y-25.988
G1 X45.720 Y-25.988 Z-0.200 F100.000
G3 X47.300 Y-26.536 Z-0.200 I0.884 J-0.004 K0.000 F200.000
G2 X47.475 Y-26.603 Z-0.200 I0.075 J-0.067 K0.000 F200.000
G2 X47.420 Y-27.220 Z-0.200 I-1.131 J-0.211 K0.000 F200.000
G2 X47.014 Y-27.603 Z-0.200 I-0.573 J0.201 K0.000 F200.000
G2 X46.233 Y-27.536 Z-0.200 I-0.319 J0.887 K0.000 F200.000
G2 X46.022 Y-27.323 Z-0.200 I0.206 J0.413 K0.000 F200.000
G1 X45.892 Y-27.323 Z-0.200 F200.000
G3 X46.704 Y-27.730 Z-0.200 I0.723 J0.429 K0.000 F200.000
G3 X47.230 Y-27.614 Z-0.200 I0.053 J1.019 K0.000 F200.000
G3 X47.587 Y-26.909 Z-0.200 I-0.397 J0.643 K0.000 F200.000
G1 X47.587 Y-24.992 Z-0.200 F200.000
G1 X47.475 Y-24.992 Z-0.200 F200.000
G2 X47.446 Y-25.295 Z-0.200 I-0.381 J-0.116 K0.000 F200.000
G2 X47.207 Y-25.179 Z-0.200 I-0.066 J0.167 K0.000 F200.000
G3 X45.723 Y-25.915 Z-0.200 I-0.592 J-0.669 K0.000 F200.000
G3 X45.720 Y-25.988 Z-0.200 I0.880 J-0.077 K0.000 F200.000
G0 Z0.500
G0 X45.823 Y-25.982 Z0.500
G0 X45.823 Y-25.982 Z0.500
G1 X45.823 Y-25.982 Z-0.200 F100.000
G3 X46.213 Y-26.664 Z-0.200 I0.885 J0.054 K0.000 F200.000
G3 X47.387 Y-26.363 Z-0.200 I0.449 J0.691 K0.000 F200.000
G3 X46.686 Y-25.042 Z-0.200 I-0.755 J0.446 K0.000 F200.000
G3 X45.823 Y-25.982 Z-0.200 I0.021 J-0.886 K0.000 F200.000
G0 Z0.500
G0 X47.433 Y-26.436 Z0.500
G0 X47.433 Y-26.436 Z0.500
G1 X47.433 Y-26.436 Z-0.200 F100.000
G2 X47.507 Y-26.491 Z-0.200 I-0.000 J-0.079 K0.000 F200.000
G1 X47.507 Y-26.265 Z-0.200 F200.000
G2 X47.433 Y-26.436 Z-0.200 I-0.355 J0.052 K0.000 F200.000
G0 Z0.500
G0 X47.507 Y-25.572 Z0.500
G0 X47.507 Y-25.572 Z0.500
G1 X47.507 Y-25.572 Z-0.200 F100.000
G1 X47.507 Y-25.340 Z-0.200 F200.000
G3 X47.475 Y-25.469 Z-0.200 I-0.011 J-0.066 K0.000 F200.000
G1 X47.507 Y-25.572 Z-0.200 F200.000
G0 Z0.500
G0 Z0.500
G0 X47.507 Y-25.572
G0 X48.210 Y-25.697
G0 X48.210 Y-25.697
G1 X48.210 Y-25.697 Z-0.200 F100.000
G3 X48.200 Y-25.931 Z-0.200 I0.880 J-0.156 K0.000 F200.000
G3 X49.499 Y-26.818 Z-0.200 I0.898 J-0.080 K0.000 F200.000
G3 X49.775 Y-26.576 Z-0.200 I-0.359 J0.688 K0.000 F200.000
G2 X49.952 Y-26.640 Z-0.200 I0.077 J-0.064 K0.000 F200.000
G1 X49.952 Y-26.873 Z-0.200 F200.000
G1 X50.064 Y-26.873 Z-0.200 F200.000
G1 X50.064 Y-24.992 Z-0.200 F200.000
G1 X49.952 Y-24.992 Z-0.200 F200.000
G2 X49.922 Y-25.299 Z-0.200 I-0.386 J-0.118 K0.000 F200.000
G2 X49.696 Y-25.195 Z-0.200 I-0.066 J0.154 K0.000 F200.000
G3 X48.210 Y-25.697 Z-0.200 I-0.605 J-0.658 K0.000 F200.000
G0 Z0.500
G0 X48.328 Y-25.724 Z0.500
G0 X48.328 Y-25.724 Z0.500
G1 X48.328 Y-25.724 Z-0.200 F100.000
G3 X48.689 Y-26.692 Z-0.200 I0.915 J-0.210 K0.000 F200.000
G3 X49.968 Y-25.942 Z-0.200 I0.457 J0.686 K0.000 F200.000
G3 X48.744 Y-25.140 Z-0.200 I-0.821 J0.082 K0.000 F200.000
G3 X48.328 Y-25.724 Z-0.200 I0.499 J-0.795 K0.000 F200.000
G0 Z0.500
G0 X49.903 Y-25.429 Z0.500
G0 X49.903 Y-25.429 Z0.500
G1 X49.903 Y-25.429 Z-0.200 F100.000
G3 X49.958 Y-25.485 Z-0.200 I0.071 J0.013 K0.000 F200.000
G1 X49.984 Y-25.578 Z-0.200 F200.000
G1 X49.984 Y-25.344 Z-0.200 F200.000
G3 X49.903 Y-25.429 Z-0.200 I-0.010 J-0.071 K0.000 F200.000
G0 Z0.500
G0 X49.984 Y-26.290 Z0.500
G0 X49.984 Y-26.290 Z0.500
G1 X49.984 Y-26.290 Z-0.200 F100.000
G2 X49.904 Y-26.472 Z-0.200 I-0.365 J0.053 K0.000 F200.000
G2 X49.984 Y-26.527 Z-0.200 I0.002 J-0.083 K0.000 F200.000
G1 X49.984 Y-26.290 Z-0.200 F200.000
G0 Z0.500
G0 Z0.500
G0 X49.984 Y-26.290
G0 X50.805
G0 X50.805
G1 X50.805 Y-26.290 Z-0.200 F100.000
G1 X50.805 Y-26.873 Z-0.200 F200.000
G1 X50.918 Y-26.873 Z-0.200 F200.000
G1 X50.918 Y-24.992 Z-0.200 F200.000
G1 X50.805 Y-24.992 Z-0.200 F200.000
G1 X50.805 Y-26.290 Z-0.200 F200.000
G0 Z0.500
G0 X50.855 Z0.500
G0 X50.855 Z0.500
G1 X50.855 Y-26.290 Z-0.200 F100.000
G1 X50.855 Y-26.823 Z-0.200 F200.000
G1 X50.868 Y-26.823 Z-0.200 F200.000
G1 X50.868 Y-25.042 Z-0.200 F200.000
G1 X50.855 Y-25.042 Z-0.200 F200.000
G1 X50.855 Y-26.290 Z-0.200 F200.000
G0 Z0.500
G0 Z0.500
G0 X50.855 Y-26.290
G0 Y-24.442
G0 Y-24.442
G1 X50.855 Y-24.442 Z-0.200 F100.000
G1 X50.930 Y-24.442 Z-0.200 F200.000
G1 X50.930 Y-24.234 Z-0.200 F200.000
G1 X50.793 Y-24.234 Z-0.200 F200.000
G1 X50.793 Y-24.442 Z-0.200 F200.000
G1 X50.855 Y-24.442 Z-0.200 F200.000
G0 Z0.500
G0 Y-24.392 Z0.500
G0 Y-24.392 Z0.500
G1 X50.855 Y-24.392 Z-0.200 F100.000
G1 X50.880 Y-24.392 Z-0.200 F200.000
G1 X50.880 Y-24.284 Z-0.200 F200.000
G1 X50.843 Y-24.284 Z-0.200 F200.000
G1 X50.843 Y-24.392 Z-0.200 F200.000
G1 X50.855 Y-24.392 Z-0.200 F200.000
G0 Z0.500
G0 Z0.500
G0 X50.855 Y-24.392
G0 X51.659 Y-24.992
G0 X51.659 Y-24.992
G1 X51.659 Y-24.992 Z-0.200 F100.000
G1 X51.659 Y-26.873 Z-0.200 F200.000
G1 X51.771 Y-26.873 Z-0.200 F200.000
G1 X51.771 Y-25.762 Z-0.200 F200.000
G2 X53.157 Y-25.554 Z-0.200 I0.706 J0.015 K0.000 F200.000
G1 X53.182 Y-25.770 Z-0.200 F200.000
G1 X53.182 Y-26.873 Z-0.200 F200.000
G1 X53.294 Y-26.873 Z-0.200 F200.000
G1 X53.294 Y-25.768 Z-0.200 F200.000
G3 X51.945 Y-25.283 Z-0.200 I-0.737 J0.069 K0.000 F200.000
G2 X51.771 Y-25.216 Z-0.200 I-0.074 J0.067 K0.000 F200.000
G1 X51.771 Y-24.992 Z-0.200 F200.000
G1 X51.659 Y-24.992 Z-0.200 F200.000
G0 Z0.500
G0 X51.739 Y-25.327 Z0.500
G0 X51.739 Y-25.327 Z0.500
G1 X51.739 Y-25.327 Z-0.200 F100.000
G1 X51.739 Y-25.500 Z-0.200 F200.000
G1 X51.793 Y-25.377 Z-0.200 F200.000
G1 X51.739 Y-25.327 Z-0.200 F200.000
G0 Z0.500
G0 Z0.500
G0 X51.739 Y-25.327
G0 X38.505 Y-46.015
G0 X38.505 Y-46.015
G1 X38.505 Y-46.015 Z-0.200 F100.000
G3 X36.821 Y-46.305 Z-0.200 I-0.683 J-1.067 K0.000 F200.000
G1 X36.644 Y-46.515 Z-0.200 F200.000
G2 X36.512 Y-57.758 Z-0.200 I-790.501 J3.633 K0.000 F200.000
G2 X36.412 Y-57.857 Z-0.200 I-0.100 J0.002 K0.000 F200.000
G1 X35.986 Y-57.857 Z-0.200 F200.000
G3 X35.576 Y-59.320 Z-0.200 I3.657 J-1.814 K0.000 F200.000
G2 X35.477 Y-59.405 Z-0.200 I-0.099 J0.015 K0.000 F200.000
G1 X34.528 Y-59.405 Z-0.200 F200.000
G3 X34.382 Y-59.581 Z-0.200 I214.662 J-178.467 K0.000 F200.000
G2 X34.043 Y-60.921 Z-0.200 I-4.843 J0.512 K0.000 F200.000
G1 X34.043 Y-60.921 Z-0.200 F200.000
G1 X33.872 Y-61.413 Z-0.200 F200.000
G1 X33.872 Y-61.971 Z-0.200 F200.000
G2 X33.772 Y-62.071 Z-0.200 I-0.100 J-0.000 K0.000 F200.000
G1 X27.579 Y-62.071 Z-0.200 F200.000
G2 X27.479 Y-61.971 Z-0.200 I-0.000 J0.100 K0.000 F200.000
G3 X27.479 Y-61.431 Z-0.200 I-146.232 J0.140 K0.000 F200.000
G2 X26.958 Y-59.576 Z-0.200 I5.396 J2.516 K0.000 F200.000
G2 X26.738 Y-59.405 Z-0.200 I47.120 J60.825 K0.000 F200.000
G1 X25.894 Y-59.405 Z-0.200 F200.000
G2 X25.799 Y-59.339 Z-0.200 I-0.000 J0.100 K0.000 F200.000
G1 X25.696 Y-59.053 Z-0.200 F200.000
G2 X25.587 Y-58.734 Z-0.200 I9.037 J3.273 K0.000 F200.000
G1 X25.587 Y-58.459 Z-0.200 F200.000
G2 X25.426 Y-58.368 Z-0.200 I-0.045 J0.107 K0.000 F200.000
G1 X25.380 Y-57.888 Z-0.200 F200.000
G2 X25.024 Y-57.807 Z-0.200 I-0.081 J0.469 K0.000 F200.000
G1 X25.004 Y-57.750 Z-0.200 F200.000
G2 X24.821 Y-46.429 Z-0.200 I521.904 J14.105 K0.000 F200.000
G3 X23.099 Y-45.969 Z-0.200 I-1.124 J-0.755 K0.000 F200.000
G1 X23.099 Y-45.969 Z-0.200 F200.000
G3 X22.623 Y-46.476 Z-0.200 I0.530 J-0.974 K0.000 F200.000
G1 X22.569 Y-50.318 Z-0.200 F200.000
G2 X22.408 Y-57.760 Z-0.200 I-326.927 J3.385 K0.000 F200.000
G2 X22.308 Y-57.857 Z-0.200 I-0.100 J0.003 K0.000 F200.000
G1 X21.796 Y-57.857 Z-0.200 F200.000
G3 X21.658 Y-58.115 Z-0.200 I46355.812 J-24760.624 K0.000 F200.000
G1 X21.652 Y-58.725 Z-0.200 F200.000
G2 X21.495 Y-59.052 Z-0.200 I-0.474 J0.026 K0.000 F200.000
G1 X21.454 Y-59.061 Z-0.200 F200.000
G1 X20.150 Y-59.061 Z-0.200 F200.000
G3 X19.938 Y-59.272 Z-0.200 I31930.488 J-31930.594 K0.000 F200.000
G2 X19.762 Y-59.654 Z-0.200 I-0.358 J-0.066 K0.000 F200.000
G1 X19.636 Y-59.792 Z-0.200 F200.000
G2 X19.578 Y-67.219 Z-0.200 I-26658.763 J204.847 K0.000 F200.000
G2 X19.478 Y-67.318 Z-0.200 I-0.100 J0.001 K0.000 F200.000
G1 X16.239 Y-67.318 Z-0.200 F200.000
G2 X15.982 Y-67.456 Z-0.200 I-53.344 J99.385 K0.000 F200.000
G1 X15.982 Y-68.250 Z-0.200 F200.000
G2 X15.882 Y-68.350 Z-0.200 I-0.100 J-0.000 K0.000 F200.000
G1 X15.001 Y-68.350 Z-0.200 F200.000
G2 X14.839 Y-68.522 Z-0.200 I-0.235 J0.059 K0.000 F200.000
G1 X12.302 Y-68.522 Z-0.200 F200.000
G1 X12.111 Y-68.595 Z-0.200 F200.000
G1 X12.111 Y-74.247 Z-0.200 F200.000
G2 X12.047 Y-74.340 Z-0.200 I-0.100 J-0.000 K0.000 F200.000
G3 X11.315 Y-74.670 Z-0.200 I1.452 J-4.198 K0.000 F200.000
G2 X11.171 Y-74.580 Z-0.200 I-0.044 J0.090 K0.000 F200.000
G3 X11.139 Y-72.506 Z-0.200 I-17.167 J0.778 K0.000 F200.000
G3 X11.090 Y-72.278 Z-0.200 I-0.240 J0.068 K0.000 F200.000
G3 X9.632 Y-72.196 Z-0.200 I-1.085 J-6.286 K0.000 F200.000
G3 X8.205 Y-72.268 Z-0.200 I-0.352 J-7.134 K0.000 F200.000
G3 X8.116 Y-72.419 Z-0.200 I0.014 J-0.110 K0.000 F200.000
G3 X8.162 Y-73.220 Z-0.200 I1.261 J-0.330 K0.000 F200.000
G3 X8.571 Y-73.297 Z-0.200 I0.345 J0.702 K0.000 F200.000
G1 X8.941 Y-73.297 Z-0.200 F200.000
G2 X9.041 Y-73.398 Z-0.200 I0.000 J-0.100 K0.000 F200.000
G2 X8.995 Y-78.106 Z-0.200 I-1107329.051 J10693.127 K0.000 F200.000
G2 X8.907 Y-78.205 Z-0.200 I-0.100 J0.001 K0.000 F200.000
G2 X8.441 Y-78.217 Z-0.200 I-0.249 J0.615 K0.000 F200.000
G2 X8.374 Y-77.887 Z-0.200 I0.123 J0.197 K0.000 F200.000
G3 X8.128 Y-77.061 Z-0.200 I-0.909 J0.178 K0.000 F200.000
G3 X6.354 Y-76.229 Z-0.200 I-2.100 J-2.170 K0.000 F200.000
G2 X5.037 Y-75.964 Z-0.200 I2.247 J14.571 K0.000 F200.000
G2 X5.065 Y-75.317 Z-0.200 I0.223 J0.314 K0.000 F200.000
G2 X7.174 Y-75.840 Z-0.200 I0.783 J-1.357 K0.000 F200.000
G3 X7.799 Y-75.974 Z-0.200 I0.449 J0.568 K0.000 F200.000
G3 X8.135 Y-75.692 Z-0.200 I0.090 J0.234 K0.000 F200.000
G3 X8.123 Y-74.473 Z-0.200 I-8.178 J0.533 K0.000 F200.000
G3 X7.863 Y-74.279 Z-0.200 I-0.224 J-0.030 K0.000 F200.000
G3 X7.296 Y-74.337 Z-0.200 I-0.199 J-0.857 K0.000 F200.000
G2 X6.816 Y-74.440 Z-0.200 I-0.288 J0.171 K0.000 F200.000
G3 X3.539 Y-74.631 Z-0.200 I-1.445 J-3.419 K0.000 F200.000
G3 X2.872 Y-75.955 Z-0.200 I0.674 J-1.170 K0.000 F200.000
G3 X3.882 Y-76.930 Z-0.200 I1.332 J0.369 K0.000 F200.000
G2 X5.504 Y-77.405 Z-0.200 I-9.621 J-35.860 K0.000 F200.000
G2 X6.249 Y-77.855 Z-0.200 I-0.393 J-1.493 K0.000 F200.000
G2 X6.035 Y-78.376 Z-0.200 I-0.263 J-0.196 K0.000 F200.000
G2 X3.962 Y-77.619 Z-0.200 I-0.434 J2.028 K0.000 F200.000
G3 X3.403 Y-77.488 Z-0.200 I-0.415 J-0.512 K0.000 F200.000
G1 X3.034 Y-77.509 Z-0.200 F200.000
G1 X3.034 Y-79.306 Z-0.200 F200.000
G3 X3.811 Y-79.321 Z-0.200 I0.455 J3.440 K0.000 F200.000
G3 X4.062 Y-79.078 Z-0.200 I-0.743 J1.015 K0.000 F200.000
G2 X4.541 Y-79.174 Z-0.200 I0.109 J-0.700 K0.000 F200.000
G3 X7.860 Y-78.827 Z-0.200 I1.294 J3.664 K0.000 F200.000
G2 X8.087 Y-79.037 Z-0.200 I0.065 J-0.157 K0.000 F200.000
G3 X8.165 Y-79.266 Z-0.200 I0.377 J0.001 K0.000 F200.000
G3 X8.966 Y-79.335 Z-0.200 I0.708 J3.495 K0.000 F200.000
G3 X11.562 Y-79.278 Z-0.200 I0.985 J14.147 K0.000 F200.000
G3 X11.664 Y-79.126 Z-0.200 I0.000 J0.110 K0.000 F200.000
G3 X11.614 Y-78.320 Z-0.200 I-1.212 J0.330 K0.000 F200.000
G3 X11.326 Y-78.227 Z-0.200 I-0.324 J-0.513 K0.000 F200.000
G2 X11.174 Y-77.711 Z-0.200 I0.358 J0.386 K0.000 F200.000
G2 X11.204 Y-76.192 Z-0.200 I12.203 J0.520 K0.000 F200.000
G2 X12.492 Y-75.670 Z-0.200 I0.832 J-0.202 K0.000 F200.000
G2 X12.626 Y-76.082 Z-0.200 I-0.571 J-0.414 K0.000 F200.000
G2 X12.666 Y-78.138 Z-0.200 I-20.400 J-1.423 K0.000 F200.000
G2 X12.403 Y-78.264 Z-0.200 I-0.205 J0.090 K0.000 F200.000
G1 X12.212 Y-78.282 Z-0.200 F200.000
G1 X12.212 Y-79.302 Z-0.200 F200.000
G3 X21.236 Y-79.310 Z-0.200 I4.784 J287.206 K0.000 F200.000
G3 X21.951 Y-79.265 Z-0.200 I0.035 J5.092 K0.000 F200.000
G3 X21.947 Y-78.323 Z-0.200 I-1.121 J0.467 K0.000 F200.000
G3 X21.667 Y-78.202 Z-0.200 I-0.277 J-0.255 K0.000 F200.000
G2 X21.480 Y-77.752 Z-0.200 I0.225 J0.357 K0.000 F200.000
G2 X21.640 Y-76.067 Z-0.200 I3.634 J0.505 K0.000 F200.000
G2 X22.826 Y-75.754 Z-0.200 I0.743 J-0.413 K0.000 F200.000
G2 X23.024 Y-76.497 Z-0.200 I-1.085 J-0.688 K0.000 F200.000
G2 X23.033 Y-78.127 Z-0.200 I-54.020 J-1.098 K0.000 F200.000
G2 X22.799 Y-78.271 Z-0.200 I-0.214 J0.085 K0.000 F200.000
G3 X22.629 Y-78.462 Z-0.200 I-0.034 J-0.141 K0.000 F200.000
G3 X22.683 Y-79.284 Z-0.200 I2.327 J-0.259 K0.000 F200.000
G3 X23.445 Y-79.320 Z-0.200 I0.510 J2.740 K0.000 F200.000
G3 X32.044 Y-79.300 Z-0.200 I3.814 J216.535 K0.000 F200.000
G3 X32.425 Y-79.259 Z-0.200 I0.066 J1.155 K0.000 F200.000
G3 X32.411 Y-78.323 Z-0.200 I-1.295 J0.450 K0.000 F200.000
G3 X32.237 Y-78.232 Z-0.200 I-0.225 J-0.219 K0.000 F200.000
G1 X32.237 Y-78.232 Z-0.200 F200.000
G2 X31.944 Y-77.874 Z-0.200 I0.018 J0.314 K0.000 F200.000
G2 X32.093 Y-76.067 Z-0.200 I3.746 J0.600 K0.000 F200.000
G2 X33.279 Y-75.754 Z-0.200 I0.743 J-0.413 K0.000 F200.000
G2 X33.478 Y-76.497 Z-0.200 I-1.085 J-0.688 K0.000 F200.000
G2 X33.486 Y-78.127 Z-0.200 I-54.016 J-1.098 K0.000 F200.000
G2 X33.241 Y-78.267 Z-0.200 I-0.212 J0.087 K0.000 F200.000
G3 X33.068 Y-78.461 Z-0.200 I-0.032 J-0.145 K0.000 F200.000
G3 X33.122 Y-79.284 Z-0.200 I2.313 J-0.263 K0.000 F200.000
G3 X34.078 Y-79.340 Z-0.200 I0.713 J3.965 K0.000 F200.000
G2 X36.357 Y-79.398 Z-0.200 I0.679 J-18.233 K0.000 F200.000
G2 X36.364 Y-79.704 Z-0.200 I-0.073 J-0.155 K0.000 F200.000
G3 X35.978 Y-80.137 Z-0.200 I3.349 J-3.381 K0.000 F200.000
G3 X36.133 Y-81.009 Z-0.200 I0.585 J-0.345 K0.000 F200.000
G3 X37.528 Y-81.535 Z-0.200 I1.602 J2.135 K0.000 F200.000
G3 X39.527 Y-81.628 Z-0.200 I1.351 J7.483 K0.000 F200.000
G3 X41.278 Y-81.240 Z-0.200 I-0.310 J5.534 K0.000 F200.000
G3 X42.042 Y-80.648 Z-0.200 I-1.179 J2.311 K0.000 F200.000
G2 X42.212 Y-80.720 Z-0.200 I0.070 J-0.072 K0.000 F200.000
G3 X42.291 Y-81.339 Z-0.200 I0.915 J-0.198 K0.000 F200.000
G3 X44.184 Y-81.424 Z-0.200 I1.377 J9.509 K0.000 F200.000
G3 X46.014 Y-81.352 Z-0.200 I0.448 J11.877 K0.000 F200.000
G3 X46.127 Y-81.218 Z-0.200 I0.016 J0.101 K0.000 F200.000
G3 X46.081 Y-80.401 Z-0.200 I-1.285 J0.338 K0.000 F200.000
G3 X45.343 Y-80.278 Z-0.200 I-0.599 J-1.318 K0.000 F200.000
G2 X45.251 Y-80.183 Z-0.200 I0.008 J0.100 K0.000 F200.000
G1 X45.200 Y-79.110 Z-0.200 F200.000
G2 X45.340 Y-79.013 Z-0.200 I0.100 J0.005 K0.000 F200.000
G3 X48.404 Y-78.753 Z-0.200 I1.346 J2.329 K0.000 F200.000
G1 X48.648 Y-78.498 Z-0.200 F200.000
G2 X48.819 Y-78.557 Z-0.200 I0.072 J-0.069 K0.000 F200.000
G2 X48.897 Y-79.302 Z-0.200 I-302.222 J-31.670 K0.000 F200.000
G2 X52.528 Y-79.384 Z-0.200 I0.617 J-53.431 K0.000 F200.000
G2 X52.629 Y-79.685 Z-0.200 I-0.002 J-0.168 K0.000 F200.000
G3 X52.161 Y-80.262 Z-0.200 I1.766 J-1.911 K0.000 F200.000
G3 X52.607 Y-81.189 Z-0.200 I0.752 J-0.210 K0.000 F200.000
G3 X54.236 Y-81.591 Z-0.200 I1.825 J3.892 K0.000 F200.000
G3 X57.041 Y-81.419 Z-0.200 I0.884 J8.546 K0.000 F200.000
G3 X58.142 Y-80.777 Z-0.200 I-0.451 J2.038 K0.000 F200.000
G3 X57.821 Y-78.882 Z-0.200 I-0.920 J0.819 K0.000 F200.000
G3 X56.722 Y-78.589 Z-0.200 I-1.228 J-2.400 K0.000 F200.000
G3 X54.353 Y-78.585 Z-0.200 I-1.935 J-490.589 K0.000 F200.000
G2 X53.677 Y-78.387 Z-0.200 I-0.067 J1.022 K0.000 F200.000
G2 X53.952 Y-77.868 Z-0.200 I0.231 J0.210 K0.000 F200.000
G3 X56.265 Y-77.745 Z-0.200 I0.885 J5.181 K0.000 F200.000
G3 X57.568 Y-76.388 Z-0.200 I-0.439 J1.727 K0.000 F200.000
G3 X57.468 Y-75.271 Z-0.200 I-3.400 J0.257 K0.000 F200.000
G2 X57.657 Y-75.212 Z-0.200 I0.099 J0.017 K0.000 F200.000
G3 X58.087 Y-75.939 Z-0.200 I1.669 J0.495 K0.000 F200.000
G3 X59.241 Y-75.488 Z-0.200 I0.425 J0.615 K0.000 F200.000
G3 X58.974 Y-74.563 Z-0.200 I-0.775 J0.277 K0.000 F200.000
G3 X57.314 Y-74.525 Z-0.200 I-0.866 J-1.550 K0.000 F200.000
G2 X56.861 Y-74.680 Z-0.200 I-0.573 J0.929 K0.000 F200.000
G2 X56.106 Y-74.438 Z-0.200 I1.511 J6.002 K0.000 F200.000
G3 X53.296 Y-74.816 Z-0.200 I-0.978 J-3.359 K0.000 F200.000
G3 X52.607 Y-75.581 Z-0.200 I1.051 J-1.640 K0.000 F200.000
G3 X52.600 Y-76.984 Z-0.200 I2.325 J-0.713 K0.000 F200.000
G3 X53.009 Y-77.584 Z-0.200 I2.766 J1.447 K0.000 F200.000
G2 X52.995 Y-77.720 Z-0.200 I-0.080 J-0.061 K0.000 F200.000
G2 X52.156 Y-78.245 Z-0.200 I-1.214 J1.008 K0.000 F200.000
G2 X51.890 Y-78.221 Z-0.200 I-0.103 J0.333 K0.000 F200.000
G1 X51.860 Y-78.149 Z-0.200 F200.000
G3 X51.822 Y-74.565 Z-0.200 I-50.193 J1.267 K0.000 F200.000
G3 X51.641 Y-74.319 Z-0.200 I-0.172 J0.063 K0.000 F200.000
G3 X49.986 Y-74.299 Z-0.200 I-1.001 J-14.177 K0.000 F200.000
G2 X49.885 Y-74.199 Z-0.200 I-0.002 J0.100 K0.000 F200.000
G1 X49.885 Y-73.669 Z-0.200 F200.000
G2 X50.028 Y-73.579 Z-0.200 I0.100 J-0.000 K0.000 F200.000
G3 X51.750 Y-73.302 Z-0.200 I0.709 J1.083 K0.000 F200.000
G3 X51.312 Y-72.051 Z-0.200 I-0.747 J0.440 K0.000 F200.000
G3 X50.335 Y-71.987 Z-0.200 I-0.609 J-1.798 K0.000 F200.000
G1 X50.039 Y-72.177 Z-0.200 F200.000
G2 X49.885 Y-72.093 Z-0.200 I-0.054 J0.084 K0.000 F200.000
G1 X49.885 Y-67.606 Z-0.200 F200.000
G2 X49.518 Y-67.524 Z-0.200 I-0.085 J0.484 K0.000 F200.000
G1 X49.497 Y-67.464 Z-0.200 F200.000
G1 X49.497 Y-66.606 Z-0.200 F200.000
G3 X49.350 Y-66.458 Z-0.200 I-28.265 J-28.043 K0.000 F200.000
G1 X41.857 Y-66.458 Z-0.200 F200.000
G2 X41.757 Y-66.358 Z-0.200 I-0.000 J0.100 K0.000 F200.000
G1 X41.742 Y-60.644 Z-0.200 F200.000
G3 X41.622 Y-59.682 Z-0.200 I-3842.325 J-478.602 K0.000 F200.000
G2 X41.368 Y-59.496 Z-0.200 I21764.807 J29727.834 K0.000 F200.000
G2 X41.327 Y-59.209 Z-0.200 I0.262 J0.184 K0.000 F200.000
G1 X41.179 Y-59.061 Z-0.200 F200.000
G1 X39.952 Y-59.061 Z-0.200 F200.000
G2 X39.607 Y-58.715 Z-0.200 I0.537 J0.882 K0.000 F200.000
G1 X39.607 Y-57.920 Z-0.200 F200.000
G3 X39.171 Y-57.834 Z-0.200 I-28.118 J-140.119 K0.000 F200.000
G2 X39.075 Y-57.716 Z-0.200 I0.046 J0.135 K0.000 F200.000
G1 X38.864 Y-46.362 Z-0.200 F200.000
G3 X38.505 Y-46.015 Z-0.200 I-1.042 J-0.720 K0.000 F200.000
G0 Z0.500
G0 X38.461 Y-46.083 Z0.500
G0 X38.461 Y-46.083 Z0.500
G1 X38.461 Y-46.083 Z-0.200 F100.000
G3 X36.880 Y-46.360 Z-0.200 I-0.641 J-0.995 K0.000 F200.000
G1 X36.724 Y-46.545 Z-0.200 F200.000
G2 X36.649 Y-54.384 Z-0.200 I-308.107 J-0.964 K0.000 F200.000
G1 X36.649 Y-54.384 Z-0.200 F200.000
G1 X36.592 Y-57.760 Z-0.200 F200.000
G2 X36.412 Y-57.937 Z-0.200 I-0.180 J0.003 K0.000 F200.000
G1 X36.040 Y-57.937 Z-0.200 F200.000
G3 X35.655 Y-59.332 Z-0.200 I3.451 J-1.704 K0.000 F200.000
G2 X35.477 Y-59.485 Z-0.200 I-0.178 J0.027 K0.000 F200.000
G1 X34.566 Y-59.485 Z-0.200 F200.000
G3 X34.456 Y-59.617 Z-0.200 I160.535 J-133.459 K0.000 F200.000
G2 X34.118 Y-60.947 Z-0.200 I-4.841 J0.521 K0.000 F200.000
G1 X33.952 Y-61.427 Z-0.200 F200.000
G1 X33.952 Y-61.971 Z-0.200 F200.000
G2 X33.772 Y-62.151 Z-0.200 I-0.180 J-0.000 K0.000 F200.000
G1 X27.579 Y-62.151 Z-0.200 F200.000
G2 X27.399 Y-61.971 Z-0.200 I-0.000 J0.180 K0.000 F200.000
G3 X27.399 Y-61.445 Z-0.200 I-142.253 J0.140 K0.000 F200.000
G2 X26.885 Y-59.621 Z-0.200 I5.349 J2.491 K0.000 F200.000
G2 X26.710 Y-59.485 Z-0.200 I37.479 J48.379 K0.000 F200.000
G1 X25.894 Y-59.485 Z-0.200 F200.000
G2 X25.724 Y-59.366 Z-0.200 I-0.000 J0.180 K0.000 F200.000
G3 X25.518 Y-58.795 Z-0.200 I-493.735 J-178.405 K0.000 F200.000
G2 X25.507 Y-58.533 Z-0.200 I0.742 J0.162 K0.000 F200.000
G2 X25.346 Y-58.376 Z-0.200 I0.006 J0.167 K0.000 F200.000
G1 X25.306 Y-57.958 Z-0.200 F200.000
G2 X24.924 Y-57.751 Z-0.200 I-0.069 J0.329 K0.000 F200.000
G2 X24.748 Y-47.075 Z-0.200 I491.906 J13.424 K0.000 F200.000
G2 X24.629 Y-47.436 Z-0.200 I-0.319 J-0.095 K0.000 F200.000
G2 X24.721 Y-47.590 Z-0.200 I-0.089 J-0.158 K0.000 F200.000
G2 X24.834 Y-54.703 Z-0.200 I-857084.801 J-13704.190 K0.000 F200.000
G3 X24.835 Y-57.757 Z-0.200 I4507.089 J-0.763 K0.000 F200.000
G2 X24.655 Y-57.937 Z-0.200 I-0.180 J-0.000 K0.000 F200.000
G2 X24.247 Y-57.902 Z-0.200 I-0.151 J0.645 K0.000 F200.000
G1 X24.231 Y-57.871 Z-0.200 F200.000
G2 X23.723 Y-57.871 Z-0.200 I-0.254 J0.325 K0.000 F200.000
G2 X23.231 Y-57.871 Z-0.200 I-0.246 J0.309 K0.000 F200.000
G2 X22.691 Y-57.812 Z-0.200 I-0.242 J0.289 K0.000 F200.000
G1 X22.683 Y-57.755 Z-0.200 F200.000
G3 X22.755 Y-47.457 Z-0.200 I-726.815 J10.219 K0.000 F200.000
G2 X22.826 Y-47.322 Z-0.200 I0.137 J0.014 K0.000 F200.000
G2 X22.754 Y-46.966 Z-0.200 I0.283 J0.241 K0.000 F200.000
G2 X22.788 Y-46.656 Z-0.200 I0.493 J0.104 K0.000 F200.000
G1 X22.873 Y-46.593 Z-0.200 F200.000
G2 X22.866 Y-46.364 Z-0.200 I0.120 J0.119 K0.000 F200.000
G2 X24.156 Y-46.016 Z-0.200 I0.834 J-0.526 K0.000 F200.000
G2 X24.695 Y-46.451 Z-0.200 I-0.841 J-1.594 K0.000 F200.000
G2 X24.593 Y-46.654 Z-0.200 I-0.111 J-0.071 K0.000 F200.000
G2 X24.746 Y-46.837 Z-0.200 I-0.048 J-0.196 K0.000 F200.000
G1 X24.741 Y-46.452 Z-0.200 F200.000
G3 X23.016 Y-46.113 Z-0.200 I-1.035 J-0.710 K0.000 F200.000
G3 X22.702 Y-46.499 Z-0.200 I0.876 J-1.032 K0.000 F200.000
G3 X22.596 Y-54.193 Z-0.200 I30704.376 J-428.219 K0.000 F200.000
G1 X22.542 Y-55.977 Z-0.200 F200.000
G1 X22.542 Y-55.977 Z-0.200 F200.000
G1 X22.488 Y-57.762 Z-0.200 F200.000
G2 X22.308 Y-57.937 Z-0.200 I-0.180 J0.005 K0.000 F200.000
G1 X21.844 Y-57.937 Z-0.200 F200.000
G1 X21.806 Y-58.008 Z-0.200 F200.000
G1 X21.806 Y-58.008 Z-0.200 F200.000
G1 X21.738 Y-58.135 Z-0.200 F200.000
G2 X21.726 Y-58.753 Z-0.200 I-1.675 J-0.277 K0.000 F200.000
G2 X21.552 Y-59.112 Z-0.200 I-0.639 J0.089 K0.000 F200.000
G1 X21.454 Y-59.141 Z-0.200 F200.000
G1 X20.183 Y-59.141 Z-0.200 F200.000
G3 X20.018 Y-59.306 Z-0.200 I22568.580 J-22568.663 K0.000 F200.000
G2 X19.821 Y-59.707 Z-0.200 I-0.434 J-0.037 K0.000 F200.000
G1 X19.716 Y-59.823 Z-0.200 F200.000
G2 X19.658 Y-67.220 Z-0.200 I-26549.602 J204.016 K0.000 F200.000
G2 X19.478 Y-67.398 Z-0.200 I-0.180 J0.001 K0.000 F200.000
G1 X16.259 Y-67.398 Z-0.200 F200.000
G2 X16.062 Y-67.504 Z-0.200 I-40.959 J76.292 K0.000 F200.000
G1 X16.062 Y-68.250 Z-0.200 F200.000
G2 X15.882 Y-68.430 Z-0.200 I-0.180 J-0.000 K0.000 F200.000
G1 X15.046 Y-68.430 Z-0.200 F200.000
G2 X14.839 Y-68.602 Z-0.200 I-0.257 J0.099 K0.000 F200.000
G1 X12.316 Y-68.602 Z-0.200 F200.000
G1 X12.191 Y-68.650 Z-0.200 F200.000
G1 X12.191 Y-74.247 Z-0.200 F200.000
G2 X12.076 Y-74.414 Z-0.200 I-0.180 J0.000 K0.000 F200.000
G3 X11.351 Y-74.742 Z-0.200 I1.439 J-4.160 K0.000 F200.000
G2 X11.091 Y-74.580 Z-0.200 I-0.080 J0.161 K0.000 F200.000
G3 X11.060 Y-72.514 Z-0.200 I-17.082 J0.777 K0.000 F200.000
G3 X11.023 Y-72.344 Z-0.200 I-0.144 J0.058 K0.000 F200.000
G3 X8.220 Y-72.347 Z-0.200 I-1.386 J-13.016 K0.000 F200.000
G3 X8.241 Y-73.171 Z-0.200 I1.083 J-0.384 K0.000 F200.000
G3 X8.941 Y-73.217 Z-0.200 I0.472 J1.850 K0.000 F200.000
G2 X9.121 Y-73.399 Z-0.200 I0.000 J-0.180 K0.000 F200.000
G2 X9.075 Y-78.107 Z-0.200 I-1106901.982 J10689.002 K0.000 F200.000
G2 X8.916 Y-78.284 Z-0.200 I-0.180 J0.002 K0.000 F200.000
G2 X8.420 Y-78.294 Z-0.200 I-0.264 J0.804 K0.000 F200.000
G2 X8.295 Y-77.878 Z-0.200 I0.159 J0.275 K0.000 F200.000
G3 X8.069 Y-77.115 Z-0.200 I-0.831 J0.168 K0.000 F200.000
G3 X6.337 Y-76.307 Z-0.200 I-2.042 J-2.114 K0.000 F200.000
G2 X4.995 Y-76.032 Z-0.200 I1.944 J12.904 K0.000 F200.000
G2 X5.025 Y-75.247 Z-0.200 I0.284 J0.382 K0.000 F200.000
G2 X7.232 Y-75.785 Z-0.200 I0.822 J-1.424 K0.000 F200.000
G3 X7.796 Y-75.894 Z-0.200 I0.394 J0.523 K0.000 F200.000
G3 X7.999 Y-75.866 Z-0.200 I0.044 J0.433 K0.000 F200.000
G3 X8.065 Y-75.500 Z-0.200 I-0.691 J0.312 K0.000 F200.000
G3 X8.045 Y-74.493 Z-0.200 I-6.562 J0.379 K0.000 F200.000
G3 X7.859 Y-74.359 Z-0.200 I-0.149 J-0.009 K0.000 F200.000
G3 X7.338 Y-74.406 Z-0.200 I-0.191 J-0.783 K0.000 F200.000
G2 X6.786 Y-74.514 Z-0.200 I-0.330 J0.225 K0.000 F200.000
G3 X3.583 Y-74.698 Z-0.200 I-1.415 J-3.347 K0.000 F200.000
G3 X2.951 Y-75.941 Z-0.200 I0.629 J-1.101 K0.000 F200.000
G3 X3.910 Y-76.855 Z-0.200 I1.256 J0.357 K0.000 F200.000
G2 X5.537 Y-77.332 Z-0.200 I-8.992 J-33.680 K0.000 F200.000
G2 X6.319 Y-77.816 Z-0.200 I-0.396 J-1.515 K0.000 F200.000
G2 X6.050 Y-78.455 Z-0.200 I-0.325 J-0.239 K0.000 F200.000
G2 X3.909 Y-77.678 Z-0.200 I-0.448 J2.106 K0.000 F200.000
G3 X3.407 Y-77.568 Z-0.200 I-0.364 J-0.460 K0.000 F200.000
G1 X3.114 Y-77.584 Z-0.200 F200.000
G1 X3.114 Y-79.231 Z-0.200 F200.000
G3 X3.820 Y-79.233 Z-0.200 I0.360 J1.629 K0.000 F200.000
G2 X4.404 Y-79.039 Z-0.200 I0.367 J-0.127 K0.000 F200.000
G3 X7.837 Y-78.750 Z-0.200 I1.430 J3.558 K0.000 F200.000
G2 X8.167 Y-79.029 Z-0.200 I0.088 J-0.231 K0.000 F200.000
G3 X8.220 Y-79.197 Z-0.200 I0.274 J-0.005 K0.000 F200.000
G3 X9.890 Y-79.271 Z-0.200 I1.276 J9.926 K0.000 F200.000
G3 X11.561 Y-79.196 Z-0.200 I0.425 J9.211 K0.000 F200.000
G3 X11.531 Y-78.354 Z-0.200 I-1.089 J0.383 K0.000 F200.000
G2 X11.248 Y-78.274 Z-0.200 I0.063 J0.762 K0.000 F200.000
G2 X11.094 Y-77.712 Z-0.200 I0.490 J0.437 K0.000 F200.000
G2 X11.127 Y-76.170 Z-0.200 I11.727 J0.521 K0.000 F200.000
G2 X12.555 Y-75.620 Z-0.200 I0.904 J-0.219 K0.000 F200.000
G2 X12.731 Y-76.426 Z-0.200 I-1.037 J-0.650 K0.000 F200.000
G2 X12.746 Y-78.138 Z-0.200 I-26.565 J-1.090 K0.000 F200.000
G2 X12.410 Y-78.344 Z-0.200 I-0.288 J0.092 K0.000 F200.000
G1 X12.292 Y-78.355 Z-0.200 F200.000
G1 X12.292 Y-79.222 Z-0.200 F200.000
G3 X21.234 Y-79.230 Z-0.200 I4.732 J284.889 K0.000 F200.000
G3 X21.892 Y-79.194 Z-0.200 I-0.014 J6.262 K0.000 F200.000
G3 X21.871 Y-78.363 Z-0.200 I-0.965 J0.392 K0.000 F200.000
G2 X21.456 Y-78.090 Z-0.200 I0.142 J0.669 K0.000 F200.000
G2 X21.571 Y-76.026 Z-0.200 I3.923 J0.815 K0.000 F200.000
G2 X22.888 Y-75.704 Z-0.200 I0.807 J-0.446 K0.000 F200.000
G2 X23.104 Y-76.496 Z-0.200 I-1.148 J-0.739 K0.000 F200.000
G2 X23.113 Y-78.127 Z-0.200 I-54.118 J-1.099 K0.000 F200.000
G2 X22.719 Y-78.374 Z-0.200 I-0.357 J0.132 K0.000 F200.000
G3 X22.741 Y-79.220 Z-0.200 I3.756 J-0.324 K0.000 F200.000
G3 X32.254 Y-79.206 Z-0.200 I4.430 J219.139 K0.000 F200.000
G3 X32.389 Y-79.092 Z-0.200 I0.025 J0.108 K0.000 F200.000
G3 X32.358 Y-78.385 Z-0.200 I-1.410 J0.292 K0.000 F200.000
G3 X32.077 Y-78.269 Z-0.200 I-0.284 J-0.288 K0.000 F200.000
G2 X31.853 Y-77.756 Z-0.200 I0.273 J0.424 K0.000 F200.000
G2 X32.024 Y-76.026 Z-0.200 I3.676 J0.510 K0.000 F200.000
G2 X33.341 Y-75.704 Z-0.200 I0.807 J-0.446 K0.000 F200.000
G2 X33.558 Y-76.496 Z-0.200 I-1.148 J-0.739 K0.000 F200.000
G2 X33.566 Y-78.127 Z-0.200 I-54.113 J-1.099 K0.000 F200.000
G2 X33.261 Y-78.344 Z-0.200 I-0.292 J0.087 K0.000 F200.000
G1 X33.160 Y-78.370 Z-0.200 F200.000
G3 X33.195 Y-79.226 Z-0.200 I2.811 J-0.315 K0.000 F200.000
G2 X36.382 Y-79.322 Z-0.200 I-3.929 J-183.437 K0.000 F200.000
G2 X36.422 Y-79.760 Z-0.200 I-0.096 J-0.229 K0.000 F200.000
G3 X36.045 Y-80.181 Z-0.200 I3.263 J-3.297 K0.000 F200.000
G3 X36.187 Y-80.949 Z-0.200 I0.519 J-0.301 K0.000 F200.000
G3 X37.540 Y-81.456 Z-0.200 I1.548 J2.075 K0.000 F200.000
G3 X39.519 Y-81.549 Z-0.200 I1.340 J7.403 K0.000 F200.000
G3 X41.245 Y-81.167 Z-0.200 I-0.302 J5.456 K0.000 F200.000
G3 X41.986 Y-80.591 Z-0.200 I-1.151 J2.246 K0.000 F200.000
G2 X42.292 Y-80.720 Z-0.200 I0.126 J-0.129 K0.000 F200.000
G3 X42.339 Y-81.268 Z-0.200 I1.024 J-0.188 K0.000 F200.000
G3 X44.934 Y-81.336 Z-0.200 I1.688 J14.786 K0.000 F200.000
G3 X46.027 Y-81.268 Z-0.200 I0.165 J6.151 K0.000 F200.000
G3 X46.024 Y-80.460 Z-0.200 I-1.436 J0.397 K0.000 F200.000
G3 X45.336 Y-80.358 Z-0.200 I-0.642 J-1.956 K0.000 F200.000
G2 X45.171 Y-80.187 Z-0.200 I0.015 J0.179 K0.000 F200.000
G1 X45.120 Y-79.113 Z-0.200 F200.000
G2 X45.372 Y-78.940 Z-0.200 I0.180 J0.009 K0.000 F200.000
G3 X48.350 Y-78.694 Z-0.200 I1.313 J2.258 K0.000 F200.000
G2 X48.688 Y-78.390 Z-0.200 I0.637 J-0.368 K0.000 F200.000
G2 X48.899 Y-78.549 Z-0.200 I0.032 J-0.177 K0.000 F200.000
G2 X48.969 Y-79.223 Z-0.200 I-273.518 J-28.682 K0.000 F200.000
G2 X52.539 Y-79.305 Z-0.200 I0.601 J-51.940 K0.000 F200.000
G2 X52.689 Y-79.739 Z-0.200 I-0.014 J-0.248 K0.000 F200.000
G3 X52.236 Y-80.291 Z-0.200 I1.756 J-1.900 K0.000 F200.000
G3 X52.648 Y-81.120 Z-0.200 I0.678 J-0.180 K0.000 F200.000
G3 X54.242 Y-81.512 Z-0.200 I1.783 J3.821 K0.000 F200.000
G3 X57.020 Y-81.342 Z-0.200 I0.878 J8.466 K0.000 F200.000
G3 X58.079 Y-80.727 Z-0.200 I-0.432 J1.962 K0.000 F200.000
G3 X57.776 Y-78.948 Z-0.200 I-0.858 J0.769 K0.000 F200.000
G3 X56.717 Y-78.669 Z-0.200 I-1.185 J-2.347 K0.000 F200.000
G3 X54.342 Y-78.664 Z-0.200 I-2.535 J-756.081 K0.000 F200.000
G2 X53.618 Y-78.442 Z-0.200 I-0.064 J1.078 K0.000 F200.000
G2 X53.956 Y-77.788 Z-0.200 I0.285 J0.267 K0.000 F200.000
G3 X56.239 Y-77.669 Z-0.200 I0.879 J5.113 K0.000 F200.000
G3 X57.489 Y-76.375 Z-0.200 I-0.415 J1.652 K0.000 F200.000
G3 X57.389 Y-75.285 Z-0.200 I-3.335 J0.244 K0.000 F200.000
G2 X57.729 Y-75.177 Z-0.200 I0.177 J0.031 K0.000 F200.000
G3 X58.138 Y-75.877 Z-0.200 I1.611 J0.471 K0.000 F200.000
G3 X59.163 Y-75.468 Z-0.200 I0.373 J0.554 K0.000 F200.000
G3 X59.073 Y-74.761 Z-0.200 I-0.847 J0.252 K0.000 F200.000
G3 X57.625 Y-74.493 Z-0.200 I-0.952 J-1.095 K0.000 F200.000
G3 X57.058 Y-74.723 Z-0.200 I2.144 J-6.075 K0.000 F200.000
G2 X56.493 Y-74.659 Z-0.200 I-0.208 J0.693 K0.000 F200.000
G3 X53.124 Y-75.053 Z-0.200 I-1.350 J-3.059 K0.000 F200.000
G3 X52.587 Y-76.448 Z-0.200 I0.934 J-1.161 K0.000 F200.000
G3 X52.835 Y-77.224 Z-0.200 I1.146 J-0.061 K0.000 F200.000
G1 X53.073 Y-77.535 Z-0.200 F200.000
G2 X53.047 Y-77.781 Z-0.200 I-0.143 J-0.109 K0.000 F200.000
G2 X52.157 Y-78.325 Z-0.200 I-1.249 J1.042 K0.000 F200.000
G2 X51.857 Y-78.296 Z-0.200 I-0.106 J0.477 K0.000 F200.000
G2 X51.780 Y-78.149 Z-0.200 I0.103 J0.148 K0.000 F200.000
G3 X51.743 Y-74.573 Z-0.200 I-50.308 J1.267 K0.000 F200.000
G3 X51.716 Y-74.415 Z-0.200 I-0.646 J-0.028 K0.000 F200.000
G3 X50.669 Y-74.370 Z-0.200 I-0.717 J-4.507 K0.000 F200.000
G3 X49.988 Y-74.379 Z-0.200 I0.500 J-61.910 K0.000 F200.000
G2 X49.805 Y-74.199 Z-0.200 I-0.003 J0.180 K0.000 F200.000
G1 X49.805 Y-73.669 Z-0.200 F200.000
G2 X50.063 Y-73.508 Z-0.200 I0.180 J0.000 K0.000 F200.000
G3 X51.678 Y-73.268 Z-0.200 I0.674 J1.017 K0.000 F200.000
G3 X51.460 Y-72.212 Z-0.200 I-0.689 J0.408 K0.000 F200.000
G3 X50.367 Y-72.061 Z-0.200 I-0.765 J-1.509 K0.000 F200.000
G2 X49.974 Y-72.272 Z-0.200 I-0.522 J0.499 K0.000 F200.000
G2 X49.805 Y-72.093 Z-0.200 I0.010 J0.180 K0.000 F200.000
G1 X49.805 Y-67.675 Z-0.200 F200.000
G2 X49.417 Y-67.464 Z-0.200 I-0.072 J0.328 K0.000 F200.000
G1 X49.417 Y-66.639 Z-0.200 F200.000
G3 X49.317 Y-66.538 Z-0.200 I-19.295 J-19.144 K0.000 F200.000
G1 X41.857 Y-66.538 Z-0.200 F200.000
G2 X41.677 Y-66.358 Z-0.200 I-0.000 J0.180 K0.000 F200.000
G1 X41.663 Y-60.650 Z-0.200 F200.000
G3 X41.547 Y-59.726 Z-0.200 I-3686.696 J-459.209 K0.000 F200.000
G2 X41.247 Y-59.242 Z-0.200 I0.131 J0.416 K0.000 F200.000
G1 X41.146 Y-59.141 Z-0.200 F200.000
G1 X39.952 Y-59.141 Z-0.200 F200.000
G2 X39.527 Y-58.715 Z-0.200 I0.375 J0.801 K0.000 F200.000
G1 X39.527 Y-57.986 Z-0.200 F200.000
G3 X39.155 Y-57.912 Z-0.200 I-23.956 J-119.475 K0.000 F200.000
G2 X38.998 Y-57.724 Z-0.200 I0.057 J0.208 K0.000 F200.000
G2 X38.819 Y-57.934 Z-0.200 I-0.181 J-0.027 K0.000 F200.000
G2 X38.279 Y-57.871 Z-0.200 I-0.161 J0.972 K0.000 F200.000
G2 X37.777 Y-57.873 Z-0.200 I-0.252 J0.439 K0.000 F200.000
G2 X37.481 Y-57.936 Z-0.200 I-0.241 J0.405 K0.000 F200.000
G2 X37.284 Y-57.870 Z-0.200 I-0.037 J0.215 K0.000 F200.000
G2 X37.035 Y-57.936 Z-0.200 I-0.226 J0.351 K0.000 F200.000
G2 X36.720 Y-57.903 Z-0.200 I-0.048 J1.040 K0.000 F200.000
G2 X36.645 Y-57.755 Z-0.200 I0.106 J0.146 K0.000 F200.000
G2 X36.794 Y-47.531 Z-0.200 I744.405 J-5.725 K0.000 F200.000
G2 X36.853 Y-47.409 Z-0.200 I0.120 J0.018 K0.000 F200.000
G2 X36.774 Y-47.089 Z-0.200 I0.243 J0.229 K0.000 F200.000
G2 X36.809 Y-46.798 Z-0.200 I0.465 J0.093 K0.000 F200.000
G2 X36.991 Y-46.669 Z-0.200 I0.399 J-0.371 K0.000 F200.000
G2 X36.890 Y-46.358 Z-0.200 I0.002 J0.173 K0.000 F200.000
G2 X37.682 Y-45.961 Z-0.200 I0.943 J-0.893 K0.000 F200.000
G1 X37.682 Y-45.961 Z-0.200 F200.000
G2 X37.968 Y-45.960 Z-0.200 I0.146 J-0.931 K0.000 F200.000
G1 X37.968 Y-45.960 Z-0.200 F200.000
G2 X38.700 Y-46.467 Z-0.200 I-0.057 J-0.864 K0.000 F200.000
G2 X38.615 Y-46.623 Z-0.200 I-0.150 J-0.019 K0.000 F200.000
G2 X38.768 Y-47.016 Z-0.200 I-0.194 J-0.302 K0.000 F200.000
G2 X38.731 Y-47.304 Z-0.200 I-0.463 J-0.086 K0.000 F200.000
G1 X38.705 Y-47.322 Z-0.200 F200.000
G2 X38.768 Y-47.445 Z-0.200 I-0.055 J-0.106 K0.000 F200.000
G1 X38.985 Y-57.145 Z-0.200 F200.000
G1 X38.785 Y-46.393 Z-0.200 F200.000
G3 X38.461 Y-46.083 Z-0.200 I-0.965 J-0.686 K0.000 F200.000
G0 Z0.500
G0 X38.379 Y-46.193 Z0.500
G0 X38.379 Y-46.193 Z0.500
G1 X38.379 Y-46.193 Z-0.200 F100.000
G3 X37.962 Y-46.040 Z-0.200 I-0.466 J-0.625 K0.000 F200.000
G1 X37.962 Y-46.040 Z-0.200 F200.000
G3 X37.688 Y-46.041 Z-0.200 I-0.134 J-0.854 K0.000 F200.000
G1 X37.688 Y-46.041 Z-0.200 F200.000
G3 X36.940 Y-46.420 Z-0.200 I0.146 J-1.216 K0.000 F200.000
G3 X37.026 Y-46.596 Z-0.200 I0.063 J-0.078 K0.000 F200.000
G2 X38.494 Y-46.575 Z-0.200 I0.762 J-1.995 K0.000 F200.000
G3 X38.620 Y-46.488 Z-0.200 I0.027 J0.096 K0.000 F200.000
G3 X38.379 Y-46.193 Z-0.200 I-0.706 J-0.330 K0.000 F200.000
G0 Z0.500
G0 X38.328 Y-46.576 Z0.500
G0 X38.328 Y-46.576 Z0.500
G1 X38.328 Y-46.576 Z-0.200 F100.000
G3 X38.261 Y-46.572 Z-0.200 I-0.062 J-0.466 K0.000 F200.000
G3 X36.899 Y-46.820 Z-0.200 I-0.397 J-1.685 K0.000 F200.000
G1 X36.854 Y-46.904 Z-0.200 F200.000
G3 X36.855 Y-47.271 Z-0.200 I72.592 J-0.093 K0.000 F200.000
G3 X36.989 Y-47.365 Z-0.200 I0.100 J0.000 K0.000 F200.000
G2 X37.562 Y-47.161 Z-0.200 I10.056 J-27.338 K0.000 F200.000
G2 X38.555 Y-47.292 Z-0.200 I0.311 J-1.478 K0.000 F200.000
G3 X38.686 Y-47.198 Z-0.200 I0.031 J0.095 K0.000 F200.000
G3 X38.688 Y-46.834 Z-0.200 I-15.880 J0.274 K0.000 F200.000
G3 X38.328 Y-46.576 Z-0.200 I-0.421 J-0.207 K0.000 F200.000
G0 Z0.500
G0 X38.191 Y-47.222 Z0.500
G0 X38.191 Y-47.222 Z0.500
G1 X38.191 Y-47.222 Z-0.200 F100.000
G3 X37.738 Y-47.185 Z-0.200 I-0.372 J-1.742 K0.000 F200.000
G3 X36.938 Y-47.441 Z-0.200 I0.543 J-3.077 K0.000 F200.000
G3 X36.874 Y-47.532 Z-0.200 I0.036 J-0.093 K0.000 F200.000
G3 X36.725 Y-57.756 Z-0.200 I744.164 J-15.948 K0.000 F200.000
G1 X36.755 Y-57.828 Z-0.200 F200.000
G3 X37.053 Y-57.856 Z-0.200 I0.242 J0.946 K0.000 F200.000
G3 X37.255 Y-57.756 Z-0.200 I0.030 J0.194 K0.000 F200.000
G1 X37.255 Y-48.030 Z-0.200 F200.000
G2 X37.306 Y-48.034 Z-0.200 I0.025 J-0.002 K0.000 F200.000
G1 X37.306 Y-57.756 Z-0.200 F200.000
G3 X37.541 Y-57.856 Z-0.200 I0.167 J0.067 K0.000 F200.000
G3 X37.746 Y-57.756 Z-0.200 I0.053 J0.153 K0.000 F200.000
G1 X37.746 Y-47.760 Z-0.200 F200.000
G2 X37.797 Y-47.765 Z-0.200 I0.025 J-0.008 K0.000 F200.000
G1 X37.797 Y-57.755 Z-0.200 F200.000
G3 X38.066 Y-57.855 Z-0.200 I0.196 J0.115 K0.000 F200.000
G3 X38.254 Y-57.755 Z-0.200 I0.044 J0.144 K0.000 F200.000
G1 X38.254 Y-48.130 Z-0.200 F200.000
G2 X38.305 Y-48.130 Z-0.200 I0.026 J-0.004 K0.000 F200.000
G1 X38.305 Y-57.754 Z-0.200 F200.000
G1 X38.335 Y-57.825 Z-0.200 F200.000
G3 X38.819 Y-57.854 Z-0.200 I0.322 J1.340 K0.000 F200.000
G3 X38.918 Y-57.751 Z-0.200 I-0.000 J0.100 K0.000 F200.000
G1 X38.688 Y-47.447 Z-0.200 F200.000
G1 X38.678 Y-47.404 Z-0.200 F200.000
G3 X38.191 Y-47.222 Z-0.200 I-0.859 J-1.561 K0.000 F200.000
G0 Z0.500
G0 X36.820 Y-46.681 Z0.500
G0 X36.820 Y-46.681 Z0.500
G1 X36.820 Y-46.681 Z-0.200 F100.000
G2 X36.803 Y-46.658 Z-0.200 I0.012 J0.026 K0.000 F200.000
G1 X36.803 Y-46.695 Z-0.200 F200.000
G2 X36.820 Y-46.681 Z-0.200 I0.038 J-0.028 K0.000 F200.000
G0 Z0.500
G0 X36.619 Y-57.906 Z0.500
G0 X36.619 Y-57.906 Z0.500
G1 X36.619 Y-57.906 Z-0.200 F100.000
G2 X36.094 Y-58.017 Z-0.200 I-0.366 J0.435 K0.000 F200.000
G3 X35.734 Y-59.344 Z-0.200 I3.248 J-1.594 K0.000 F200.000
G2 X35.477 Y-59.565 Z-0.200 I-0.257 J0.039 K0.000 F200.000
G1 X34.603 Y-59.565 Z-0.200 F200.000
G3 X34.531 Y-59.652 Z-0.200 I105.854 J-87.991 K0.000 F200.000
G2 X34.194 Y-60.974 Z-0.200 I-4.838 J0.529 K0.000 F200.000
G1 X34.032 Y-61.440 Z-0.200 F200.000
G1 X34.032 Y-61.971 Z-0.200 F200.000
G2 X33.912 Y-62.186 Z-0.200 I-0.246 J-0.004 K0.000 F200.000
G2 X33.911 Y-62.875 Z-0.200 I-0.364 J-0.344 K0.000 F200.000
G2 X34.032 Y-63.091 Z-0.200 I-0.127 J-0.213 K0.000 F200.000
G1 X34.032 Y-63.678 Z-0.200 F200.000
G2 X33.905 Y-63.900 Z-0.200 I-0.255 J-0.001 K0.000 F200.000
G2 X34.032 Y-64.122 Z-0.200 I-0.129 J-0.221 K0.000 F200.000
G1 X34.032 Y-74.229 Z-0.200 F200.000
G2 X33.610 Y-74.490 Z-0.200 I-0.309 J0.028 K0.000 F200.000
G3 X32.683 Y-74.638 Z-0.200 I-0.039 J-2.732 K0.000 F200.000
G3 X32.353 Y-74.830 Z-0.200 I0.675 J-1.536 K0.000 F200.000
G2 X31.784 Y-74.745 Z-0.200 I-0.228 J0.416 K0.000 F200.000
G2 X31.738 Y-74.506 Z-0.200 I1.486 J0.409 K0.000 F200.000
G3 X30.355 Y-74.454 Z-0.200 I-0.921 J-6.071 K0.000 F200.000
G1 X29.197 Y-74.474 Z-0.200 F200.000
G2 X28.937 Y-74.875 Z-0.200 I-0.283 J-0.101 K0.000 F200.000
G2 X28.471 Y-74.840 Z-0.200 I-0.168 J0.888 K0.000 F200.000
G2 X28.321 Y-74.485 Z-0.200 I0.287 J0.330 K0.000 F200.000
G3 X27.575 Y-74.450 Z-0.200 I-0.670 J-6.288 K0.000 F200.000
G2 X27.319 Y-74.190 Z-0.200 I0.004 J0.260 K0.000 F200.000
G2 X27.354 Y-73.731 Z-0.200 I0.873 J0.164 K0.000 F200.000
G2 X27.809 Y-73.546 Z-0.200 I0.454 J-0.465 K0.000 F200.000
G3 X27.783 Y-72.144 Z-0.200 I-0.149 J0.699 K0.000 F200.000
G2 X27.415 Y-72.048 Z-0.200 I-0.006 J0.735 K0.000 F200.000
G2 X27.319 Y-71.847 Z-0.200 I0.165 J0.201 K0.000 F200.000
G2 X27.319 Y-64.122 Z-0.200 I1688832.636 J1.239 K0.000 F200.000
G2 X27.446 Y-63.900 Z-0.200 I0.255 J0.001 K0.000 F200.000
G2 X27.319 Y-63.390 Z-0.200 I0.383 J0.366 K0.000 F200.000
G2 X27.354 Y-62.961 Z-0.200 I0.819 J0.150 K0.000 F200.000
G1 X27.440 Y-62.875 Z-0.200 F200.000
G2 X27.319 Y-62.401 Z-0.200 I0.363 J0.345 K0.000 F200.000
G2 X27.439 Y-62.186 Z-0.200 I0.246 J0.004 K0.000 F200.000
G2 X27.319 Y-61.692 Z-0.200 I0.384 J0.355 K0.000 F200.000
G1 X27.319 Y-61.460 Z-0.200 F200.000
G2 X26.812 Y-59.666 Z-0.200 I5.301 J2.465 K0.000 F200.000
G2 X26.683 Y-59.565 Z-0.200 I27.813 J35.900 K0.000 F200.000
G1 X25.894 Y-59.565 Z-0.200 F200.000
G2 X25.649 Y-59.393 Z-0.200 I0.000 J0.260 K0.000 F200.000
G3 X25.442 Y-58.822 Z-0.200 I-493.786 J-178.424 K0.000 F200.000
G2 X25.427 Y-58.592 Z-0.200 I0.648 J0.159 K0.000 F200.000
G2 X25.267 Y-58.384 Z-0.200 I0.081 J0.228 K0.000 F200.000
G1 X25.233 Y-58.028 Z-0.200 F200.000
G2 X24.884 Y-57.872 Z-0.200 I-0.076 J0.299 K0.000 F200.000
G2 X24.655 Y-58.017 Z-0.200 I-0.226 J0.105 K0.000 F200.000
G2 X24.227 Y-57.983 Z-0.200 I-0.151 J0.815 K0.000 F200.000
G2 X23.719 Y-57.983 Z-0.200 I-0.254 J0.698 K0.000 F200.000
G2 X23.228 Y-57.983 Z-0.200 I-0.246 J0.665 K0.000 F200.000
G2 X22.638 Y-57.887 Z-0.200 I-0.227 J0.466 K0.000 F200.000
G1 X22.603 Y-57.755 Z-0.200 F200.000
G1 X22.613 Y-56.261 Z-0.200 F200.000
G1 X22.568 Y-57.765 Z-0.200 F200.000
G2 X22.308 Y-58.017 Z-0.200 I-0.260 J0.008 K0.000 F200.000
G1 X21.892 Y-58.017 Z-0.200 F200.000
G3 X21.818 Y-58.155 Z-0.200 I18124.136 J-9680.889 K0.000 F200.000
G2 X21.801 Y-58.782 Z-0.200 I-1.701 J-0.267 K0.000 F200.000
G2 X21.618 Y-59.163 Z-0.200 I-0.802 J0.152 K0.000 F200.000
G1 X21.454 Y-59.221 Z-0.200 F200.000
G1 X20.216 Y-59.221 Z-0.200 F200.000
G3 X20.098 Y-59.420 Z-0.200 I0.041 J-0.159 K0.000 F200.000
G2 X19.880 Y-59.761 Z-0.200 I-0.552 J0.112 K0.000 F200.000
G1 X19.796 Y-59.854 Z-0.200 F200.000
G2 X19.738 Y-67.220 Z-0.200 I-26440.444 J203.185 K0.000 F200.000
G2 X19.478 Y-67.478 Z-0.200 I-0.260 J0.002 K0.000 F200.000
G1 X16.279 Y-67.478 Z-0.200 F200.000
G2 X16.142 Y-67.552 Z-0.200 I-28.580 J53.211 K0.000 F200.000
G1 X16.142 Y-68.250 Z-0.200 F200.000
G2 X15.882 Y-68.510 Z-0.200 I-0.260 J0.000 K0.000 F200.000
G1 X15.091 Y-68.510 Z-0.200 F200.000
G2 X14.839 Y-68.682 Z-0.200 I-0.255 J0.103 K0.000 F200.000
G1 X12.331 Y-68.682 Z-0.200 F200.000
G1 X12.271 Y-68.705 Z-0.200 F200.000
G1 X12.271 Y-74.247 Z-0.200 F200.000
G2 X12.105 Y-74.489 Z-0.200 I-0.260 J-0.000 K0.000 F200.000
G3 X11.386 Y-74.813 Z-0.200 I1.427 J-4.122 K0.000 F200.000
G2 X11.011 Y-74.580 Z-0.200 I-0.115 J0.233 K0.000 F200.000
G3 X10.980 Y-72.522 Z-0.200 I-16.997 J0.776 K0.000 F200.000
G3 X10.966 Y-72.416 Z-0.200 I-0.935 J-0.070 K0.000 F200.000
G3 X8.280 Y-72.417 Z-0.200 I-1.335 J-11.372 K0.000 F200.000
G3 X8.285 Y-73.101 Z-0.200 I1.692 J-0.329 K0.000 F200.000
G3 X8.941 Y-73.137 Z-0.200 I0.432 J1.870 K0.000 F200.000
G2 X9.201 Y-73.400 Z-0.200 I-0.000 J-0.260 K0.000 F200.000
G2 X9.155 Y-78.108 Z-0.200 I-1106688.570 J10686.940 K0.000 F200.000
G2 X8.925 Y-78.364 Z-0.200 I-0.260 J0.003 K0.000 F200.000
G2 X8.398 Y-78.371 Z-0.200 I-0.276 J0.907 K0.000 F200.000
G2 X8.215 Y-77.869 Z-0.200 I0.171 J0.347 K0.000 F200.000
G3 X8.009 Y-77.170 Z-0.200 I-0.753 J0.158 K0.000 F200.000
G3 X6.320 Y-76.385 Z-0.200 I-1.983 J-2.059 K0.000 F200.000
G2 X4.954 Y-76.101 Z-0.200 I1.738 J11.768 K0.000 F200.000
G2 X4.986 Y-75.177 Z-0.200 I0.325 J0.451 K0.000 F200.000
G2 X6.198 Y-74.990 Z-0.200 I0.828 J-1.343 K0.000 F200.000
G2 X7.347 Y-75.781 Z-0.200 I-0.485 J-1.934 K0.000 F200.000
G3 X7.961 Y-75.771 Z-0.200 I0.292 J0.930 K0.000 F200.000
G3 X7.941 Y-74.449 Z-0.200 I-4.732 J0.592 K0.000 F200.000
G3 X7.356 Y-74.496 Z-0.200 I-0.203 J-1.140 K0.000 F200.000
G2 X6.657 Y-74.548 Z-0.200 I-0.378 J0.354 K0.000 F200.000
G3 X3.626 Y-74.765 Z-0.200 I-1.293 J-3.211 K0.000 F200.000
G3 X3.031 Y-75.927 Z-0.200 I0.585 J-1.033 K0.000 F200.000
G3 X3.938 Y-76.780 Z-0.200 I1.179 J0.344 K0.000 F200.000
G2 X5.570 Y-77.260 Z-0.200 I-8.464 J-31.847 K0.000 F200.000
G2 X6.389 Y-77.777 Z-0.200 I-0.407 J-1.550 K0.000 F200.000
G2 X6.064 Y-78.533 Z-0.200 I-0.395 J-0.278 K0.000 F200.000
G2 X3.855 Y-77.738 Z-0.200 I-0.462 J2.183 K0.000 F200.000
G3 X3.411 Y-77.648 Z-0.200 I-0.314 J-0.408 K0.000 F200.000
G1 X3.194 Y-77.660 Z-0.200 F200.000
G1 X3.194 Y-79.155 Z-0.200 F200.000
G3 X3.772 Y-79.165 Z-0.200 I0.338 J2.754 K0.000 F200.000
G2 X4.432 Y-78.964 Z-0.200 I0.415 J-0.177 K0.000 F200.000
G3 X7.815 Y-78.673 Z-0.200 I1.403 J3.502 K0.000 F200.000
G2 X8.257 Y-79.093 Z-0.200 I0.103 J-0.335 K0.000 F200.000
G3 X8.563 Y-79.155 Z-0.200 I0.221 J0.310 K0.000 F200.000
G3 X11.501 Y-79.125 Z-0.200 I1.297 J16.920 K0.000 F200.000
G3 X11.489 Y-78.425 Z-0.200 I-1.536 J0.324 K0.000 F200.000
G2 X11.022 Y-77.912 Z-0.200 I-0.017 J0.454 K0.000 F200.000
G2 X11.050 Y-76.148 Z-0.200 I13.527 J0.670 K0.000 F200.000
G2 X12.553 Y-75.513 Z-0.200 I1.000 J-0.272 K0.000 F200.000
G2 X12.786 Y-76.070 Z-0.200 I-0.490 J-0.532 K0.000 F200.000
G2 X12.826 Y-78.138 Z-0.200 I-20.579 J-1.434 K0.000 F200.000
G2 X12.418 Y-78.424 Z-0.200 I-0.334 J0.043 K0.000 F200.000
G1 X12.372 Y-78.428 Z-0.200 F200.000
G1 X12.372 Y-79.143 Z-0.200 F200.000
G3 X21.232 Y-79.150 Z-0.200 I4.681 J282.568 K0.000 F200.000
G3 X21.834 Y-79.120 Z-0.200 I-0.029 J6.594 K0.000 F200.000
G3 X21.817 Y-78.422 Z-0.200 I-1.061 J0.323 K0.000 F200.000
G2 X21.320 Y-77.760 Z-0.200 I0.056 J0.560 K0.000 F200.000
G2 X21.503 Y-75.985 Z-0.200 I3.723 J0.515 K0.000 F200.000
G2 X22.950 Y-75.653 Z-0.200 I0.868 J-0.464 K0.000 F200.000
G2 X23.184 Y-76.495 Z-0.200 I-1.210 J-0.790 K0.000 F200.000
G2 X23.193 Y-78.127 Z-0.200 I-54.215 J-1.100 K0.000 F200.000
G2 X22.792 Y-78.438 Z-0.200 I-0.405 J0.108 K0.000 F200.000
G3 X22.808 Y-79.143 Z-0.200 I3.033 J-0.285 K0.000 F200.000
G3 X32.303 Y-79.119 Z-0.200 I4.321 J168.962 K0.000 F200.000
G3 X32.271 Y-78.414 Z-0.200 I-0.974 J0.310 K0.000 F200.000
G2 X31.784 Y-77.888 Z-0.200 I0.025 J0.511 K0.000 F200.000
G2 X31.956 Y-75.985 Z-0.200 I3.836 J0.613 K0.000 F200.000
G2 X33.403 Y-75.653 Z-0.200 I0.868 J-0.464 K0.000 F200.000
G2 X33.638 Y-76.495 Z-0.200 I-1.210 J-0.790 K0.000 F200.000
G2 X33.646 Y-78.127 Z-0.200 I-54.211 J-1.100 K0.000 F200.000
G2 X33.232 Y-78.434 Z-0.200 I-0.405 J0.113 K0.000 F200.000
G3 X33.246 Y-79.150 Z-0.200 I4.425 J-0.267 K0.000 F200.000
G2 X36.315 Y-79.229 Z-0.200 I-8.148 J-379.603 K0.000 F200.000
G2 X36.480 Y-79.815 Z-0.200 I-0.020 J-0.322 K0.000 F200.000
G3 X36.112 Y-80.226 Z-0.200 I3.178 J-3.214 K0.000 F200.000
G3 X36.241 Y-80.890 Z-0.200 I0.453 J-0.257 K0.000 F200.000
G3 X37.551 Y-81.376 Z-0.200 I1.494 J2.015 K0.000 F200.000
G3 X39.511 Y-81.469 Z-0.200 I1.329 J7.323 K0.000 F200.000
G3 X41.211 Y-81.094 Z-0.200 I-0.295 J5.377 K0.000 F200.000
G3 X41.930 Y-80.534 Z-0.200 I-1.123 J2.182 K0.000 F200.000
G2 X42.372 Y-80.720 Z-0.200 I0.182 J-0.186 K0.000 F200.000
G3 X42.399 Y-81.197 Z-0.200 I1.215 J-0.171 K0.000 F200.000
G3 X45.969 Y-81.190 Z-0.200 I1.745 J20.344 K0.000 F200.000
G3 X45.961 Y-80.522 Z-0.200 I-1.600 J0.314 K0.000 F200.000
G3 X45.330 Y-80.438 Z-0.200 I-0.602 J-2.113 K0.000 F200.000
G2 X45.092 Y-80.191 Z-0.200 I0.021 J0.259 K0.000 F200.000
G1 X45.040 Y-79.117 Z-0.200 F200.000
G2 X45.405 Y-78.867 Z-0.200 I0.260 J0.012 K0.000 F200.000
G3 X48.295 Y-78.636 Z-0.200 I1.280 J2.186 K0.000 F200.000
G2 X48.647 Y-78.318 Z-0.200 I0.769 J-0.497 K0.000 F200.000
G1 X48.764 Y-78.315 Z-0.200 F200.000
G2 X48.704 Y-78.074 Z-0.200 I0.166 J0.170 K0.000 F200.000
G3 X48.704 Y-75.632 Z-0.200 I-3.109 J1.221 K0.000 F200.000
G2 X48.953 Y-75.297 Z-0.200 I0.249 J0.075 K0.000 F200.000
G1 X49.714 Y-75.297 Z-0.200 F200.000
G2 X49.974 Y-75.557 Z-0.200 I-0.000 J-0.260 K0.000 F200.000
G1 X49.974 Y-78.149 Z-0.200 F200.000
G2 X49.714 Y-78.409 Z-0.200 I-0.260 J0.000 K0.000 F200.000
G1 X48.953 Y-78.409 Z-0.200 F200.000
G1 X48.908 Y-78.397 Z-0.200 F200.000
G1 X48.979 Y-78.540 Z-0.200 F200.000
G2 X49.041 Y-79.144 Z-0.200 I-244.819 J-25.695 K0.000 F200.000
G2 X52.551 Y-79.226 Z-0.200 I0.584 J-50.505 K0.000 F200.000
G2 X52.748 Y-79.793 Z-0.200 I-0.026 J-0.327 K0.000 F200.000
G3 X52.311 Y-80.321 Z-0.200 I1.753 J-1.896 K0.000 F200.000
G3 X52.689 Y-81.051 Z-0.200 I0.604 J-0.150 K0.000 F200.000
G3 X54.247 Y-81.432 Z-0.200 I1.742 J3.750 K0.000 F200.000
G3 X56.999 Y-81.265 Z-0.200 I0.873 J8.386 K0.000 F200.000
G3 X58.016 Y-80.676 Z-0.200 I-0.412 J1.886 K0.000 F200.000
G3 X57.731 Y-79.014 Z-0.200 I-0.797 J0.719 K0.000 F200.000
G3 X56.711 Y-78.749 Z-0.200 I-1.142 J-2.296 K0.000 F200.000
G3 X54.331 Y-78.744 Z-0.200 I-4.448 J-1601.347 K0.000 F200.000
G2 X53.560 Y-78.496 Z-0.200 I-0.060 J1.139 K0.000 F200.000
G2 X53.960 Y-77.708 Z-0.200 I0.343 J0.322 K0.000 F200.000
G3 X56.214 Y-77.593 Z-0.200 I0.873 J5.045 K0.000 F200.000
G3 X57.410 Y-76.362 Z-0.200 I-0.391 J1.576 K0.000 F200.000
G3 X57.310 Y-75.299 Z-0.200 I-3.271 J0.230 K0.000 F200.000
G2 X57.802 Y-75.143 Z-0.200 I0.256 J0.045 K0.000 F200.000
G3 X58.188 Y-75.815 Z-0.200 I1.555 J0.448 K0.000 F200.000
G3 X59.085 Y-75.448 Z-0.200 I0.322 J0.493 K0.000 F200.000
G3 X59.013 Y-74.815 Z-0.200 I-0.787 J0.231 K0.000 F200.000
G3 X57.646 Y-74.570 Z-0.200 I-0.892 J-1.042 K0.000 F200.000
G3 X57.076 Y-74.801 Z-0.200 I2.392 J-6.719 K0.000 F200.000
G2 X56.466 Y-74.735 Z-0.200 I-0.233 J0.688 K0.000 F200.000
G3 X53.178 Y-75.112 Z-0.200 I-1.323 J-2.986 K0.000 F200.000
G3 X52.666 Y-76.442 Z-0.200 I0.884 J-1.103 K0.000 F200.000
G3 X52.902 Y-77.179 Z-0.200 I1.082 J-0.061 K0.000 F200.000
G2 X53.187 Y-77.611 Z-0.200 I-0.664 J-0.750 K0.000 F200.000
G2 X53.099 Y-77.842 Z-0.200 I-0.258 J-0.033 K0.000 F200.000
G2 X52.159 Y-78.405 Z-0.200 I-1.286 J1.081 K0.000 F200.000
G2 X51.834 Y-78.376 Z-0.200 I-0.109 J0.621 K0.000 F200.000
G2 X51.700 Y-78.149 Z-0.200 I0.126 J0.228 K0.000 F200.000
G3 X51.663 Y-74.582 Z-0.200 I-50.429 J1.266 K0.000 F200.000
G3 X51.649 Y-74.482 Z-0.200 I-0.971 J-0.084 K0.000 F200.000
G3 X49.989 Y-74.459 Z-0.200 I-0.998 J-12.086 K0.000 F200.000
G2 X49.725 Y-74.199 Z-0.200 I-0.004 J0.260 K0.000 F200.000
G1 X49.725 Y-73.669 Z-0.200 F200.000
G2 X50.098 Y-73.436 Z-0.200 I0.260 J0.000 K0.000 F200.000
G3 X51.606 Y-73.233 Z-0.200 I0.639 J0.952 K0.000 F200.000
G3 X51.419 Y-72.281 Z-0.200 I-0.617 J0.373 K0.000 F200.000
G3 X50.399 Y-72.136 Z-0.200 I-0.728 J-1.452 K0.000 F200.000
G2 X49.997 Y-72.352 Z-0.200 I-0.606 J0.643 K0.000 F200.000
G2 X49.725 Y-72.093 Z-0.200 I-0.012 J0.260 K0.000 F200.000
G1 X49.725 Y-67.745 Z-0.200 F200.000
G2 X49.337 Y-67.464 Z-0.200 I-0.073 J0.307 K0.000 F200.000
G1 X49.337 Y-66.672 Z-0.200 F200.000
G3 X49.284 Y-66.618 Z-0.200 I-10.317 J-10.236 K0.000 F200.000
G1 X41.857 Y-66.618 Z-0.200 F200.000
G2 X41.597 Y-66.358 Z-0.200 I0.000 J0.260 K0.000 F200.000
G1 X41.583 Y-60.655 Z-0.200 F200.000
G3 X41.472 Y-59.770 Z-0.200 I-3532.724 J-440.022 K0.000 F200.000
G2 X41.167 Y-59.415 Z-0.200 I0.198 J0.479 K0.000 F200.000
G3 X41.113 Y-59.221 Z-0.200 I-0.124 J0.070 K0.000 F200.000
G1 X39.952 Y-59.221 Z-0.200 F200.000
G2 X39.646 Y-59.022 Z-0.200 I0.087 J0.469 K0.000 F200.000
G2 X39.447 Y-58.715 Z-0.200 I0.156 J0.319 K0.000 F200.000
G1 X39.447 Y-58.051 Z-0.200 F200.000
G2 X39.008 Y-57.918 Z-0.200 I-0.008 J0.765 K0.000 F200.000
G2 X38.553 Y-58.014 Z-0.200 I-0.323 J0.407 K0.000 F200.000
G2 X38.281 Y-57.981 Z-0.200 I-0.037 J0.820 K0.000 F200.000
G2 X37.773 Y-57.982 Z-0.200 I-0.256 J0.940 K0.000 F200.000
G2 X37.282 Y-57.982 Z-0.200 I-0.246 J0.847 K0.000 F200.000
G2 X36.696 Y-57.982 Z-0.200 I-0.293 J1.213 K0.000 F200.000
G1 X36.619 Y-57.906 Z-0.200 F200.000
G0 Z0.500
G0 X36.620 Y-58.019 Z0.500
G0 X36.620 Y-58.019 Z0.500
G1 X36.620 Y-58.019 Z-0.200 F100.000
G1 X36.623 Y-58.019 Z-0.200 F200.000
G3 X36.620 Y-58.019 Z-0.200 I-0.002 J-0.000 K0.000 F200.000
G0 Z0.500
G0 Y-58.099 Z0.500
G0 Y-58.099 Z0.500
G1 X36.620 Y-58.099 Z-0.200 F100.000
G1 X39.105 Y-58.099 Z-0.200 F200.000
G2 X39.365 Y-58.359 Z-0.200 I-0.000 J-0.260 K0.000 F200.000
G1 X39.365 Y-58.978 Z-0.200 F200.000
G2 X39.537 Y-59.229 Z-0.200 I-0.103 J-0.255 K0.000 F200.000
G1 X39.537 Y-74.227 Z-0.200 F200.000
G2 X39.263 Y-74.487 Z-0.200 I-0.260 J-0.000 K0.000 F200.000
G3 X37.304 Y-74.851 Z-0.200 I-0.402 J-3.288 K0.000 F200.000
G1 X37.195 Y-74.875 Z-0.200 F200.000
G1 X35.551 Y-74.875 Z-0.200 F200.000
G2 X35.385 Y-74.804 Z-0.200 I-0.022 J0.179 K0.000 F200.000
G2 X34.895 Y-74.702 Z-0.200 I-0.170 J0.418 K0.000 F200.000
G2 X34.516 Y-74.519 Z-0.200 I0.153 J0.799 K0.000 F200.000
G1 X34.458 Y-74.356 Z-0.200 F200.000
G2 X34.458 Y-62.918 Z-0.200 I8383693.216 J2.787 K0.000 F200.000
G2 X34.718 Y-62.658 Z-0.200 I0.260 J-0.000 K0.000 F200.000
G1 X35.321 Y-62.658 Z-0.200 F200.000
G1 X35.351 Y-62.666 Z-0.200 F200.000
G1 X35.359 Y-61.055 Z-0.200 F200.000
G3 X34.703 Y-61.018 Z-0.200 I-15.899 J-270.342 K0.000 F200.000
G2 X34.458 Y-60.757 Z-0.200 I0.015 J0.260 K0.000 F200.000
G2 X34.638 Y-59.730 Z-0.200 I1.881 J0.200 K0.000 F200.000
G1 X34.814 Y-59.653 Z-0.200 F200.000
G3 X36.057 Y-59.612 Z-0.200 I-27.768 J861.483 K0.000 F200.000
G2 X36.099 Y-58.350 Z-0.200 I814.539 J-26.604 K0.000 F200.000
G2 X36.359 Y-58.099 Z-0.200 I0.260 J-0.009 K0.000 F200.000
G1 X36.620 Y-58.099 Z-0.200 F200.000
G0 Z0.500
G0 Y-58.179 Z0.500
G0 Y-58.179 Z0.500
G1 X36.620 Y-58.179 Z-0.200 F100.000
G1 X39.105 Y-58.179 Z-0.200 F200.000
G2 X39.285 Y-58.359 Z-0.200 I0.000 J-0.180 K0.000 F200.000
G1 X39.285 Y-59.022 Z-0.200 F200.000
G2 X39.457 Y-59.229 Z-0.200 I-0.099 J-0.257 K0.000 F200.000
G1 X39.457 Y-74.227 Z-0.200 F200.000
G2 X39.267 Y-74.407 Z-0.200 I-0.180 J-0.000 K0.000 F200.000
G3 X37.195 Y-74.795 Z-0.200 I-0.391 J-3.639 K0.000 F200.000
G1 X35.551 Y-74.795 Z-0.200 F200.000
G2 X35.396 Y-74.693 Z-0.200 I-0.007 J0.158 K0.000 F200.000
G2 X34.931 Y-74.631 Z-0.200 I-0.198 J0.295 K0.000 F200.000
G2 X34.567 Y-74.454 Z-0.200 I0.091 J0.649 K0.000 F200.000
G1 X34.538 Y-74.356 Z-0.200 F200.000
G2 X34.538 Y-62.918 Z-0.200 I8383693.144 J2.787 K0.000 F200.000
G2 X34.718 Y-62.738 Z-0.200 I0.180 J-0.000 K0.000 F200.000
G1 X35.321 Y-62.738 Z-0.200 F200.000
G2 X35.431 Y-62.777 Z-0.200 I0.028 J-0.095 K0.000 F200.000
G1 X35.440 Y-60.980 Z-0.200 F200.000
G3 X34.707 Y-60.938 Z-0.200 I-17.762 J-301.582 K0.000 F200.000
G2 X34.538 Y-60.757 Z-0.200 I0.010 J0.180 K0.000 F200.000
G2 X34.708 Y-59.774 Z-0.200 I1.749 J0.203 K0.000 F200.000
G1 X34.816 Y-59.733 Z-0.200 F200.000
G3 X36.134 Y-59.690 Z-0.200 I-29.463 J913.386 K0.000 F200.000
G2 X36.179 Y-58.353 Z-0.200 I862.539 J-28.149 K0.000 F200.000
G2 X36.359 Y-58.179 Z-0.200 I0.180 J-0.006 K0.000 F200.000
G1 X36.620 Y-58.179 Z-0.200 F200.000
G0 Z0.500
G0 Y-58.259 Z0.500
G0 Y-58.259 Z0.500
G1 X36.620 Y-58.259 Z-0.200 F100.000
G1 X36.359 Y-58.259 Z-0.200 F200.000
G3 X36.259 Y-58.355 Z-0.200 I-0.000 J-0.100 K0.000 F200.000
G3 X36.212 Y-59.767 Z-0.200 I910.879 J-31.119 K0.000 F200.000
G2 X34.819 Y-59.813 Z-0.200 I-32.551 J965.241 K0.000 F200.000
G1 X34.772 Y-59.827 Z-0.200 F200.000
G3 X34.618 Y-60.758 Z-0.200 I1.513 J-0.729 K0.000 F200.000
G3 X34.712 Y-60.858 Z-0.200 I0.100 J-0.000 K0.000 F200.000
G2 X35.520 Y-60.905 Z-0.200 I-18.815 J-332.815 K0.000 F200.000
G1 X35.451 Y-74.614 Z-0.200 F200.000
G3 X35.551 Y-74.715 Z-0.200 I0.100 J-0.001 K0.000 F200.000
G1 X37.195 Y-74.715 Z-0.200 F200.000
G2 X39.271 Y-74.327 Z-0.200 I1.672 J-3.203 K0.000 F200.000
G3 X39.377 Y-74.227 Z-0.200 I0.005 J0.100 K0.000 F200.000
G1 X39.377 Y-59.229 Z-0.200 F200.000
G3 X39.205 Y-59.067 Z-0.200 I-0.232 J-0.073 K0.000 F200.000
G1 X39.205 Y-58.359 Z-0.200 F200.000
G3 X39.105 Y-58.259 Z-0.200 I-0.100 J0.000 K0.000 F200.000
G1 X36.620 Y-58.259 Z-0.200 F200.000
G0 Z0.500
G0 X36.153 Y-58.097 Z0.500
G0 X36.153 Y-58.097 Z0.500
G1 X36.153 Y-58.097 Z-0.200 F100.000
G3 X36.146 Y-58.104 Z-0.200 I-0.002 J-0.005 K0.000 F200.000
G1 X36.153 Y-58.097 Z-0.200 F200.000
G0 Z0.500
G0 X36.017 Y-58.424 Z0.500
G0 X36.017 Y-58.424 Z0.500
G1 X36.017 Y-58.424 Z-0.200 F100.000
G3 X35.868 Y-58.990 Z-0.200 I1.085 J-0.587 K0.000 F200.000
G2 X35.751 Y-59.506 Z-0.200 I-1.105 J-0.020 K0.000 F200.000
G1 X35.706 Y-59.544 Z-0.200 F200.000
G1 X35.979 Y-59.535 Z-0.200 F200.000
G2 X36.017 Y-58.424 Z-0.200 I716.927 J-23.423 K0.000 F200.000
G0 Z0.500
G0 X35.908 Y-59.260 Z0.500
G0 X35.908 Y-59.260 Z0.500
G1 X35.908 Y-59.260 Z-0.200 F100.000
G2 X35.858 Y-59.459 Z-0.200 I-0.493 J0.020 K0.000 F200.000
G1 X35.902 Y-59.457 Z-0.200 F200.000
G1 X35.908 Y-59.260 Z-0.200 F200.000
G0 Z0.500
G0 X35.279 Y-61.131 Z0.500
G0 X35.279 Y-61.131 Z0.500
G1 X35.279 Y-61.131 Z-0.200 F100.000
G3 X34.698 Y-61.098 Z-0.200 I-14.033 J-239.059 K0.000 F200.000
G2 X34.378 Y-60.688 Z-0.200 I0.026 J0.350 K0.000 F200.000
G3 X34.112 Y-61.454 Z-0.200 I229179.912 J-79735.504 K0.000 F200.000
G1 X34.112 Y-61.971 Z-0.200 F200.000
G2 X34.024 Y-62.184 Z-0.200 I-0.246 J-0.023 K0.000 F200.000
G1 X34.051 Y-62.208 Z-0.200 F200.000
G2 X34.023 Y-62.873 Z-0.200 I-0.589 J-0.308 K0.000 F200.000
G1 X34.051 Y-62.898 Z-0.200 F200.000
G1 X34.112 Y-63.091 Z-0.200 F200.000
G1 X34.112 Y-63.678 Z-0.200 F200.000
G2 X34.017 Y-63.898 Z-0.200 I-0.257 J-0.020 K0.000 F200.000
G2 X34.112 Y-64.122 Z-0.200 I-0.138 J-0.189 K0.000 F200.000
G1 X34.112 Y-74.229 Z-0.200 F200.000
G2 X33.614 Y-74.570 Z-0.200 I-0.380 J0.021 K0.000 F200.000
G3 X32.714 Y-74.712 Z-0.200 I-0.043 J-2.647 K0.000 F200.000
G3 X32.398 Y-74.897 Z-0.200 I0.648 J-1.470 K0.000 F200.000
G2 X31.730 Y-74.808 Z-0.200 I-0.273 J0.502 K0.000 F200.000
G2 X31.666 Y-74.570 Z-0.200 I0.400 J0.235 K0.000 F200.000
G3 X30.357 Y-74.534 Z-0.200 I-0.845 J-6.853 K0.000 F200.000
G1 X29.277 Y-74.552 Z-0.200 F200.000
G2 X29.102 Y-74.903 Z-0.200 I-0.328 J-0.056 K0.000 F200.000
G2 X29.276 Y-75.195 Z-0.200 I-0.154 J-0.290 K0.000 F200.000
G2 X29.939 Y-75.276 Z-0.200 I0.167 J-1.386 K0.000 F200.000
G2 X30.102 Y-75.573 Z-0.200 I-0.177 J-0.290 K0.000 F200.000
G3 X30.054 Y-78.112 Z-0.200 I3159.042 J-61.070 K0.000 F200.000
G2 X29.731 Y-78.445 Z-0.200 I-0.340 J0.006 K0.000 F200.000
G3 X28.651 Y-78.497 Z-0.200 I566.317 J-11840.819 K0.000 F200.000
G2 X28.295 Y-78.157 Z-0.200 I-0.016 J0.340 K0.000 F200.000
G3 X28.285 Y-75.203 Z-0.200 I-105.312 J1.129 K0.000 F200.000
G2 X28.428 Y-74.921 Z-0.200 I0.340 J0.005 K0.000 F200.000
G1 X28.444 Y-74.916 Z-0.200 F200.000
G2 X28.225 Y-74.552 Z-0.200 I0.556 J0.583 K0.000 F200.000
G3 X27.574 Y-74.530 Z-0.200 I-0.608 J-8.386 K0.000 F200.000
G2 X27.239 Y-74.190 Z-0.200 I0.005 J0.340 K0.000 F200.000
G2 X27.278 Y-73.703 Z-0.200 I1.006 J0.164 K0.000 F200.000
G2 X27.782 Y-73.470 Z-0.200 I0.521 J-0.466 K0.000 F200.000
G3 X27.764 Y-72.222 Z-0.200 I-0.123 J0.623 K0.000 F200.000
G2 X27.375 Y-72.119 Z-0.200 I0.014 J0.840 K0.000 F200.000
G2 X27.239 Y-71.847 Z-0.200 I0.204 J0.272 K0.000 F200.000
G2 X27.239 Y-64.122 Z-0.200 I1688832.680 J1.239 K0.000 F200.000
G2 X27.333 Y-63.901 Z-0.200 I0.257 J0.020 K0.000 F200.000
G2 X27.239 Y-63.390 Z-0.200 I0.559 J0.367 K0.000 F200.000
G2 X27.278 Y-62.933 Z-0.200 I0.947 J0.150 K0.000 F200.000
G3 X27.299 Y-62.852 Z-0.200 I0.011 J0.040 K0.000 F200.000
G2 X27.327 Y-62.189 Z-0.200 I0.590 J0.308 K0.000 F200.000
G1 X27.299 Y-62.165 Z-0.200 F200.000
G2 X27.239 Y-61.692 Z-0.200 I0.728 J0.333 K0.000 F200.000
G1 X27.239 Y-61.475 Z-0.200 F200.000
G2 X26.921 Y-60.618 Z-0.200 I46.322 J17.695 K0.000 F200.000
G1 X26.887 Y-60.448 Z-0.200 F200.000
G2 X26.848 Y-60.925 Z-0.200 I-0.987 J-0.160 K0.000 F200.000
G2 X26.547 Y-61.107 Z-0.200 I-0.301 J0.158 K0.000 F200.000
G1 X25.939 Y-61.107 Z-0.200 F200.000
G1 X25.936 Y-61.115 Z-0.200 F200.000
G1 X25.936 Y-62.607 Z-0.200 F200.000
G1 X26.031 Y-62.578 Z-0.200 F200.000
G1 X26.664 Y-62.578 Z-0.200 F200.000
G2 X27.004 Y-62.918 Z-0.200 I-0.000 J-0.340 K0.000 F200.000
G1 X27.004 Y-72.183 Z-0.200 F200.000
G2 X26.816 Y-72.525 Z-0.200 I-0.548 J0.078 K0.000 F200.000
G3 X26.782 Y-73.192 Z-0.200 I0.346 J-0.352 K0.000 F200.000
G2 X27.004 Y-73.570 Z-0.200 I-0.238 J-0.393 K0.000 F200.000
G1 X27.004 Y-74.201 Z-0.200 F200.000
G2 X26.668 Y-74.541 Z-0.200 I-0.340 J0.000 K0.000 F200.000
G1 X26.096 Y-74.548 Z-0.200 F200.000
G2 X25.845 Y-74.432 Z-0.200 I-0.014 J0.298 K0.000 F200.000
G1 X25.822 Y-74.458 Z-0.200 F200.000
G2 X25.644 Y-74.904 Z-0.200 I-0.359 J-0.115 K0.000 F200.000
G2 X25.820 Y-75.195 Z-0.200 I-0.152 J-0.291 K0.000 F200.000
G1 X26.324 Y-75.227 Z-0.200 F200.000
G2 X26.642 Y-75.566 Z-0.200 I-0.022 J-0.339 K0.000 F200.000
G1 X26.642 Y-78.149 Z-0.200 F200.000
G2 X26.302 Y-78.489 Z-0.200 I-0.340 J0.000 K0.000 F200.000
G1 X25.280 Y-78.489 Z-0.200 F200.000
G2 X24.940 Y-78.156 Z-0.200 I0.000 J0.340 K0.000 F200.000
G3 X24.876 Y-75.667 Z-0.200 I-47.136 J0.037 K0.000 F200.000
G3 X24.816 Y-75.272 Z-0.200 I-1.871 J-0.086 K0.000 F200.000
G2 X24.923 Y-74.955 Z-0.200 I0.233 J0.098 K0.000 F200.000
G2 X24.397 Y-74.769 Z-0.200 I-0.074 J0.628 K0.000 F200.000
G3 X22.204 Y-74.737 Z-0.200 I-1.143 J-3.124 K0.000 F200.000
G2 X21.753 Y-74.493 Z-0.200 I-0.131 J0.296 K0.000 F200.000
G2 X21.210 Y-74.563 Z-0.200 I-0.301 J0.199 K0.000 F200.000
G2 X20.722 Y-74.371 Z-0.200 I-0.048 J0.596 K0.000 F200.000
G2 X20.287 Y-74.529 Z-0.200 I-0.357 J0.304 K0.000 F200.000
G2 X19.891 Y-74.495 Z-0.200 I-0.127 J0.820 K0.000 F200.000
G1 X19.769 Y-74.388 Z-0.200 F200.000
G2 X19.500 Y-74.541 Z-0.200 I-0.263 J0.151 K0.000 F200.000
G1 X18.824 Y-74.553 Z-0.200 F200.000
G2 X18.636 Y-74.907 Z-0.200 I-0.322 J-0.056 K0.000 F200.000
G2 X18.819 Y-75.194 Z-0.200 I-0.137 J-0.290 K0.000 F200.000
G2 X19.486 Y-75.276 Z-0.200 I0.168 J-1.394 K0.000 F200.000
G2 X19.649 Y-75.573 Z-0.200 I-0.177 J-0.290 K0.000 F200.000
G3 X19.601 Y-78.112 Z-0.200 I3159.065 J-61.070 K0.000 F200.000
G2 X19.278 Y-78.445 Z-0.200 I-0.340 J0.006 K0.000 F200.000
G3 X18.198 Y-78.497 Z-0.200 I565.219 J-11817.909 K0.000 F200.000
G2 X17.842 Y-78.157 Z-0.200 I-0.016 J0.340 K0.000 F200.000
G3 X17.833 Y-75.215 Z-0.200 I-107.852 J1.131 K0.000 F200.000
G2 X17.975 Y-74.933 Z-0.200 I0.340 J0.005 K0.000 F200.000
G1 X18.013 Y-74.921 Z-0.200 F200.000
G2 X17.792 Y-74.552 Z-0.200 I0.235 J0.391 K0.000 F200.000
G3 X16.552 Y-74.534 Z-0.200 I-0.785 J-11.848 K0.000 F200.000
G2 X16.271 Y-74.391 Z-0.200 I-0.004 J0.340 K0.000 F200.000
G1 X16.263 Y-74.367 Z-0.200 F200.000
G2 X15.973 Y-74.543 Z-0.200 I-0.293 J0.157 K0.000 F200.000
G1 X15.371 Y-74.552 Z-0.200 F200.000
G2 X15.131 Y-74.447 Z-0.200 I-0.019 J0.281 K0.000 F200.000
G2 X15.003 Y-74.874 Z-0.200 I-0.373 J-0.121 K0.000 F200.000
G2 X15.362 Y-75.194 Z-0.200 I0.025 J-0.334 K0.000 F200.000
G1 X15.871 Y-75.227 Z-0.200 F200.000
G2 X16.189 Y-75.566 Z-0.200 I-0.022 J-0.339 K0.000 F200.000
G1 X16.189 Y-78.149 Z-0.200 F200.000
G2 X15.849 Y-78.489 Z-0.200 I-0.340 J0.000 K0.000 F200.000
G1 X14.919 Y-78.489 Z-0.200 F200.000
G2 X14.579 Y-78.157 Z-0.200 I0.000 J0.340 K0.000 F200.000
G3 X14.410 Y-75.227 Z-0.200 I-36.402 J-0.627 K0.000 F200.000
G2 X14.536 Y-74.955 Z-0.200 I0.322 J0.017 K0.000 F200.000
G2 X13.913 Y-74.729 Z-0.200 I-0.078 J0.755 K0.000 F200.000
G3 X12.616 Y-74.485 Z-0.200 I-1.112 J-2.341 K0.000 F200.000
G2 X12.335 Y-74.340 Z-0.200 I-0.002 J0.340 K0.000 F200.000
G1 X12.331 Y-74.328 Z-0.200 F200.000
G1 X12.312 Y-74.405 Z-0.200 F200.000
G2 X11.840 Y-74.677 Z-0.200 I-0.600 J0.493 K0.000 F200.000
G2 X11.263 Y-74.920 Z-0.200 I-0.782 J1.050 K0.000 F200.000
G2 X10.931 Y-74.580 Z-0.200 I0.008 J0.340 K0.000 F200.000
G3 X10.895 Y-72.488 Z-0.200 I-13.738 J0.813 K0.000 F200.000
G3 X8.351 Y-72.488 Z-0.200 I-1.271 J-15.537 K0.000 F200.000
G3 X8.352 Y-73.034 Z-0.200 I1.706 J-0.271 K0.000 F200.000
G3 X8.941 Y-73.057 Z-0.200 I0.407 J2.821 K0.000 F200.000
G2 X9.281 Y-73.400 Z-0.200 I-0.000 J-0.340 K0.000 F200.000
G2 X9.235 Y-78.109 Z-0.200 I-1106261.995 J10682.820 K0.000 F200.000
G2 X8.934 Y-78.443 Z-0.200 I-0.340 J0.003 K0.000 F200.000
G2 X8.377 Y-78.448 Z-0.200 I-0.288 J1.005 K0.000 F200.000
G2 X8.136 Y-77.860 Z-0.200 I0.186 J0.420 K0.000 F200.000
G3 X7.950 Y-77.224 Z-0.200 I-0.675 J0.148 K0.000 F200.000
G3 X6.303 Y-76.463 Z-0.200 I-1.924 J-2.003 K0.000 F200.000
G2 X4.913 Y-76.169 Z-0.200 I1.590 J10.953 K0.000 F200.000
G2 X4.946 Y-75.108 Z-0.200 I0.354 J0.520 K0.000 F200.000
G2 X6.218 Y-74.913 Z-0.200 I0.868 J-1.417 K0.000 F200.000
G2 X7.388 Y-75.710 Z-0.200 I-0.473 J-1.950 K0.000 F200.000
G3 X7.889 Y-75.727 Z-0.200 I0.307 J1.643 K0.000 F200.000
G3 X7.884 Y-74.521 Z-0.200 I-6.938 J0.578 K0.000 F200.000
G3 X7.421 Y-74.545 Z-0.200 I-0.158 J-1.444 K0.000 F200.000
G2 X6.630 Y-74.623 Z-0.200 I-0.440 J0.405 K0.000 F200.000
G3 X3.670 Y-74.833 Z-0.200 I-1.265 J-3.136 K0.000 F200.000
G3 X3.110 Y-75.913 Z-0.200 I0.541 J-0.965 K0.000 F200.000
G3 X3.966 Y-76.705 Z-0.200 I1.103 J0.332 K0.000 F200.000
G2 X5.603 Y-77.187 Z-0.200 I-8.013 J-30.284 K0.000 F200.000
G2 X6.458 Y-77.738 Z-0.200 I-0.422 J-1.594 K0.000 F200.000
G2 X6.079 Y-78.612 Z-0.200 I-0.464 J-0.318 K0.000 F200.000
G2 X3.802 Y-77.798 Z-0.200 I-0.476 J2.261 K0.000 F200.000
G3 X3.415 Y-77.728 Z-0.200 I-0.264 J-0.355 K0.000 F200.000
G1 X3.274 Y-77.736 Z-0.200 F200.000
G1 X3.274 Y-79.079 Z-0.200 F200.000
G3 X3.727 Y-79.090 Z-0.200 I0.292 J2.711 K0.000 F200.000
G2 X4.460 Y-78.888 Z-0.200 I0.461 J-0.244 K0.000 F200.000
G3 X7.704 Y-78.631 Z-0.200 I1.367 J3.346 K0.000 F200.000
G2 X8.337 Y-79.053 Z-0.200 I0.212 J-0.368 K0.000 F200.000
G3 X11.429 Y-79.054 Z-0.200 I1.553 J19.609 K0.000 F200.000
G3 X11.407 Y-78.485 Z-0.200 I-0.771 J0.255 K0.000 F200.000
G2 X10.943 Y-77.915 Z-0.200 I0.048 J0.513 K0.000 F200.000
G2 X10.973 Y-76.125 Z-0.200 I13.174 J0.668 K0.000 F200.000
G2 X12.596 Y-75.445 Z-0.200 I1.077 J-0.295 K0.000 F200.000
G2 X12.866 Y-76.065 Z-0.200 I-0.531 J-0.601 K0.000 F200.000
G2 X12.906 Y-78.138 Z-0.200 I-20.669 J-1.439 K0.000 F200.000
G2 X12.452 Y-78.499 Z-0.200 I-0.393 J0.028 K0.000 F200.000
G1 X12.452 Y-79.063 Z-0.200 F200.000
G3 X21.230 Y-79.070 Z-0.200 I4.629 J280.250 K0.000 F200.000
G3 X21.763 Y-79.047 Z-0.200 I-0.154 J9.470 K0.000 F200.000
G3 X21.758 Y-78.476 Z-0.200 I-1.280 J0.273 K0.000 F200.000
G2 X21.251 Y-77.895 Z-0.200 I0.057 J0.560 K0.000 F200.000
G2 X21.434 Y-75.945 Z-0.200 I3.886 J0.620 K0.000 F200.000
G2 X23.012 Y-75.603 Z-0.200 I0.935 J-0.503 K0.000 F200.000
G2 X23.264 Y-76.494 Z-0.200 I-1.036 J-0.774 K0.000 F200.000
G2 X23.273 Y-78.127 Z-0.200 I-54.312 J-1.102 K0.000 F200.000
G2 X22.868 Y-78.501 Z-0.200 I-0.408 J0.036 K0.000 F200.000
G3 X22.875 Y-79.066 Z-0.200 I7.065 J-0.197 K0.000 F200.000
G3 X32.232 Y-79.047 Z-0.200 I4.309 J183.217 K0.000 F200.000
G3 X32.219 Y-78.476 Z-0.200 I-1.368 J0.256 K0.000 F200.000
G2 X31.705 Y-77.895 Z-0.200 I0.046 J0.559 K0.000 F200.000
G2 X31.887 Y-75.945 Z-0.200 I3.886 J0.620 K0.000 F200.000
G2 X33.465 Y-75.603 Z-0.200 I0.935 J-0.503 K0.000 F200.000
G2 X33.718 Y-76.494 Z-0.200 I-1.036 J-0.774 K0.000 F200.000
G2 X33.726 Y-78.127 Z-0.200 I-54.308 J-1.102 K0.000 F200.000
G2 X33.307 Y-78.498 Z-0.200 I-0.403 J0.033 K0.000 F200.000
G3 X33.314 Y-79.075 Z-0.200 I6.710 J-0.209 K0.000 F200.000
G2 X36.432 Y-79.170 Z-0.200 I0.217 J-44.244 K0.000 F200.000
G2 X36.538 Y-79.870 Z-0.200 I-0.143 J-0.380 K0.000 F200.000
G3 X36.180 Y-80.270 Z-0.200 I3.092 J-3.130 K0.000 F200.000
G3 X36.294 Y-80.830 Z-0.200 I0.387 J-0.213 K0.000 F200.000
G3 X37.562 Y-81.297 Z-0.200 I1.441 J1.955 K0.000 F200.000
G3 X39.503 Y-81.390 Z-0.200 I1.317 J7.243 K0.000 F200.000
G3 X41.178 Y-81.021 Z-0.200 I-0.288 J5.299 K0.000 F200.000
G3 X41.874 Y-80.476 Z-0.200 I-1.095 J2.117 K0.000 F200.000
G2 X42.025 Y-80.393 Z-0.200 I0.154 J-0.102 K0.000 F200.000
G2 X41.966 Y-79.845 Z-0.200 I0.875 J0.372 K0.000 F200.000
G3 X40.845 Y-78.781 Z-0.200 I-1.033 J0.034 K0.000 F200.000
G2 X38.119 Y-78.862 Z-0.200 I-2.352 J33.133 K0.000 F200.000
G2 X37.373 Y-78.648 Z-0.200 I0.006 J1.427 K0.000 F200.000
G2 X37.674 Y-77.666 Z-0.200 I0.260 J0.457 K0.000 F200.000
G3 X39.599 Y-77.650 Z-0.200 I0.910 J6.440 K0.000 F200.000
G3 X41.006 Y-76.677 Z-0.200 I-0.207 J1.804 K0.000 F200.000
G3 X40.991 Y-75.313 Z-0.200 I-2.445 J0.654 K0.000 F200.000
G2 X41.633 Y-75.110 Z-0.200 I0.335 J0.058 K0.000 F200.000
G3 X42.003 Y-75.764 Z-0.200 I1.624 J0.486 K0.000 F200.000
G3 X42.852 Y-75.536 Z-0.200 I0.268 J0.699 K0.000 F200.000
G2 X43.402 Y-75.804 Z-0.200 I0.210 J-0.267 K0.000 F200.000
G2 X43.360 Y-80.024 Z-0.200 I-59.775 J-1.521 K0.000 F200.000
G2 X42.815 Y-80.551 Z-0.200 I-0.531 J0.004 K0.000 F200.000
G2 X42.407 Y-80.562 Z-0.200 I-0.294 J3.465 K0.000 F200.000
G2 X42.456 Y-81.084 Z-0.200 I-0.933 J-0.352 K0.000 F200.000
G3 X42.639 Y-81.142 Z-0.200 I0.124 J0.074 K0.000 F200.000
G3 X45.897 Y-81.126 Z-0.200 I1.512 J24.240 K0.000 F200.000
G3 X45.893 Y-80.586 Z-0.200 I-1.556 J0.257 K0.000 F200.000
G3 X45.323 Y-80.517 Z-0.200 I-0.665 J-3.140 K0.000 F200.000
G2 X45.012 Y-80.195 Z-0.200 I0.028 J0.339 K0.000 F200.000
G1 X44.960 Y-79.121 Z-0.200 F200.000
G2 X45.437 Y-78.794 Z-0.200 I0.340 J0.016 K0.000 F200.000
G3 X48.241 Y-78.577 Z-0.200 I1.247 J2.115 K0.000 F200.000
G2 X48.611 Y-78.245 Z-0.200 I0.858 J-0.585 K0.000 F200.000
G1 X48.636 Y-78.243 Z-0.200 F200.000
G2 X48.627 Y-78.051 Z-0.200 I0.196 J0.105 K0.000 F200.000
G3 X48.627 Y-75.655 Z-0.200 I-3.037 J1.198 K0.000 F200.000
G2 X48.953 Y-75.217 Z-0.200 I0.326 J0.098 K0.000 F200.000
G1 X49.714 Y-75.217 Z-0.200 F200.000
G2 X50.054 Y-75.557 Z-0.200 I-0.000 J-0.340 K0.000 F200.000
G1 X50.054 Y-78.149 Z-0.200 F200.000
G2 X49.714 Y-78.489 Z-0.200 I-0.340 J0.000 K0.000 F200.000
G1 X49.046 Y-78.489 Z-0.200 F200.000
G2 X49.114 Y-79.065 Z-0.200 I-16.166 J-2.188 K0.000 F200.000
G2 X52.562 Y-79.147 Z-0.200 I0.566 J-49.123 K0.000 F200.000
G2 X52.807 Y-79.846 Z-0.200 I-0.038 J-0.406 K0.000 F200.000
G3 X52.385 Y-80.350 Z-0.200 I1.762 J-1.903 K0.000 F200.000
G3 X52.730 Y-80.982 Z-0.200 I0.531 J-0.120 K0.000 F200.000
G3 X54.252 Y-81.352 Z-0.200 I1.701 J3.679 K0.000 F200.000
G3 X56.978 Y-81.188 Z-0.200 I0.867 J8.306 K0.000 F200.000
G3 X57.954 Y-80.626 Z-0.200 I-0.393 J1.810 K0.000 F200.000
G3 X57.686 Y-79.080 Z-0.200 I-0.736 J0.669 K0.000 F200.000
G3 X56.706 Y-78.828 Z-0.200 I-1.100 J-2.247 K0.000 F200.000
G2 X54.320 Y-78.823 Z-0.200 I39.391 J17757.575 K0.000 F200.000
G2 X53.478 Y-78.526 Z-0.200 I-0.062 J1.166 K0.000 F200.000
G2 X53.964 Y-77.628 Z-0.200 I0.426 J0.350 K0.000 F200.000
G3 X56.188 Y-77.517 Z-0.200 I0.866 J4.978 K0.000 F200.000
G3 X57.331 Y-76.349 Z-0.200 I-0.366 J1.501 K0.000 F200.000
G3 X57.232 Y-75.313 Z-0.200 I-3.208 J0.216 K0.000 F200.000
G2 X57.874 Y-75.109 Z-0.200 I0.335 J0.058 K0.000 F200.000
G3 X58.239 Y-75.753 Z-0.200 I1.501 J0.426 K0.000 F200.000
G3 X59.008 Y-75.428 Z-0.200 I0.270 J0.432 K0.000 F200.000
G3 X58.953 Y-74.868 Z-0.200 I-0.747 J0.210 K0.000 F200.000
G3 X57.668 Y-74.647 Z-0.200 I-0.832 J-0.990 K0.000 F200.000
G3 X57.093 Y-74.879 Z-0.200 I2.665 J-7.429 K0.000 F200.000
G2 X56.439 Y-74.810 Z-0.200 I-0.246 J0.793 K0.000 F200.000
G3 X53.231 Y-75.172 Z-0.200 I-1.296 J-2.914 K0.000 F200.000
G3 X52.746 Y-76.435 Z-0.200 I0.834 J-1.045 K0.000 F200.000
G3 X52.968 Y-77.134 Z-0.200 I1.019 J-0.061 K0.000 F200.000
G2 X53.265 Y-77.587 Z-0.200 I-0.771 J-0.829 K0.000 F200.000
G2 X53.151 Y-77.903 Z-0.200 I-0.335 J-0.057 K0.000 F200.000
G2 X52.160 Y-78.485 Z-0.200 I-1.327 J1.123 K0.000 F200.000
G2 X51.620 Y-78.149 Z-0.200 I-0.144 J0.371 K0.000 F200.000
G3 X51.583 Y-74.590 Z-0.200 I-50.555 J1.266 K0.000 F200.000
G3 X51.516 Y-74.548 Z-0.200 I-0.043 J0.006 K0.000 F200.000
G3 X49.990 Y-74.539 Z-0.200 I-0.893 J-21.574 K0.000 F200.000
G2 X49.708 Y-74.397 Z-0.200 I-0.006 J0.340 K0.000 F200.000
G1 X49.706 Y-74.390 Z-0.200 F200.000
G2 X49.116 Y-74.553 Z-0.200 I-0.442 J0.450 K0.000 F200.000
G2 X48.769 Y-74.955 Z-0.200 I-0.358 J-0.041 K0.000 F200.000
G1 X48.139 Y-74.955 Z-0.200 F200.000
G2 X47.734 Y-74.785 Z-0.200 I0.139 J0.903 K0.000 F200.000
G3 X45.429 Y-74.905 Z-0.200 I-1.031 J-2.405 K0.000 F200.000
G2 X44.885 Y-74.558 Z-0.200 I-0.145 J0.373 K0.000 F200.000
G3 X41.865 Y-74.579 Z-0.200 I-1.060 J-65.402 K0.000 F200.000
G2 X41.582 Y-74.439 Z-0.200 I-0.009 J0.340 K0.000 F200.000
G1 X41.575 Y-74.417 Z-0.200 F200.000
G1 X41.556 Y-74.494 Z-0.200 F200.000
G2 X41.187 Y-74.735 Z-0.200 I-0.525 J0.400 K0.000 F200.000
G2 X40.681 Y-74.904 Z-0.200 I-0.554 J0.817 K0.000 F200.000
G1 X40.521 Y-74.827 Z-0.200 F200.000
G2 X40.192 Y-74.808 Z-0.200 I-0.141 J0.422 K0.000 F200.000
G2 X39.630 Y-74.571 Z-0.200 I0.200 J1.258 K0.000 F200.000
G2 X39.549 Y-74.417 Z-0.200 I0.154 J0.180 K0.000 F200.000
G2 X39.258 Y-74.567 Z-0.200 I-0.262 J0.152 K0.000 F200.000
G3 X37.338 Y-74.923 Z-0.200 I-0.396 J-3.214 K0.000 F200.000
G2 X36.733 Y-74.955 Z-0.200 I-0.374 J1.359 K0.000 F200.000
G2 X36.782 Y-75.379 Z-0.200 I-0.212 J-0.240 K0.000 F200.000
G3 X36.537 Y-76.726 Z-0.200 I1.275 J-0.928 K0.000 F200.000
G3 X36.959 Y-77.438 Z-0.200 I1.839 J0.609 K0.000 F200.000
G2 X36.910 Y-77.903 Z-0.200 I-0.270 J-0.206 K0.000 F200.000
G2 X35.902 Y-78.485 Z-0.200 I-1.308 J1.102 K0.000 F200.000
G2 X35.406 Y-77.914 Z-0.200 I0.018 J0.516 K0.000 F200.000
G3 X35.309 Y-75.461 Z-0.200 I-127.221 J-3.846 K0.000 F200.000
G2 X35.350 Y-74.958 Z-0.200 I0.375 J0.223 K0.000 F200.000
G1 X35.409 Y-74.919 Z-0.200 F200.000
G3 X35.309 Y-74.910 Z-0.200 I-0.053 J-0.032 K0.000 F200.000
G2 X34.858 Y-74.774 Z-0.200 I-0.091 J0.512 K0.000 F200.000
G2 X34.462 Y-74.580 Z-0.200 I0.196 J0.901 K0.000 F200.000
G1 X34.378 Y-74.356 Z-0.200 F200.000
G2 X34.378 Y-62.918 Z-0.200 I8383693.216 J2.787 K0.000 F200.000
G2 X34.718 Y-62.578 Z-0.200 I0.340 J-0.000 K0.000 F200.000
G1 X35.272 Y-62.578 Z-0.200 F200.000
G1 X35.279 Y-61.131 Z-0.200 F200.000
G0 Z0.500
G0 X35.199 Y-61.206 Z0.500
G0 X35.199 Y-61.206 Z0.500
G1 X35.199 Y-61.206 Z-0.200 F100.000
G2 X34.525 Y-61.131 Z-0.200 I-0.160 J1.622 K0.000 F200.000
G2 X34.365 Y-60.970 Z-0.200 I0.101 J0.261 K0.000 F200.000
G3 X34.192 Y-61.971 Z-0.200 I1.353 J-0.749 K0.000 F200.000
G2 X34.122 Y-62.187 Z-0.200 I-0.277 J-0.030 K0.000 F200.000
G2 X34.122 Y-62.876 Z-0.200 I-0.701 J-0.344 K0.000 F200.000
G2 X34.192 Y-63.091 Z-0.200 I-0.245 J-0.198 K0.000 F200.000
G1 X34.192 Y-63.678 Z-0.200 F200.000
G2 X34.118 Y-63.900 Z-0.200 I-0.286 J-0.028 K0.000 F200.000
G2 X34.192 Y-64.122 Z-0.200 I-0.252 J-0.207 K0.000 F200.000
G1 X34.192 Y-74.229 Z-0.200 F200.000
G2 X33.618 Y-74.650 Z-0.200 I-0.465 J0.033 K0.000 F200.000
G3 X32.744 Y-74.786 Z-0.200 I-0.047 J-2.561 K0.000 F200.000
G2 X32.208 Y-75.035 Z-0.200 I-0.788 J1.000 K0.000 F200.000
G2 X31.610 Y-74.744 Z-0.200 I-0.140 J0.473 K0.000 F200.000
G2 X31.590 Y-74.634 Z-0.200 I0.435 J0.137 K0.000 F200.000
G3 X29.354 Y-74.631 Z-0.200 I-1.141 J-16.071 K0.000 F200.000
G2 X29.234 Y-74.906 Z-0.200 I-0.368 J-0.002 K0.000 F200.000
G2 X29.345 Y-75.119 Z-0.200 I-0.192 J-0.235 K0.000 F200.000
G2 X29.957 Y-75.194 Z-0.200 I0.129 J-1.479 K0.000 F200.000
G2 X30.182 Y-75.574 Z-0.200 I-0.195 J-0.372 K0.000 F200.000
G3 X30.134 Y-78.113 Z-0.200 I3159.021 J-61.069 K0.000 F200.000
G2 X29.735 Y-78.525 Z-0.200 I-0.420 J0.008 K0.000 F200.000
G3 X28.655 Y-78.577 Z-0.200 I565.787 J-11829.772 K0.000 F200.000
G2 X28.215 Y-78.157 Z-0.200 I-0.020 J0.420 K0.000 F200.000
G3 X28.205 Y-75.204 Z-0.200 I-105.264 J1.129 K0.000 F200.000
G2 X28.320 Y-74.918 Z-0.200 I0.379 J0.014 K0.000 F200.000
G1 X28.289 Y-74.896 Z-0.200 F200.000
G2 X28.179 Y-74.629 Z-0.200 I0.377 J0.311 K0.000 F200.000
G3 X27.573 Y-74.610 Z-0.200 I-0.555 J-7.813 K0.000 F200.000
G2 X27.159 Y-74.190 Z-0.200 I0.006 J0.420 K0.000 F200.000
G2 X27.195 Y-73.690 Z-0.200 I1.193 J0.164 K0.000 F200.000
G2 X27.756 Y-73.395 Z-0.200 I0.593 J-0.444 K0.000 F200.000
G3 X27.744 Y-72.299 Z-0.200 I-0.097 J0.547 K0.000 F200.000
G2 X27.226 Y-72.074 Z-0.200 I-0.071 J0.546 K0.000 F200.000
G1 X27.159 Y-71.847 Z-0.200 F200.000
G2 X27.159 Y-64.122 Z-0.200 I1688832.724 J1.239 K0.000 F200.000
G2 X27.233 Y-63.900 Z-0.200 I0.286 J0.028 K0.000 F200.000
G2 X27.159 Y-63.390 Z-0.200 I0.730 J0.365 K0.000 F200.000
G2 X27.195 Y-62.920 Z-0.200 I1.124 J0.150 K0.000 F200.000
G3 X27.180 Y-62.789 Z-0.200 I-0.037 J0.062 K0.000 F200.000
G2 X27.228 Y-62.185 Z-0.200 I0.820 J0.238 K0.000 F200.000
G2 X27.159 Y-61.692 Z-0.200 I0.728 J0.354 K0.000 F200.000
G3 X27.023 Y-61.130 Z-0.200 I-0.816 J0.100 K0.000 F200.000
G1 X26.939 Y-60.898 Z-0.200 F200.000
G2 X26.547 Y-61.187 Z-0.200 I-0.385 J0.112 K0.000 F200.000
G1 X26.016 Y-61.187 Z-0.200 F200.000
G1 X26.016 Y-62.500 Z-0.200 F200.000
G1 X26.031 Y-62.498 Z-0.200 F200.000
G1 X26.664 Y-62.498 Z-0.200 F200.000
G2 X27.084 Y-62.918 Z-0.200 I0.000 J-0.420 K0.000 F200.000
G1 X27.084 Y-72.183 Z-0.200 F200.000
G2 X26.806 Y-72.680 Z-0.200 I-0.918 J0.187 K0.000 F200.000
G3 X26.850 Y-73.148 Z-0.200 I0.337 J-0.204 K0.000 F200.000
G2 X27.084 Y-73.570 Z-0.200 I-0.297 J-0.439 K0.000 F200.000
G1 X27.084 Y-74.201 Z-0.200 F200.000
