(Exported by FreeCAD)
(Post Processor: grbl_post)
(Output Time:2023-01-16 22:31:11.121077)
(Begin preamble)
G17 G90
G21
(Begin operation: G54)
(Path: G54)
G54
G0 Z5.000
(Finish operation: G54)
(Begin operation: ballend-015mm001)
(Path: ballend-015mm001)
(ballend-015mm001)
(Begin toolchange)
( M6 T2 )
M3 S10000
(Finish operation: ballend-015mm001)
(Begin operation: Pocket_Shape001)
(Path: Pocket_Shape001)
(Pocket_Shape001)
G0 Z2.000
G0 X34.256 Y-53.695
G0 Z1.000
G1 X34.256 Y-53.695 Z-0.200 F100.000
G1 X34.075 Y-53.527 Z-0.200 F150.000
G3 X33.231 Y-53.471 Z-0.200 I-0.505 J-1.210 K0.000 F150.000
G1 X32.848 Y-53.531 Z-0.200 F150.000
G3 X32.604 Y-53.719 Z-0.200 I0.358 J-0.719 K0.000 F150.000
G2 X32.407 Y-53.702 Z-0.200 I-0.078 J0.247 K0.000 F150.000
G2 X32.273 Y-53.921 Z-0.200 I-0.125 J-0.074 K0.000 F150.000
G3 X32.153 Y-54.068 Z-0.200 I-0.037 J-0.093 K0.000 F150.000
G1 X32.792 Y-54.260 Z-0.200 F150.000
G2 X32.758 Y-54.495 Z-0.200 I-0.108 J-0.105 K0.000 F150.000
G3 X32.799 Y-54.563 Z-0.200 I1448.634 J895.211 K0.000 F150.000
G2 X33.031 Y-54.400 Z-0.200 I0.313 J-0.197 K0.000 F150.000
G2 X33.100 Y-54.575 Z-0.200 I-0.063 J-0.127 K0.000 F150.000
G2 X33.103 Y-54.807 Z-0.200 I-72918.483 J-1045.625 K0.000 F150.000
G1 X33.125 Y-54.807 Z-0.200 F150.000
G2 X33.329 Y-54.430 Z-0.200 I0.337 J0.061 K0.000 F150.000
G1 X33.366 Y-54.420 Z-0.200 F150.000
G1 X33.779 Y-54.420 Z-0.200 F150.000
G2 X33.920 Y-54.653 Z-0.200 I-0.099 J-0.219 K0.000 F150.000
G2 X34.127 Y-54.630 Z-0.200 I0.113 J-0.074 K0.000 F150.000
G3 X34.212 Y-54.850 Z-0.200 I54970.180 J21093.829 K0.000 F150.000
G2 X34.244 Y-54.851 Z-0.200 I0.008 J-127.422 K0.000 F150.000
G1 X34.325 Y-54.640 Z-0.200 F150.000
G1 X34.325 Y-54.235 Z-0.200 F150.000
G2 X34.505 Y-53.925 Z-0.200 I3.217 J-1.663 K0.000 F150.000
G1 X34.256 Y-53.695 Z-0.200 F150.000
G0 Z2.000
G0 X34.215 Y-53.739 Z2.000
G0 X34.215 Y-53.739 Z1.000
G1 X34.215 Y-53.739 Z-0.200 F100.000
G1 X34.046 Y-53.582 Z-0.200 F150.000
G3 X33.238 Y-53.531 Z-0.200 I-0.479 J-1.159 K0.000 F150.000
G1 X32.871 Y-53.588 Z-0.200 F150.000
G3 X32.646 Y-53.761 Z-0.200 I0.330 J-0.661 K0.000 F150.000
G2 X32.483 Y-53.789 Z-0.200 I-0.106 J0.131 K0.000 F150.000
G2 X32.213 Y-54.004 Z-0.200 I-0.269 J0.060 K0.000 F150.000
G1 X32.213 Y-54.024 Z-0.200 F150.000
G1 X32.809 Y-54.202 Z-0.200 F150.000
G2 X32.872 Y-54.425 Z-0.200 I-0.043 J-0.132 K0.000 F150.000
G2 X33.159 Y-54.485 Z-0.200 I0.138 J-0.056 K0.000 F150.000
G2 X33.366 Y-54.360 Z-0.200 I0.253 J-0.186 K0.000 F150.000
G1 X33.779 Y-54.360 Z-0.200 F150.000
G2 X33.950 Y-54.564 Z-0.200 I-0.063 J-0.226 K0.000 F150.000
G2 X34.228 Y-54.725 Z-0.200 I0.102 J-0.144 K0.000 F150.000
G1 X34.265 Y-54.628 Z-0.200 F150.000
G1 X34.265 Y-54.235 Z-0.200 F150.000
G2 X34.428 Y-53.936 Z-0.200 I1.993 J-0.890 K0.000 F150.000
G1 X34.215 Y-53.739 Z-0.200 F150.000
G0 Z2.000
G0 X34.174 Y-53.783 Z2.000
G0 X34.174 Y-53.783 Z1.000
G1 X34.174 Y-53.783 Z-0.200 F100.000
G1 X34.016 Y-53.636 Z-0.200 F150.000
G3 X33.245 Y-53.590 Z-0.200 I-0.453 J-1.108 K0.000 F150.000
G1 X32.893 Y-53.646 Z-0.200 F150.000
G2 X32.581 Y-53.858 Z-0.200 I-0.711 J0.708 K0.000 F150.000
G3 X32.519 Y-53.898 Z-0.200 I-0.027 J-0.025 K0.000 F150.000
G2 X32.370 Y-54.008 Z-0.200 I-0.241 J0.172 K0.000 F150.000
G1 X32.827 Y-54.145 Z-0.200 F150.000
G2 X32.956 Y-54.302 Z-0.200 I-0.043 J-0.168 K0.000 F150.000
G2 X33.182 Y-54.375 Z-0.200 I0.079 J-0.140 K0.000 F150.000
G2 X33.366 Y-54.300 Z-0.200 I0.233 J-0.310 K0.000 F150.000
G1 X33.779 Y-54.300 Z-0.200 F150.000
G2 X33.984 Y-54.484 Z-0.200 I-0.031 J-0.240 K0.000 F150.000
G2 X34.205 Y-54.538 Z-0.200 I0.086 J-0.128 K0.000 F150.000
G2 X34.351 Y-53.946 Z-0.200 I0.634 J0.158 K0.000 F150.000
G1 X34.174 Y-53.783 Z-0.200 F150.000
G0 Z2.000
G0 X34.134 Y-53.827 Z2.000
G0 X34.134 Y-53.827 Z1.000
G1 X34.134 Y-53.827 Z-0.200 F100.000
G1 X33.987 Y-53.691 Z-0.200 F150.000
G3 X33.252 Y-53.650 Z-0.200 I-0.427 J-1.057 K0.000 F150.000
G1 X32.916 Y-53.703 Z-0.200 F150.000
G2 X32.504 Y-53.986 Z-0.200 I-5.153 J7.045 K0.000 F150.000
G2 X32.956 Y-54.157 Z-0.200 I-0.093 J-0.928 K0.000 F150.000
G3 X33.112 Y-54.235 Z-0.200 I0.104 J0.013 K0.000 F150.000
G3 X33.240 Y-54.274 Z-0.200 I0.073 J0.011 K0.000 F150.000
G2 X33.907 Y-54.275 Z-0.200 I0.332 J-0.996 K0.000 F150.000
G2 X34.020 Y-54.411 Z-0.200 I-0.135 J-0.228 K0.000 F150.000
G2 X34.145 Y-54.424 Z-0.200 I0.051 J-0.115 K0.000 F150.000
G2 X34.273 Y-53.956 Z-0.200 I0.562 J0.097 K0.000 F150.000
G1 X34.134 Y-53.827 Z-0.200 F150.000
G0 Z2.000
G0 X34.093 Y-53.871 Z2.000
G0 X34.093 Y-53.871 Z1.000
G1 X34.093 Y-53.871 Z-0.200 F100.000
G1 X33.957 Y-53.745 Z-0.200 F150.000
G3 X33.259 Y-53.710 Z-0.200 I-0.401 J-1.006 K0.000 F150.000
G1 X32.938 Y-53.760 Z-0.200 F150.000
G2 X32.646 Y-53.966 Z-0.200 I-0.982 J1.086 K0.000 F150.000
G2 X32.991 Y-54.107 Z-0.200 I-0.114 J-0.771 K0.000 F150.000
G3 X33.109 Y-54.171 Z-0.200 I0.080 J0.007 K0.000 F150.000
G1 X33.204 Y-54.225 Z-0.200 F150.000
G2 X33.926 Y-54.217 Z-0.200 I0.373 J-1.038 K0.000 F150.000
G3 X34.085 Y-54.351 Z-0.200 I0.164 J0.033 K0.000 F150.000
G2 X34.196 Y-53.966 Z-0.200 I0.522 J0.057 K0.000 F150.000
G1 X34.093 Y-53.871 Z-0.200 F150.000
G0 Z2.000
G0 X34.052 Y-53.915 Z2.000
G0 X34.052 Y-53.915 Z1.000
G1 X34.052 Y-53.915 Z-0.200 F100.000
G1 X33.928 Y-53.800 Z-0.200 F150.000
G3 X33.266 Y-53.769 Z-0.200 I-0.375 J-0.954 K0.000 F150.000
G1 X32.960 Y-53.817 Z-0.200 F150.000
G2 X32.791 Y-53.947 Z-0.200 I-0.676 J0.708 K0.000 F150.000
G2 X33.060 Y-54.108 Z-0.200 I-0.004 J-0.311 K0.000 F150.000
G3 X33.366 Y-54.120 Z-0.200 I0.162 J0.226 K0.000 F150.000
G2 X33.942 Y-54.158 Z-0.200 I0.207 J-1.281 K0.000 F150.000
G1 X34.028 Y-54.226 Z-0.200 F150.000
G2 X34.119 Y-53.977 Z-0.200 I0.480 J-0.035 K0.000 F150.000
G1 X34.052 Y-53.915 Z-0.200 F150.000
G0 Z2.000
G0 X34.012 Y-53.958 Z2.000
G0 X34.012 Y-53.958 Z1.000
G1 X34.012 Y-53.958 Z-0.200 F100.000
G3 X33.668 Y-53.796 Z-0.200 I-0.432 J-0.471 K0.000 F150.000
G3 X32.983 Y-53.875 Z-0.200 I0.193 J-4.718 K0.000 F150.000
G1 X32.910 Y-53.923 Z-0.200 F150.000
G2 X33.086 Y-54.044 Z-0.200 I-0.048 J-0.258 K0.000 F150.000
G3 X33.366 Y-54.060 Z-0.200 I0.152 J0.191 K0.000 F150.000
G2 X33.956 Y-54.098 Z-0.200 I0.207 J-1.408 K0.000 F150.000
G1 X33.996 Y-54.127 Z-0.200 F150.000
G2 X34.042 Y-53.987 Z-0.200 I0.267 J-0.010 K0.000 F150.000
G3 X34.012 Y-53.958 Z-0.200 I-0.462 J-0.442 K0.000 F150.000
G0 Z2.000
G0 X33.971 Y-54.003 Z2.000
G0 X33.971 Y-54.003 Z1.000
G1 X33.971 Y-54.003 Z-0.200 F100.000
G3 X33.663 Y-53.857 Z-0.200 I-0.379 J-0.400 K0.000 F150.000
G3 X33.042 Y-53.926 Z-0.200 I0.162 J-4.277 K0.000 F150.000
G3 X33.366 Y-54.000 Z-0.200 I0.206 J0.154 K0.000 F150.000
G2 X33.962 Y-54.037 Z-0.200 I0.207 J-1.516 K0.000 F150.000
G1 X33.971 Y-54.003 Z-0.200 F150.000
G0 Z2.000
G0 X33.750 Y-53.940 Z2.000
G0 X33.750 Y-53.940 Z1.000
G1 X33.750 Y-53.940 Z-0.200 F100.000
G3 X33.380 Y-53.940 Z-0.200 I-0.185 J-0.543 K0.000 F150.000
G1 X33.750 Y-53.940 Z-0.200 F150.000
G0 Z2.000
G0 X33.359 Y-53.942 Z2.000
G0 X33.359 Y-53.942 Z1.000
G1 X33.359 Y-53.942 Z-0.200 F100.000
G3 X33.216 Y-53.959 Z-0.200 I0.046 J-0.985 K0.000 F150.000
G3 X33.359 Y-53.942 Z-0.200 I0.057 J0.126 K0.000 F150.000
G0 Z2.000
G0 Z2.000
(Finish operation: Pocket_Shape001)
(Begin postamble)
M5
G17 G90
M2
