(Exported by FreeCAD)
(Post Processor: grbl_post)
(Output Time:2023-03-18 21:21:29.524969)
(Begin preamble)
G17 G90
G21
(Begin operation: G54)
(Path: G54)
G54
G0 Z5.000
(Finish operation: G54)
(Begin operation: ballend-010mm004)
(Path: ballend-010mm004)
(ballend-010mm004)
(Begin toolchange)
( M6 T3 )
M3 S10000
(Finish operation: ballend-010mm004)
(Begin operation: ENGRAVE 0.1MM)
(Path: ENGRAVE 0.1MM)
(ENGRAVE 0.1MM)
G0 Z1.000
G0 X16.354 Y-1.331
G0 Z0.500
G1 X16.354 Y-1.331 Z-0.200 F100.000
G3 X15.961 Y-1.171 Z-0.200 I-0.387 J-0.387 K0.000 F200.000
G3 X15.970 Y-2.266 Z-0.200 I0.007 J-0.548 K0.000 F200.000
G3 X16.354 Y-1.331 Z-0.200 I-0.004 J0.548 K0.000 F200.000
G0 Z1.000
G0 X16.336 Y-1.348 Z1.000
G0 X16.336 Y-1.348 Z0.500
G1 X16.336 Y-1.348 Z-0.200 F100.000
G3 X16.243 Y-1.274 Z-0.200 I-0.370 J-0.368 K0.000 F200.000
G3 X15.693 Y-2.167 Z-0.200 I-0.273 J-0.448 K0.000 F200.000
G3 X15.962 Y-2.238 Z-0.200 I0.262 J0.454 K0.000 F200.000
G3 X16.336 Y-1.348 Z-0.200 I0.004 J0.522 K0.000 F200.000
G0 Z1.000
G0 Z1.000
G0 X16.336 Y-1.348
G0 X16.796 Y-1.365
G0 X16.796 Y-1.365 Z0.500
G1 X16.796 Y-1.365 Z-0.200 F100.000
G3 X16.822 Y-1.933 Z-0.200 I3.465 J-0.126 K0.000 F200.000
G3 X17.487 Y-2.207 Z-0.200 I0.431 J0.103 K0.000 F200.000
G3 X17.701 Y-1.797 Z-0.200 I-0.239 J0.385 K0.000 F200.000
G1 X17.701 Y-1.185 Z-0.200 F200.000
G1 X17.669 Y-1.185 Z-0.200 F200.000
G2 X17.652 Y-1.945 Z-0.200 I-3.130 J-0.311 K0.000 F200.000
G2 X16.840 Y-1.804 Z-0.200 I-0.397 J0.120 K0.000 F200.000
G1 X16.840 Y-1.185 Z-0.200 F200.000
G1 X16.808 Y-1.185 Z-0.200 F200.000
G3 X16.796 Y-1.365 Z-0.200 I3.453 J-0.306 K0.000 F200.000
G0 Z1.000
G0 Z1.000
G0 X16.796 Y-1.365
G0 X17.954 Y-1.210
G0 X17.954 Y-1.210 Z0.500
G1 X17.954 Y-1.210 Z-0.200 F100.000
G1 X18.312 Y-1.210 Z-0.200 F200.000
G2 X18.362 Y-1.260 Z-0.200 I-0.000 J-0.050 K0.000 F200.000
G1 X18.362 Y-2.253 Z-0.200 F200.000
G1 X18.394 Y-2.253 Z-0.200 F200.000
G1 X18.394 Y-1.260 Z-0.200 F200.000
G2 X18.444 Y-1.210 Z-0.200 I0.050 J-0.000 K0.000 F200.000
G1 X18.802 Y-1.210 Z-0.200 F200.000
G1 X18.802 Y-1.185 Z-0.200 F200.000
G1 X17.954 Y-1.185 Z-0.200 F200.000
G1 X17.954 Y-1.210 Z-0.200 F200.000
G0 Z1.000
G0 X18.366 Y-1.210 Z1.000
G0 X18.366 Y-1.210 Z0.500
G1 X18.366 Y-1.210 Z-0.200 F100.000
G1 X18.378 Y-1.239 Z-0.200 F200.000
G1 X18.390 Y-1.210 Z-0.200 F200.000
G1 X18.366 Y-1.210 Z-0.200 F200.000
G0 Z1.000
G0 Z1.000
G0 X18.366 Y-1.210
G0 X26.870 Y-1.671
G0 X26.870 Y-1.671 Z0.500
G1 X26.870 Y-1.671 Z-0.200 F100.000
G1 X26.870 Y-1.765 Z-0.200 F200.000
G1 X27.172 Y-1.765 Z-0.200 F200.000
G2 X27.222 Y-1.815 Z-0.200 I-0.000 J-0.050 K0.000 F200.000
G1 X27.222 Y-2.117 Z-0.200 F200.000
G1 X27.315 Y-2.117 Z-0.200 F200.000
G1 X27.315 Y-1.815 Z-0.200 F200.000
G2 X27.365 Y-1.765 Z-0.200 I0.050 J-0.000 K0.000 F200.000
G1 X27.666 Y-1.765 Z-0.200 F200.000
G1 X27.666 Y-1.671 Z-0.200 F200.000
G1 X27.365 Y-1.671 Z-0.200 F200.000
G2 X27.315 Y-1.621 Z-0.200 I0.000 J0.050 K0.000 F200.000
G1 X27.315 Y-1.321 Z-0.200 F200.000
G1 X27.222 Y-1.321 Z-0.200 F200.000
G1 X27.222 Y-1.621 Z-0.200 F200.000
G2 X27.172 Y-1.671 Z-0.200 I-0.050 J0.000 K0.000 F200.000
G1 X26.870 Y-1.671 Z-0.200 F200.000
G0 Z1.000
G0 X27.179 Y-1.718 Z1.000
G0 X27.179 Y-1.718 Z0.500
G1 X27.179 Y-1.718 Z-0.200 F100.000
G2 X27.269 Y-1.807 Z-0.200 I0.000 J-0.089 K0.000 F200.000
G2 X27.358 Y-1.718 Z-0.200 I0.089 J-0.000 K0.000 F200.000
G2 X27.269 Y-1.629 Z-0.200 I-0.000 J0.089 K0.000 F200.000
G2 X27.179 Y-1.718 Z-0.200 I-0.089 J0.000 K0.000 F200.000
G0 Z1.000
G0 X27.240 Z1.000
G0 X27.240 Z0.500
G1 X27.240 Y-1.718 Z-0.200 F100.000
G2 X27.269 Y-1.746 Z-0.200 I0.000 J-0.029 K0.000 F200.000
G2 X27.297 Y-1.718 Z-0.200 I0.029 J-0.000 K0.000 F200.000
G2 X27.269 Y-1.690 Z-0.200 I-0.000 J0.029 K0.000 F200.000
G2 X27.240 Y-1.718 Z-0.200 I-0.029 J0.000 K0.000 F200.000
G0 Z1.000
G0 Z1.000
G0 X27.240 Y-1.718
G0 X30.109 Y-3.481
G0 X30.109 Y-3.481 Z0.500
G1 X30.109 Y-3.481 Z-0.200 F100.000
G3 X30.097 Y-3.823 Z-0.200 I0.296 J-0.182 K0.000 F200.000
G3 X30.695 Y-3.816 Z-0.200 I0.297 J0.208 K0.000 F200.000
G2 X30.750 Y-3.872 Z-0.200 I0.006 J-0.050 K0.000 F200.000
G2 X30.556 Y-4.347 Z-0.200 I-0.497 J-0.074 K0.000 F200.000
G2 X30.149 Y-4.233 Z-0.200 I-0.157 J0.222 K0.000 F200.000
G1 X30.108 Y-4.233 Z-0.200 F200.000
G3 X30.592 Y-4.366 Z-0.200 I0.293 J0.116 K0.000 F200.000
G3 X30.610 Y-3.383 Z-0.200 I-0.564 J0.502 K0.000 F200.000
G3 X30.109 Y-3.481 Z-0.200 I-0.205 J-0.280 K0.000 F200.000
G0 Z1.000
G0 X30.137 Y-3.497 Z1.000
G0 X30.137 Y-3.497 Z0.500
G1 X30.137 Y-3.497 Z-0.200 F100.000
G3 X30.231 Y-3.909 Z-0.200 I0.264 J-0.156 K0.000 F200.000
G1 X30.310 Y-3.943 Z-0.200 F200.000
G3 X30.571 Y-3.398 Z-0.200 I0.106 J0.285 K0.000 F200.000
G3 X30.137 Y-3.497 Z-0.200 I-0.170 J-0.255 K0.000 F200.000
G0 Z1.000
G0 X30.737 Y-3.702 Z1.000
G0 X30.737 Y-3.702 Z0.500
G1 X30.737 Y-3.702 Z-0.200 F100.000
G1 X30.710 Y-3.796 Z-0.200 F200.000
G2 X30.751 Y-3.815 Z-0.200 I0.013 J-0.025 K0.000 F200.000
G1 X30.737 Y-3.702 Z-0.200 F200.000
G0 Z1.000
G0 Z1.000
G0 X30.737 Y-3.702
G0 X31.080 Y-3.563
G0 X31.080 Y-3.563 Z0.500
G1 X31.080 Y-3.563 Z-0.200 F100.000
G1 X31.421 Y-4.405 Z-0.200 F200.000
G1 X31.505 Y-4.405 Z-0.200 F200.000
G1 X31.937 Y-3.337 Z-0.200 F200.000
G1 X31.901 Y-3.337 Z-0.200 F200.000
G1 X31.510 Y-4.323 Z-0.200 F200.000
G2 X31.417 Y-4.323 Z-0.200 I-0.046 J0.018 K0.000 F200.000
G1 X31.025 Y-3.337 Z-0.200 F200.000
G1 X30.989 Y-3.337 Z-0.200 F200.000
G1 X31.080 Y-3.563 Z-0.200 F200.000
G0 Z1.000
G0 X31.436 Y-4.374 Z1.000
G0 X31.436 Y-4.374 Z0.500
G1 X31.436 Y-4.374 Z-0.200 F100.000
G3 X31.491 Y-4.374 Z-0.200 I0.028 J0.009 K0.000 F200.000
G1 X31.436 Y-4.374 Z-0.200 F200.000
G0 Z1.000
G0 Z1.000
G0 X31.436 Y-4.374
G0 X31.252 Y-2.564
G0 X31.252 Y-2.564 Z0.500
G1 X31.252 Y-2.564 Z-0.200 F100.000
G3 X31.613 Y-2.441 Z-0.200 I-0.085 J0.840 K0.000 F200.000
G1 X31.613 Y-2.338 Z-0.200 F200.000
G2 X30.634 Y-1.167 Z-0.200 I-0.448 J0.620 K0.000 F200.000
G2 X31.613 Y-1.101 Z-0.200 I0.527 J-0.524 K0.000 F200.000
G1 X31.613 Y-0.995 Z-0.200 F200.000
G3 X30.305 Y-1.672 Z-0.200 I-0.440 J-0.752 K0.000 F200.000
G1 X30.277 Y-1.680 Z-0.200 F200.000
G1 X28.162 Y-1.680 Z-0.200 F200.000
G2 X28.084 Y-1.488 Z-0.200 I0.077 J0.143 K0.000 F200.000
G3 X26.436 Y-1.907 Z-0.200 I-0.819 J-0.231 K0.000 F200.000
G3 X27.563 Y-2.515 Z-0.200 I0.829 J0.188 K0.000 F200.000
G3 X28.112 Y-1.794 Z-0.200 I-0.301 J0.799 K0.000 F200.000
G2 X28.161 Y-1.758 Z-0.200 I0.048 J-0.014 K0.000 F200.000
G1 X30.276 Y-1.758 Z-0.200 F200.000
G2 X30.360 Y-1.969 Z-0.200 I-0.087 J-0.157 K0.000 F200.000
G3 X31.252 Y-2.564 Z-0.200 I0.808 J0.244 K0.000 F200.000
G0 Z1.000
G0 X30.355 Y-1.752 Z1.000
G0 X30.355 Y-1.752 Z0.500
G1 X30.355 Y-1.752 Z-0.200 F100.000
G2 X30.355 Y-1.680 Z-0.200 I0.179 J0.036 K0.000 F200.000
G2 X30.308 Y-1.721 Z-0.200 I-0.048 J0.009 K0.000 F200.000
G2 X30.355 Y-1.752 Z-0.200 I0.005 J-0.044 K0.000 F200.000
G0 Z1.000
G0 X28.128 Y-1.716 Z1.000
G0 X28.128 Y-1.716 Z0.500
G1 X28.128 Y-1.716 Z-0.200 F100.000
G2 X28.081 Y-1.683 Z-0.200 I-0.003 J0.045 K0.000 F200.000
G2 X28.080 Y-1.760 Z-0.200 I-0.134 J-0.037 K0.000 F200.000
G2 X28.128 Y-1.716 Z-0.200 I0.053 J-0.010 K0.000 F200.000
G0 Z1.000
G0 X28.036 Y-1.716 Z1.000
G0 X28.036 Y-1.716 Z0.500
G1 X28.036 Y-1.716 Z-0.200 F100.000
G3 X27.813 Y-1.176 Z-0.200 I-0.771 J-0.003 K0.000 F200.000
G3 X26.717 Y-2.261 Z-0.200 I-0.548 J-0.543 K0.000 F200.000
G3 X28.036 Y-1.716 Z-0.200 I0.548 J0.542 K0.000 F200.000
G0 Z1.000
G0 Z1.000
G0 X28.036 Y-1.716
G0 X34.328
G0 X34.328 Z0.500
G1 X34.328 Y-1.716 Z-0.200 F100.000
G1 X34.328 Y-1.769 Z-0.200 F200.000
G1 X35.233 Y-1.769 Z-0.200 F200.000
G1 X35.233 Y-1.669 Z-0.200 F200.000
G1 X34.328 Y-1.669 Z-0.200 F200.000
G1 X34.328 Y-1.716 Z-0.200 F200.000
G0 Z1.000
G0 X34.378 Y-1.719 Z1.000
G0 X34.378 Y-1.719 Z0.500
G1 X34.378 Y-1.719 Z-0.200 F100.000
G1 X34.378 Y-1.719 Z-0.200 F200.000
G1 X35.183 Y-1.719 Z-0.200 F200.000
G1 X35.183 Y-1.719 Z-0.200 F200.000
G1 X34.378 Y-1.719 Z-0.200 F200.000
G0 Z1.000
G0 Z1.000
G0 X34.378 Y-1.719
G0 X33.928 Y-1.765
G0 X33.928 Y-1.765 Z0.500
G1 X33.928 Y-1.765 Z-0.200 F100.000
G2 X33.922 Y-1.677 Z-0.200 I0.108 J0.052 K0.000 F200.000
G2 X33.874 Y-1.721 Z-0.200 I-0.053 J0.010 K0.000 F200.000
G2 X33.928 Y-1.765 Z-0.200 I-0.002 J-0.058 K0.000 F200.000
G0 Z1.000
G0 X33.888 Y-1.794 Z1.000
G0 X33.888 Y-1.794 Z0.500
G1 X33.888 Y-1.794 Z-0.200 F100.000
G3 X35.056 Y-2.507 Z-0.200 I0.848 J0.076 K0.000 F200.000
G3 X34.439 Y-0.923 Z-0.200 I-0.319 J0.788 K0.000 F200.000
G3 X33.889 Y-1.644 Z-0.200 I0.301 J-0.799 K0.000 F200.000
G2 X33.841 Y-1.680 Z-0.200 I-0.048 J0.014 K0.000 F200.000
G1 X31.654 Y-1.680 Z-0.200 F200.000
G2 X31.539 Y-1.477 Z-0.200 I0.093 J0.187 K0.000 F200.000
G3 X30.764 Y-1.879 Z-0.200 I-0.366 J-0.242 K0.000 F200.000
G3 X31.632 Y-1.763 Z-0.200 I0.417 J0.189 K0.000 F200.000
G1 X31.654 Y-1.758 Z-0.200 F200.000
G1 X33.840 Y-1.758 Z-0.200 F200.000
G2 X33.888 Y-1.794 Z-0.200 I-0.000 J-0.050 K0.000 F200.000
G0 Z1.000
G0 X33.968 Y-1.787 Z1.000
G0 X33.968 Y-1.787 Z0.500
G1 X33.968 Y-1.787 Z-0.200 F100.000
G3 X34.732 Y-2.490 Z-0.200 I0.768 J0.067 K0.000 F200.000
G3 X34.746 Y-0.948 Z-0.200 I0.005 J0.771 K0.000 F200.000
G3 X33.968 Y-1.787 Z-0.200 I-0.009 J-0.771 K0.000 F200.000
G0 Z1.000
G0 X31.619 Y-1.716 Z1.000
G0 X31.619 Y-1.716 Z0.500
G1 X31.619 Y-1.716 Z-0.200 F100.000
G2 X31.495 Y-1.503 Z-0.200 I0.134 J0.221 K0.000 F200.000
G3 X30.811 Y-1.860 Z-0.200 I-0.323 J-0.216 K0.000 F200.000
G3 X31.420 Y-2.019 Z-0.200 I0.362 J0.142 K0.000 F200.000
G3 X31.559 Y-1.775 Z-0.200 I-0.274 J0.318 K0.000 F200.000
G2 X31.619 Y-1.716 Z-0.200 I0.072 J-0.012 K0.000 F200.000
G0 Z1.000
G0 X31.541 Y-1.723 Z1.000
G0 X31.541 Y-1.723 Z0.500
G1 X31.541 Y-1.723 Z-0.200 F100.000
G3 X31.176 Y-1.381 Z-0.200 I-0.387 J-0.048 K0.000 F200.000
G3 X30.836 Y-1.717 Z-0.200 I-0.003 J-0.337 K0.000 F200.000
G3 X31.172 Y-2.056 Z-0.200 I0.337 J-0.002 K0.000 F200.000
G3 X31.541 Y-1.723 Z-0.200 I-0.061 J0.440 K0.000 F200.000
G0 Z1.000
G0 X31.465 Y-1.723 Z1.000
G0 X31.465 Y-1.723 Z0.500
G1 X31.465 Y-1.723 Z-0.200 F100.000
G3 X30.906 Y-1.616 Z-0.200 I-0.290 J-0.000 K0.000 F200.000
G3 X31.353 Y-1.942 Z-0.200 I0.268 J-0.102 K0.000 F200.000
G3 X31.465 Y-1.742 Z-0.200 I-0.226 J0.257 K0.000 F200.000
G3 X31.465 Y-1.723 Z-0.200 I-0.289 J0.020 K0.000 F200.000
G0 Z1.000
G0 X31.260 Y-1.719 Z1.000
G0 X31.260 Y-1.719 Z0.500
G1 X31.260 Y-1.719 Z-0.200 F100.000
G3 X31.189 Y-1.636 Z-0.200 I-0.083 J0.001 K0.000 F200.000
G3 X31.147 Y-1.797 Z-0.200 I-0.015 J-0.082 K0.000 F200.000
G1 X31.170 Y-1.801 Z-0.200 F200.000
G3 X31.260 Y-1.719 Z-0.200 I0.007 J0.083 K0.000 F200.000
G0 Z1.000
G0 X31.207 Y-1.720 Z1.000
G0 X31.207 Y-1.720 Z0.500
G1 X31.207 Y-1.720 Z-0.200 F100.000
G3 X31.196 Y-1.696 Z-0.200 I-0.031 J-0.000 K0.000 F200.000
G3 X31.149 Y-1.738 Z-0.200 I-0.023 J-0.021 K0.000 F200.000
G3 X31.170 Y-1.750 Z-0.200 I0.025 J0.019 K0.000 F200.000
G3 X31.207 Y-1.720 Z-0.200 I0.006 J0.030 K0.000 F200.000
G0 Z1.000
G0 X31.176 Y-1.714 Z1.000
G0 X31.176 Y-1.714 Z0.500
G1 X31.176 Y-1.714 Z-0.200 F100.000
G3 X31.167 Y-1.720 Z-0.200 I-0.002 J-0.005 K0.000 F200.000
G1 X31.173 Y-1.724 Z-0.200 F200.000
G3 X31.176 Y-1.714 Z-0.200 I0.000 J0.005 K0.000 F200.000
G0 Z1.000
G0 X31.205 Y-1.588 Z1.000
G0 X31.205 Y-1.588 Z0.500
G1 X31.205 Y-1.588 Z-0.200 F100.000
G3 X31.128 Y-1.844 Z-0.200 I-0.031 J-0.130 K0.000 F200.000
G1 X31.171 Y-1.852 Z-0.200 F200.000
G3 X31.205 Y-1.588 Z-0.200 I0.009 J0.133 K0.000 F200.000
G0 Z1.000
G0 X31.221 Y-1.540 Z1.000
G0 X31.221 Y-1.540 Z0.500
G1 X31.221 Y-1.540 Z-0.200 F100.000
G3 X31.108 Y-1.891 Z-0.200 I-0.047 J-0.179 K0.000 F200.000
G1 X31.171 Y-1.903 Z-0.200 F200.000
G3 X31.221 Y-1.540 Z-0.200 I0.012 J0.183 K0.000 F200.000
G0 Z1.000
G0 X31.237 Y-1.492 Z1.000
G0 X31.237 Y-1.492 Z0.500
G1 X31.237 Y-1.492 Z-0.200 F100.000
G3 X31.089 Y-1.938 Z-0.200 I-0.064 J-0.227 K0.000 F200.000
G1 X31.171 Y-1.954 Z-0.200 F200.000
G3 X31.237 Y-1.492 Z-0.200 I0.012 J0.234 K0.000 F200.000
G0 Z1.000
G0 Z1.000
G0 X31.237 Y-1.492
G0 X44.229
G0 X44.229 Z0.500
G1 X44.229 Y-1.492 Z-0.200 F100.000
G1 X44.229 Y-2.253 Z-0.200 F200.000
G1 X44.261 Y-2.253 Z-0.200 F200.000
G1 X44.261 Y-1.185 Z-0.200 F200.000
G1 X44.229 Y-1.185 Z-0.200 F200.000
G1 X44.229 Y-1.492 Z-0.200 F200.000
G0 Z1.000
G0 Z1.000
G0 X44.229 Y-1.492
G0 X44.647
G0 X44.647 Z0.500
G1 X44.647 Y-1.492 Z-0.200 F100.000
G1 X44.647 Y-2.253 Z-0.200 F200.000
G1 X44.679 Y-2.253 Z-0.200 F200.000
G1 X44.679 Y-1.317 Z-0.200 F200.000
G2 X44.769 Y-1.287 Z-0.200 I0.050 J-0.000 K0.000 F200.000
G1 X45.476 Y-2.253 Z-0.200 F200.000
G1 X45.554 Y-2.253 Z-0.200 F200.000
G1 X45.554 Y-1.185 Z-0.200 F200.000
G1 X45.522 Y-1.185 Z-0.200 F200.000
G1 X45.522 Y-2.117 Z-0.200 F200.000
G2 X45.431 Y-2.147 Z-0.200 I-0.050 J0.000 K0.000 F200.000
G1 X44.724 Y-1.185 Z-0.200 F200.000
G1 X44.647 Y-1.185 Z-0.200 F200.000
G1 X44.647 Y-1.492 Z-0.200 F200.000
G0 Z1.000
G0 X44.672 Y-1.274 Z1.000
G0 X44.672 Y-1.274 Z0.500
G1 X44.672 Y-1.274 Z-0.200 F100.000
G2 X44.739 Y-1.247 Z-0.200 I0.043 J-0.009 K0.000 F200.000
G3 X44.672 Y-1.210 Z-0.200 I-0.047 J-0.006 K0.000 F200.000
G1 X44.672 Y-1.274 Z-0.200 F200.000
G0 Z1.000
G0 X45.457 Y-2.185 Z1.000
G0 X45.457 Y-2.185 Z0.500
G1 X45.457 Y-2.185 Z-0.200 F100.000
G3 X45.529 Y-2.228 Z-0.200 I0.052 J0.005 K0.000 F200.000
G1 X45.529 Y-2.160 Z-0.200 F200.000
G2 X45.457 Y-2.185 Z-0.200 I-0.044 J0.012 K0.000 F200.000
G0 Z1.000
G0 Z1.000
(Finish operation: ENGRAVE 0.1MM)
(Begin operation: ENGRAVE 0.15MM)
(Path: ENGRAVE 0.15MM)
(ENGRAVE 0.15MM)
G0 Z0.500
G0 X47.145 Y-30.313
G1 X47.145 Y-30.313 Z-0.200 F100.000
G1 X44.898 Y-30.313 Z-0.200 F200.000
G1 X44.898 Y-30.464 Z-0.200 F200.000
G1 X45.790 Y-30.464 Z-0.200 F200.000
G2 X45.776 Y-30.587 Z-0.200 I-0.011 J-0.061 K0.000 F200.000
G3 X46.355 Y-31.875 Z-0.200 I0.516 J-0.542 K0.000 F200.000
G3 X46.876 Y-30.517 Z-0.200 I0.059 J0.757 K0.000 F200.000
G2 X46.926 Y-30.464 Z-0.200 I0.050 J0.003 K0.000 F200.000
G1 X47.145 Y-30.464 Z-0.200 F200.000
G1 X47.145 Y-30.313 Z-0.200 F200.000
G0 Z0.500
G0 X47.105 Y-30.353 Z0.500
G0 X47.105 Y-30.353 Z0.500
G1 X47.105 Y-30.353 Z-0.200 F100.000
G1 X44.938 Y-30.353 Z-0.200 F200.000
G1 X44.938 Y-30.424 Z-0.200 F200.000
G1 X45.790 Y-30.424 Z-0.200 F200.000
G2 X45.804 Y-30.616 Z-0.200 I-0.007 J-0.097 K0.000 F200.000
G3 X46.353 Y-31.835 Z-0.200 I0.488 J-0.514 K0.000 F200.000
G3 X46.866 Y-30.581 Z-0.200 I0.072 J0.702 K0.000 F200.000
G2 X46.926 Y-30.424 Z-0.200 I0.060 J0.067 K0.000 F200.000
G1 X47.105 Y-30.424 Z-0.200 F200.000
G1 X47.105 Y-30.353 Z-0.200 F200.000
G0 Z0.500
G0 X46.906 Y-30.393 Z0.500
G0 X46.906 Y-30.393 Z0.500
G1 X46.906 Y-30.393 Z-0.200 F100.000
G1 X46.554 Y-30.393 Z-0.200 F200.000
G2 X46.804 Y-30.500 Z-0.200 I-0.062 J-0.493 K0.000 F200.000
G2 X46.906 Y-30.393 Z-0.200 I0.102 J0.005 K0.000 F200.000
G0 Z0.500
G0 X46.782 Y-30.433 Z0.500
G0 X46.782 Y-30.433 Z0.500
G1 X46.782 Y-30.433 Z-0.200 F100.000
G1 X46.778 Y-30.433 Z-0.200 F200.000
G3 X46.782 Y-30.433 Z-0.200 I0.002 J0.000 K0.000 F200.000
G0 Z0.500
G0 X46.742 Y-30.503 Z0.500
G0 X46.742 Y-30.503 Z0.500
G1 X46.742 Y-30.503 Z-0.200 F100.000
G3 X46.058 Y-30.464 Z-0.200 I-0.380 J-0.657 K0.000 F200.000
G3 X45.987 Y-31.678 Z-0.200 I0.240 J-0.623 K0.000 F200.000
G3 X46.347 Y-31.764 Z-0.200 I0.359 J0.712 K0.000 F200.000
G3 X47.002 Y-30.753 Z-0.200 I0.057 J0.681 K0.000 F200.000
G3 X46.742 Y-30.503 Z-0.200 I-0.641 J-0.408 K0.000 F200.000
G0 Z0.500
G0 X46.722 Y-30.537 Z0.500
G0 X46.722 Y-30.537 Z0.500
G1 X46.722 Y-30.537 Z-0.200 F100.000
G3 X46.065 Y-30.503 Z-0.200 I-0.362 J-0.627 K0.000 F200.000
G3 X46.010 Y-31.645 Z-0.200 I0.233 J-0.584 K0.000 F200.000
G3 X46.351 Y-31.724 Z-0.200 I0.337 J0.682 K0.000 F200.000
G3 X46.965 Y-30.767 Z-0.200 I0.053 J0.641 K0.000 F200.000
G3 X46.722 Y-30.537 Z-0.200 I-0.604 J-0.397 K0.000 F200.000
G0 Z0.500
G0 X46.240 Y-30.393 Z0.500
G0 X46.240 Y-30.393 Z0.500
G1 X46.240 Y-30.393 Z-0.200 F100.000
G1 X45.811 Y-30.393 Z-0.200 F200.000
G2 X45.911 Y-30.494 Z-0.200 I-0.000 J-0.100 K0.000 F200.000
G2 X46.240 Y-30.393 Z-0.200 I0.330 J-0.492 K0.000 F200.000
G0 Z0.500
G0 X45.935 Y-30.433 Z0.500
G0 X45.935 Y-30.433 Z0.500
G1 X45.935 Y-30.433 Z-0.200 F100.000
G1 X45.931 Y-30.433 Z-0.200 F200.000
G3 X45.935 Y-30.433 Z-0.200 I0.002 J0.000 K0.000 F200.000
G0 Z0.500
G0 Z0.500
G0 X45.935 Y-30.433
G0 X46.201 Y-32.212
G0 X46.201 Y-32.212
G1 X46.201 Y-32.212 Z-0.200 F100.000
G3 X46.168 Y-33.748 Z-0.200 I0.115 J-0.771 K0.000 F200.000
G3 X46.719 Y-33.694 Z-0.200 I0.189 J0.914 K0.000 F200.000
G3 X46.331 Y-32.204 Z-0.200 I-0.318 J0.713 K0.000 F200.000
G3 X46.201 Y-32.212 Z-0.200 I-0.014 J-0.779 K0.000 F200.000
G0 Z0.500
G0 X46.207 Y-32.252 Z0.500
G0 X46.207 Y-32.252 Z0.500
G1 X46.207 Y-32.252 Z-0.200 F100.000
G3 X46.176 Y-33.708 Z-0.200 I0.110 J-0.731 K0.000 F200.000
G3 X46.704 Y-33.657 Z-0.200 I0.181 J0.878 K0.000 F200.000
G3 X46.334 Y-32.244 Z-0.200 I-0.303 J0.676 K0.000 F200.000
G3 X46.207 Y-32.252 Z-0.200 I-0.017 J-0.739 K0.000 F200.000
G0 Z0.500
G0 X46.211 Y-32.276 Z0.500
G0 X46.211 Y-32.276 Z0.500
G1 X46.211 Y-32.276 Z-0.200 F100.000
G3 X46.013 Y-32.337 Z-0.200 I0.130 J-0.769 K0.000 F200.000
G3 X45.683 Y-32.662 Z-0.200 I0.239 J-0.574 K0.000 F200.000
G2 X47.079 Y-32.792 Z-0.200 I0.666 J-0.410 K0.000 F200.000
G3 X46.211 Y-32.276 Z-0.200 I-0.738 J-0.253 K0.000 F200.000
G0 Z0.500
G0 X46.216 Y-32.316 Z0.500
G0 X46.216 Y-32.316 Z0.500
G1 X46.216 Y-32.316 Z-0.200 F100.000
G3 X45.988 Y-33.572 Z-0.200 I0.078 J-0.663 K0.000 F200.000
G3 X46.592 Y-33.622 Z-0.200 I0.367 J0.769 K0.000 F200.000
G3 X46.365 Y-32.315 Z-0.200 I-0.175 J0.643 K0.000 F200.000
G3 X46.216 Y-32.316 Z-0.200 I-0.072 J-0.664 K0.000 F200.000
G0 Z0.500
G0 X46.220 Y-32.356 Z0.500
G0 X46.220 Y-32.356 Z0.500
G1 X46.220 Y-32.356 Z-0.200 F100.000
G3 X46.010 Y-33.539 Z-0.200 I0.073 J-0.623 K0.000 F200.000
G3 X46.586 Y-33.582 Z-0.200 I0.346 J0.740 K0.000 F200.000
G3 X46.361 Y-32.355 Z-0.200 I-0.170 J0.603 K0.000 F200.000
G3 X46.220 Y-32.356 Z-0.200 I-0.068 J-0.624 K0.000 F200.000
G0 Z0.500
G0 X45.649 Y-32.741 Z0.500
G0 X45.649 Y-32.741 Z0.500
G1 X45.649 Y-32.741 Z-0.200 F100.000
G3 X45.616 Y-32.914 Z-0.200 I0.276 J-0.142 K0.000 F200.000
G1 X45.649 Y-32.741 Z-0.200 F200.000
G0 Z0.500
G0 X45.633 Y-33.165 Z0.500
G0 X45.633 Y-33.165 Z0.500
G1 X45.633 Y-33.165 Z-0.200 F100.000
G3 X46.695 Y-33.634 Z-0.200 I0.721 J0.196 K0.000 F200.000
G3 X47.041 Y-33.288 Z-0.200 I-0.148 J0.494 K0.000 F200.000
G2 X45.633 Y-33.165 Z-0.200 I-0.676 J0.376 K0.000 F200.000
G0 Z0.500
G0 X47.065 Y-33.223 Z0.500
G0 X47.065 Y-33.223 Z0.500
G1 X47.065 Y-33.223 Z-0.200 F100.000
G3 X47.100 Y-33.037 Z-0.200 I-0.334 J0.160 K0.000 F200.000
G1 X47.065 Y-33.223 Z-0.200 F200.000
G0 Z0.500
G0 X47.106 Y-32.987 Z0.500
G0 X47.106 Y-32.987 Z0.500
G1 X47.106 Y-32.987 Z-0.200 F100.000
G3 X47.105 Y-32.985 Z-0.200 I-0.005 J0.001 K0.000 F200.000
G1 X47.106 Y-32.987 Z-0.200 F200.000
G0 Z0.500
G0 Z0.500
G0 X47.106 Y-32.987
G0 X48.072 Y-33.530
G0 X48.072 Y-33.530
G1 X48.072 Y-33.530 Z-0.200 F100.000
G1 X48.072 Y-33.681 Z-0.200 F200.000
G1 X50.319 Y-33.681 Z-0.200 F200.000
G1 X50.319 Y-33.530 Z-0.200 F200.000
G2 X50.065 Y-33.515 Z-0.200 I-0.109 J0.313 K0.000 F200.000
G2 X50.151 Y-33.373 Z-0.200 I0.107 J0.032 K0.000 F200.000
G3 X49.532 Y-32.119 Z-0.200 I-0.556 J0.505 K0.000 F200.000
G3 X49.014 Y-33.474 Z-0.200 I-0.061 J-0.754 K0.000 F200.000
G2 X48.964 Y-33.530 Z-0.200 I-0.050 J-0.005 K0.000 F200.000
G1 X48.072 Y-33.530 Z-0.200 F200.000
G0 Z0.500
G0 X48.112 Y-33.570 Z0.500
G0 X48.112 Y-33.570 Z0.500
G1 X48.112 Y-33.570 Z-0.200 F100.000
G1 X48.112 Y-33.641 Z-0.200 F200.000
G1 X50.279 Y-33.641 Z-0.200 F200.000
G1 X50.279 Y-33.570 Z-0.200 F200.000
G2 X50.037 Y-33.543 Z-0.200 I-0.089 J0.305 K0.000 F200.000
G2 X50.122 Y-33.345 Z-0.200 I0.133 J0.060 K0.000 F200.000
G3 X49.533 Y-32.159 Z-0.200 I-0.527 J0.477 K0.000 F200.000
G3 X49.021 Y-33.410 Z-0.200 I-0.071 J-0.701 K0.000 F200.000
G2 X48.964 Y-33.570 Z-0.200 I-0.057 J-0.070 K0.000 F200.000
G1 X48.112 Y-33.570 Z-0.200 F200.000
G0 Z0.500
G0 X48.982 Y-33.601 Z0.500
G0 X48.982 Y-33.601 Z0.500
G1 X48.982 Y-33.601 Z-0.200 F100.000
G1 X49.332 Y-33.601 Z-0.200 F200.000
G2 X49.085 Y-33.495 Z-0.200 I0.062 J0.488 K0.000 F200.000
G2 X48.982 Y-33.601 Z-0.200 I-0.098 J-0.007 K0.000 F200.000
G0 Z0.500
G0 X49.106 Y-33.561 Z0.500
G0 X49.106 Y-33.561 Z0.500
G1 X49.106 Y-33.561 Z-0.200 F100.000
G1 X49.108 Y-33.561 Z-0.200 F200.000
G3 X49.106 Y-33.561 Z-0.200 I-0.001 J-0.000 K0.000 F200.000
G0 Z0.500
G0 X49.145 Y-33.492 Z0.500
G0 X49.145 Y-33.492 Z0.500
G1 X49.145 Y-33.492 Z-0.200 F100.000
G3 X49.162 Y-33.501 Z-0.200 I0.333 J0.588 K0.000 F200.000
G3 X49.819 Y-33.533 Z-0.200 I0.368 J0.769 K0.000 F200.000
G3 X49.540 Y-32.230 Z-0.200 I-0.236 J0.631 K0.000 F200.000
G3 X49.145 Y-33.492 Z-0.200 I-0.062 J-0.673 K0.000 F200.000
G0 Z0.500
G0 X49.165 Y-33.457 Z0.500
G0 X49.165 Y-33.457 Z0.500
G1 X49.165 Y-33.457 Z-0.200 F100.000
G3 X49.184 Y-33.467 Z-0.200 I0.313 J0.554 K0.000 F200.000
G3 X49.812 Y-33.494 Z-0.200 I0.346 J0.741 K0.000 F200.000
G3 X49.536 Y-32.270 Z-0.200 I-0.230 J0.591 K0.000 F200.000
G3 X49.165 Y-33.457 Z-0.200 I-0.058 J-0.633 K0.000 F200.000
G0 Z0.500
G0 X49.652 Y-33.601 Z0.500
G0 X49.652 Y-33.601 Z0.500
G1 X49.652 Y-33.601 Z-0.200 F100.000
G1 X50.079 Y-33.601 Z-0.200 F200.000
G2 X49.980 Y-33.502 Z-0.200 I-0.000 J0.099 K0.000 F200.000
G2 X49.652 Y-33.601 Z-0.200 I-0.340 J0.533 K0.000 F200.000
G0 Z0.500
G0 X49.955 Y-33.561 Z0.500
G0 X49.955 Y-33.561 Z0.500
G1 X49.955 Y-33.561 Z-0.200 F100.000
G1 X49.959 Y-33.561 Z-0.200 F200.000
G3 X49.955 Y-33.561 Z-0.200 I-0.002 J-0.000 K0.000 F200.000
G0 Z0.500
G0 Z0.500
G0 X49.955 Y-33.561
G0 X49.892 Y-31.798
G0 X49.892 Y-31.798
G1 X49.892 Y-31.798 Z-0.200 F100.000
G3 X50.345 Y-31.128 Z-0.200 I-0.145 J0.586 K0.000 F200.000
G3 X50.226 Y-30.661 Z-0.200 I-0.800 J0.045 K0.000 F200.000
G3 X49.546 Y-30.752 Z-0.200 I-0.319 J-0.198 K0.000 F200.000
G2 X49.311 Y-31.515 Z-0.200 I-2.445 J0.338 K0.000 F200.000
G2 X48.839 Y-31.301 Z-0.200 I-0.201 J0.183 K0.000 F200.000
G2 X48.924 Y-30.821 Z-0.200 I0.522 J0.154 K0.000 F200.000
G2 X49.092 Y-30.716 Z-0.200 I0.223 J-0.167 K0.000 F200.000
G1 X49.092 Y-30.560 Z-0.200 F200.000
G3 X48.716 Y-31.153 Z-0.200 I0.143 J-0.506 K0.000 F200.000
G3 X48.835 Y-31.617 Z-0.200 I0.752 J-0.055 K0.000 F200.000
G3 X49.481 Y-31.501 Z-0.200 I0.293 J0.228 K0.000 F200.000
G2 X49.720 Y-30.739 Z-0.200 I2.522 J-0.371 K0.000 F200.000
G2 X50.182 Y-30.846 Z-0.200 I0.203 J-0.173 K0.000 F200.000
G2 X50.172 Y-31.417 Z-0.200 I-0.748 J-0.272 K0.000 F200.000
G2 X49.892 Y-31.633 Z-0.200 I-0.344 J0.158 K0.000 F200.000
G1 X49.892 Y-31.798 Z-0.200 F200.000
G0 Z0.500
G0 X49.932 Y-31.738 Z0.500
G0 X49.932 Y-31.738 Z0.500
G1 X49.932 Y-31.738 Z-0.200 F100.000
G3 X50.305 Y-31.129 Z-0.200 I-0.196 J0.539 K0.000 F200.000
G3 X50.193 Y-30.684 Z-0.200 I-0.760 J0.045 K0.000 F200.000
G3 X49.583 Y-30.769 Z-0.200 I-0.287 J-0.175 K0.000 F200.000
G2 X49.359 Y-31.513 Z-0.200 I-2.655 J0.393 K0.000 F200.000
G2 X48.830 Y-31.433 Z-0.200 I-0.246 J0.161 K0.000 F200.000
G2 X48.898 Y-30.791 Z-0.200 I0.741 J0.246 K0.000 F200.000
G2 X49.052 Y-30.687 Z-0.200 I0.222 J-0.161 K0.000 F200.000
G1 X49.052 Y-30.611 Z-0.200 F200.000
G3 X48.756 Y-31.152 Z-0.200 I0.199 J-0.460 K0.000 F200.000
G3 X48.868 Y-31.593 Z-0.200 I0.714 J-0.054 K0.000 F200.000
G3 X49.445 Y-31.484 Z-0.200 I0.260 J0.204 K0.000 F200.000
G2 X49.692 Y-30.711 Z-0.200 I2.409 J-0.344 K0.000 F200.000
G2 X50.221 Y-30.836 Z-0.200 I0.231 J-0.202 K0.000 F200.000
G2 X50.203 Y-31.443 Z-0.200 I-0.779 J-0.280 K0.000 F200.000
G2 X49.932 Y-31.664 Z-0.200 I-0.372 J0.178 K0.000 F200.000
G1 X49.932 Y-31.738 Z-0.200 F200.000
G0 Z0.500
G0 X49.297 Y-31.635 Z0.500
G0 X49.297 Y-31.635 Z0.500
G1 X49.297 Y-31.635 Z-0.200 F100.000
G1 X49.260 Y-31.655 Z-0.200 F200.000
G3 X49.297 Y-31.635 Z-0.200 I-0.000 J0.044 K0.000 F200.000
G0 Z0.500
G0 X49.725 Y-30.627 Z0.500
G0 X49.725 Y-30.627 Z0.500
G1 X49.725 Y-30.627 Z-0.200 F100.000
G2 X49.781 Y-30.597 Z-0.200 I0.085 J-0.094 K0.000 F200.000
G3 X49.725 Y-30.627 Z-0.200 I0.026 J-0.118 K0.000 F200.000
G0 Z0.500
G0 Z0.500
G0 X49.725 Y-30.627
G0 X51.902 Y-30.921
G0 X51.902 Y-30.921
G1 X51.902 Y-30.921 Z-0.200 F100.000
G3 X51.902 Y-31.063 Z-0.200 I0.543 J-0.073 K0.000 F200.000
G3 X52.020 Y-31.527 Z-0.200 I0.749 J-0.056 K0.000 F200.000
G3 X52.667 Y-31.412 Z-0.200 I0.294 J0.227 K0.000 F200.000
G2 X52.908 Y-30.648 Z-0.200 I2.441 J-0.350 K0.000 F200.000
G2 X53.368 Y-30.756 Z-0.200 I0.201 J-0.175 K0.000 F200.000
G2 X53.357 Y-31.327 Z-0.200 I-0.749 J-0.272 K0.000 F200.000
G2 X53.078 Y-31.542 Z-0.200 I-0.340 J0.153 K0.000 F200.000
G1 X53.078 Y-31.707 Z-0.200 F200.000
G3 X53.530 Y-31.039 Z-0.200 I-0.142 J0.583 K0.000 F200.000
G3 X53.412 Y-30.571 Z-0.200 I-0.801 J0.046 K0.000 F200.000
G3 X52.732 Y-30.662 Z-0.200 I-0.317 J-0.215 K0.000 F200.000
G2 X52.497 Y-31.424 Z-0.200 I-2.441 J0.336 K0.000 F200.000
G2 X52.025 Y-31.211 Z-0.200 I-0.202 J0.183 K0.000 F200.000
G2 X52.110 Y-30.732 Z-0.200 I0.523 J0.154 K0.000 F200.000
G2 X52.278 Y-30.626 Z-0.200 I0.223 J-0.167 K0.000 F200.000
G1 X52.278 Y-30.473 Z-0.200 F200.000
G3 X51.902 Y-30.921 Z-0.200 I0.168 J-0.521 K0.000 F200.000
G0 Z0.500
G0 X51.942 Y-30.926 Z0.500
G0 X51.942 Y-30.926 Z0.500
G1 X51.942 Y-30.926 Z-0.200 F100.000
G3 X51.942 Y-31.062 Z-0.200 I0.499 J-0.067 K0.000 F200.000
G3 X52.053 Y-31.503 Z-0.200 I0.711 J-0.055 K0.000 F200.000
G3 X52.630 Y-31.395 Z-0.200 I0.261 J0.203 K0.000 F200.000
G2 X52.882 Y-30.618 Z-0.200 I2.303 J-0.316 K0.000 F200.000
G2 X53.406 Y-30.746 Z-0.200 I0.227 J-0.206 K0.000 F200.000
G2 X53.388 Y-31.353 Z-0.200 I-0.780 J-0.280 K0.000 F200.000
G2 X53.118 Y-31.573 Z-0.200 I-0.363 J0.170 K0.000 F200.000
G1 X53.118 Y-31.651 Z-0.200 F200.000
G3 X53.490 Y-31.040 Z-0.200 I-0.199 J0.541 K0.000 F200.000
G3 X53.379 Y-30.594 Z-0.200 I-0.762 J0.046 K0.000 F200.000
G3 X52.769 Y-30.679 Z-0.200 I-0.284 J-0.191 K0.000 F200.000
G3 X52.632 Y-31.216 Z-0.200 I5.353 J-1.655 K0.000 F200.000
G2 X52.475 Y-31.504 Z-0.200 I-0.468 J0.069 K0.000 F200.000
G2 X51.985 Y-31.213 Z-0.200 I-0.174 J0.266 K0.000 F200.000
G2 X52.084 Y-30.701 Z-0.200 I0.553 J0.159 K0.000 F200.000
G2 X52.238 Y-30.597 Z-0.200 I0.222 J-0.161 K0.000 F200.000
G1 X52.238 Y-30.533 Z-0.200 F200.000
G3 X51.942 Y-30.926 Z-0.200 I0.203 J-0.461 K0.000 F200.000
G0 Z0.500
G0 X52.447 Y-31.565 Z0.500
G0 X52.447 Y-31.565 Z0.500
G1 X52.447 Y-31.565 Z-0.200 F100.000
G3 X52.484 Y-31.543 Z-0.200 I-0.002 J0.046 K0.000 F200.000
G1 X52.447 Y-31.565 Z-0.200 F200.000
G0 Z0.500
G0 X52.901 Y-30.548 Z0.500
G0 X52.901 Y-30.548 Z0.500
G1 X52.901 Y-30.548 Z-0.200 F100.000
G1 X52.917 Y-30.534 Z-0.200 F200.000
G3 X52.901 Y-30.548 Z-0.200 I0.008 J-0.025 K0.000 F200.000
G0 Z0.500
G0 X52.958 Y-30.510 Z0.500
G0 X52.958 Y-30.510 Z0.500
G1 X52.958 Y-30.510 Z-0.200 F100.000
G1 X52.980 Y-30.499 Z-0.200 F200.000
G3 X52.958 Y-30.510 Z-0.200 I0.004 J-0.034 K0.000 F200.000
G0 Z0.500
G0 X53.044 Y-30.488 Z0.500
G0 X53.044 Y-30.488 Z0.500
G1 X53.044 Y-30.488 Z-0.200 F100.000
G1 X53.072 Y-30.484 Z-0.200 F200.000
G3 X53.044 Y-30.488 Z-0.200 I-0.007 J-0.049 K0.000 F200.000
G0 Z0.500
G0 Z0.500
G0 X53.044 Y-30.488
G0 Y-32.133
G0 Y-32.133
G1 X53.044 Y-32.133 Z-0.200 F100.000
G1 X51.258 Y-32.133 Z-0.200 F200.000
G1 X51.258 Y-32.284 Z-0.200 F200.000
G1 X52.150 Y-32.284 Z-0.200 F200.000
G2 X52.134 Y-32.408 Z-0.200 I-0.012 J-0.062 K0.000 F200.000
G3 X52.714 Y-33.695 Z-0.200 I0.518 J-0.541 K0.000 F200.000
G3 X53.236 Y-32.337 Z-0.200 I0.059 J0.757 K0.000 F200.000
G2 X53.286 Y-32.284 Z-0.200 I0.050 J0.003 K0.000 F200.000
G1 X53.504 Y-32.284 Z-0.200 F200.000
G1 X53.504 Y-32.133 Z-0.200 F200.000
G1 X53.044 Y-32.133 Z-0.200 F200.000
G0 Z0.500
G0 Y-32.213 Z0.500
G0 Y-32.213 Z0.500
G1 X53.044 Y-32.213 Z-0.200 F100.000
G1 X52.911 Y-32.213 Z-0.200 F200.000
G2 X53.164 Y-32.320 Z-0.200 I-0.059 J-0.491 K0.000 F200.000
G2 X53.266 Y-32.213 Z-0.200 I0.102 J0.005 K0.000 F200.000
G1 X53.044 Y-32.213 Z-0.200 F200.000
G0 Z0.500
G0 Y-32.173 Z0.500
G0 Y-32.173 Z0.500
G1 X53.044 Y-32.173 Z-0.200 F100.000
G1 X51.298 Y-32.173 Z-0.200 F200.000
G1 X51.298 Y-32.244 Z-0.200 F200.000
G1 X52.150 Y-32.244 Z-0.200 F200.000
G2 X52.160 Y-32.438 Z-0.200 I-0.008 J-0.098 K0.000 F200.000
G3 X52.713 Y-33.655 Z-0.200 I0.492 J-0.510 K0.000 F200.000
G3 X53.226 Y-32.401 Z-0.200 I0.072 J0.702 K0.000 F200.000
G2 X53.286 Y-32.244 Z-0.200 I0.060 J0.067 K0.000 F200.000
G1 X53.464 Y-32.244 Z-0.200 F200.000
G1 X53.464 Y-32.173 Z-0.200 F200.000
G1 X53.044 Y-32.173 Z-0.200 F200.000
G0 Z0.500
G0 X53.006 Y-32.273 Z0.500
G0 X53.006 Y-32.273 Z0.500
G1 X53.006 Y-32.273 Z-0.200 F100.000
G3 X52.725 Y-32.231 Z-0.200 I-0.237 J-0.629 K0.000 F200.000
G3 X52.348 Y-33.498 Z-0.200 I-0.064 J-0.670 K0.000 F200.000
G3 X52.982 Y-33.540 Z-0.200 I0.367 J0.739 K0.000 F200.000
G3 X53.006 Y-32.273 Z-0.200 I-0.213 J0.638 K0.000 F200.000
G0 Z0.500
G0 X52.992 Y-32.310 Z0.500
G0 X52.992 Y-32.310 Z0.500
G1 X52.992 Y-32.310 Z-0.200 F100.000
G3 X52.721 Y-32.271 Z-0.200 I-0.223 J-0.592 K0.000 F200.000
G3 X52.370 Y-33.465 Z-0.200 I-0.061 J-0.631 K0.000 F200.000
G3 X52.975 Y-33.501 Z-0.200 I0.345 J0.708 K0.000 F200.000
G3 X52.992 Y-32.310 Z-0.200 I-0.206 J0.598 K0.000 F200.000
G0 Z0.500
G0 X53.138 Y-32.253 Z0.500
G0 X53.138 Y-32.253 Z0.500
G1 X53.138 Y-32.253 Z-0.200 F100.000
G3 X53.142 Y-32.253 Z-0.200 I0.002 J0.000 K0.000 F200.000
G1 X53.138 Y-32.253 Z-0.200 F200.000
G0 Z0.500
G0 X52.517 Y-32.213 Z0.500
G0 X52.517 Y-32.213 Z0.500
G1 X52.517 Y-32.213 Z-0.200 F100.000
G1 X52.171 Y-32.213 Z-0.200 F200.000
G2 X52.270 Y-32.310 Z-0.200 I0.001 J-0.098 K0.000 F200.000
G2 X52.517 Y-32.213 Z-0.200 I0.394 J-0.635 K0.000 F200.000
G0 Z0.500
G0 X52.294 Y-32.253 Z0.500
G0 X52.294 Y-32.253 Z0.500
G1 X52.294 Y-32.253 Z-0.200 F100.000
G1 X52.291 Y-32.253 Z-0.200 F200.000
G3 X52.294 Y-32.253 Z-0.200 I0.002 J0.000 K0.000 F200.000
G0 Z0.500
G0 Z0.500
G0 X52.294 Y-32.253
G0 X52.543 Y-34.477
G0 X52.543 Y-34.477
G1 X52.543 Y-34.477 Z-0.200 F100.000
G1 X52.543 Y-35.326 Z-0.200 F200.000
G2 X52.493 Y-35.376 Z-0.200 I-0.050 J0.000 K0.000 F200.000
G1 X49.601 Y-35.376 Z-0.200 F200.000
G2 X49.551 Y-35.326 Z-0.200 I0.000 J0.050 K0.000 F200.000
G1 X49.551 Y-34.475 Z-0.200 F200.000
G1 X49.452 Y-34.475 Z-0.200 F200.000
G1 X49.452 Y-35.326 Z-0.200 F200.000
G2 X49.402 Y-35.376 Z-0.200 I-0.050 J0.000 K0.000 F200.000
G1 X46.600 Y-35.376 Z-0.200 F200.000
G2 X46.550 Y-35.326 Z-0.200 I0.000 J0.050 K0.000 F200.000
G1 X46.550 Y-34.477 Z-0.200 F200.000
G1 X46.451 Y-34.477 Z-0.200 F200.000
G1 X46.451 Y-35.477 Z-0.200 F200.000
G1 X49.400 Y-35.477 Z-0.200 F200.000
G2 X49.450 Y-35.527 Z-0.200 I-0.000 J-0.050 K0.000 F200.000
G1 X49.450 Y-41.239 Z-0.200 F200.000
G2 X49.551 Y-41.239 Z-0.200 I0.046 J-1.770 K0.000 F200.000
G1 X49.549 Y-35.527 Z-0.200 F200.000
G2 X49.599 Y-35.477 Z-0.200 I0.050 J0.000 K0.000 F200.000
G1 X52.644 Y-35.477 Z-0.200 F200.000
G1 X52.644 Y-34.477 Z-0.200 F200.000
G1 X52.543 Y-34.477 Z-0.200 F200.000
G0 Z0.500
G0 X52.583 Y-34.517 Z0.500
G0 X52.583 Y-34.517 Z0.500
G1 X52.583 Y-34.517 Z-0.200 F100.000
G1 X52.583 Y-35.326 Z-0.200 F200.000
G2 X52.493 Y-35.416 Z-0.200 I-0.090 J0.000 K0.000 F200.000
G1 X49.601 Y-35.416 Z-0.200 F200.000
G2 X49.511 Y-35.326 Z-0.200 I0.000 J0.090 K0.000 F200.000
G1 X49.511 Y-34.515 Z-0.200 F200.000
G1 X49.492 Y-34.515 Z-0.200 F200.000
G1 X49.492 Y-35.326 Z-0.200 F200.000
G2 X49.402 Y-35.416 Z-0.200 I-0.090 J0.000 K0.000 F200.000
G1 X46.600 Y-35.416 Z-0.200 F200.000
G2 X46.510 Y-35.326 Z-0.200 I0.000 J0.090 K0.000 F200.000
G1 X46.510 Y-34.517 Z-0.200 F200.000
G1 X46.491 Y-34.517 Z-0.200 F200.000
G1 X46.491 Y-35.437 Z-0.200 F200.000
G1 X49.400 Y-35.437 Z-0.200 F200.000
G2 X49.490 Y-35.527 Z-0.200 I-0.000 J-0.090 K0.000 F200.000
G1 X49.490 Y-41.199 Z-0.200 F200.000
G2 X49.511 Y-41.199 Z-0.200 I0.008 J-0.369 K0.000 F200.000
G1 X49.509 Y-35.527 Z-0.200 F200.000
G2 X49.599 Y-35.437 Z-0.200 I0.090 J0.000 K0.000 F200.000
G1 X52.604 Y-35.437 Z-0.200 F200.000
G1 X52.604 Y-34.517 Z-0.200 F200.000
G1 X52.583 Y-34.517 Z-0.200 F200.000
G0 Z0.500
G0 X49.529 Y-35.426 Z0.500
G0 X49.529 Y-35.426 Z0.500
G1 X49.529 Y-35.426 Z-0.200 F100.000
G2 X49.501 Y-35.399 Z-0.200 I-0.000 J0.027 K0.000 F200.000
G2 X49.472 Y-35.427 Z-0.200 I-0.028 J0.001 K0.000 F200.000
G2 X49.499 Y-35.453 Z-0.200 I0.000 J-0.027 K0.000 F200.000
G2 X49.529 Y-35.426 Z-0.200 I0.028 J-0.001 K0.000 F200.000
G0 Z0.500
G0 Z0.500
G0 X49.529 Y-35.426
G0 X53.312 Y-60.078
G0 X53.312 Y-60.078
G1 X53.312 Y-60.078 Z-0.200 F100.000
G3 X53.006 Y-60.441 Z-0.200 I0.056 J-0.357 K0.000 F200.000
G2 X52.510 Y-61.243 Z-0.200 I-2.114 J0.752 K0.000 F200.000
G1 X52.134 Y-61.660 Z-0.200 F200.000
G2 X52.268 Y-64.641 Z-0.200 I-14.811 J-2.159 K0.000 F200.000
G2 X51.974 Y-69.031 Z-0.200 I-118.347 J5.719 K0.000 F200.000
G3 X51.976 Y-71.167 Z-0.200 I21.922 J-1.050 K0.000 F200.000
G2 X53.454 Y-72.912 Z-0.200 I-0.500 J-1.922 K0.000 F200.000
G3 X53.535 Y-73.358 Z-0.200 I1.745 J0.088 K0.000 F200.000
G2 X56.296 Y-73.588 Z-0.200 I-65.640 J-804.136 K0.000 F200.000
G3 X57.806 Y-73.578 Z-0.200 I0.590 J25.123 K0.000 F200.000
G2 X61.950 Y-73.492 Z-0.200 I9.946 J-380.917 K0.000 F200.000
G1 X61.950 Y-73.330 Z-0.200 F200.000
G2 X54.856 Y-73.397 Z-0.200 I-4.415 J91.718 K0.000 F200.000
G2 X53.851 Y-73.233 Z-0.200 I0.095 J3.747 K0.000 F200.000
G2 X53.637 Y-72.925 Z-0.200 I0.085 J0.287 K0.000 F200.000
G3 X52.796 Y-71.447 Z-0.200 I-1.808 J-0.050 K0.000 F200.000
G3 X52.077 Y-70.951 Z-0.200 I-11.629 J-16.097 K0.000 F200.000
G1 X52.055 Y-70.908 Z-0.200 F200.000
G2 X52.234 Y-67.038 Z-0.200 I43.630 J-0.079 K0.000 F200.000
G3 X52.362 Y-63.985 Z-0.200 I-21.843 J2.440 K0.000 F200.000
G1 X52.383 Y-61.621 Z-0.200 F200.000
G1 X52.394 Y-61.590 Z-0.200 F200.000
G3 X53.255 Y-60.337 Z-0.200 I-6.940 J5.693 K0.000 F200.000
G2 X54.119 Y-60.112 Z-0.200 I0.755 J-1.124 K0.000 F200.000
G3 X61.950 Y-59.830 Z-0.200 I-44.525 J1345.261 K0.000 F200.000
G1 X61.950 Y-59.680 Z-0.200 F200.000
G3 X56.549 Y-59.915 Z-0.200 I13.646 J-376.268 K0.000 F200.000
G3 X53.312 Y-60.078 Z-0.200 I-0.549 J-21.293 K0.000 F200.000
G0 Z0.500
G0 X53.320 Y-60.117 Z0.500
G0 X53.320 Y-60.117 Z0.500
G1 X53.320 Y-60.117 Z-0.200 F100.000
G3 X53.044 Y-60.454 Z-0.200 I0.049 J-0.322 K0.000 F200.000
G2 X52.177 Y-61.673 Z-0.200 I-2.933 J1.168 K0.000 F200.000
G2 X52.308 Y-64.641 Z-0.200 I-14.939 J-2.148 K0.000 F200.000
G2 X52.014 Y-69.033 Z-0.200 I-118.286 J5.714 K0.000 F200.000
G3 X52.015 Y-71.138 Z-0.200 I21.646 J-1.042 K0.000 F200.000
G2 X53.494 Y-72.907 Z-0.200 I-0.534 J-1.949 K0.000 F200.000
G3 X53.563 Y-73.322 Z-0.200 I2.260 J0.162 K0.000 F200.000
G3 X54.636 Y-73.412 Z-0.200 I1.982 J17.220 K0.000 F200.000
G2 X53.710 Y-73.197 Z-0.200 I-0.044 J1.917 K0.000 F200.000
G2 X53.598 Y-72.932 Z-0.200 I0.280 J0.275 K0.000 F200.000
G3 X52.772 Y-71.479 Z-0.200 I-1.770 J-0.045 K0.000 F200.000
G3 X52.055 Y-70.984 Z-0.200 I-11.597 J-16.053 K0.000 F200.000
G1 X52.015 Y-70.907 Z-0.200 F200.000
G2 X52.195 Y-67.033 Z-0.200 I43.639 J-0.079 K0.000 F200.000
G3 X52.322 Y-63.985 Z-0.200 I-21.800 J2.436 K0.000 F200.000
G1 X52.343 Y-61.621 Z-0.200 F200.000
G1 X52.363 Y-61.565 Z-0.200 F200.000
G3 X53.228 Y-60.308 Z-0.200 I-7.174 J5.863 K0.000 F200.000
G2 X54.117 Y-60.072 Z-0.200 I0.783 J-1.152 K0.000 F200.000
G3 X61.910 Y-59.791 Z-0.200 I-41.123 J1248.151 K0.000 F200.000
G1 X61.910 Y-59.721 Z-0.200 F200.000
G3 X56.550 Y-59.955 Z-0.200 I13.976 J-382.307 K0.000 F200.000
G3 X53.320 Y-60.117 Z-0.200 I-0.549 J-21.277 K0.000 F200.000
G0 Z0.500
G0 X53.325 Y-60.146 Z0.500
G0 X53.325 Y-60.146 Z0.500
G1 X53.325 Y-60.146 Z-0.200 F100.000
G3 X53.094 Y-60.429 Z-0.200 I0.043 J-0.271 K0.000 F200.000
G2 X53.402 Y-60.145 Z-0.200 I0.528 J-0.263 K0.000 F200.000
G3 X53.325 Y-60.146 Z-0.200 I-0.034 J-0.272 K0.000 F200.000
G0 Z0.500
G0 X52.319 Y-61.575 Z0.500
G0 X52.319 Y-61.575 Z0.500
G1 X52.319 Y-61.575 Z-0.200 F100.000
G1 X52.220 Y-61.685 Z-0.200 F200.000
G2 X52.298 Y-62.196 Z-0.200 I-3.463 J-0.790 K0.000 F200.000
G1 X52.303 Y-61.620 Z-0.200 F200.000
G1 X52.319 Y-61.575 Z-0.200 F200.000
G0 Z0.500
G0 X52.053 Y-71.031 Z0.500
G0 X52.053 Y-71.031 Z0.500
G1 X52.053 Y-71.031 Z-0.200 F100.000
G1 X52.055 Y-71.110 Z-0.200 F200.000
G2 X52.336 Y-71.223 Z-0.200 I-0.401 J-1.398 K0.000 F200.000
G1 X52.053 Y-71.031 Z-0.200 F200.000
G0 Z0.500
G0 X53.149 Y-71.879 Z0.500
G0 X53.149 Y-71.879 Z0.500
G1 X53.149 Y-71.879 Z-0.200 F100.000
G2 X53.577 Y-73.211 Z-0.200 I-2.191 J-1.440 K0.000 F200.000
G3 X53.705 Y-73.299 Z-0.200 I0.104 J0.014 K0.000 F200.000
G3 X53.844 Y-73.312 Z-0.200 I0.816 J7.834 K0.000 F200.000
G2 X53.559 Y-72.939 Z-0.200 I0.090 J0.365 K0.000 F200.000
G3 X53.228 Y-71.965 Z-0.200 I-1.667 J-0.023 K0.000 F200.000
G1 X53.149 Y-71.879 Z-0.200 F200.000
G0 Z0.500
G0 X53.619 Y-73.216 Z0.500
G0 X53.619 Y-73.216 Z0.500
G1 X53.619 Y-73.216 Z-0.200 F100.000
G3 X53.657 Y-73.253 Z-0.200 I0.033 J-0.005 K0.000 F200.000
G1 X53.619 Y-73.216 Z-0.200 F200.000
G0 Z0.500
G0 X55.314 Y-73.466 Z0.500
G0 X55.314 Y-73.466 Z0.500
G1 X55.314 Y-73.466 Z-0.200 F100.000
G3 X57.805 Y-73.538 Z-0.200 I1.614 J12.639 K0.000 F200.000
G2 X61.910 Y-73.453 Z-0.200 I9.690 J-369.925 K0.000 F200.000
G1 X61.910 Y-73.371 Z-0.200 F200.000
G2 X55.314 Y-73.466 Z-0.200 I-4.812 J105.820 K0.000 F200.000
G0 Z0.500
G0 X61.828 Y-73.415 Z0.500
G0 X61.828 Y-73.415 Z0.500
G1 X61.828 Y-73.415 Z-0.200 F100.000
G3 X61.870 Y-73.413 Z-0.200 I0.021 J0.002 K0.000 F200.000
G3 X61.828 Y-73.415 Z-0.200 I0.224 J-4.973 K0.000 F200.000
G0 Z0.500
G0 Z0.500
G0 X61.828 Y-73.415
G0 X55.543 Y-71.263
G0 X55.543 Y-71.263
G1 X55.543 Y-71.263 Z-0.200 F100.000
G3 X55.265 Y-71.125 Z-0.200 I-0.166 J0.015 K0.000 F200.000
G3 X55.543 Y-71.263 Z-0.200 I0.198 J0.049 K0.000 F200.000
G0 Z0.500
G0 X55.506 Y-71.237 Z0.500
G0 X55.506 Y-71.237 Z0.500
G1 X55.506 Y-71.237 Z-0.200 F100.000
G3 X55.307 Y-71.128 Z-0.200 I-0.146 J-0.030 K0.000 F200.000
G3 X55.506 Y-71.237 Z-0.200 I0.173 J0.080 K0.000 F200.000
G0 Z0.500
G0 X55.416 Y-71.178 Z0.500
G0 X55.416 Y-71.178 Z0.500
G1 X55.416 Y-71.178 Z-0.200 F100.000
G3 X55.373 Y-71.161 Z-0.200 I-0.041 J-0.043 K0.000 F200.000
G3 X55.416 Y-71.178 Z-0.200 I0.037 J0.031 K0.000 F200.000
G0 Z0.500
G0 Z0.500
G0 X55.416 Y-71.178
G0 X54.945 Y-72.302
G0 X54.945 Y-72.302
G1 X54.945 Y-72.302 Z-0.200 F100.000
G2 X54.746 Y-72.207 Z-0.200 I0.310 J0.904 K0.000 F200.000
G3 X54.945 Y-72.302 Z-0.200 I0.134 J0.025 K0.000 F200.000
G0 Z0.500
G0 X54.858 Y-72.290 Z0.500
G0 X54.858 Y-72.290 Z0.500
G1 X54.858 Y-72.290 Z-0.200 F100.000
G1 X54.846 Y-72.286 Z-0.200 F200.000
G3 X54.858 Y-72.290 Z-0.200 I0.010 J0.008 K0.000 F200.000
G0 Z0.500
G0 Z0.500
G0 X54.858 Y-72.290
G0 X48.877 Y-69.990
G0 X48.877 Y-69.990
G1 X48.877 Y-69.990 Z-0.200 F100.000
G3 X48.848 Y-69.837 Z-0.200 I-0.137 J0.053 K0.000 F200.000
G3 X48.725 Y-70.104 Z-0.200 I0.038 J-0.179 K0.000 F200.000
G3 X48.871 Y-70.004 Z-0.200 I0.010 J0.142 K0.000 F200.000
G3 X48.877 Y-69.990 Z-0.200 I-0.131 J0.067 K0.000 F200.000
G0 Z0.500
G0 X48.836 Y-69.977 Z0.500
G0 X48.836 Y-69.977 Z0.500
G1 X48.836 Y-69.977 Z-0.200 F100.000
G3 X48.822 Y-69.871 Z-0.200 I-0.123 J0.038 K0.000 F200.000
G3 X48.743 Y-70.065 Z-0.200 I0.122 J-0.163 K0.000 F200.000
G3 X48.836 Y-69.977 Z-0.200 I-0.030 J0.125 K0.000 F200.000
G0 Z0.500
G0 X48.811 Y-69.969 Z0.500
G0 X48.811 Y-69.969 Z0.500
G1 X48.811 Y-69.969 Z-0.200 F100.000
G3 X48.812 Y-69.911 Z-0.200 I-0.098 J0.031 K0.000 F200.000
G3 X48.764 Y-70.028 Z-0.200 I0.299 J-0.190 K0.000 F200.000
G3 X48.811 Y-69.969 Z-0.200 I-0.051 J0.089 K0.000 F200.000
G0 Z0.500
G0 Z0.500
G0 X48.811 Y-69.969
G0 X48.629 Y-68.483
G0 X48.629 Y-68.483
G1 X48.629 Y-68.483 Z-0.200 F100.000
G1 X48.650 Y-68.458 Z-0.200 F200.000
G3 X48.554 Y-68.361 Z-0.200 I-0.112 J-0.015 K0.000 F200.000
G3 X48.629 Y-68.483 Z-0.200 I0.057 J-0.049 K0.000 F200.000
G0 Z0.500
G0 X48.601 Y-68.436 Z0.500
G0 X48.601 Y-68.436 Z0.500
G1 X48.601 Y-68.436 Z-0.200 F100.000
G3 X48.583 Y-68.423 Z-0.200 I-0.022 J-0.011 K0.000 F200.000
G3 X48.601 Y-68.436 Z-0.200 I0.015 J0.002 K0.000 F200.000
G0 Z0.500
G0 Z0.500
G0 X48.601 Y-68.436
G0 X39.021 Y-66.823
G0 X39.021 Y-66.823
G1 X39.021 Y-66.823 Z-0.200 F100.000
G3 X38.989 Y-66.285 Z-0.200 I-1.183 J0.199 K0.000 F200.000
G3 X38.875 Y-65.510 Z-0.200 I-2.907 J-0.030 K0.000 F200.000
G3 X38.781 Y-65.353 Z-0.200 I-0.199 J-0.013 K0.000 F200.000
G3 X39.002 Y-66.915 Z-0.200 I9.000 J0.477 K0.000 F200.000
G3 X39.021 Y-66.823 Z-0.200 I-1.164 J0.291 K0.000 F200.000
G0 Z0.500
G0 X39.001 Y-66.816 Z0.500
G0 X39.001 Y-66.816 Z0.500
G1 X39.001 Y-66.816 Z-0.200 F100.000
G3 X38.821 Y-65.483 Z-0.200 I-13.085 J-1.091 K0.000 F200.000
G3 X39.001 Y-66.816 Z-0.200 I22.707 J2.393 K0.000 F200.000
G0 Z0.500
G0 Z0.500
G0 X39.001 Y-66.816
G0 X37.054 Y-66.759
G0 X37.054 Y-66.759
G1 X37.054 Y-66.759 Z-0.200 F100.000
G3 X36.954 Y-65.353 Z-0.200 I-7.049 J0.208 K0.000 F200.000
G3 X36.841 Y-64.616 Z-0.200 I-6.129 J-0.565 K0.000 F200.000
G3 X36.987 Y-67.541 Z-0.200 I18.526 J-0.542 K0.000 F200.000
G3 X37.054 Y-66.759 Z-0.200 I-6.983 J0.990 K0.000 F200.000
G0 Z0.500
G0 X37.000 Y-66.759 Z0.500
G0 X37.000 Y-66.759 Z0.500
G1 X37.000 Y-66.759 Z-0.200 F100.000
G3 X36.864 Y-64.964 Z-0.200 I-12.994 J-0.077 K0.000 F200.000
G3 X36.990 Y-67.345 Z-0.200 I28.849 J0.328 K0.000 F200.000
G3 X37.000 Y-66.759 Z-0.200 I-12.984 J0.509 K0.000 F200.000
G0 Z0.500
G0 X36.971 Y-66.619 Z0.500
G0 X36.971 Y-66.619 Z0.500
G1 X36.971 Y-66.619 Z-0.200 F100.000
G3 X36.947 Y-66.165 Z-0.200 I-9.094 J-0.251 K0.000 F200.000
G3 X36.971 Y-66.619 Z-0.200 I27.058 J1.197 K0.000 F200.000
G0 Z0.500
G0 Z0.500
G0 X36.971 Y-66.619
G0 X35.253 Y-65.189
G0 X35.253 Y-65.189
G1 X35.253 Y-65.189 Z-0.200 F100.000
G3 X35.366 Y-64.817 Z-0.200 I-0.384 J0.320 K0.000 F200.000
G3 X35.038 Y-65.291 Z-0.200 I0.587 J-0.757 K0.000 F200.000
G3 X35.146 Y-65.284 Z-0.200 I0.050 J0.065 K0.000 F200.000
G3 X35.253 Y-65.189 Z-0.200 I-0.278 J0.416 K0.000 F200.000
G0 Z0.500
G0 X35.223 Y-65.164 Z0.500
G0 X35.223 Y-65.164 Z0.500
G1 X35.223 Y-65.164 Z-0.200 F100.000
G3 X35.312 Y-64.941 Z-0.200 I-0.290 J0.245 K0.000 F200.000
G3 X35.086 Y-65.266 Z-0.200 I0.524 J-0.607 K0.000 F200.000
G3 X35.223 Y-65.164 Z-0.200 I-0.152 J0.348 K0.000 F200.000
G0 Z0.500
G0 X35.203 Y-65.147 Z0.500
G0 X35.203 Y-65.147 Z0.500
G1 X35.203 Y-65.147 Z-0.200 F100.000
G3 X35.262 Y-65.039 Z-0.200 I-0.251 J0.205 K0.000 F200.000
G3 X35.137 Y-65.209 Z-0.200 I0.661 J-0.618 K0.000 F200.000
G3 X35.203 Y-65.147 Z-0.200 I-0.184 J0.267 K0.000 F200.000
G0 Z0.500
G0 Z0.500
G0 X35.203 Y-65.147
G0 X35.495 Y-65.602
G0 X35.495 Y-65.602
G1 X35.495 Y-65.602 Z-0.200 F100.000
G3 X35.487 Y-65.611 Z-0.200 I0.012 J-0.019 K0.000 F200.000
G3 X35.488 Y-66.169 Z-0.200 I0.573 J-0.279 K0.000 F200.000
G1 X35.519 Y-66.183 Z-0.200 F200.000
G3 X35.601 Y-66.061 Z-0.200 I-0.042 J0.116 K0.000 F200.000
G3 X35.520 Y-65.603 Z-0.200 I-0.751 J0.104 K0.000 F200.000
G3 X35.495 Y-65.602 Z-0.200 I-0.013 J-0.018 K0.000 F200.000
G0 Z0.500
G0 X35.507 Y-65.674 Z0.500
G0 X35.507 Y-65.674 Z0.500
G1 X35.507 Y-65.674 Z-0.200 F100.000
G3 X35.520 Y-66.140 Z-0.200 I0.382 J-0.223 K0.000 F200.000
G3 X35.561 Y-66.055 Z-0.200 I-0.041 J0.072 K0.000 F200.000
G3 X35.507 Y-65.674 Z-0.200 I-0.662 J0.101 K0.000 F200.000
G0 Z0.500
G0 X35.512 Y-65.813 Z0.500
G0 X35.512 Y-65.813 Z0.500
G1 X35.512 Y-65.813 Z-0.200 F100.000
G3 X35.520 Y-66.051 Z-0.200 I0.583 J-0.100 K0.000 F200.000
G3 X35.512 Y-65.813 Z-0.200 I-0.653 J0.098 K0.000 F200.000
G0 Z0.500
G0 Z0.500
(Finish operation: ENGRAVE 0.15MM)
(Begin operation: ballend-020mm003)
(Path: ballend-020mm003)
(ballend-020mm003)
(Begin toolchange)
( M6 T5 )
M3 S10000
(Finish operation: ballend-020mm003)
(Begin operation: ENGRAVE 0.2MM)
(Path: ENGRAVE 0.2MM)
(ENGRAVE 0.2MM)
G0 Z0.500
G0 X7.654 Y-24.989
G1 X7.654 Y-24.989 Z-0.200 F100.000
G1 X7.528 Y-24.989 Z-0.200 F200.000
G1 X6.899 Y-26.672 Z-0.200 F200.000
G2 X6.712 Y-26.672 Z-0.200 I-0.094 J0.035 K0.000 F200.000
G1 X6.078 Y-24.989 Z-0.200 F200.000
G1 X5.953 Y-24.989 Z-0.200 F200.000
G1 X6.691 Y-26.870 Z-0.200 F200.000
G1 X6.920 Y-26.870 Z-0.200 F200.000
G1 X7.654 Y-24.989 Z-0.200 F200.000
G0 Z0.500
G0 X7.581 Y-25.039 Z0.500
G0 X7.581 Y-25.039 Z0.500
G1 X7.581 Y-25.039 Z-0.200 F100.000
G1 X7.563 Y-25.039 Z-0.200 F200.000
G1 X7.149 Y-26.147 Z-0.200 F200.000
G1 X7.581 Y-25.039 Z-0.200 F200.000
G0 Z0.500
G0 X6.234 Y-25.546 Z0.500
G0 X6.234 Y-25.546 Z0.500
G1 X6.234 Y-25.546 Z-0.200 F100.000
G1 X6.044 Y-25.039 Z-0.200 F200.000
G1 X6.026 Y-25.039 Z-0.200 F200.000
G1 X6.459 Y-26.142 Z-0.200 F200.000
G1 X6.234 Y-25.546 Z-0.200 F200.000
G0 Z0.500
G0 X6.678 Y-26.701 Z0.500
G0 X6.678 Y-26.701 Z0.500
G1 X6.678 Y-26.701 Z-0.200 F100.000
G1 X6.725 Y-26.820 Z-0.200 F200.000
G1 X6.886 Y-26.820 Z-0.200 F200.000
G1 X6.930 Y-26.708 Z-0.200 F200.000
G2 X6.678 Y-26.701 Z-0.200 I-0.125 J0.058 K0.000 F200.000
G0 Z0.500
G0 Z0.500
G0 X6.678 Y-26.701
G0 X8.102 Y-26.263
G0 X8.102 Y-26.263
G1 X8.102 Y-26.263 Z-0.200 F100.000
G3 X9.273 Y-26.869 Z-0.200 I0.882 J0.271 K0.000 F200.000
G3 X9.813 Y-25.436 Z-0.200 I-0.333 J0.944 K0.000 F200.000
G3 X8.063 Y-25.929 Z-0.200 I-0.820 J-0.441 K0.000 F200.000
G3 X8.102 Y-26.263 Z-0.200 I0.921 J-0.063 K0.000 F200.000
G0 Z0.500
G0 X8.163 Y-26.243 Z0.500
G0 X8.163 Y-26.243 Z0.500
G1 X8.163 Y-26.243 Z-0.200 F100.000
G3 X8.356 Y-26.591 Z-0.200 I0.976 J0.314 K0.000 F200.000
G2 X8.361 Y-25.262 Z-0.200 I0.835 J0.661 K0.000 F200.000
G3 X8.163 Y-26.243 Z-0.200 I0.778 J-0.667 K0.000 F200.000
G0 Z0.500
G0 X8.215 Y-26.226 Z0.500
G0 X8.215 Y-26.226 Z0.500
G1 X8.215 Y-26.226 Z-0.200 F100.000
G3 X8.228 Y-26.263 Z-0.200 I0.887 J0.305 K0.000 F200.000
G3 X9.815 Y-25.940 Z-0.200 I0.773 J0.259 K0.000 F200.000
G3 X8.551 Y-25.162 Z-0.200 I-0.821 J0.082 K0.000 F200.000
G3 X8.215 Y-26.226 Z-0.200 I0.550 J-0.759 K0.000 F200.000
G0 Z0.500
G0 X9.611 Y-26.616 Z0.500
G0 X9.611 Y-26.616 Z0.500
G1 X9.611 Y-26.616 Z-0.200 F100.000
G3 X9.769 Y-25.460 Z-0.200 I-0.763 J0.694 K0.000 F200.000
G1 X9.690 Y-25.349 Z-0.200 F200.000
G2 X9.611 Y-26.616 Z-0.200 I-0.880 J-0.581 K0.000 F200.000
G0 Z0.500
G0 X9.637 Y-25.275 Z0.500
G0 X9.637 Y-25.275 Z0.500
G1 X9.637 Y-25.275 Z-0.200 F100.000
G3 X9.565 Y-25.208 Z-0.200 I-0.152 J-0.091 K0.000 F200.000
G1 X9.637 Y-25.275 Z-0.200 F200.000
G0 Z0.500
G0 Z0.500
G0 X9.637 Y-25.275
G0 X10.540
G0 X10.540
G1 X10.540 Y-25.275 Z-0.200 F100.000
G1 X10.540 Y-26.870 Z-0.200 F200.000
G1 X10.652 Y-26.870 Z-0.200 F200.000
G1 X10.652 Y-24.156 Z-0.200 F200.000
G1 X10.540 Y-24.156 Z-0.200 F200.000
G1 X10.540 Y-25.275 Z-0.200 F200.000
G0 Z0.500
G0 X10.590 Z0.500
G0 X10.590 Z0.500
G1 X10.590 Y-25.275 Z-0.200 F100.000
G1 X10.590 Y-26.820 Z-0.200 F200.000
G1 X10.602 Y-26.820 Z-0.200 F200.000
G1 X10.602 Y-24.206 Z-0.200 F200.000
G1 X10.590 Y-24.206 Z-0.200 F200.000
G1 X10.590 Y-25.275 Z-0.200 F200.000
G0 Z0.500
G0 Z0.500
G0 X10.590 Y-25.275
G0 X11.372
G0 X11.372
G1 X11.372 Y-25.275 Z-0.200 F100.000
G1 X11.372 Y-26.094 Z-0.200 F200.000
G3 X12.467 Y-26.814 Z-0.200 I0.734 J-0.076 K0.000 F200.000
G3 X12.719 Y-26.581 Z-0.200 I-0.513 J0.807 K0.000 F200.000
G2 X12.896 Y-26.645 Z-0.200 I0.076 J-0.065 K0.000 F200.000
G1 X12.896 Y-26.870 Z-0.200 F200.000
G1 X13.008 Y-26.870 Z-0.200 F200.000
G1 X13.008 Y-24.989 Z-0.200 F200.000
G1 X12.895 Y-24.989 Z-0.200 F200.000
G1 X12.894 Y-26.104 Z-0.200 F200.000
G2 X11.508 Y-26.301 Z-0.200 I-0.706 J-0.008 K0.000 F200.000
G1 X11.484 Y-26.092 Z-0.200 F200.000
G1 X11.484 Y-24.989 Z-0.200 F200.000
G1 X11.372 Y-24.989 Z-0.200 F200.000
G1 X11.372 Y-25.275 Z-0.200 F200.000
G0 Z0.500
G0 X12.905 Y-26.385 Z0.500
G0 X12.905 Y-26.385 Z0.500
G1 X12.905 Y-26.385 Z-0.200 F100.000
G3 X12.928 Y-26.533 Z-0.200 I0.086 J-0.062 K0.000 F200.000
G1 X12.928 Y-26.362 Z-0.200 F200.000
G3 X12.905 Y-26.385 Z-0.200 I0.063 J-0.086 K0.000 F200.000
G0 Z0.500
G0 Z0.500
G0 X12.905 Y-26.385
G0 X13.749
G0 X13.749
G1 X13.749 Y-26.385 Z-0.200 F100.000
G1 X13.749 Y-26.870 Z-0.200 F200.000
G1 X13.862 Y-26.870 Z-0.200 F200.000
G1 X13.863 Y-25.710 Z-0.200 F200.000
G2 X13.994 Y-25.293 Z-0.200 I0.672 J0.018 K0.000 F200.000
G2 X13.861 Y-25.205 Z-0.200 I-0.039 J0.085 K0.000 F200.000
G1 X13.861 Y-24.989 Z-0.200 F200.000
G1 X13.749 Y-24.989 Z-0.200 F200.000
G1 X13.749 Y-26.385 Z-0.200 F200.000
G0 Z0.500
G0 X13.829 Y-25.438 Z0.500
G0 X13.829 Y-25.438 Z0.500
G1 X13.829 Y-25.438 Z-0.200 F100.000
G3 X13.829 Y-25.320 Z-0.200 I-0.011 J0.059 K0.000 F200.000
G1 X13.829 Y-25.438 Z-0.200 F200.000
G0 Z0.500
G0 X14.094 Y-25.196 Z0.500
G0 X14.094 Y-25.196 Z0.500
G1 X14.094 Y-25.196 Z-0.200 F100.000
G2 X15.139 Y-25.721 Z-0.200 I0.419 J-0.470 K0.000 F200.000
G1 X15.139 Y-26.870 Z-0.200 F200.000
G1 X15.252 Y-26.870 Z-0.200 F200.000
G1 X15.253 Y-25.710 Z-0.200 F200.000
G2 X16.507 Y-25.524 Z-0.200 I0.636 J0.035 K0.000 F200.000
G1 X16.529 Y-25.721 Z-0.200 F200.000
G1 X16.529 Y-26.870 Z-0.200 F200.000
G1 X16.642 Y-26.870 Z-0.200 F200.000
G1 X16.642 Y-25.720 Z-0.200 F200.000
G3 X15.336 Y-25.336 Z-0.200 I-0.688 J0.074 K0.000 F200.000
G2 X15.173 Y-25.332 Z-0.200 I-0.080 J0.060 K0.000 F200.000
G3 X14.094 Y-25.196 Z-0.200 I-0.581 J-0.262 K0.000 F200.000
G0 Z0.500
G0 X15.154 Y-25.413 Z0.500
G0 X15.154 Y-25.413 Z0.500
G1 X15.154 Y-25.413 Z-0.200 F100.000
G2 X15.199 Y-25.536 Z-0.200 I-0.191 J-0.138 K0.000 F200.000
G2 X15.216 Y-25.446 Z-0.200 I0.275 J-0.007 K0.000 F200.000
G2 X15.154 Y-25.413 Z-0.200 I-0.008 J0.058 K0.000 F200.000
G0 Z0.500
G0 Z0.500
G0 X15.154 Y-25.413
G0 X17.236 Y-25.781
G0 X17.236 Y-25.781
G1 X17.236 Y-25.781 Z-0.200 F100.000
G3 X18.731 Y-26.746 Z-0.200 I0.951 J-0.168 K0.000 F200.000
G3 X18.966 Y-26.471 Z-0.200 I-0.357 J0.542 K0.000 F200.000
G3 X18.797 Y-26.544 Z-0.200 I-0.059 J-0.094 K0.000 F200.000
G2 X17.371 Y-25.999 Z-0.200 I-0.618 J0.521 K0.000 F200.000
G1 X17.454 Y-25.954 Z-0.200 F200.000
G1 X19.098 Y-25.954 Z-0.200 F200.000
G3 X17.261 Y-25.672 Z-0.200 I-0.929 J0.073 K0.000 F200.000
G3 X17.236 Y-25.781 Z-0.200 I0.925 J-0.276 K0.000 F200.000
G0 Z0.500
G0 X17.321 Y-25.866 Z0.500
G0 X17.321 Y-25.866 Z0.500
G1 X17.321 Y-25.866 Z-0.200 F100.000
G3 X17.317 Y-25.950 Z-0.200 I0.178 J-0.050 K0.000 F200.000
G1 X17.355 Y-25.909 Z-0.200 F200.000
G2 X17.321 Y-25.866 Z-0.200 I0.013 J0.045 K0.000 F200.000
G0 Z0.500
G0 X17.378 Y-25.823 Z0.500
G0 X17.378 Y-25.823 Z0.500
G1 X17.378 Y-25.823 Z-0.200 F100.000
G3 X17.458 Y-25.863 Z-0.200 I0.080 J0.060 K0.000 F200.000
G1 X18.873 Y-25.863 Z-0.200 F200.000
G1 X18.959 Y-25.814 Z-0.200 F200.000
G3 X17.363 Y-25.732 Z-0.200 I-0.801 J-0.014 K0.000 F200.000
G3 X17.378 Y-25.823 Z-0.200 I0.095 J-0.031 K0.000 F200.000
G0 Z0.500
G0 X19.003 Y-25.874 Z0.500
G0 X19.003 Y-25.874 Z0.500
G1 X19.003 Y-25.874 Z-0.200 F100.000
G1 X19.010 Y-25.874 Z-0.200 F200.000
G1 X19.009 Y-25.867 Z-0.200 F200.000
G1 X19.003 Y-25.874 Z-0.200 F200.000
G0 Z0.500
G0 Z0.500
G0 X19.003 Y-25.874
G0 X45.186 Y-25.947
G0 X45.186 Y-25.947
G1 X45.186 Y-25.947 Z-0.200 F100.000
G3 X45.891 Y-26.882 Z-0.200 I0.969 J-0.003 K0.000 F200.000
G3 X46.496 Y-26.816 Z-0.200 I0.215 J0.840 K0.000 F200.000
G3 X46.773 Y-26.573 Z-0.200 I-0.359 J0.688 K0.000 F200.000
G2 X46.949 Y-26.637 Z-0.200 I0.077 J-0.064 K0.000 F200.000
G1 X46.949 Y-26.870 Z-0.200 F200.000
G1 X47.061 Y-26.870 Z-0.200 F200.000
G1 X47.061 Y-24.156 Z-0.200 F200.000
G1 X46.949 Y-24.156 Z-0.200 F200.000
G1 X46.949 Y-25.226 Z-0.200 F200.000
G2 X46.772 Y-25.289 Z-0.200 I-0.100 J-0.000 K0.000 F200.000
G3 X45.218 Y-25.706 Z-0.200 I-0.688 J-0.541 K0.000 F200.000
G3 X45.186 Y-25.947 Z-0.200 I0.938 J-0.244 K0.000 F200.000
G0 Z0.500
G0 X45.302 Y-25.945 Z0.500
G0 X45.302 Y-25.945 Z0.500
G1 X45.302 Y-25.945 Z-0.200 F100.000
G3 X45.686 Y-26.689 Z-0.200 I0.936 J0.013 K0.000 F200.000
G3 X46.965 Y-25.940 Z-0.200 I0.457 J0.686 K0.000 F200.000
G3 X45.762 Y-25.126 Z-0.200 I-0.821 J0.082 K0.000 F200.000
G3 X45.302 Y-25.945 Z-0.200 I0.476 J-0.807 K0.000 F200.000
G0 Z0.500
G0 X46.901 Y-26.469 Z0.500
G0 X46.901 Y-26.469 Z0.500
G1 X46.901 Y-26.469 Z-0.200 F100.000
G2 X46.981 Y-26.524 Z-0.200 I0.002 J-0.083 K0.000 F200.000
G1 X46.981 Y-26.287 Z-0.200 F200.000
G2 X46.901 Y-26.469 Z-0.200 I-0.366 J0.053 K0.000 F200.000
G0 Z0.500
G0 X46.981 Y-25.575 Z0.500
G0 X46.981 Y-25.575 Z0.500
G1 X46.981 Y-25.575 Z-0.200 F100.000
G1 X46.981 Y-25.341 Z-0.200 F200.000
G3 X46.955 Y-25.482 Z-0.200 I-0.007 J-0.071 K0.000 F200.000
G1 X46.981 Y-25.575 Z-0.200 F200.000
G0 Z0.500
G0 Z0.500
G0 X46.981 Y-25.575
G0 X47.803
G0 X47.803
G1 X47.803 Y-25.575 Z-0.200 F100.000
G1 X47.803 Y-26.870 Z-0.200 F200.000
G1 X47.915 Y-26.870 Z-0.200 F200.000
G2 X47.941 Y-25.803 Z-0.200 I5.018 J0.410 K0.000 F200.000
G2 X48.096 Y-25.452 Z-0.200 I0.756 J-0.122 K0.000 F200.000
G2 X47.915 Y-25.401 Z-0.200 I-0.084 J0.049 K0.000 F200.000
G1 X47.915 Y-24.989 Z-0.200 F200.000
G1 X47.803 Y-24.989 Z-0.200 F200.000
G1 X47.803 Y-25.575 Z-0.200 F200.000
G0 Z0.500
G0 X47.883 Z0.500
G0 X47.883 Z0.500
G1 X47.883 Y-25.575 Z-0.200 F100.000
G1 X47.883 Y-25.727 Z-0.200 F200.000
G1 X47.941 Y-25.556 Z-0.200 F200.000
G2 X47.883 Y-25.508 Z-0.200 I-0.003 J0.056 K0.000 F200.000
G1 X47.883 Y-25.575 Z-0.200 F200.000
G0 Z0.500
G0 X48.115 Y-25.422 Z0.500
G0 X48.115 Y-25.422 Z0.500
G1 X48.115 Y-25.422 Z-0.200 F100.000
G2 X48.702 Y-25.074 Z-0.200 I0.617 J-0.373 K0.000 F200.000
G1 X48.702 Y-24.963 Z-0.200 F200.000
G3 X48.115 Y-25.422 Z-0.200 I0.057 J-0.678 K0.000 F200.000
G0 Z0.500
G0 Z0.500
G0 X48.115 Y-25.422
G0 X49.239
G0 X49.239
G1 X49.239 Y-25.422 Z-0.200 F100.000
G1 X49.239 Y-26.870 Z-0.200 F200.000
G1 X49.351 Y-26.870 Z-0.200 F200.000
G1 X49.351 Y-24.989 Z-0.200 F200.000
G1 X49.239 Y-24.989 Z-0.200 F200.000
G1 X49.239 Y-25.422 Z-0.200 F200.000
G0 Z0.500
G0 X49.289 Z0.500
G0 X49.289 Z0.500
G1 X49.289 Y-25.422 Z-0.200 F100.000
G1 X49.289 Y-26.820 Z-0.200 F200.000
G1 X49.301 Y-26.820 Z-0.200 F200.000
G1 X49.301 Y-25.039 Z-0.200 F200.000
G1 X49.289 Y-25.039 Z-0.200 F200.000
G1 X49.289 Y-25.422 Z-0.200 F200.000
G0 Z0.500
G0 Z0.500
G0 X49.289 Y-25.422
G0 Y-24.439
G0 Y-24.439
G1 X49.289 Y-24.439 Z-0.200 F100.000
G1 X49.364 Y-24.439 Z-0.200 F200.000
G1 X49.364 Y-24.231 Z-0.200 F200.000
G1 X49.226 Y-24.231 Z-0.200 F200.000
G1 X49.226 Y-24.439 Z-0.200 F200.000
G1 X49.289 Y-24.439 Z-0.200 F200.000
G0 Z0.500
G0 Y-24.389 Z0.500
G0 Y-24.389 Z0.500
G1 X49.289 Y-24.389 Z-0.200 F100.000
G1 X49.314 Y-24.389 Z-0.200 F200.000
G1 X49.314 Y-24.281 Z-0.200 F200.000
G1 X49.276 Y-24.281 Z-0.200 F200.000
G1 X49.276 Y-24.389 Z-0.200 F200.000
G1 X49.289 Y-24.389 Z-0.200 F200.000
G0 Z0.500
G0 Z0.500
G0 X49.289 Y-24.389
G0 X49.889 Y-24.989
G0 X49.889 Y-24.989
G1 X49.889 Y-24.989 Z-0.200 F100.000
G1 X50.626 Y-26.870 Z-0.200 F200.000
G1 X50.856 Y-26.870 Z-0.200 F200.000
G1 X51.590 Y-24.989 Z-0.200 F200.000
G1 X51.464 Y-24.989 Z-0.200 F200.000
G1 X50.835 Y-26.672 Z-0.200 F200.000
G2 X50.648 Y-26.672 Z-0.200 I-0.094 J0.035 K0.000 F200.000
G1 X50.015 Y-24.989 Z-0.200 F200.000
G1 X49.889 Y-24.989 Z-0.200 F200.000
G0 Z0.500
G0 X49.962 Y-25.039 Z0.500
G0 X49.962 Y-25.039 Z0.500
G1 X49.962 Y-25.039 Z-0.200 F100.000
G1 X50.407 Y-26.175 Z-0.200 F200.000
G1 X49.980 Y-25.039 Z-0.200 F200.000
G1 X49.962 Y-25.039 Z-0.200 F200.000
G0 Z0.500
G0 X51.311 Y-25.543 Z0.500
G0 X51.311 Y-25.543 Z0.500
G1 X51.311 Y-25.543 Z-0.200 F100.000
G1 X51.089 Y-26.137 Z-0.200 F200.000
G1 X51.517 Y-25.039 Z-0.200 F200.000
G1 X51.499 Y-25.039 Z-0.200 F200.000
G1 X51.311 Y-25.543 Z-0.200 F200.000
G0 Z0.500
G0 X50.865 Y-26.709 Z0.500
G0 X50.865 Y-26.709 Z0.500
G1 X50.865 Y-26.709 Z-0.200 F100.000
G2 X50.613 Y-26.700 Z-0.200 I-0.124 J0.059 K0.000 F200.000
G1 X50.660 Y-26.820 Z-0.200 F200.000
G1 X50.822 Y-26.820 Z-0.200 F200.000
G1 X50.865 Y-26.709 Z-0.200 F200.000
G0 Z0.500
G0 Z0.500
G0 X50.865 Y-26.709
G0 X52.011 Y-26.285
G0 X52.011 Y-26.285
G1 X52.011 Y-26.285 Z-0.200 F100.000
G3 X52.430 Y-26.789 Z-0.200 I0.924 J0.343 K0.000 F200.000
G3 X53.456 Y-26.746 Z-0.200 I0.475 J0.932 K0.000 F200.000
G3 X53.687 Y-26.471 Z-0.200 I-0.358 J0.535 K0.000 F200.000
G1 X53.574 Y-26.471 Z-0.200 F200.000
G2 X52.093 Y-26.002 Z-0.200 I-0.670 J0.458 K0.000 F200.000
G1 X52.178 Y-25.954 Z-0.200 F200.000
G1 X53.822 Y-25.954 Z-0.200 F200.000
G3 X51.978 Y-25.706 Z-0.200 I-0.929 J0.075 K0.000 F200.000
G3 X52.011 Y-26.285 Z-0.200 I0.957 J-0.236 K0.000 F200.000
G0 Z0.500
G0 X52.041 Y-25.951 Z0.500
G0 X52.041 Y-25.951 Z0.500
G1 X52.041 Y-25.951 Z-0.200 F100.000
G1 X52.077 Y-25.909 Z-0.200 F200.000
G2 X52.044 Y-25.864 Z-0.200 I0.014 J0.045 K0.000 F200.000
G3 X52.041 Y-25.951 Z-0.200 I0.198 J-0.050 K0.000 F200.000
G0 Z0.500
G0 X52.122 Y-25.843 Z0.500
G0 X52.122 Y-25.843 Z0.500
G1 X52.122 Y-25.843 Z-0.200 F100.000
G3 X52.182 Y-25.863 Z-0.200 I0.060 J0.080 K0.000 F200.000
G1 X53.597 Y-25.863 Z-0.200 F200.000
G1 X53.683 Y-25.814 Z-0.200 F200.000
G3 X52.087 Y-25.732 Z-0.200 I-0.801 J-0.015 K0.000 F200.000
G3 X52.122 Y-25.843 Z-0.200 I0.095 J-0.031 K0.000 F200.000
G0 Z0.500
G0 X53.727 Y-25.874 Z0.500
G0 X53.727 Y-25.874 Z0.500
G1 X53.727 Y-25.874 Z-0.200 F100.000
G1 X53.734 Y-25.874 Z-0.200 F200.000
G1 X53.733 Y-25.867 Z-0.200 F200.000
G1 X53.727 Y-25.874 Z-0.200 F200.000
G0 Z0.500
G0 Z0.500
G0 X53.727 Y-25.874
G0 X45.556 Y-53.360
G0 X45.556 Y-53.360
G1 X45.556 Y-53.360 Z-0.200 F100.000
G3 X41.968 Y-55.160 Z-0.200 I116.494 J-236.783 K0.000 F200.000
G3 X44.125 Y-60.057 Z-0.200 I133.924 J56.070 K0.000 F200.000
G1 X44.202 Y-60.024 Z-0.200 F200.000
G3 X47.823 Y-58.347 Z-0.200 I-48.014 J108.423 K0.000 F200.000
G3 X46.712 Y-55.825 Z-0.200 I-24.462 J-9.275 K0.000 F200.000
G1 X45.556 Y-53.360 Z-0.200 F200.000
G0 Z0.500
G0 X45.519 Y-53.468 Z0.500
G0 X45.519 Y-53.468 Z0.500
G1 X45.519 Y-53.468 Z-0.200 F100.000
G3 X42.073 Y-55.208 Z-0.200 I28.980 J-61.686 K0.000 F200.000
G3 X44.170 Y-59.950 Z-0.200 I113.997 J47.577 K0.000 F200.000
G1 X44.331 Y-59.879 Z-0.200 F200.000
G3 X47.723 Y-58.302 Z-0.200 I-33.842 J77.227 K0.000 F200.000
G3 X46.639 Y-55.859 Z-0.200 I-32.892 J-13.124 K0.000 F200.000
G1 X45.519 Y-53.468 Z-0.200 F200.000
G0 Z0.500
G0 X45.481 Y-53.576 Z0.500
G0 X45.481 Y-53.576 Z0.500
G1 X45.481 Y-53.576 Z-0.200 F100.000
G1 X44.770 Y-53.931 Z-0.200 F200.000
G2 X45.413 Y-54.162 Z-0.200 I0.250 J-0.313 K0.000 F200.000
G2 X47.324 Y-57.949 Z-0.200 I-66.719 J-36.043 K0.000 F200.000
G2 X47.214 Y-58.293 Z-0.200 I-0.233 J-0.115 K0.000 F200.000
G2 X45.209 Y-59.252 Z-0.200 I-5.232 J8.361 K0.000 F200.000
G2 X44.013 Y-58.764 Z-0.200 I-0.279 J1.025 K0.000 F200.000
G2 X43.698 Y-57.525 Z-0.200 I1.178 J0.959 K0.000 F200.000
G1 X43.732 Y-57.437 Z-0.200 F200.000
G2 X42.910 Y-56.566 Z-0.200 I0.713 J1.495 K0.000 F200.000
G2 X42.637 Y-55.691 Z-0.200 I1.593 J0.978 K0.000 F200.000
G2 X43.320 Y-54.691 Z-0.200 I1.083 J-0.007 K0.000 F200.000
G2 X43.783 Y-54.425 Z-0.200 I5.347 J-8.749 K0.000 F200.000
G3 X42.171 Y-55.235 Z-0.200 I105.115 J-211.097 K0.000 F200.000
G3 X44.202 Y-59.849 Z-0.200 I162.102 J68.594 K0.000 F200.000
G3 X47.623 Y-58.267 Z-0.200 I-66.910 J149.186 K0.000 F200.000
G3 X46.567 Y-55.893 Z-0.200 I-38.162 J-15.566 K0.000 F200.000
G1 X45.481 Y-53.576 Z-0.200 F200.000
G0 Z0.500
G0 X45.443 Y-53.685 Z0.500
G0 X45.443 Y-53.685 Z0.500
G1 X45.443 Y-53.685 Z-0.200 F100.000
G1 X45.201 Y-53.806 Z-0.200 F200.000
G2 X45.578 Y-54.296 Z-0.200 I-0.644 J-0.885 K0.000 F200.000
G2 X47.362 Y-57.845 Z-0.200 I-94.774 J-49.867 K0.000 F200.000
G3 X45.443 Y-53.685 Z-0.200 I-96.140 J-41.813 K0.000 F200.000
G0 Z0.500
G0 X45.406 Y-53.793 Z0.500
G0 X45.406 Y-53.793 Z0.500
G1 X45.406 Y-53.793 Z-0.200 F100.000
G1 X45.365 Y-53.813 Z-0.200 F200.000
G2 X45.495 Y-53.984 Z-0.200 I-0.404 J-0.445 K0.000 F200.000
G1 X45.406 Y-53.793 Z-0.200 F200.000
G0 Z0.500
G0 X45.221 Y-54.024 Z0.500
G0 X45.221 Y-54.024 Z0.500
G1 X45.221 Y-54.024 Z-0.200 F100.000
G3 X45.047 Y-53.934 Z-0.200 I-0.315 J-0.395 K0.000 F200.000
G3 X42.970 Y-55.030 Z-0.200 I2.623 J-7.487 K0.000 F200.000
G3 X42.817 Y-56.165 Z-0.200 I0.726 J-0.675 K0.000 F200.000
G3 X43.828 Y-57.402 Z-0.200 I1.935 J0.549 K0.000 F200.000
G3 X44.674 Y-59.176 Z-0.200 I1.404 J-0.419 K0.000 F200.000
G3 X45.195 Y-59.174 Z-0.200 I0.257 J0.877 K0.000 F200.000
G3 X47.176 Y-58.223 Z-0.200 I-3.267 J9.346 K0.000 F200.000
G3 X47.252 Y-57.984 Z-0.200 I-0.085 J0.159 K0.000 F200.000
G3 X45.396 Y-54.296 Z-0.200 I-92.998 J-44.500 K0.000 F200.000
G3 X45.221 Y-54.024 Z-0.200 I-0.490 J-0.123 K0.000 F200.000
G0 Z0.500
G0 X45.162 Y-54.085 Z0.500
G0 X45.162 Y-54.085 Z0.500
G1 X45.162 Y-54.085 Z-0.200 F100.000
G3 X45.078 Y-54.015 Z-0.200 I-0.560 J-0.580 K0.000 F200.000
G3 X43.021 Y-55.092 Z-0.200 I2.401 J-7.085 K0.000 F200.000
G3 X42.894 Y-56.141 Z-0.200 I0.666 J-0.613 K0.000 F200.000
G3 X43.690 Y-57.226 Z-0.200 I1.829 J0.508 K0.000 F200.000
G2 X43.920 Y-57.380 Z-0.200 I-0.237 J-0.603 K0.000 F200.000
G3 X44.704 Y-59.102 Z-0.200 I1.309 J-0.444 K0.000 F200.000
G3 X45.181 Y-59.095 Z-0.200 I0.226 J0.819 K0.000 F200.000
G3 X47.138 Y-58.152 Z-0.200 I-3.312 J9.381 K0.000 F200.000
G3 X47.181 Y-58.020 Z-0.200 I-0.047 J0.088 K0.000 F200.000
G3 X45.366 Y-54.409 Z-0.200 I-97.998 J-46.987 K0.000 F200.000
G3 X45.162 Y-54.085 Z-0.200 I-0.764 J-0.256 K0.000 F200.000
G0 Z0.500
G0 X42.766 Y-55.024 Z0.500
G0 X42.766 Y-55.024 Z0.500
G1 X42.766 Y-55.024 Z-0.200 F100.000
G3 X42.273 Y-55.273 Z-0.200 I41.921 J-83.610 K0.000 F200.000
G3 X42.645 Y-56.146 Z-0.200 I71.706 J30.023 K0.000 F200.000
G2 X42.766 Y-55.024 Z-0.200 I1.044 J0.454 K0.000 F200.000
G0 Z0.500
G0 X42.572 Y-55.212 Z0.500
G0 X42.572 Y-55.212 Z0.500
G1 X42.572 Y-55.212 Z-0.200 F100.000
G1 X42.376 Y-55.311 Z-0.200 F200.000
G3 X42.488 Y-55.577 Z-0.200 I29.630 J12.346 K0.000 F200.000
G2 X42.572 Y-55.212 Z-0.200 I0.642 J0.045 K0.000 F200.000
G0 Z0.500
G0 X42.854 Y-56.627 Z0.500
G0 X42.854 Y-56.627 Z0.500
G1 X42.854 Y-56.627 Z-0.200 F100.000
G3 X44.241 Y-59.744 Z-0.200 I135.817 J58.586 K0.000 F200.000
G3 X45.111 Y-59.349 Z-0.200 I-26.325 J59.047 K0.000 F200.000
G2 X44.182 Y-59.069 Z-0.200 I-0.200 J1.019 K0.000 F200.000
G2 X43.603 Y-57.587 Z-0.200 I1.170 J1.312 K0.000 F200.000
G2 X43.633 Y-57.471 Z-0.200 I0.435 J-0.052 K0.000 F200.000
G2 X42.854 Y-56.627 Z-0.200 I0.752 J1.477 K0.000 F200.000
G0 Z0.500
G0 X43.231 Y-57.292 Z0.500
G0 X43.231 Y-57.292 Z0.500
G1 X43.231 Y-57.292 Z-0.200 F100.000
G3 X43.518 Y-57.941 Z-0.200 I102.336 J44.773 K0.000 F200.000
G2 X43.540 Y-57.508 Z-0.200 I1.019 J0.166 K0.000 F200.000
G2 X43.231 Y-57.292 Z-0.200 I0.622 J1.213 K0.000 F200.000
G0 Z0.500
G0 X43.422 Y-57.527 Z0.500
G0 X43.422 Y-57.527 Z0.500
G1 X43.422 Y-57.527 Z-0.200 F100.000
G1 X43.443 Y-57.574 Z-0.200 F200.000
G3 X43.422 Y-57.527 Z-0.200 I-0.020 J0.019 K0.000 F200.000
G0 Z0.500
G0 X43.974 Y-58.965 Z0.500
G0 X43.974 Y-58.965 Z0.500
G1 X43.974 Y-58.965 Z-0.200 F100.000
G3 X44.280 Y-59.639 Z-0.200 I58.861 J26.325 K0.000 F200.000
G3 X44.732 Y-59.434 Z-0.200 I-14.532 J32.679 K0.000 F200.000
G2 X43.974 Y-58.965 Z-0.200 I0.239 J1.231 K0.000 F200.000
G0 Z0.500
G0 X44.210 Y-59.294 Z0.500
G0 X44.210 Y-59.294 Z0.500
G1 X44.210 Y-59.294 Z-0.200 F100.000
G3 X44.320 Y-59.533 Z-0.200 I36.960 J16.731 K0.000 F200.000
G1 X44.502 Y-59.451 Z-0.200 F200.000
G2 X44.210 Y-59.294 Z-0.200 I0.309 J0.918 K0.000 F200.000
G0 Z0.500
G0 X44.326 Y-59.427 Z0.500
G0 X44.326 Y-59.427 Z0.500
G1 X44.326 Y-59.427 Z-0.200 F100.000
G3 X44.376 Y-59.453 Z-0.200 I0.025 J-0.013 K0.000 F200.000
G2 X44.326 Y-59.427 Z-0.200 I0.092 J0.231 K0.000 F200.000
G0 Z0.500
G0 X47.268 Y-58.348 Z0.500
G0 X47.268 Y-58.348 Z0.500
G1 X47.268 Y-58.348 Z-0.200 F100.000
G3 X47.522 Y-58.227 Z-0.200 I-8.354 J17.869 K0.000 F200.000
G3 X47.401 Y-57.936 Z-0.200 I-13.564 J-5.455 K0.000 F200.000
G2 X47.268 Y-58.348 Z-0.200 I-0.287 J-0.135 K0.000 F200.000
G0 Z0.500
G0 Z0.500
G0 X47.268 Y-58.348
G0 X44.925 Y-56.168
G0 X44.925 Y-56.168
G1 X44.925 Y-56.168 Z-0.200 F100.000
G2 X44.399 Y-55.112 Z-0.200 I201.794 J101.313 K0.000 F200.000
G3 X43.906 Y-55.407 Z-0.200 I0.088 J-0.706 K0.000 F200.000
G3 X44.344 Y-56.411 Z-0.200 I1.605 J0.102 K0.000 F200.000
G3 X44.925 Y-56.168 Z-0.200 I-0.160 J1.199 K0.000 F200.000
G0 Z0.500
G0 X44.818 Y-56.133 Z0.500
G0 X44.818 Y-56.133 Z0.500
G1 X44.818 Y-56.133 Z-0.200 F100.000
G3 X44.353 Y-55.203 Z-0.200 I-85.102 J-41.971 K0.000 F200.000
G3 X43.986 Y-55.423 Z-0.200 I0.143 J-0.656 K0.000 F200.000
G3 X44.394 Y-56.331 Z-0.200 I1.264 J0.024 K0.000 F200.000
G1 X44.464 Y-56.307 Z-0.200 F200.000
G3 X44.818 Y-56.133 Z-0.200 I-3.379 J7.306 K0.000 F200.000
G0 Z0.500
G0 X44.711 Y-56.097 Z0.500
G0 X44.711 Y-56.097 Z0.500
G1 X44.711 Y-56.097 Z-0.200 F100.000
G3 X44.304 Y-55.304 Z-0.200 I-9.318 J-4.273 K0.000 F200.000
G3 X44.064 Y-55.482 Z-0.200 I0.000 J-0.252 K0.000 F200.000
G3 X44.396 Y-56.246 Z-0.200 I1.724 J0.296 K0.000 F200.000
G3 X44.711 Y-56.097 Z-0.200 I-1.550 J3.706 K0.000 F200.000
G0 Z0.500
G0 X44.604 Y-56.062 Z0.500
G0 X44.604 Y-56.062 Z0.500
G1 X44.604 Y-56.062 Z-0.200 F100.000
G3 X44.260 Y-55.410 Z-0.200 I-2.680 J-0.995 K0.000 F200.000
G3 X44.161 Y-55.579 Z-0.200 I-0.018 J-0.103 K0.000 F200.000
G3 X44.426 Y-56.148 Z-0.200 I1.757 J0.472 K0.000 F200.000
G3 X44.604 Y-56.062 Z-0.200 I-1.653 J3.664 K0.000 F200.000
G0 Z0.500
G0 X44.495 Y-56.026 Z0.500
G0 X44.495 Y-56.026 Z0.500
G1 X44.495 Y-56.026 Z-0.200 F100.000
G2 X44.239 Y-55.512 Z-0.200 I33.818 J17.188 K0.000 F200.000
G3 X44.455 Y-56.045 Z-0.200 I1.143 J0.151 K0.000 F200.000
G1 X44.495 Y-56.026 Z-0.200 F200.000
G0 Z0.500
G0 Z0.500
G0 X44.495 Y-56.026
G0 X45.287 Y-56.909
G0 X45.287 Y-56.909
G1 X45.287 Y-56.909 Z-0.200 F100.000
G3 X45.094 Y-57.214 Z-0.200 I0.442 J-0.493 K0.000 F200.000
G3 X45.544 Y-58.134 Z-0.200 I1.920 J0.369 K0.000 F200.000
G3 X46.015 Y-57.925 Z-0.200 I-0.429 J1.606 K0.000 F200.000
G3 X45.419 Y-56.818 Z-0.200 I-5.586 J-2.289 K0.000 F200.000
G3 X45.287 Y-56.909 Z-0.200 I0.310 J-0.585 K0.000 F200.000
G0 Z0.500
G0 X45.332 Y-56.971 Z0.500
G0 X45.332 Y-56.971 Z0.500
G1 X45.332 Y-56.971 Z-0.200 F100.000
G3 X45.193 Y-57.308 Z-0.200 I0.203 J-0.281 K0.000 F200.000
G3 X45.566 Y-58.047 Z-0.200 I2.044 J0.569 K0.000 F200.000
G3 X45.914 Y-57.890 Z-0.200 I-0.311 J1.157 K0.000 F200.000
G3 X45.414 Y-56.927 Z-0.200 I-11.758 J-5.483 K0.000 F200.000
G3 X45.332 Y-56.971 Z-0.200 I0.120 J-0.325 K0.000 F200.000
G0 Z0.500
G0 X45.377 Y-57.059 Z0.500
G0 X45.377 Y-57.059 Z0.500
G1 X45.377 Y-57.059 Z-0.200 F100.000
G3 X45.308 Y-57.404 Z-0.200 I0.102 J-0.199 K0.000 F200.000
G3 X45.595 Y-57.953 Z-0.200 I1.889 J0.635 K0.000 F200.000
G3 X45.811 Y-57.859 Z-0.200 I-0.633 J1.741 K0.000 F200.000
G3 X45.393 Y-57.051 Z-0.200 I-12.577 J-5.994 K0.000 F200.000
G3 X45.377 Y-57.059 Z-0.200 I0.086 J-0.207 K0.000 F200.000
G0 Z0.500
G0 X45.377 Y-57.187 Z0.500
G0 X45.377 Y-57.187 Z0.500
G1 X45.377 Y-57.187 Z-0.200 F100.000
G3 X45.415 Y-57.458 Z-0.200 I0.191 J-0.112 K0.000 F200.000
G3 X45.624 Y-57.856 Z-0.200 I1.474 J0.520 K0.000 F200.000
G3 X45.705 Y-57.821 Z-0.200 I-0.319 J0.849 K0.000 F200.000
G3 X45.377 Y-57.187 Z-0.200 I-12.744 J-6.181 K0.000 F200.000
G0 Z0.500
G0 X45.485 Y-57.495 Z0.500
G0 X45.485 Y-57.495 Z0.500
G1 X45.485 Y-57.495 Z-0.200 F100.000
G3 X45.625 Y-57.772 Z-0.200 I1.516 J0.595 K0.000 F200.000
G1 X45.485 Y-57.495 Z-0.200 F200.000
G0 Z0.500
G0 Z0.500
G0 X45.485 Y-57.495
G0 X42.459 Y-57.744
G0 X42.459 Y-57.744
G1 X42.459 Y-57.744 Z-0.200 F100.000
G3 X42.423 Y-57.660 Z-0.200 I-0.142 J-0.012 K0.000 F200.000
G3 X39.159 Y-57.409 Z-0.200 I-3.906 J-29.513 K0.000 F200.000
G3 X38.320 Y-62.509 Z-0.200 I153.611 J-27.872 K0.000 F200.000
G3 X41.970 Y-62.911 Z-0.200 I16.365 J131.766 K0.000 F200.000
G3 X42.162 Y-61.459 Z-0.200 I-8.395 J1.845 K0.000 F200.000
G3 X42.446 Y-57.817 Z-0.200 I-43.738 J5.252 K0.000 F200.000
G3 X42.459 Y-57.744 Z-0.200 I-0.129 J0.061 K0.000 F200.000
G0 Z0.500
G0 X42.360 Y-57.743 Z0.500
G0 X42.360 Y-57.743 Z0.500
G1 X42.360 Y-57.743 Z-0.200 F100.000
G3 X42.360 Y-57.729 Z-0.200 I-22.605 J0.261 K0.000 F200.000
G3 X39.227 Y-57.475 Z-0.200 I-4.663 J-38.105 K0.000 F200.000
G3 X38.410 Y-62.440 Z-0.200 I164.313 J-29.598 K0.000 F200.000
G3 X41.915 Y-62.828 Z-0.200 I21.714 J180.284 K0.000 F200.000
G3 X42.185 Y-60.308 Z-0.200 I-21.961 J3.623 K0.000 F200.000
G3 X42.360 Y-57.743 Z-0.200 I-22.430 J2.826 K0.000 F200.000
G0 Z0.500
G0 X42.285 Y-57.798 Z0.500
G0 X42.285 Y-57.798 Z0.500
G1 X42.285 Y-57.798 Z-0.200 F100.000
G3 X39.293 Y-57.555 Z-0.200 I-4.879 J-41.649 K0.000 F200.000
G3 X38.500 Y-62.371 Z-0.200 I173.210 J-30.984 K0.000 F200.000
G3 X41.854 Y-62.742 Z-0.200 I23.306 J195.460 K0.000 F200.000
G3 X42.285 Y-57.798 Z-0.200 I-71.141 J8.684 K0.000 F200.000
G0 Z0.500
G0 X42.207 Y-57.868 Z0.500
G0 X42.207 Y-57.868 Z0.500
G1 X42.207 Y-57.868 Z-0.200 F100.000
G3 X41.230 Y-57.768 Z-0.200 I-2.999 J-24.439 K0.000 F200.000
G2 X41.327 Y-58.057 Z-0.200 I-0.223 J-0.235 K0.000 F200.000
G2 X40.742 Y-61.871 Z-0.200 I-115.205 J15.707 K0.000 F200.000
G2 X40.208 Y-62.247 Z-0.200 I-0.432 J0.046 K0.000 F200.000
G2 X39.501 Y-61.956 Z-0.200 I-0.105 J0.749 K0.000 F200.000
G2 X39.524 Y-61.076 Z-0.200 I1.552 J0.399 K0.000 F200.000
G3 X39.987 Y-57.909 Z-0.200 I-201.688 J31.065 K0.000 F200.000
G2 X40.162 Y-57.683 Z-0.200 I0.315 J-0.063 K0.000 F200.000
G3 X39.359 Y-57.637 Z-0.200 I-1.674 J-22.368 K0.000 F200.000
G3 X38.591 Y-62.302 Z-0.200 I181.164 J-32.228 K0.000 F200.000
G3 X41.789 Y-62.655 Z-0.200 I24.384 J206.047 K0.000 F200.000
G3 X42.207 Y-57.868 Z-0.200 I-83.700 J9.708 K0.000 F200.000
G0 Z0.500
G0 X42.126 Y-57.938 Z0.500
G0 X42.126 Y-57.938 Z0.500
G1 X42.126 Y-57.938 Z-0.200 F100.000
G3 X41.373 Y-57.860 Z-0.200 I-3.008 J-25.483 K0.000 F200.000
G1 X41.406 Y-58.069 Z-0.200 F200.000
G2 X40.820 Y-61.890 Z-0.200 I-113.906 J15.514 K0.000 F200.000
G2 X40.200 Y-62.327 Z-0.200 I-0.523 J0.085 K0.000 F200.000
G2 X39.429 Y-61.992 Z-0.200 I-0.100 J0.824 K0.000 F200.000
G2 X39.405 Y-61.334 Z-0.200 I1.020 J0.367 K0.000 F200.000
G3 X39.909 Y-57.891 Z-0.200 I-229.949 J35.400 K0.000 F200.000
G1 X39.979 Y-57.751 Z-0.200 F200.000
G3 X39.425 Y-57.720 Z-0.200 I-1.469 J-21.177 K0.000 F200.000
G3 X38.682 Y-62.232 Z-0.200 I188.930 J-33.425 K0.000 F200.000
G3 X41.722 Y-62.568 Z-0.200 I25.169 J214.034 K0.000 F200.000
G3 X42.126 Y-57.938 Z-0.200 I-94.991 J10.629 K0.000 F200.000
G0 Z0.500
G0 X42.044 Y-58.009 Z0.500
G0 X42.044 Y-58.009 Z0.500
G1 X42.044 Y-58.009 Z-0.200 F100.000
G3 X41.486 Y-57.951 Z-0.200 I-2.469 J-21.249 K0.000 F200.000
G1 X41.485 Y-58.081 Z-0.200 F200.000
G2 X40.897 Y-61.910 Z-0.200 I-112.665 J15.329 K0.000 F200.000
G2 X40.544 Y-62.363 Z-0.200 I-0.577 J0.086 K0.000 F200.000
G3 X41.653 Y-62.481 Z-0.200 I18.437 J167.706 K0.000 F200.000
G3 X42.044 Y-58.009 Z-0.200 I-104.663 J11.407 K0.000 F200.000
G0 Z0.500
G0 X41.960 Y-58.080 Z0.500
G0 X41.960 Y-58.080 Z0.500
G1 X41.960 Y-58.080 Z-0.200 F100.000
G3 X41.563 Y-58.039 Z-0.200 I-2.136 J-19.005 K0.000 F200.000
G1 X41.564 Y-58.094 Z-0.200 F200.000
G2 X40.975 Y-61.929 Z-0.200 I-111.477 J15.153 K0.000 F200.000
G2 X40.781 Y-62.308 Z-0.200 I-0.717 J0.127 K0.000 F200.000
G3 X41.583 Y-62.393 Z-0.200 I17.807 J163.835 K0.000 F200.000
G3 X41.960 Y-58.080 Z-0.200 I-113.138 J12.050 K0.000 F200.000
G0 Z0.500
G0 X41.876 Y-58.151 Z0.500
G0 X41.876 Y-58.151 Z0.500
G1 X41.876 Y-58.151 Z-0.200 F100.000
G3 X41.640 Y-58.127 Z-0.200 I-1.286 J-11.321 K0.000 F200.000
G2 X41.053 Y-61.948 Z-0.200 I-109.429 J14.853 K0.000 F200.000
G2 X40.927 Y-62.243 Z-0.200 I-0.627 J0.091 K0.000 F200.000
G3 X41.514 Y-62.305 Z-0.200 I18.408 J170.667 K0.000 F200.000
G3 X41.876 Y-58.151 Z-0.200 I-124.811 J12.976 K0.000 F200.000
G0 Z0.500
G0 X41.793 Y-58.223 Z0.500
G0 X41.793 Y-58.223 Z0.500
G1 X41.793 Y-58.223 Z-0.200 F100.000
G1 X41.707 Y-58.214 Z-0.200 F200.000
G2 X41.130 Y-61.967 Z-0.200 I-105.139 J14.233 K0.000 F200.000
G2 X41.062 Y-62.177 Z-0.200 I-1.134 J0.251 K0.000 F200.000
G3 X41.443 Y-62.218 Z-0.200 I14.014 J130.365 K0.000 F200.000
G3 X41.793 Y-58.223 Z-0.200 I-138.604 J14.127 K0.000 F200.000
G0 Z0.500
G0 X41.234 Y-58.146 Z0.500
G0 X41.234 Y-58.146 Z0.500
G1 X41.234 Y-58.146 Z-0.200 F100.000
G3 X41.248 Y-58.044 Z-0.200 I-116.552 J16.010 K0.000 F200.000
G3 X41.175 Y-57.821 Z-0.200 I-0.257 J0.040 K0.000 F200.000
G3 X40.692 Y-57.664 Z-0.200 I-0.509 J-0.745 K0.000 F200.000
G3 X40.065 Y-57.927 Z-0.200 I-0.168 J-0.478 K0.000 F200.000
G2 X39.541 Y-61.510 Z-0.200 I-190.559 J26.021 K0.000 F200.000
G3 X39.992 Y-62.145 Z-0.200 I0.430 J-0.172 K0.000 F200.000
G1 X40.215 Y-62.168 Z-0.200 F200.000
G3 X40.664 Y-61.852 Z-0.200 I0.093 J0.346 K0.000 F200.000
G3 X41.234 Y-58.146 Z-0.200 I-115.983 J19.717 K0.000 F200.000
G0 Z0.500
G0 X41.154 Y-58.135 Z0.500
G0 X41.154 Y-58.135 Z0.500
G1 X41.154 Y-58.135 Z-0.200 F100.000
G3 X41.169 Y-58.032 Z-0.200 I-117.978 J16.224 K0.000 F200.000
G1 X41.131 Y-57.891 Z-0.200 F200.000
G3 X40.674 Y-57.742 Z-0.200 I-0.441 J-0.575 K0.000 F200.000
G3 X40.143 Y-57.945 Z-0.200 I-0.153 J-0.397 K0.000 F200.000
G2 X39.630 Y-61.454 Z-0.200 I-177.425 J24.126 K0.000 F200.000
G3 X39.701 Y-61.953 Z-0.200 I0.526 J-0.180 K0.000 F200.000
G3 X40.223 Y-62.088 Z-0.200 I0.459 J0.696 K0.000 F200.000
G3 X40.587 Y-61.833 Z-0.200 I0.074 J0.281 K0.000 F200.000
G3 X41.154 Y-58.135 Z-0.200 I-117.410 J19.922 K0.000 F200.000
G0 Z0.500
G0 X41.075 Y-58.124 Z0.500
G0 X41.075 Y-58.124 Z0.500
G1 X41.075 Y-58.124 Z-0.200 F100.000
G3 X41.090 Y-58.020 Z-0.200 I-119.473 J16.447 K0.000 F200.000
G3 X41.017 Y-57.908 Z-0.200 I-0.099 J0.015 K0.000 F200.000
G3 X40.657 Y-57.820 Z-0.200 I-1.151 J-3.942 K0.000 F200.000
G3 X40.221 Y-57.963 Z-0.200 I-0.138 J-0.316 K0.000 F200.000
G2 X39.722 Y-61.381 Z-0.200 I-182.301 J24.865 K0.000 F200.000
G3 X39.748 Y-61.888 Z-0.200 I0.589 J-0.224 K0.000 F200.000
G3 X40.230 Y-62.008 Z-0.200 I0.416 J0.640 K0.000 F200.000
G3 X40.509 Y-61.814 Z-0.200 I0.067 J0.201 K0.000 F200.000
G3 X41.075 Y-58.124 Z-0.200 I-118.906 J20.137 K0.000 F200.000
G0 Z0.500
G0 X41.643 Y-59.144 Z0.500
G0 X41.643 Y-59.144 Z0.500
G1 X41.643 Y-59.144 Z-0.200 F100.000
G2 X41.188 Y-62.064 Z-0.200 I-37.718 J4.382 K0.000 F200.000
G2 X41.174 Y-62.109 Z-0.200 I-0.294 J0.068 K0.000 F200.000
G1 X41.373 Y-62.130 Z-0.200 F200.000
G3 X41.643 Y-59.144 Z-0.200 I-158.391 J15.846 K0.000 F200.000
G0 Z0.500
G0 X39.692 Y-58.866 Z0.500
G0 X39.692 Y-58.866 Z0.500
G1 X39.692 Y-58.866 Z-0.200 F100.000
G3 X39.831 Y-57.873 Z-0.200 I-214.993 J30.682 K0.000 F200.000
G1 X39.856 Y-57.823 Z-0.200 F200.000
G3 X39.491 Y-57.803 Z-0.200 I-1.136 J-17.233 K0.000 F200.000
G3 X38.773 Y-62.163 Z-0.200 I193.059 J-34.023 K0.000 F200.000
G3 X39.579 Y-62.256 Z-0.200 I12.345 J103.453 K0.000 F200.000
G2 X39.314 Y-61.408 Z-0.200 I0.441 J0.604 K0.000 F200.000
G3 X39.692 Y-58.866 Z-0.200 I-214.615 J33.224 K0.000 F200.000
G0 Z0.500
G0 X39.613 Y-58.855 Z0.500
G0 X39.613 Y-58.855 Z0.500
G1 X39.613 Y-58.855 Z-0.200 F100.000
G3 X39.743 Y-57.897 Z-0.200 I-135.430 J18.887 K0.000 F200.000
G3 X39.557 Y-57.886 Z-0.200 I-0.659 J-10.286 K0.000 F200.000
G3 X38.865 Y-62.093 Z-0.200 I196.248 J-34.478 K0.000 F200.000
G3 X39.360 Y-62.151 Z-0.200 I11.515 J96.787 K0.000 F200.000
G2 X39.234 Y-61.396 Z-0.200 I0.779 J0.518 K0.000 F200.000
G3 X39.613 Y-58.855 Z-0.200 I-135.051 J21.429 K0.000 F200.000
G0 Z0.500
G0 X39.536 Y-58.845 Z0.500
G0 X39.536 Y-58.845 Z0.500
G1 X39.536 Y-58.845 Z-0.200 F100.000
G3 X39.644 Y-57.971 Z-0.200 I-57.411 J7.519 K0.000 F200.000
G1 X39.624 Y-57.970 Z-0.200 F200.000
G3 X38.956 Y-62.023 Z-0.200 I200.677 J-35.138 K0.000 F200.000
G1 X39.191 Y-62.051 Z-0.200 F200.000
G2 X39.208 Y-61.029 Z-0.200 I1.963 J0.479 K0.000 F200.000
G3 X39.536 Y-58.845 Z-0.200 I-57.083 J9.703 K0.000 F200.000
G0 Z0.500
G0 X39.062 Y-61.855 Z0.500
G0 X39.062 Y-61.855 Z0.500
G1 X39.062 Y-61.855 Z-0.200 F100.000
G3 X39.047 Y-61.953 Z-0.200 I7.345 J-1.171 K0.000 F200.000
G1 X39.087 Y-61.958 Z-0.200 F200.000
G1 X39.062 Y-61.855 Z-0.200 F200.000
G0 Z0.500
G0 X41.277 Y-62.039 Z0.500
G0 X41.277 Y-62.039 Z0.500
G1 X41.277 Y-62.039 Z-0.200 F100.000
G1 X41.301 Y-62.042 Z-0.200 F200.000
G3 X41.323 Y-61.828 Z-0.200 I-17.929 J1.921 K0.000 F200.000
G2 X41.277 Y-62.039 Z-0.200 I-2.379 J0.408 K0.000 F200.000
G0 Z0.500
G0 Z0.500
G0 X41.277 Y-62.039
G0 X37.744 Y-61.279
G0 X37.744 Y-61.279
G1 X37.744 Y-61.279 Z-0.200 F100.000
G3 X37.316 Y-56.558 Z-0.200 I-126.675 J-9.101 K0.000 F200.000
G3 X33.986 Y-56.821 Z-0.200 I3.227 J-62.050 K0.000 F200.000
G3 X34.222 Y-61.895 Z-0.200 I93.721 J1.809 K0.000 F200.000
G3 X37.744 Y-61.279 Z-0.200 I-10.865 J72.442 K0.000 F200.000
G0 Z0.500
G0 X37.660 Y-61.214 Z0.500
G0 X37.660 Y-61.214 Z0.500
G1 X37.660 Y-61.214 Z-0.200 F100.000
G3 X37.244 Y-56.638 Z-0.200 I-121.816 J-8.766 K0.000 F200.000
G3 X34.066 Y-56.892 Z-0.200 I4.112 J-71.538 K0.000 F200.000
G3 X34.294 Y-61.802 Z-0.200 I77.148 J1.111 K0.000 F200.000
G3 X37.660 Y-61.214 Z-0.200 I-13.009 J84.512 K0.000 F200.000
G0 Z0.500
G0 X37.576 Y-61.150 Z0.500
G0 X37.576 Y-61.150 Z0.500
G1 X37.576 Y-61.150 Z-0.200 F100.000
G3 X37.175 Y-56.722 Z-0.200 I-135.691 J-10.066 K0.000 F200.000
G3 X34.147 Y-56.963 Z-0.200 I4.850 J-79.897 K0.000 F200.000
G3 X34.366 Y-61.708 Z-0.200 I80.187 J1.311 K0.000 F200.000
G3 X37.576 Y-61.150 Z-0.200 I-13.913 J89.451 K0.000 F200.000
G0 Z0.500
G0 X37.492 Y-61.085 Z0.500
G0 X37.492 Y-61.085 Z0.500
G1 X37.492 Y-61.085 Z-0.200 F100.000
G3 X37.099 Y-56.805 Z-0.200 I-108.944 J-7.851 K0.000 F200.000
G3 X34.229 Y-57.035 Z-0.200 I5.357 J-85.112 K0.000 F200.000
G3 X34.257 Y-57.960 Z-0.200 I66.677 J1.576 K0.000 F200.000
G2 X34.898 Y-57.735 Z-0.200 I0.537 J-0.502 K0.000 F200.000
G2 X35.306 Y-57.772 Z-0.200 I0.128 J-0.846 K0.000 F200.000
G2 X35.486 Y-58.024 Z-0.200 I-0.157 J-0.302 K0.000 F200.000
G3 X35.722 Y-59.585 Z-0.200 I26.357 J3.202 K0.000 F200.000
G3 X35.873 Y-59.564 Z-0.200 I-1.903 J14.767 K0.000 F200.000
G2 X35.674 Y-57.943 Z-0.200 I35.368 J5.159 K0.000 F200.000
G2 X36.072 Y-57.581 Z-0.200 I0.386 J-0.025 K0.000 F200.000
G2 X36.269 Y-57.544 Z-0.200 I1.982 J-9.867 K0.000 F200.000
G1 X36.269 Y-57.544 Z-0.200 F200.000
G2 X37.023 Y-58.049 Z-0.200 I0.205 J-0.509 K0.000 F200.000
G2 X37.351 Y-60.663 Z-0.200 I-14.984 J-3.212 K0.000 F200.000
G2 X36.652 Y-61.104 Z-0.200 I-0.634 J0.231 K0.000 F200.000
G2 X36.102 Y-61.009 Z-0.200 I-0.169 J0.664 K0.000 F200.000
G2 X34.517 Y-60.576 Z-0.200 I-0.595 J0.938 K0.000 F200.000
G2 X34.338 Y-59.907 Z-0.200 I3.097 J1.189 K0.000 F200.000
G3 X34.437 Y-61.615 Z-0.200 I32.765 J1.050 K0.000 F200.000
G3 X37.492 Y-61.085 Z-0.200 I-14.965 J95.239 K0.000 F200.000
G0 Z0.500
G0 X37.407 Y-61.019 Z0.500
G0 X37.407 Y-61.019 Z0.500
G1 X37.407 Y-61.019 Z-0.200 F100.000
G3 X37.390 Y-60.798 Z-0.200 I-11.100 J-0.725 K0.000 F200.000
G2 X37.080 Y-61.080 Z-0.200 I-0.478 J0.214 K0.000 F200.000
G3 X37.407 Y-61.019 Z-0.200 I-6.559 J36.358 K0.000 F200.000
G0 Z0.500
G0 X37.175 Y-60.820 Z0.500
G0 X37.175 Y-60.820 Z0.500
G1 X37.175 Y-60.820 Z-0.200 F100.000
G3 X37.272 Y-60.655 Z-0.200 I-0.402 J0.346 K0.000 F200.000
G3 X36.970 Y-58.195 Z-0.200 I-15.304 J-0.629 K0.000 F200.000
G3 X36.762 Y-57.678 Z-0.200 I-0.903 J-0.063 K0.000 F200.000
G3 X36.182 Y-57.641 Z-0.200 I-0.324 J-0.526 K0.000 F200.000
G3 X35.754 Y-57.943 Z-0.200 I-0.029 J-0.413 K0.000 F200.000
G3 X35.957 Y-59.631 Z-0.200 I84.641 J9.358 K0.000 F200.000
G2 X35.660 Y-59.673 Z-0.200 I-0.632 J3.363 K0.000 F200.000
G2 X35.406 Y-58.036 Z-0.200 I20.458 J4.006 K0.000 F200.000
G3 X35.278 Y-57.848 Z-0.200 I-0.257 J-0.038 K0.000 F200.000
G3 X34.899 Y-57.815 Z-0.200 I-0.252 J-0.692 K0.000 F200.000
G3 X34.224 Y-58.273 Z-0.200 I-0.139 J-0.521 K0.000 F200.000
G3 X34.431 Y-59.973 Z-0.200 I7.749 J0.080 K0.000 F200.000
G3 X35.033 Y-61.001 Z-0.200 I1.248 J0.042 K0.000 F200.000
G3 X36.110 Y-60.912 Z-0.200 I0.449 J1.141 K0.000 F200.000
G3 X36.242 Y-60.998 Z-0.200 I0.263 J0.258 K0.000 F200.000
G3 X36.792 Y-61.003 Z-0.200 I0.285 J1.038 K0.000 F200.000
G3 X37.175 Y-60.820 Z-0.200 I-0.018 J0.530 K0.000 F200.000
G0 Z0.500
G0 X37.117 Y-60.769 Z0.500
G0 X37.117 Y-60.769 Z0.500
G1 X37.117 Y-60.769 Z-0.200 F100.000
G3 X37.192 Y-60.647 Z-0.200 I-0.342 J0.297 K0.000 F200.000
G3 X36.947 Y-58.555 Z-0.200 I-11.853 J-0.329 K0.000 F200.000
G3 X36.705 Y-57.734 Z-0.200 I-1.447 J0.020 K0.000 F200.000
G3 X36.196 Y-57.720 Z-0.200 I-0.268 J-0.471 K0.000 F200.000
G3 X35.834 Y-57.943 Z-0.200 I-0.044 J-0.333 K0.000 F200.000
G3 X36.041 Y-59.694 Z-0.200 I179.811 J20.370 K0.000 F200.000
G2 X35.598 Y-59.747 Z-0.200 I-0.443 J1.834 K0.000 F200.000
G2 X35.327 Y-58.047 Z-0.200 I12.120 J2.805 K0.000 F200.000
G1 X35.254 Y-57.927 Z-0.200 F200.000
G3 X34.899 Y-57.895 Z-0.200 I-0.228 J-0.531 K0.000 F200.000
G3 X34.303 Y-58.286 Z-0.200 I-0.128 J-0.455 K0.000 F200.000
G3 X34.509 Y-59.960 Z-0.200 I7.855 J0.120 K0.000 F200.000
G3 X35.070 Y-60.930 Z-0.200 I1.164 J0.026 K0.000 F200.000
G3 X36.127 Y-60.806 Z-0.200 I0.415 J1.026 K0.000 F200.000
G3 X36.265 Y-60.922 Z-0.200 I0.231 J0.134 K0.000 F200.000
G3 X36.780 Y-60.924 Z-0.200 I0.262 J0.968 K0.000 F200.000
G3 X37.117 Y-60.769 Z-0.200 I-0.005 J0.453 K0.000 F200.000
G0 Z0.500
G0 X37.054 Y-60.701 Z0.500
G0 X37.054 Y-60.701 Z0.500
G1 X37.054 Y-60.701 Z-0.200 F100.000
G3 X37.113 Y-60.639 Z-0.200 I-0.469 J0.502 K0.000 F200.000
G3 X36.812 Y-58.221 Z-0.200 I-15.695 J-0.723 K0.000 F200.000
G3 X36.609 Y-57.766 Z-0.200 I-0.634 J-0.011 K0.000 F200.000
G3 X36.211 Y-57.799 Z-0.200 I-0.157 J-0.526 K0.000 F200.000
G3 X35.914 Y-57.944 Z-0.200 I-0.060 J-0.254 K0.000 F200.000
G2 X36.121 Y-59.755 Z-0.200 I-33.512 J-4.741 K0.000 F200.000
G2 X35.689 Y-59.831 Z-0.200 I-0.615 J2.235 K0.000 F200.000
G2 X35.524 Y-59.775 Z-0.200 I-0.064 J0.085 K0.000 F200.000
G2 X35.248 Y-58.059 Z-0.200 I11.865 J2.784 K0.000 F200.000
G3 X35.149 Y-57.973 Z-0.200 I-0.099 J-0.015 K0.000 F200.000
G3 X34.761 Y-57.978 Z-0.200 I-0.080 J-10.620 K0.000 F200.000
G3 X34.382 Y-58.299 Z-0.200 I-0.050 J-0.326 K0.000 F200.000
G3 X34.588 Y-59.946 Z-0.200 I7.991 J0.164 K0.000 F200.000
G3 X35.108 Y-60.859 Z-0.200 I1.080 J0.010 K0.000 F200.000
G3 X36.156 Y-60.684 Z-0.200 I0.378 J0.960 K0.000 F200.000
G3 X36.457 Y-60.874 Z-0.200 I0.255 J0.071 K0.000 F200.000
G3 X37.054 Y-60.701 Z-0.200 I0.128 J0.675 K0.000 F200.000
G0 Z0.500
G0 X36.434 Y-61.193 Z0.500
G0 X36.434 Y-61.193 Z0.500
G1 X36.434 Y-61.193 Z-0.200 F100.000
G2 X36.104 Y-61.100 Z-0.200 I-0.017 J0.571 K0.000 F200.000
G2 X34.454 Y-60.626 Z-0.200 I-0.598 J1.026 K0.000 F200.000
G3 X34.509 Y-61.522 Z-0.200 I20.314 J0.816 K0.000 F200.000
G3 X36.434 Y-61.193 Z-0.200 I-38.756 J232.964 K0.000 F200.000
G0 Z0.500
G0 X35.285 Y-61.309 Z0.500
G0 X35.285 Y-61.309 Z0.500
G1 X35.285 Y-61.309 Z-0.200 F100.000
G2 X34.550 Y-60.931 Z-0.200 I0.090 J1.079 K0.000 F200.000
G3 X34.582 Y-61.428 Z-0.200 I18.903 J0.962 K0.000 F200.000
G1 X35.285 Y-61.309 Z-0.200 F200.000
G0 Z0.500
G0 X34.905 Y-61.292 Z0.500
G0 X34.905 Y-61.292 Z0.500
G1 X34.905 Y-61.292 Z-0.200 F100.000
G2 X34.642 Y-61.131 Z-0.200 I0.396 J0.940 K0.000 F200.000
G3 X34.655 Y-61.335 Z-0.200 I10.861 J0.600 K0.000 F200.000
G1 X34.905 Y-61.292 Z-0.200 F200.000
G0 Z0.500
G0 X35.785 Y-59.484 Z0.500
G0 X35.785 Y-59.484 Z0.500
G1 X35.785 Y-59.484 Z-0.200 F100.000
G2 X35.594 Y-57.943 Z-0.200 I28.675 J4.339 K0.000 F200.000
G2 X36.057 Y-57.503 Z-0.200 I0.457 J-0.018 K0.000 F200.000
G2 X36.254 Y-57.465 Z-0.200 I1.998 J-9.948 K0.000 F200.000
G1 X36.254 Y-57.465 Z-0.200 F200.000
G2 X37.101 Y-58.033 Z-0.200 I0.222 J-0.585 K0.000 F200.000
G2 X37.209 Y-58.686 Z-0.200 I-12.687 J-2.427 K0.000 F200.000
G3 X37.033 Y-56.889 Z-0.200 I-88.860 J-7.788 K0.000 F200.000
G3 X34.310 Y-57.107 Z-0.200 I5.649 J-87.901 K0.000 F200.000
G3 X34.331 Y-57.782 Z-0.200 I52.840 J1.256 K0.000 F200.000
G2 X35.318 Y-57.689 Z-0.200 I0.611 J-1.205 K0.000 F200.000
G2 X35.565 Y-58.012 Z-0.200 I-0.169 J-0.384 K0.000 F200.000
G3 X35.785 Y-59.484 Z-0.200 I32.215 J4.066 K0.000 F200.000
G0 Z0.500
G0 X35.546 Y-57.784 Z0.500
G0 X35.546 Y-57.784 Z0.500
G1 X35.546 Y-57.784 Z-0.200 F100.000
G2 X35.900 Y-57.457 Z-0.200 I0.457 J-0.139 K0.000 F200.000
G2 X36.733 Y-57.386 Z-0.200 I0.588 J-1.986 K0.000 F200.000
G2 X37.028 Y-57.623 Z-0.200 I-0.197 J-0.546 K0.000 F200.000
G3 X36.962 Y-56.974 Z-0.200 I-42.730 J-4.020 K0.000 F200.000
G3 X34.392 Y-57.179 Z-0.200 I6.022 J-91.594 K0.000 F200.000
G3 X34.406 Y-57.650 Z-0.200 I41.802 J1.011 K0.000 F200.000
G2 X35.339 Y-57.611 Z-0.200 I0.539 J-1.718 K0.000 F200.000
G2 X35.546 Y-57.784 Z-0.200 I-0.106 J-0.337 K0.000 F200.000
G0 Z0.500
G0 X35.532 Y-57.639 Z0.500
G0 X35.532 Y-57.639 Z0.500
G1 X35.532 Y-57.639 Z-0.200 F100.000
G2 X36.225 Y-57.308 Z-0.200 I0.703 J-0.581 K0.000 F200.000
G1 X36.225 Y-57.308 Z-0.200 F200.000
G2 X36.927 Y-57.414 Z-0.200 I0.261 J-0.650 K0.000 F200.000
G3 X36.890 Y-57.059 Z-0.200 I-23.357 J-2.227 K0.000 F200.000
G3 X34.474 Y-57.252 Z-0.200 I6.247 J-93.457 K0.000 F200.000
G3 X34.483 Y-57.539 Z-0.200 I21.622 J0.510 K0.000 F200.000
G2 X35.357 Y-57.532 Z-0.200 I0.453 J-2.072 K0.000 F200.000
G1 X35.532 Y-57.639 Z-0.200 F200.000
G0 Z0.500
G0 X35.506 Y-57.526 Z0.500
G0 X35.506 Y-57.526 Z0.500
G1 X35.506 Y-57.526 Z-0.200 F100.000
G2 X36.109 Y-57.248 Z-0.200 I0.684 J-0.691 K0.000 F200.000
G1 X36.210 Y-57.229 Z-0.200 F200.000
G1 X36.210 Y-57.229 Z-0.200 F200.000
G2 X36.782 Y-57.234 Z-0.200 I0.278 J-1.001 K0.000 F200.000
G1 X36.831 Y-57.264 Z-0.200 F200.000
G1 X36.819 Y-57.143 Z-0.200 F200.000
G3 X34.556 Y-57.324 Z-0.200 I6.564 J-96.448 K0.000 F200.000
G1 X34.560 Y-57.439 Z-0.200 F200.000
G2 X35.361 Y-57.448 Z-0.200 I0.367 J-2.770 K0.000 F200.000
G1 X35.506 Y-57.526 Z-0.200 F200.000
G0 Z0.500
G0 X35.495 Y-57.429 Z0.500
G0 X35.495 Y-57.429 Z0.500
G1 X35.495 Y-57.429 Z-0.200 F100.000
G2 X35.655 Y-57.310 Z-0.200 I0.240 J-0.156 K0.000 F200.000
G1 X35.225 Y-57.346 Z-0.200 F200.000
G2 X35.495 Y-57.429 Z-0.200 I0.006 J-0.457 K0.000 F200.000
G0 Z0.500
G0 Z0.500
G0 X35.495 Y-57.429
G0 X32.654 Y-61.192
G0 X32.654 Y-61.192
G1 X32.654 Y-61.192 Z-0.200 F100.000
G3 X31.278 Y-60.233 Z-0.200 I-13.352 J-17.690 K0.000 F200.000
G2 X29.219 Y-58.784 Z-0.200 I220.843 J315.899 K0.000 F200.000
G3 X27.122 Y-61.890 Z-0.200 I21864.641 J-14761.316 K0.000 F200.000
G3 X31.594 Y-64.582 Z-0.200 I111.465 J180.079 K0.000 F200.000
G1 X31.618 Y-64.552 Z-0.200 F200.000
G3 X33.498 Y-61.861 Z-0.200 I-45.940 J34.106 K0.000 F200.000
G3 X32.654 Y-61.192 Z-0.200 I-14.195 J-17.021 K0.000 F200.000
G0 Z0.500
G0 X32.600 Y-61.264 Z0.500
G0 X32.600 Y-61.264 Z0.500
G1 X32.600 Y-61.264 Z-0.200 F100.000
G3 X30.252 Y-59.611 Z-0.200 I-27.537 J-36.614 K0.000 F200.000
G2 X29.240 Y-58.896 Z-0.200 I132.635 J189.005 K0.000 F200.000
G3 X27.236 Y-61.864 Z-0.200 I20899.128 J-14109.478 K0.000 F200.000
G3 X31.567 Y-64.486 Z-0.200 I407.943 J668.893 K0.000 F200.000
G3 X33.379 Y-61.863 Z-0.200 I-26.875 J20.505 K0.000 F200.000
G3 X32.600 Y-61.264 Z-0.200 I-28.316 J-36.015 K0.000 F200.000
G0 Z0.500
G0 X32.505 Y-61.396 Z0.500
G0 X32.505 Y-61.396 Z0.500
G1 X32.505 Y-61.396 Z-0.200 F100.000
G3 X32.429 Y-61.341 Z-0.200 I-12.090 J-16.669 K0.000 F200.000
G2 X32.503 Y-62.174 Z-0.200 I-0.563 J-0.470 K0.000 F200.000
G2 X31.298 Y-63.633 Z-0.200 I-2.704 J1.006 K0.000 F200.000
G2 X30.643 Y-63.544 Z-0.200 I-0.205 J0.941 K0.000 F200.000
G2 X30.089 Y-63.166 Z-0.200 I0.102 J0.746 K0.000 F200.000
G2 X29.472 Y-62.974 Z-0.200 I-0.116 J0.712 K0.000 F200.000
G2 X28.751 Y-62.129 Z-0.200 I0.943 J1.534 K0.000 F200.000
G2 X29.000 Y-61.087 Z-0.200 I1.505 J0.192 K0.000 F200.000
G2 X29.767 Y-60.167 Z-0.200 I2.407 J-1.229 K0.000 F200.000
G2 X30.653 Y-60.088 Z-0.200 I0.515 J-0.762 K0.000 F200.000
G2 X29.281 Y-59.121 Z-0.200 I174.157 J248.754 K0.000 F200.000
G3 X27.464 Y-61.813 Z-0.200 I18953.837 J-12796.170 K0.000 F200.000
G3 X31.525 Y-64.276 Z-0.200 I2972.340 J4896.712 K0.000 F200.000
G3 X33.183 Y-61.909 Z-0.200 I-60.154 J43.887 K0.000 F200.000
G3 X32.505 Y-61.396 Z-0.200 I-12.767 J-16.156 K0.000 F200.000
G0 Z0.500
G0 X32.418 Y-61.465 Z0.500
G0 X32.418 Y-61.465 Z0.500
G1 X32.418 Y-61.465 Z-0.200 F100.000
G3 X30.572 Y-60.140 Z-0.200 I-3.314 J-2.668 K0.000 F200.000
G3 X29.805 Y-60.238 Z-0.200 I-0.289 J-0.792 K0.000 F200.000
G3 X29.225 Y-60.872 Z-0.200 I1.503 J-1.959 K0.000 F200.000
G3 X28.830 Y-62.115 Z-0.200 I1.326 J-1.105 K0.000 F200.000
G3 X29.524 Y-62.913 Z-0.200 I1.616 J0.704 K0.000 F200.000
G3 X30.135 Y-63.052 Z-0.200 I0.403 J0.357 K0.000 F200.000
G3 X30.198 Y-63.201 Z-0.200 I0.274 J0.028 K0.000 F200.000
G3 X30.847 Y-63.531 Z-0.200 I0.813 J0.796 K0.000 F200.000
G3 X31.266 Y-63.560 Z-0.200 I0.255 J0.639 K0.000 F200.000
G3 X32.431 Y-62.140 Z-0.200 I-1.473 J2.396 K0.000 F200.000
G3 X32.429 Y-61.478 Z-0.200 I-0.614 J0.329 K0.000 F200.000
G3 X32.418 Y-61.465 Z-0.200 I-3.324 J-2.655 K0.000 F200.000
G0 Z0.500
G0 X32.357 Y-61.515 Z0.500
G0 X32.357 Y-61.515 Z0.500
G1 X32.357 Y-61.515 Z-0.200 F100.000
G3 X30.542 Y-60.214 Z-0.200 I-3.269 J-2.646 K0.000 F200.000
G3 X29.844 Y-60.308 Z-0.200 I-0.259 J-0.716 K0.000 F200.000
G3 X29.288 Y-60.921 Z-0.200 I1.496 J-1.914 K0.000 F200.000
G3 X28.909 Y-62.100 Z-0.200 I1.256 J-1.055 K0.000 F200.000
G3 X29.612 Y-62.880 Z-0.200 I1.871 J0.980 K0.000 F200.000
G3 X30.212 Y-62.865 Z-0.200 I0.294 J0.229 K0.000 F200.000
G3 X30.265 Y-63.157 Z-0.200 I0.310 J-0.095 K0.000 F200.000
G3 X30.874 Y-63.455 Z-0.200 I0.766 J0.793 K0.000 F200.000
G3 X31.234 Y-63.487 Z-0.200 I0.231 J0.566 K0.000 F200.000
G3 X32.358 Y-62.107 Z-0.200 I-1.448 J2.328 K0.000 F200.000
G3 X32.357 Y-61.515 Z-0.200 I-0.532 J0.295 K0.000 F200.000
G0 Z0.500
G0 X32.286 Y-61.551 Z0.500
G0 X32.286 Y-61.551 Z0.500
G1 X32.286 Y-61.551 Z-0.200 F100.000
G3 X30.511 Y-60.288 Z-0.200 I-3.216 J-2.640 K0.000 F200.000
G3 X29.882 Y-60.378 Z-0.200 I-0.228 J-0.646 K0.000 F200.000
G3 X29.351 Y-60.970 Z-0.200 I1.494 J-1.874 K0.000 F200.000
G3 X28.987 Y-62.085 Z-0.200 I1.186 J-1.004 K0.000 F200.000
G3 X29.628 Y-62.791 Z-0.200 I1.829 J1.016 K0.000 F200.000
G3 X30.025 Y-62.935 Z-0.200 I0.342 J0.326 K0.000 F200.000
G3 X30.971 Y-61.605 Z-0.200 I-4.908 J4.492 K0.000 F200.000
G2 X31.406 Y-61.878 Z-0.200 I-1.194 J-2.386 K0.000 F200.000
G2 X31.187 Y-62.291 Z-0.200 I-1.746 J0.662 K0.000 F200.000
G2 X30.952 Y-62.508 Z-0.200 I-0.324 J0.114 K0.000 F200.000
G3 X30.648 Y-62.384 Z-0.200 I-0.231 J-0.132 K0.000 F200.000
G3 X30.404 Y-62.656 Z-0.200 I0.306 J-0.520 K0.000 F200.000
G3 X30.332 Y-63.113 Z-0.200 I0.261 J-0.276 K0.000 F200.000
G3 X30.901 Y-63.380 Z-0.200 I0.848 J1.069 K0.000 F200.000
G3 X31.202 Y-63.413 Z-0.200 I0.208 J0.498 K0.000 F200.000
G3 X32.286 Y-62.073 Z-0.200 I-1.424 J2.260 K0.000 F200.000
G3 X32.286 Y-61.551 Z-0.200 I-0.447 J0.261 K0.000 F200.000
G0 Z0.500
G0 X32.651 Y-61.603 Z0.500
G0 X32.651 Y-61.603 Z0.500
G1 X32.651 Y-61.603 Z-0.200 F100.000
G2 X32.416 Y-62.550 Z-0.200 I-1.364 J-0.164 K0.000 F200.000
G2 X31.330 Y-63.707 Z-0.200 I-2.360 J1.126 K0.000 F200.000
G2 X30.529 Y-63.584 Z-0.200 I-0.242 J1.100 K0.000 F200.000
G3 X31.503 Y-64.171 Z-0.200 I57.534 J94.540 K0.000 F200.000
G3 X33.071 Y-61.922 Z-0.200 I-41.305 J30.473 K0.000 F200.000
G3 X32.651 Y-61.603 Z-0.200 I-11.453 J-14.622 K0.000 F200.000
G0 Z0.500
G0 X32.752 Y-61.778 Z0.500
G0 X32.752 Y-61.778 Z0.500
G1 X32.752 Y-61.778 Z-0.200 F100.000
G2 X31.642 Y-63.617 Z-0.200 I-2.928 J0.512 K0.000 F200.000
G2 X31.073 Y-63.819 Z-0.200 I-0.529 J0.587 K0.000 F200.000
G3 X31.482 Y-64.065 Z-0.200 I28.399 J46.880 K0.000 F200.000
G3 X32.968 Y-61.943 Z-0.200 I-65.269 J47.291 K0.000 F200.000
G3 X32.752 Y-61.778 Z-0.200 I-6.261 J-7.978 K0.000 F200.000
G0 Z0.500
G0 X32.816 Y-61.927 Z0.500
G0 X32.816 Y-61.927 Z0.500
G1 X32.816 Y-61.927 Z-0.200 F100.000
G1 X32.791 Y-62.061 Z-0.200 F200.000
G3 X32.860 Y-61.960 Z-0.200 I-6.567 J4.531 K0.000 F200.000
G1 X32.816 Y-61.927 Z-0.200 F200.000
G0 Z0.500
G0 X33.003 Y-61.678 Z0.500
G0 X33.003 Y-61.678 Z0.500
G1 X33.003 Y-61.678 Z-0.200 F100.000
G3 X29.260 Y-59.009 Z-0.200 I-63.395 J-84.941 K0.000 F200.000
G3 X27.350 Y-61.839 Z-0.200 I19933.590 J-13457.621 K0.000 F200.000
G3 X31.546 Y-64.382 Z-0.200 I8885.240 J14658.160 K0.000 F200.000
G3 X33.289 Y-61.892 Z-0.200 I-57.231 J41.928 K0.000 F200.000
G3 X33.003 Y-61.678 Z-0.200 I-63.682 J-84.726 K0.000 F200.000
G0 Z0.500
G0 X31.312 Y-61.907 Z0.500
G0 X31.312 Y-61.907 Z0.500
G1 X31.312 Y-61.907 Z-0.200 F100.000
G3 X30.999 Y-61.709 Z-0.200 I-1.525 J-2.057 K0.000 F200.000
G3 X30.609 Y-62.316 Z-0.200 I320.015 J-205.842 K0.000 F200.000
G2 X30.976 Y-62.419 Z-0.200 I0.129 J-0.247 K0.000 F200.000
G3 X31.312 Y-61.907 Z-0.200 I-1.480 J1.339 K0.000 F200.000
G0 Z0.500
G0 X31.209 Y-61.932 Z0.500
G0 X31.209 Y-61.932 Z0.500
G1 X31.209 Y-61.932 Z-0.200 F100.000
G3 X31.024 Y-61.816 Z-0.200 I-1.216 J-1.743 K0.000 F200.000
G3 X30.774 Y-62.206 Z-0.200 I60.244 J-38.903 K0.000 F200.000
G2 X30.988 Y-62.292 Z-0.200 I-0.236 J-0.891 K0.000 F200.000
G1 X31.054 Y-62.202 Z-0.200 F200.000
G3 X31.209 Y-61.932 Z-0.200 I-4.079 J2.533 K0.000 F200.000
G0 Z0.500
G0 X31.104 Y-61.958 Z0.500
G0 X31.104 Y-61.958 Z0.500
G1 X31.104 Y-61.958 Z-0.200 F100.000
G3 X31.033 Y-61.950 Z-0.200 I-0.035 J0.003 K0.000 F200.000
G3 X30.900 Y-62.157 Z-0.200 I63.879 J-41.067 K0.000 F200.000
G3 X30.987 Y-62.157 Z-0.200 I0.043 J0.008 K0.000 F200.000
G1 X31.029 Y-62.091 Z-0.200 F200.000
G1 X31.104 Y-61.958 Z-0.200 F200.000
G0 Z0.500
G0 X30.074 Y-63.271 Z0.500
G0 X30.074 Y-63.271 Z0.500
G1 X30.074 Y-63.271 Z-0.200 F100.000
G3 X30.009 Y-63.268 Z-0.200 I-0.034 J-0.044 K0.000 F200.000
G1 X30.095 Y-63.320 Z-0.200 F200.000
G3 X30.074 Y-63.271 Z-0.200 I-0.055 J0.006 K0.000 F200.000
G0 Z0.500
G0 X29.009 Y-62.658 Z0.500
G0 X29.009 Y-62.658 Z0.500
G1 X29.009 Y-62.658 Z-0.200 F100.000
G2 X28.720 Y-61.528 Z-0.200 I0.590 J0.753 K0.000 F200.000
G2 X29.889 Y-60.010 Z-0.200 I2.512 J-0.724 K0.000 F200.000
G2 X30.294 Y-59.933 Z-0.200 I0.361 J-0.803 K0.000 F200.000
G2 X29.301 Y-59.234 Z-0.200 I124.868 J178.253 K0.000 F200.000
G3 X27.577 Y-61.788 Z-0.200 I17987.957 J-12144.082 K0.000 F200.000
G2 X29.009 Y-62.658 Z-0.200 I-189.252 J-312.988 K0.000 F200.000
G0 Z0.500
G0 X28.675 Y-62.361 Z0.500
G0 X28.675 Y-62.361 Z0.500
G1 X28.675 Y-62.361 Z-0.200 F100.000
G2 X28.756 Y-61.216 Z-0.200 I1.087 J0.499 K0.000 F200.000
G2 X29.851 Y-59.939 Z-0.200 I2.429 J-0.975 K0.000 F200.000
G2 X30.070 Y-59.874 Z-0.200 I0.307 J-0.631 K0.000 F200.000
G2 X29.322 Y-59.346 Z-0.200 I107.370 J153.105 K0.000 F200.000
G3 X27.691 Y-61.763 Z-0.200 I17032.465 J-11499.006 K0.000 F200.000
G2 X28.675 Y-62.361 Z-0.200 I-184.587 J-304.989 K0.000 F200.000
G0 Z0.500
G0 X28.515 Y-62.170 Z0.500
G0 X28.515 Y-62.170 Z0.500
G1 X28.515 Y-62.170 Z-0.200 F100.000
G2 X28.795 Y-60.963 Z-0.200 I1.750 J0.230 K0.000 F200.000
G2 X29.652 Y-59.957 Z-0.200 I2.558 J-1.311 K0.000 F200.000
G2 X29.887 Y-59.843 Z-0.200 I0.461 J-0.653 K0.000 F200.000
G2 X29.342 Y-59.459 Z-0.200 I87.910 J125.274 K0.000 F200.000
G1 X28.567 Y-60.607 Z-0.200 F200.000
G1 X27.804 Y-61.738 Z-0.200 F200.000
G2 X28.515 Y-62.170 Z-0.200 I-179.060 J-295.623 K0.000 F200.000
G0 Z0.500
G0 X28.414 Y-62.015 Z0.500
G0 X28.414 Y-62.015 Z0.500
G1 X28.414 Y-62.015 Z-0.200 F100.000
G2 X28.908 Y-60.628 Z-0.200 I2.298 J-0.037 K0.000 F200.000
G2 X29.614 Y-59.887 Z-0.200 I2.020 J-1.217 K0.000 F200.000
G1 X29.724 Y-59.826 Z-0.200 F200.000
G2 X29.363 Y-59.572 Z-0.200 I76.598 J109.034 K0.000 F200.000
G3 X27.917 Y-61.713 Z-0.200 I15078.013 J-10179.516 K0.000 F200.000
G2 X28.414 Y-62.015 Z-0.200 I-161.884 J-267.135 K0.000 F200.000
G0 Z0.500
G0 X28.333 Y-61.872 Z0.500
G0 X28.333 Y-61.872 Z0.500
G1 X28.333 Y-61.872 Z-0.200 F100.000
G2 X29.573 Y-59.818 Z-0.200 I3.086 J-0.462 K0.000 F200.000
G2 X29.384 Y-59.684 Z-0.200 I61.248 J87.066 K0.000 F200.000
G3 X28.031 Y-61.688 Z-0.200 I14100.282 J-9519.429 K0.000 F200.000
G2 X28.333 Y-61.872 Z-0.200 I-137.211 J-226.244 K0.000 F200.000
G0 Z0.500
G0 X28.266 Y-61.738 Z0.500
G0 X28.266 Y-61.738 Z0.500
G1 X28.266 Y-61.738 Z-0.200 F100.000
G2 X28.367 Y-61.333 Z-0.200 I1.479 J-0.154 K0.000 F200.000
G1 X28.144 Y-61.664 Z-0.200 F200.000
G2 X28.266 Y-61.738 Z-0.200 I-55.517 J-91.559 K0.000 F200.000
G0 Z0.500
G0 X28.225 Y-61.654 Z0.500
G0 X28.225 Y-61.654 Z0.500
G1 X28.225 Y-61.654 Z-0.200 F100.000
G2 X28.231 Y-61.624 Z-0.200 I0.133 J-0.011 K0.000 F200.000
G1 X28.215 Y-61.648 Z-0.200 F200.000
G1 X28.225 Y-61.654 Z-0.200 F200.000
G0 Z0.500
G0 X29.334 Y-59.901 Z0.500
G0 X29.334 Y-59.901 Z0.500
G1 X29.334 Y-59.901 Z-0.200 F100.000
G2 X29.436 Y-59.819 Z-0.200 I0.373 J-0.362 K0.000 F200.000
G1 X29.404 Y-59.797 Z-0.200 F200.000
G1 X29.334 Y-59.901 Z-0.200 F200.000
G0 Z0.500
G0 X31.311 Y-63.869 Z0.500
G0 X31.311 Y-63.869 Z0.500
G1 X31.311 Y-63.869 Z-0.200 F100.000
G3 X31.460 Y-63.959 Z-0.200 I14.372 J23.815 K0.000 F200.000
G3 X31.624 Y-63.731 Z-0.200 I-15.147 J11.070 K0.000 F200.000
G2 X31.311 Y-63.869 Z-0.200 I-0.454 J0.605 K0.000 F200.000
G0 Z0.500
G0 Z0.500
G0 X31.311 Y-63.869
G0 X29.937 Y-61.828
G0 X29.937 Y-61.828
G1 X29.937 Y-61.828 Z-0.200 F100.000
G3 X29.993 Y-61.738 Z-0.200 I-0.071 J0.106 K0.000 F200.000
G3 X30.257 Y-61.315 Z-0.200 I-1.216 J1.051 K0.000 F200.000
G3 X30.097 Y-61.198 Z-0.200 I-0.308 J-0.253 K0.000 F200.000
G3 X29.750 Y-61.776 Z-0.200 I1.875 J-1.520 K0.000 F200.000
G3 X29.937 Y-61.828 Z-0.200 I0.116 J0.054 K0.000 F200.000
G0 Z0.500
G0 X29.876 Y-61.757 Z0.500
G0 X29.876 Y-61.757 Z0.500
G1 X29.876 Y-61.757 Z-0.200 F100.000
G3 X30.162 Y-61.331 Z-0.200 I-3.403 J2.588 K0.000 F200.000
G3 X30.084 Y-61.337 Z-0.200 I-0.039 J-0.004 K0.000 F200.000
G3 X29.844 Y-61.740 Z-0.200 I5.112 J-3.320 K0.000 F200.000
G1 X29.876 Y-61.757 Z-0.200 F200.000
G0 Z0.500
G0 Z0.500
G0 X29.876 Y-61.757
G0 X29.044 Y-65.241
G0 X29.044 Y-65.241
G1 X29.044 Y-65.241 Z-0.200 F100.000
G3 X26.353 Y-64.629 Z-0.200 I-29.267 J-122.452 K0.000 F200.000
G3 X25.807 Y-68.165 Z-0.200 I89.945 J-15.691 K0.000 F200.000
G3 X30.787 Y-68.544 Z-0.200 I11.639 J119.863 K0.000 F200.000
G3 X31.431 Y-65.837 Z-0.200 I-16.570 J5.370 K0.000 F200.000
G1 X31.347 Y-65.814 Z-0.200 F200.000
G3 X29.044 Y-65.241 Z-0.200 I-31.570 J-121.879 K0.000 F200.000
G0 Z0.500
G0 X29.024 Y-65.325 Z0.500
G0 X29.024 Y-65.325 Z0.500
G1 X29.024 Y-65.325 Z-0.200 F100.000
G3 X26.417 Y-64.723 Z-0.200 I-40.886 J-171.060 K0.000 F200.000
G3 X25.897 Y-68.094 Z-0.200 I114.914 J-19.458 K0.000 F200.000
G3 X30.725 Y-68.479 Z-0.200 I17.801 J192.519 K0.000 F200.000
G3 X31.352 Y-65.899 Z-0.200 I-23.028 J6.966 K0.000 F200.000
G3 X29.024 Y-65.325 Z-0.200 I-43.215 J-170.487 K0.000 F200.000
G0 Z0.500
G0 X29.005 Y-65.403 Z0.500
G0 X29.005 Y-65.403 Z0.500
G1 X29.005 Y-65.403 Z-0.200 F100.000
G3 X26.481 Y-64.819 Z-0.200 I-43.004 J-179.987 K0.000 F200.000
G3 X25.987 Y-68.022 Z-0.200 I122.485 J-20.541 K0.000 F200.000
G3 X30.669 Y-68.396 Z-0.200 I18.602 J203.548 K0.000 F200.000
G3 X31.263 Y-65.957 Z-0.200 I-24.988 J7.372 K0.000 F200.000
G3 X29.005 Y-65.403 Z-0.200 I-45.262 J-179.432 K0.000 F200.000
G0 Z0.500
G0 X28.987 Y-65.480 Z0.500
G0 X28.987 Y-65.480 Z0.500
G1 X28.987 Y-65.480 Z-0.200 F100.000
G3 X28.771 Y-65.430 Z-0.200 I-17.332 J-73.324 K0.000 F200.000
G2 X29.174 Y-65.724 Z-0.200 I-0.238 J-0.749 K0.000 F200.000
G2 X29.546 Y-65.615 Z-0.200 I0.308 J-0.364 K0.000 F200.000
G3 X28.987 Y-65.480 Z-0.200 I-17.892 J-73.189 K0.000 F200.000
G0 Z0.500
G0 X28.903 Y-65.600 Z0.500
G0 X28.903 Y-65.600 Z0.500
G1 X28.903 Y-65.600 Z-0.200 F100.000
G3 X28.028 Y-65.375 Z-0.200 I-0.738 J-1.055 K0.000 F200.000
G3 X27.128 Y-65.996 Z-0.200 I-0.002 J-0.961 K0.000 F200.000
G3 X27.012 Y-67.089 Z-0.200 I2.596 J-0.827 K0.000 F200.000
G3 X27.829 Y-67.979 Z-0.200 I0.837 J-0.052 K0.000 F200.000
G3 X28.219 Y-67.827 Z-0.200 I0.061 J0.420 K0.000 F200.000
G1 X28.231 Y-67.842 Z-0.200 F200.000
G3 X29.638 Y-68.114 Z-0.200 I1.000 J1.394 K0.000 F200.000
G3 X30.346 Y-67.279 Z-0.200 I-0.257 J0.935 K0.000 F200.000
G3 X30.338 Y-66.185 Z-0.200 I-2.083 J0.532 K0.000 F200.000
G3 X29.745 Y-65.743 Z-0.200 I-0.860 J-0.537 K0.000 F200.000
G3 X29.155 Y-65.835 Z-0.200 I-0.233 J-0.447 K0.000 F200.000
G1 X29.151 Y-65.828 Z-0.200 F200.000
G3 X28.903 Y-65.600 Z-0.200 I-0.987 J-0.827 K0.000 F200.000
G0 Z0.500
G0 X28.864 Y-65.661 Z0.500
G0 X28.864 Y-65.661 Z0.500
G1 X28.864 Y-65.661 Z-0.200 F100.000
G3 X28.023 Y-65.455 Z-0.200 I-0.728 J-1.148 K0.000 F200.000
G3 X27.224 Y-65.977 Z-0.200 I-0.007 J-0.862 K0.000 F200.000
G3 X27.092 Y-67.088 Z-0.200 I2.368 J-0.845 K0.000 F200.000
G3 X27.844 Y-67.900 Z-0.200 I0.758 J-0.052 K0.000 F200.000
G3 X28.217 Y-67.662 Z-0.200 I0.054 J0.327 K0.000 F200.000
G3 X28.293 Y-67.791 Z-0.200 I0.291 J0.085 K0.000 F200.000
G3 X29.745 Y-68.001 Z-0.200 I0.938 J1.366 K0.000 F200.000
G3 X30.269 Y-67.258 Z-0.200 I-0.403 J0.841 K0.000 F200.000
G3 X30.264 Y-66.216 Z-0.200 I-2.016 J0.512 K0.000 F200.000
G3 X29.709 Y-65.815 Z-0.200 I-0.800 J-0.523 K0.000 F200.000
G3 X29.138 Y-66.006 Z-0.200 I-0.196 J-0.363 K0.000 F200.000
G3 X29.007 Y-65.765 Z-0.200 I-0.500 J-0.117 K0.000 F200.000
G3 X28.864 Y-65.661 Z-0.200 I-0.870 J-1.044 K0.000 F200.000
G0 Z0.500
G0 X28.812 Y-65.734 Z0.500
G0 X28.812 Y-65.734 Z0.500
G1 X28.812 Y-65.734 Z-0.200 F100.000
G3 X28.017 Y-65.534 Z-0.200 I-0.650 J-0.904 K0.000 F200.000
G3 X27.292 Y-66.020 Z-0.200 I-0.004 J-0.778 K0.000 F200.000
G3 X27.172 Y-67.086 Z-0.200 I2.359 J-0.804 K0.000 F200.000
G3 X27.984 Y-67.808 Z-0.200 I0.680 J-0.053 K0.000 F200.000
G3 X28.168 Y-67.444 Z-0.200 I-0.147 J0.302 K0.000 F200.000
G3 X27.910 Y-67.050 Z-0.200 I-0.197 J0.153 K0.000 F200.000
G2 X27.995 Y-66.322 Z-0.200 I2.526 J0.073 K0.000 F200.000
G2 X28.333 Y-66.295 Z-0.200 I0.198 J-0.346 K0.000 F200.000
G3 X28.251 Y-67.263 Z-0.200 I10.873 J-1.401 K0.000 F200.000
G3 X28.354 Y-67.740 Z-0.200 I0.803 J-0.076 K0.000 F200.000
G3 X29.611 Y-67.956 Z-0.200 I0.877 J1.343 K0.000 F200.000
G3 X30.192 Y-67.237 Z-0.200 I-0.233 J0.783 K0.000 F200.000
G3 X30.217 Y-66.314 Z-0.200 I-2.476 J0.528 K0.000 F200.000
G3 X29.674 Y-65.887 Z-0.200 I-0.709 J-0.343 K0.000 F200.000
G3 X29.225 Y-66.010 Z-0.200 I-0.159 J-0.300 K0.000 F200.000
G3 X29.443 Y-66.649 Z-0.200 I0.323 J-0.246 K0.000 F200.000
