(Exported by FreeCAD)
(Post Processor: grbl_post)
(Output Time:2023-01-30 20:20:17.939621)
(Begin preamble)
G17 G90
G21
(Begin operation: G54)
(Path: G54)
G54
G0 Z5.000
(Finish operation: G54)
(Begin operation: ballend-015mm001)
(Path: ballend-015mm001)
(ballend-015mm001)
(Begin toolchange)
( M6 T2 )
M3 S10000
(Finish operation: ballend-015mm001)
(Begin operation: Pocket_Shape001)
(Path: Pocket_Shape001)
(Pocket_Shape001)
G0 Z1.000
G0 X47.120 Y-30.338
G0 Z0.500
G1 X47.120 Y-30.338 Z-0.200 F100.000
G1 X44.923 Y-30.338 Z-0.200 F150.000
G1 X44.923 Y-30.439 Z-0.200 F150.000
G1 X45.790 Y-30.439 Z-0.200 F150.000
G2 X45.794 Y-30.605 Z-0.200 I-0.008 J-0.083 K0.000 F150.000
G3 X46.354 Y-31.850 Z-0.200 I0.498 J-0.524 K0.000 F150.000
G3 X46.876 Y-30.570 Z-0.200 I0.072 J0.717 K0.000 F150.000
G2 X46.926 Y-30.439 Z-0.200 I0.050 J0.056 K0.000 F150.000
G1 X47.120 Y-30.439 Z-0.200 F150.000
G1 X47.120 Y-30.338 Z-0.200 F150.000
G0 Z1.000
G0 X46.892 Y-30.398 Z1.000
G0 X46.892 Y-30.398 Z0.500
G1 X46.892 Y-30.398 Z-0.200 F100.000
G1 X46.588 Y-30.398 Z-0.200 F150.000
G2 X46.801 Y-30.492 Z-0.200 I-0.064 J-0.435 K0.000 F150.000
G2 X46.892 Y-30.398 Z-0.200 I0.086 J0.007 K0.000 F150.000
G0 Z1.000
G0 X46.787 Y-30.549 Z1.000
G0 X46.787 Y-30.549 Z0.500
G1 X46.787 Y-30.549 Z-0.200 F100.000
G3 X46.061 Y-30.479 Z-0.200 I-0.426 J-0.612 K0.000 F150.000
G3 X45.996 Y-31.666 Z-0.200 I0.238 J-0.608 K0.000 F150.000
G3 X46.349 Y-31.749 Z-0.200 I0.351 J0.701 K0.000 F150.000
G3 X46.988 Y-30.758 Z-0.200 I0.056 J0.666 K0.000 F150.000
G3 X46.787 Y-30.549 Z-0.200 I-0.627 J-0.404 K0.000 F150.000
G0 Z1.000
G0 X46.179 Y-30.398 Z1.000
G0 X46.179 Y-30.398 Z0.500
G1 X46.179 Y-30.398 Z-0.200 F100.000
G1 X45.842 Y-30.398 Z-0.200 F150.000
G2 X45.919 Y-30.483 Z-0.200 I-0.012 J-0.088 K0.000 F150.000
G2 X46.179 Y-30.398 Z-0.200 I0.275 J-0.399 K0.000 F150.000
G0 Z1.000
G0 Z1.000
G0 X46.179 Y-30.398
G0 X46.277 Y-32.229
G0 X46.277 Y-32.229 Z0.500
G1 X46.277 Y-32.229 Z-0.200 F100.000
G3 X46.173 Y-33.723 Z-0.200 I0.040 J-0.753 K0.000 F150.000
G3 X46.710 Y-33.671 Z-0.200 I0.184 J0.892 K0.000 F150.000
G3 X46.333 Y-32.229 Z-0.200 I-0.309 J0.690 K0.000 F150.000
G3 X46.277 Y-32.229 Z-0.200 I-0.016 J-0.754 K0.000 F150.000
G0 Z1.000
G0 X46.280 Y-32.265 Z1.000
G0 X46.280 Y-32.265 Z0.500
G1 X46.280 Y-32.265 Z-0.200 F100.000
G3 X46.085 Y-32.307 Z-0.200 I0.064 J-0.772 K0.000 F150.000
G3 X45.659 Y-32.710 Z-0.200 I0.181 J-0.617 K0.000 F150.000
G2 X47.084 Y-32.812 Z-0.200 I0.690 J-0.362 K0.000 F150.000
G3 X46.280 Y-32.265 Z-0.200 I-0.741 J-0.225 K0.000 F150.000
G0 Z1.000
G0 X46.281 Y-32.326 Z1.000
G0 X46.281 Y-32.326 Z0.500
G1 X46.281 Y-32.326 Z-0.200 F100.000
G3 X45.996 Y-33.560 Z-0.200 I0.013 J-0.652 K0.000 F150.000
G3 X46.589 Y-33.607 Z-0.200 I0.359 J0.758 K0.000 F150.000
G3 X46.364 Y-32.330 Z-0.200 I-0.173 J0.628 K0.000 F150.000
G3 X46.281 Y-32.326 Z-0.200 I-0.070 J-0.649 K0.000 F150.000
G0 Z1.000
G0 X45.655 Y-32.719 Z1.000
G0 X45.655 Y-32.719 Z0.500
G1 X45.655 Y-32.719 Z-0.200 F100.000
G3 X45.613 Y-33.042 Z-0.200 I0.455 J-0.223 K0.000 F150.000
G2 X45.655 Y-32.719 Z-0.200 I0.656 J0.079 K0.000 F150.000
G0 Z1.000
G0 X45.627 Y-33.141 Z1.000
G0 X45.627 Y-33.141 Z0.500
G1 X45.627 Y-33.141 Z-0.200 F100.000
G3 X46.696 Y-33.636 Z-0.200 I0.727 J0.168 K0.000 F150.000
G3 X47.056 Y-33.253 Z-0.200 I-0.174 J0.525 K0.000 F150.000
G2 X45.627 Y-33.141 Z-0.200 I-0.692 J0.342 K0.000 F150.000
G0 Z1.000
G0 X47.057 Y-33.251 Z1.000
G0 X47.057 Y-33.251 Z0.500
G1 X47.057 Y-33.251 Z-0.200 F100.000
G3 X47.096 Y-32.897 Z-0.200 I-0.504 J0.234 K0.000 F150.000
G2 X47.057 Y-33.251 Z-0.200 I-0.662 J-0.107 K0.000 F150.000
G0 Z1.000
G0 Z1.000
G0 X47.057 Y-33.251
G0 X48.097 Y-33.555
G0 X48.097 Y-33.555 Z0.500
G1 X48.097 Y-33.555 Z-0.200 F100.000
G1 X48.097 Y-33.656 Z-0.200 F150.000
G1 X50.294 Y-33.656 Z-0.200 F150.000
G1 X50.294 Y-33.555 Z-0.200 F150.000
G2 X50.047 Y-33.533 Z-0.200 I-0.097 J0.308 K0.000 F150.000
G2 X50.133 Y-33.356 Z-0.200 I0.123 J0.050 K0.000 F150.000
G3 X49.532 Y-32.144 Z-0.200 I-0.538 J0.488 K0.000 F150.000
G3 X49.039 Y-33.472 Z-0.200 I-0.056 J-0.735 K0.000 F150.000
G2 X48.964 Y-33.555 Z-0.200 I-0.075 J-0.008 K0.000 F150.000
G1 X48.097 Y-33.555 Z-0.200 F150.000
G0 Z1.000
G0 X48.880 Y-33.185 Z1.000
G0 X48.880 Y-33.185 Z0.500
G1 X48.880 Y-33.185 Z-0.200 F100.000
G3 X49.170 Y-33.488 Z-0.200 I0.598 J0.282 K0.000 F150.000
G3 X49.817 Y-33.519 Z-0.200 I0.359 J0.759 K0.000 F150.000
G3 X49.538 Y-32.245 Z-0.200 I-0.234 J0.616 K0.000 F150.000
G3 X48.880 Y-33.185 Z-0.200 I-0.060 J-0.658 K0.000 F150.000
G0 Z1.000
G0 X49.089 Y-33.504 Z1.000
G0 X49.089 Y-33.504 Z0.500
G1 X49.089 Y-33.504 Z-0.200 F100.000
G2 X49.024 Y-33.596 Z-0.200 I-0.087 J-0.007 K0.000 F150.000
G1 X49.297 Y-33.596 Z-0.200 F150.000
G2 X49.089 Y-33.504 Z-0.200 I0.063 J0.427 K0.000 F150.000
G0 Z1.000
G0 X49.714 Y-33.596 Z1.000
G0 X49.714 Y-33.596 Z0.500
G1 X49.714 Y-33.596 Z-0.200 F100.000
G1 X50.049 Y-33.596 Z-0.200 F150.000
G2 X49.972 Y-33.512 Z-0.200 I0.012 J0.088 K0.000 F150.000
G2 X49.714 Y-33.596 Z-0.200 I-0.282 J0.426 K0.000 F150.000
G0 Z1.000
G0 Z1.000
G0 X49.714 Y-33.596
G0 X49.917 Y-31.761
G0 X49.917 Y-31.761 Z0.500
G1 X49.917 Y-31.761 Z-0.200 F100.000
G3 X50.320 Y-31.129 Z-0.200 I-0.184 J0.561 K0.000 F150.000
G3 X50.206 Y-30.676 Z-0.200 I-0.775 J0.045 K0.000 F150.000
G3 X49.569 Y-30.763 Z-0.200 I-0.299 J-0.184 K0.000 F150.000
G2 X49.345 Y-31.508 Z-0.200 I-2.654 J0.392 K0.000 F150.000
G2 X48.844 Y-31.430 Z-0.200 I-0.232 J0.155 K0.000 F150.000
G2 X48.908 Y-30.803 Z-0.200 I0.730 J0.243 K0.000 F150.000
G2 X49.067 Y-30.698 Z-0.200 I0.222 J-0.164 K0.000 F150.000
G1 X49.067 Y-30.592 Z-0.200 F150.000
G3 X48.741 Y-31.152 Z-0.200 I0.176 J-0.477 K0.000 F150.000
G3 X48.855 Y-31.602 Z-0.200 I0.728 J-0.055 K0.000 F150.000
G3 X49.458 Y-31.491 Z-0.200 I0.273 J0.213 K0.000 F150.000
G2 X49.702 Y-30.722 Z-0.200 I2.448 J-0.353 K0.000 F150.000
G2 X50.206 Y-30.840 Z-0.200 I0.221 J-0.191 K0.000 F150.000
G2 X50.191 Y-31.434 Z-0.200 I-0.767 J-0.277 K0.000 F150.000
G2 X49.917 Y-31.652 Z-0.200 I-0.360 J0.169 K0.000 F150.000
G1 X49.917 Y-31.761 Z-0.200 F150.000
G0 Z1.000
G0 X49.955 Y-31.705 Z1.000
G0 X49.955 Y-31.705 Z0.500
G1 X49.955 Y-31.705 Z-0.200 F100.000
G3 X50.218 Y-31.460 Z-0.200 I-0.124 J0.397 K0.000 F150.000
G2 X49.955 Y-31.705 Z-0.200 I-0.655 J0.439 K0.000 F150.000
G0 Z1.000
G0 X50.260 Y-31.319 Z1.000
G0 X50.260 Y-31.319 Z0.500
G1 X50.260 Y-31.319 Z-0.200 F100.000
G3 X50.274 Y-31.239 Z-0.200 I-0.174 J0.073 K0.000 F150.000
G1 X50.260 Y-31.319 Z-0.200 F150.000
G0 Z1.000
G0 X50.214 Y-30.786 Z1.000
G0 X50.214 Y-30.786 Z0.500
G1 X50.214 Y-30.786 Z-0.200 F100.000
G3 X49.604 Y-30.778 Z-0.200 I-0.306 J-0.090 K0.000 F150.000
G2 X49.380 Y-31.522 Z-0.200 I-2.657 J0.395 K0.000 F150.000
G2 X48.857 Y-31.518 Z-0.200 I-0.260 J0.155 K0.000 F150.000
G3 X49.309 Y-31.649 Z-0.200 I0.283 J0.131 K0.000 F150.000
G3 X49.564 Y-30.940 Z-0.200 I-1.821 J1.056 K0.000 F150.000
G2 X49.775 Y-30.617 Z-0.200 I0.418 J-0.043 K0.000 F150.000
G2 X50.214 Y-30.786 Z-0.200 I0.145 J-0.279 K0.000 F150.000
G0 Z1.000
G0 X49.029 Y-30.671 Z1.000
G0 X49.029 Y-30.671 Z0.500
G1 X49.029 Y-30.671 Z-0.200 F100.000
G1 X49.029 Y-30.649 Z-0.200 F150.000
G3 X48.838 Y-30.846 Z-0.200 I0.153 J-0.340 K0.000 F150.000
G2 X49.029 Y-30.671 Z-0.200 I0.273 J-0.106 K0.000 F150.000
G0 Z1.000
G0 X48.797 Y-30.979 Z1.000
G0 X48.797 Y-30.979 Z0.500
G1 X48.797 Y-30.979 Z-0.200 F100.000
G3 X48.786 Y-31.043 Z-0.200 I0.132 J-0.055 K0.000 F150.000
G1 X48.797 Y-30.979 Z-0.200 F150.000
G0 Z1.000
G0 Z1.000
G0 X48.797 Y-30.979
G0 X51.922 Y-30.992
G0 X51.922 Y-30.992 Z0.500
G1 X51.922 Y-30.992 Z-0.200 F100.000
G3 X51.927 Y-31.063 Z-0.200 I0.519 J-0.002 K0.000 F150.000
G3 X52.040 Y-31.512 Z-0.200 I0.725 J-0.056 K0.000 F150.000
G3 X52.644 Y-31.401 Z-0.200 I0.273 J0.212 K0.000 F150.000
G2 X52.892 Y-30.629 Z-0.200 I2.349 J-0.327 K0.000 F150.000
G2 X53.392 Y-30.750 Z-0.200 I0.218 J-0.195 K0.000 F150.000
G2 X53.377 Y-31.344 Z-0.200 I-0.768 J-0.277 K0.000 F150.000
G2 X53.103 Y-31.562 Z-0.200 I-0.353 J0.163 K0.000 F150.000
G1 X53.103 Y-31.673 Z-0.200 F150.000
G3 X53.505 Y-31.039 Z-0.200 I-0.187 J0.564 K0.000 F150.000
G3 X53.391 Y-30.585 Z-0.200 I-0.777 J0.046 K0.000 F150.000
G3 X52.755 Y-30.673 Z-0.200 I-0.297 J-0.200 K0.000 F150.000
G3 X52.618 Y-31.211 Z-0.200 I5.275 J-1.634 K0.000 F150.000
G2 X52.465 Y-31.493 Z-0.200 I-0.456 J0.065 K0.000 F150.000
G2 X52.000 Y-31.212 Z-0.200 I-0.163 J0.256 K0.000 F150.000
G2 X52.094 Y-30.713 Z-0.200 I0.541 J0.157 K0.000 F150.000
G2 X52.253 Y-30.608 Z-0.200 I0.222 J-0.164 K0.000 F150.000
G1 X52.253 Y-30.511 Z-0.200 F150.000
G3 X51.922 Y-30.992 Z-0.200 I0.188 J-0.483 K0.000 F150.000
G0 Z1.000
G0 X51.972 Y-30.953 Z1.000
G0 X51.972 Y-30.953 Z0.500
G1 X51.972 Y-30.953 Z-0.200 F100.000
G1 X51.983 Y-30.890 Z-0.200 F150.000
G3 X51.972 Y-30.953 Z-0.200 I0.131 J-0.055 K0.000 F150.000
G0 Z1.000
G0 X52.024 Y-30.756 Z1.000
G0 X52.024 Y-30.756 Z0.500
G1 X52.024 Y-30.756 Z-0.200 F100.000
G2 X52.215 Y-30.567 Z-0.200 I3.422 J-3.264 K0.000 F150.000
G3 X52.024 Y-30.756 Z-0.200 I0.129 J-0.321 K0.000 F150.000
G0 Z1.000
G0 X52.042 Y-31.427 Z1.000
G0 X52.042 Y-31.427 Z0.500
G1 X52.042 Y-31.427 Z-0.200 F100.000
G3 X52.495 Y-31.559 Z-0.200 I0.282 J0.124 K0.000 F150.000
G3 X52.750 Y-30.850 Z-0.200 I-1.822 J1.056 K0.000 F150.000
G2 X52.987 Y-30.515 Z-0.200 I0.419 J-0.045 K0.000 F150.000
G2 X53.400 Y-30.697 Z-0.200 I0.119 J-0.290 K0.000 F150.000
G3 X52.790 Y-30.688 Z-0.200 I-0.307 J-0.087 K0.000 F150.000
G3 X52.652 Y-31.225 Z-0.200 I5.472 J-1.687 K0.000 F150.000
G2 X52.492 Y-31.519 Z-0.200 I-0.487 J0.075 K0.000 F150.000
G2 X52.042 Y-31.427 Z-0.200 I-0.183 J0.248 K0.000 F150.000
G0 Z1.000
G0 X53.140 Y-31.591 Z1.000
G0 X53.140 Y-31.591 Z0.500
G1 X53.140 Y-31.591 Z-0.200 F100.000
G1 X53.140 Y-31.617 Z-0.200 F150.000
G3 X53.404 Y-31.369 Z-0.200 I-0.129 J0.401 K0.000 F150.000
G2 X53.140 Y-31.591 Z-0.200 I-0.380 J0.183 K0.000 F150.000
G0 Z1.000
G0 X53.445 Y-31.233 Z1.000
G0 X53.445 Y-31.233 Z0.500
G1 X53.445 Y-31.233 Z-0.200 F100.000
G3 X53.460 Y-31.148 Z-0.200 I-0.184 J0.077 K0.000 F150.000
G1 X53.445 Y-31.233 Z-0.200 F150.000
G0 Z1.000
G0 Z1.000
G0 X53.445 Y-31.233
G0 Y-32.158
G0 Y-32.158 Z0.500
G1 X53.445 Y-32.158 Z-0.200 F100.000
G1 X51.283 Y-32.158 Z-0.200 F150.000
G1 X51.283 Y-32.259 Z-0.200 F150.000
G1 X52.150 Y-32.259 Z-0.200 F150.000
G2 X52.151 Y-32.427 Z-0.200 I-0.009 J-0.084 K0.000 F150.000
G3 X52.714 Y-33.670 Z-0.200 I0.501 J-0.522 K0.000 F150.000
G3 X53.236 Y-32.390 Z-0.200 I0.072 J0.717 K0.000 F150.000
G2 X53.286 Y-32.259 Z-0.200 I0.050 J0.056 K0.000 F150.000
G1 X53.479 Y-32.259 Z-0.200 F150.000
G1 X53.479 Y-32.158 Z-0.200 F150.000
G1 X53.445 Y-32.158 Z-0.200 F150.000
G0 Z1.000
G0 X53.252 Y-32.218 Z1.000
G0 X53.252 Y-32.218 Z0.500
G1 X53.252 Y-32.218 Z-0.200 F100.000
G1 X52.947 Y-32.218 Z-0.200 F150.000
G2 X53.161 Y-32.312 Z-0.200 I-0.062 J-0.434 K0.000 F150.000
G2 X53.252 Y-32.218 Z-0.200 I0.086 J0.007 K0.000 F150.000
G0 Z1.000
G0 X53.148 Y-32.365 Z1.000
G0 X53.148 Y-32.365 Z0.500
G1 X53.148 Y-32.365 Z-0.200 F100.000
G3 X52.724 Y-32.246 Z-0.200 I-0.379 J-0.537 K0.000 F150.000
G3 X52.356 Y-33.486 Z-0.200 I-0.063 J-0.655 K0.000 F150.000
G3 X52.980 Y-33.525 Z-0.200 I0.359 J0.727 K0.000 F150.000
G3 X53.148 Y-32.365 Z-0.200 I-0.210 J0.623 K0.000 F150.000
G0 Z1.000
G0 X52.486 Y-32.218 Z1.000
G0 X52.486 Y-32.218 Z0.500
G1 X52.486 Y-32.218 Z-0.200 F100.000
G1 X52.202 Y-32.218 Z-0.200 F150.000
G2 X52.277 Y-32.301 Z-0.200 I-0.012 J-0.087 K0.000 F150.000
G2 X52.486 Y-32.218 Z-0.200 I0.334 J-0.535 K0.000 F150.000
G0 Z1.000
G0 Z1.000
G0 X52.486 Y-32.218
G0 X52.568 Y-34.502
G0 X52.568 Y-34.502 Z0.500
G1 X52.568 Y-34.502 Z-0.200 F100.000
G1 X52.568 Y-35.326 Z-0.200 F150.000
G2 X52.493 Y-35.401 Z-0.200 I-0.075 J0.000 K0.000 F150.000
G1 X49.601 Y-35.401 Z-0.200 F150.000
G2 X49.526 Y-35.326 Z-0.200 I0.000 J0.075 K0.000 F150.000
G1 X49.526 Y-34.500 Z-0.200 F150.000
G1 X49.477 Y-34.500 Z-0.200 F150.000
G1 X49.477 Y-35.326 Z-0.200 F150.000
G2 X49.402 Y-35.401 Z-0.200 I-0.075 J0.000 K0.000 F150.000
G1 X46.600 Y-35.401 Z-0.200 F150.000
G2 X46.525 Y-35.326 Z-0.200 I0.000 J0.075 K0.000 F150.000
G1 X46.525 Y-34.502 Z-0.200 F150.000
G1 X46.476 Y-34.502 Z-0.200 F150.000
G1 X46.476 Y-35.452 Z-0.200 F150.000
G1 X49.400 Y-35.452 Z-0.200 F150.000
G2 X49.475 Y-35.527 Z-0.200 I-0.000 J-0.075 K0.000 F150.000
G1 X49.475 Y-41.214 Z-0.200 F150.000
G2 X49.526 Y-41.214 Z-0.200 I0.022 J-0.896 K0.000 F150.000
G1 X49.524 Y-35.527 Z-0.200 F150.000
G2 X49.599 Y-35.452 Z-0.200 I0.075 J0.000 K0.000 F150.000
G1 X52.619 Y-35.452 Z-0.200 F150.000
G1 X52.619 Y-34.502 Z-0.200 F150.000
G1 X52.568 Y-34.502 Z-0.200 F150.000
G0 Z1.000
G0 X49.517 Y-35.430 Z1.000
G0 X49.517 Y-35.430 Z0.500
G1 X49.517 Y-35.430 Z-0.200 F100.000
G2 X49.506 Y-35.411 Z-0.200 I0.004 J0.015 K0.000 F150.000
G2 X49.484 Y-35.422 Z-0.200 I-0.016 J0.005 K0.000 F150.000
G2 X49.495 Y-35.441 Z-0.200 I-0.004 J-0.015 K0.000 F150.000
G2 X49.517 Y-35.430 Z-0.200 I0.016 J-0.005 K0.000 F150.000
G0 Z1.000
G0 Z1.000
G0 X49.517 Y-35.430
G0 X53.317 Y-60.103
G0 X53.317 Y-60.103 Z0.500
G1 X53.317 Y-60.103 Z-0.200 F100.000
G3 X53.030 Y-60.449 Z-0.200 I0.052 J-0.335 K0.000 F150.000
G2 X52.161 Y-61.668 Z-0.200 I-2.930 J1.169 K0.000 F150.000
G2 X52.293 Y-64.641 Z-0.200 I-14.890 J-2.152 K0.000 F150.000
G2 X51.999 Y-69.033 Z-0.200 I-118.309 J5.716 K0.000 F150.000
G3 X52.001 Y-71.149 Z-0.200 I21.749 J-1.045 K0.000 F150.000
G2 X53.479 Y-72.909 Z-0.200 I-0.521 J-1.939 K0.000 F150.000
G3 X53.552 Y-73.336 Z-0.200 I1.978 J0.121 K0.000 F150.000
G3 X56.696 Y-73.570 Z-0.200 I7.591 J80.718 K0.000 F150.000
G3 X57.806 Y-73.553 Z-0.200 I0.147 J27.243 K0.000 F150.000
G2 X61.925 Y-73.468 Z-0.200 I9.786 J-374.039 K0.000 F150.000
G1 X61.925 Y-73.356 Z-0.200 F150.000
G2 X54.853 Y-73.421 Z-0.200 I-4.389 J91.633 K0.000 F150.000
G2 X53.839 Y-73.255 Z-0.200 I0.080 J3.650 K0.000 F150.000
G2 X53.613 Y-72.930 Z-0.200 I0.096 J0.308 K0.000 F150.000
G3 X52.781 Y-71.467 Z-0.200 I-1.784 J-0.047 K0.000 F150.000
G3 X52.063 Y-70.972 Z-0.200 I-11.609 J-16.069 K0.000 F150.000
G1 X52.030 Y-70.908 Z-0.200 F150.000
G2 X52.210 Y-67.035 Z-0.200 I43.635 J-0.079 K0.000 F150.000
G3 X52.337 Y-63.985 Z-0.200 I-21.816 J2.438 K0.000 F150.000
G1 X52.358 Y-61.621 Z-0.200 F150.000
G1 X52.374 Y-61.575 Z-0.200 F150.000
G3 X53.238 Y-60.319 Z-0.200 I-7.085 J5.799 K0.000 F150.000
G2 X54.118 Y-60.087 Z-0.200 I0.772 J-1.142 K0.000 F150.000
G3 X61.925 Y-59.805 Z-0.200 I-42.355 J1283.320 K0.000 F150.000
G1 X61.925 Y-59.706 Z-0.200 F150.000
G3 X56.550 Y-59.940 Z-0.200 I13.850 J-379.987 K0.000 F150.000
G3 X53.317 Y-60.103 Z-0.200 I-0.549 J-21.283 K0.000 F150.000
G0 Z1.000
G0 X53.322 Y-60.156 Z1.000
G0 X53.322 Y-60.156 Z0.500
G1 X53.322 Y-60.156 Z-0.200 F100.000
G3 X53.111 Y-60.389 Z-0.200 I0.024 J-0.234 K0.000 F150.000
G2 X53.367 Y-60.155 Z-0.200 I0.494 J-0.284 K0.000 F150.000
G3 X53.322 Y-60.156 Z-0.200 I-0.020 J-0.235 K0.000 F150.000
G0 Z1.000
G0 X52.307 Y-61.596 Z1.000
G0 X52.307 Y-61.596 Z0.500
G1 X52.307 Y-61.596 Z-0.200 F100.000
G1 X52.225 Y-61.687 Z-0.200 F150.000
G2 X52.294 Y-62.100 Z-0.200 I-5.600 J-1.140 K0.000 F150.000
G1 X52.298 Y-61.620 Z-0.200 F150.000
G1 X52.307 Y-61.596 Z-0.200 F150.000
G0 Z1.000
G0 X52.058 Y-71.041 Z1.000
G0 X52.058 Y-71.041 Z0.500
G1 X52.058 Y-71.041 Z-0.200 F100.000
G1 X52.060 Y-71.106 Z-0.200 F150.000
G2 X52.277 Y-71.190 Z-0.200 I-0.289 J-1.080 K0.000 F150.000
G1 X52.058 Y-71.041 Z-0.200 F150.000
G0 Z1.000
G0 X53.177 Y-71.917 Z1.000
G0 X53.177 Y-71.917 Z0.500
G1 X53.177 Y-71.917 Z-0.200 F100.000
G2 X53.582 Y-73.210 Z-0.200 I-2.195 J-1.398 K0.000 F150.000
G3 X53.797 Y-73.303 Z-0.200 I0.148 J0.047 K0.000 F150.000
G1 X53.804 Y-73.304 Z-0.200 F150.000
G2 X53.554 Y-72.940 Z-0.200 I0.127 J0.355 K0.000 F150.000
G3 X53.224 Y-71.968 Z-0.200 I-1.662 J-0.022 K0.000 F150.000
G1 X53.177 Y-71.917 Z-0.200 F150.000
G0 Z1.000
G0 X53.624 Y-73.224 Z1.000
G0 X53.624 Y-73.224 Z0.500
G1 X53.624 Y-73.224 Z-0.200 F100.000
G3 X53.650 Y-73.250 Z-0.200 I0.024 J-0.002 K0.000 F150.000
G1 X53.624 Y-73.224 Z-0.200 F150.000
G0 Z1.000
G0 Z1.000
G0 X53.624 Y-73.224
G0 X55.347 Y-71.210
G0 X55.347 Y-71.210 Z0.500
G1 X55.347 Y-71.210 Z-0.200 F100.000
G3 X55.520 Y-71.246 Z-0.200 I0.120 J0.140 K0.000 F150.000
G3 X55.291 Y-71.126 Z-0.200 I-0.152 J-0.011 K0.000 F150.000
G3 X55.347 Y-71.210 Z-0.200 I0.176 J0.056 K0.000 F150.000
G0 Z1.000
G0 X55.369 Y-71.182 Z1.000
G0 X55.369 Y-71.182 Z0.500
G1 X55.369 Y-71.182 Z-0.200 F100.000
G3 X55.484 Y-71.215 Z-0.200 I0.096 J0.119 K0.000 F150.000
G3 X55.334 Y-71.142 Z-0.200 I-0.130 J-0.077 K0.000 F150.000
G3 X55.369 Y-71.182 Z-0.200 I0.131 J0.078 K0.000 F150.000
G0 Z1.000
G0 Z1.000
G0 X55.369 Y-71.182
G0 X54.858 Y-72.290
G0 X54.858 Y-72.290 Z0.500
G1 X54.858 Y-72.290 Z-0.200 F100.000
G1 X54.846 Y-72.286 Z-0.200 F150.000
G3 X54.858 Y-72.290 Z-0.200 I0.010 J0.008 K0.000 F150.000
G0 Z1.000
G0 Z1.000
G0 X54.858 Y-72.290
G0 X48.853 Y-69.980
G0 X48.853 Y-69.980 Z0.500
G1 X48.853 Y-69.980 Z-0.200 F100.000
G3 X48.831 Y-69.858 Z-0.200 I-0.112 J0.043 K0.000 F150.000
G3 X48.742 Y-70.081 Z-0.200 I0.027 J-0.141 K0.000 F150.000
G3 X48.847 Y-69.994 Z-0.200 I-0.015 J0.126 K0.000 F150.000
G3 X48.853 Y-69.980 Z-0.200 I-0.105 J0.057 K0.000 F150.000
G0 Z1.000
G0 X48.814 Y-69.968 Z1.000
G0 X48.814 Y-69.968 Z0.500
G1 X48.814 Y-69.968 Z-0.200 F100.000
G3 X48.814 Y-69.906 Z-0.200 I-0.111 J0.032 K0.000 F150.000
G3 X48.760 Y-70.036 Z-0.200 I0.286 J-0.197 K0.000 F150.000
G3 X48.814 Y-69.968 Z-0.200 I-0.056 J0.101 K0.000 F150.000
G0 Z1.000
G0 Z1.000
G0 X48.814 Y-69.968
G0 X48.616 Y-68.459
G0 X48.616 Y-68.459 Z0.500
G1 X48.616 Y-68.459 Z-0.200 F100.000
G3 X48.558 Y-68.402 Z-0.200 I-0.046 J0.011 K0.000 F150.000
G3 X48.616 Y-68.459 Z-0.200 I0.058 J0.001 K0.000 F150.000
G0 Z1.000
G0 Z1.000
G0 X48.616 Y-68.459
G0 X39.005 Y-66.873
G0 X39.005 Y-66.873 Z0.500
G1 X39.005 Y-66.873 Z-0.200 F100.000
G3 X38.816 Y-65.432 Z-0.200 I-7.313 J-0.225 K0.000 F150.000
G1 X38.804 Y-65.415 Z-0.200 F150.000
G3 X39.005 Y-66.873 Z-0.200 I13.805 J1.162 K0.000 F150.000
G0 Z1.000
G0 Z1.000
G0 X39.005 Y-66.873
G0 X37.013 Y-66.844
G0 X37.013 Y-66.844 Z0.500
G1 X37.013 Y-66.844 Z-0.200 F100.000
G3 X36.870 Y-64.901 Z-0.200 I-11.124 J0.161 K0.000 F150.000
G3 X36.852 Y-64.791 Z-0.200 I-2.220 J-0.309 K0.000 F150.000
G3 X36.988 Y-67.437 Z-0.200 I27.663 J0.099 K0.000 F150.000
G3 X37.013 Y-66.844 Z-0.200 I-11.100 J0.753 K0.000 F150.000
G0 Z1.000
G0 X36.990 Y-66.844 Z1.000
G0 X36.990 Y-66.844 Z0.500
G1 X36.990 Y-66.844 Z-0.200 F100.000
G3 X36.895 Y-65.388 Z-0.200 I-11.747 J-0.036 K0.000 F150.000
G3 X36.988 Y-67.112 Z-0.200 I28.792 J0.686 K0.000 F150.000
G3 X36.990 Y-66.844 Z-0.200 I-11.745 J0.232 K0.000 F150.000
G0 Z1.000
G0 Z1.000
G0 X36.990 Y-66.844
G0 X35.216 Y-65.192
G0 X35.216 Y-65.192 Z0.500
G1 X35.216 Y-65.192 Z-0.200 F100.000
G3 X35.342 Y-64.884 Z-0.200 I-0.343 J0.320 K0.000 F150.000
G3 X35.067 Y-65.279 Z-0.200 I0.544 J-0.671 K0.000 F150.000
G3 X35.133 Y-65.263 Z-0.200 I0.017 J0.074 K0.000 F150.000
G3 X35.216 Y-65.192 Z-0.200 I-0.260 J0.390 K0.000 F150.000
G0 Z1.000
G0 X35.190 Y-65.168 Z1.000
G0 X35.190 Y-65.168 Z0.500
G1 X35.190 Y-65.168 Z-0.200 F100.000
G3 X35.267 Y-65.029 Z-0.200 I-0.240 J0.225 K0.000 F150.000
G3 X35.128 Y-65.219 Z-0.200 I0.959 J-0.847 K0.000 F150.000
G3 X35.190 Y-65.168 Z-0.200 I-0.179 J0.276 K0.000 F150.000
G0 Z1.000
G0 Z1.000
G0 X35.190 Y-65.168
G0 X35.507 Y-65.629
G0 X35.507 Y-65.629 Z0.500
G1 X35.507 Y-65.629 Z-0.200 F100.000
G3 X35.503 Y-66.148 Z-0.200 I0.561 J-0.264 K0.000 F150.000
G3 X35.546 Y-66.138 Z-0.200 I0.017 J0.022 K0.000 F150.000
G3 X35.507 Y-65.629 Z-0.200 I-0.646 J0.207 K0.000 F150.000
G0 Z1.000
G0 X35.513 Y-65.843 Z1.000
G0 X35.513 Y-65.843 Z0.500
G1 X35.513 Y-65.843 Z-0.200 F100.000
G3 X35.515 Y-65.959 Z-0.200 I0.320 J-0.053 K0.000 F150.000
G3 X35.513 Y-65.843 Z-0.200 I-0.327 J0.053 K0.000 F150.000
G0 Z1.000
G0 Z1.000
(Finish operation: Pocket_Shape001)
(Begin postamble)
M5
G17 G90
M2
