(Exported by FreeCAD)
(Post Processor: grbl_post)
(Output Time:2023-04-22 12:51:50.786538)
(Begin preamble)
G17 G90
G21
(Begin operation: G54)
(Path: G54)
G54
G0 Z5.000
(Finish operation: G54)
(Begin operation: endmill-0_4mm001)
(Path: endmill-0_4mm001)
(endmill-0_4mm001)
(Begin toolchange)
( M6 T3 )
(Post processing added : Ramp up the spindle speed)
M3 S100
G4 P.25
M3 S200
G4 P.25
M3 S400
G4 P.25
M3 S600
G4 P.25
M3 S800
G4 P.25
M3 S1000
G4 P.25
M3 S2000
G4 P.25
M3 S4000
G4 P.25
M3 S6000
G4 P.25
M3 S10000
(End post processing)
(Finish operation: endmill-0_4mm001)
(Begin operation: Pocket_Shape)
(Path: Pocket_Shape)
(Pocket_Shape)
G0 Z0.500
G0 X31.981 Y-60.823
G0 Z0.300
G1 X31.981 Y-60.823 Z-0.200 F100.000
G3 X30.240 Y-59.619 Z-0.200 I-26.929 J-37.064 K0.000 F150.000
G2 X29.245 Y-58.916 Z-0.200 I130.835 J186.447 K0.000 F150.000
G3 X27.265 Y-61.850 Z-0.200 I20531.119 J-13861.038 K0.000 F150.000
G3 X31.562 Y-64.452 Z-0.200 I413.101 J677.289 K0.000 F150.000
G3 X33.366 Y-61.870 Z-0.200 I-45.580 J33.781 K0.000 F150.000
G3 X31.981 Y-60.823 Z-0.200 I-28.315 J-36.017 K0.000 F150.000
G0 Z0.500
G0 X31.860 Y-60.962 Z0.500
G0 X31.860 Y-60.962 Z0.300
G1 X31.860 Y-60.962 Z-0.200 F100.000
G3 X30.549 Y-60.187 Z-0.200 I-2.767 J-3.183 K0.000 F150.000
G3 X29.834 Y-60.282 Z-0.200 I-0.267 J-0.735 K0.000 F150.000
G3 X29.272 Y-60.900 Z-0.200 I1.497 J-1.925 K0.000 F150.000
G3 X28.889 Y-62.095 Z-0.200 I1.274 J-1.067 K0.000 F150.000
G3 X29.523 Y-62.814 Z-0.200 I1.503 J0.687 K0.000 F150.000
G3 X30.181 Y-62.859 Z-0.200 I0.351 J0.301 K0.000 F150.000
G3 X30.986 Y-61.727 Z-0.200 I-192.507 J137.662 K0.000 F150.000
G2 X31.287 Y-61.905 Z-0.200 I-0.598 J-1.355 K0.000 F150.000
G2 X31.046 Y-62.304 Z-0.200 I-2.865 J1.454 K0.000 F150.000
G2 X30.821 Y-62.353 Z-0.200 I-0.148 J0.138 K0.000 F150.000
G3 X30.461 Y-62.679 Z-0.200 I0.103 J-0.476 K0.000 F150.000
G3 X30.378 Y-63.195 Z-0.200 I0.374 J-0.325 K0.000 F150.000
G3 X30.833 Y-63.467 Z-0.200 I0.587 J0.464 K0.000 F150.000
G3 X31.213 Y-63.518 Z-0.200 I0.265 J0.544 K0.000 F150.000
G3 X32.376 Y-62.107 Z-0.200 I-1.444 J2.377 K0.000 F150.000
G3 X32.375 Y-61.497 Z-0.200 I-0.553 J0.304 K0.000 F150.000
G3 X31.860 Y-60.962 Z-0.200 I-3.282 J-2.648 K0.000 F150.000
G0 Z0.500
G0 X32.618 Y-61.544 Z0.500
G0 X32.618 Y-61.544 Z0.300
G1 X32.618 Y-61.544 Z-0.200 F100.000
G2 X32.398 Y-62.531 Z-0.200 I-1.288 J-0.232 K0.000 F150.000
G2 X31.288 Y-63.703 Z-0.200 I-2.384 J1.147 K0.000 F150.000
G2 X30.295 Y-63.405 Z-0.200 I-0.138 J1.343 K0.000 F150.000
G2 X30.145 Y-63.128 Z-0.200 I0.276 J0.328 K0.000 F150.000
G2 X29.852 Y-63.188 Z-0.200 I-0.222 J0.337 K0.000 F150.000
G3 X31.509 Y-64.189 Z-0.200 I88.719 J144.958 K0.000 F150.000
G3 X33.102 Y-61.913 Z-0.200 I-61.863 J45.016 K0.000 F150.000
G3 X32.618 Y-61.544 Z-0.200 I-10.057 J-12.722 K0.000 F150.000
G0 Z0.500
G0 X32.830 Y-61.954 Z0.500
G0 X32.830 Y-61.954 Z0.300
G1 X32.830 Y-61.954 Z-0.200 F100.000
G1 X32.828 Y-61.963 Z-0.200 F150.000
G3 X32.830 Y-61.954 Z-0.200 I0.001 J0.004 K0.000 F150.000
G0 Z0.500
G0 X31.542 Y-63.803 Z0.500
G0 X31.542 Y-63.803 Z0.300
G1 X31.542 Y-63.803 Z-0.200 F100.000
G2 X31.382 Y-63.880 Z-0.200 I-0.370 J0.560 K0.000 F150.000
G3 X31.455 Y-63.924 Z-0.200 I6.958 J11.556 K0.000 F150.000
G3 X31.542 Y-63.803 Z-0.200 I-8.020 J5.863 K0.000 F150.000
G0 Z0.500
G0 X29.146 Y-62.757 Z0.500
G0 X29.146 Y-62.757 Z0.300
G1 X29.146 Y-62.757 Z-0.200 F100.000
G2 X28.673 Y-62.030 Z-0.200 I0.758 J1.009 K0.000 F150.000
G2 X29.114 Y-60.778 Z-0.200 I2.018 J-0.007 K0.000 F150.000
G2 X29.738 Y-60.106 Z-0.200 I1.819 J-1.065 K0.000 F150.000
G2 X30.365 Y-59.950 Z-0.200 I0.517 J-0.737 K0.000 F150.000
G2 X29.296 Y-59.197 Z-0.200 I130.959 J186.998 K0.000 F150.000
G3 X27.549 Y-61.786 Z-0.200 I18114.866 J-12229.771 K0.000 F150.000
G2 X29.146 Y-62.757 Z-0.200 I-194.954 J-322.495 K0.000 F150.000
G0 Z0.500
G0 X28.487 Y-62.121 Z0.500
G0 X28.487 Y-62.121 Z0.300
G1 X28.487 Y-62.121 Z-0.200 F100.000
G2 X28.777 Y-60.944 Z-0.200 I1.805 J0.179 K0.000 F150.000
G2 X29.642 Y-59.931 Z-0.200 I2.571 J-1.319 K0.000 F150.000
G2 X29.844 Y-59.829 Z-0.200 I0.409 J-0.558 K0.000 F150.000
G2 X29.348 Y-59.479 Z-0.200 I83.834 J119.439 K0.000 F150.000
G3 X27.832 Y-61.724 Z-0.200 I15700.836 J-10600.006 K0.000 F150.000
G2 X28.487 Y-62.121 Z-0.200 I-181.351 J-299.354 K0.000 F150.000
G0 Z0.500
G0 X28.283 Y-61.763 Z0.500
G0 X28.283 Y-61.763 Z0.300
G1 X28.283 Y-61.763 Z-0.200 F100.000
G2 X28.453 Y-61.162 Z-0.200 I1.749 J-0.170 K0.000 F150.000
G1 X28.116 Y-61.661 Z-0.200 F150.000
G2 X28.283 Y-61.763 Z-0.200 I-76.933 J-126.868 K0.000 F150.000
G0 Z0.500
G0 X29.218 Y-60.029 Z0.500
G0 X29.218 Y-60.029 Z0.300
G1 X29.218 Y-60.029 Z-0.200 F100.000
G2 X29.470 Y-59.810 Z-0.200 I0.985 J-0.886 K0.000 F150.000
G2 X29.399 Y-59.760 Z-0.200 I22.928 J32.606 K0.000 F150.000
G1 X29.218 Y-60.029 Z-0.200 F150.000
G0 Z0.500
G0 Z0.500
G0 X29.218 Y-60.029
G0 X30.118 Y-61.316
G0 X30.118 Y-61.316 Z0.300
G1 X30.118 Y-61.316 Z-0.200 F100.000
G3 X29.871 Y-61.723 Z-0.200 I3.584 J-2.454 K0.000 F150.000
G1 X29.871 Y-61.723 Z-0.200 F150.000
G3 X30.118 Y-61.316 Z-0.200 I-1.203 J1.008 K0.000 F150.000
G0 Z0.500
G0 Z0.500
G0 X30.118 Y-61.316
G0 X29.147 Y-65.367
G0 X29.147 Y-65.367 Z0.300
G1 X29.147 Y-65.367 Z-0.200 F100.000
G3 X26.433 Y-64.738 Z-0.200 I-41.953 J-175.022 K0.000 F150.000
G3 X25.919 Y-68.067 Z-0.200 I116.911 J-19.742 K0.000 F150.000
G3 X30.711 Y-68.450 Z-0.200 I18.045 J195.860 K0.000 F150.000
G3 X31.321 Y-65.902 Z-0.200 I-17.836 J5.619 K0.000 F150.000
G3 X29.147 Y-65.367 Z-0.200 I-44.128 J-174.486 K0.000 F150.000
G0 Z0.500
G0 X29.124 Y-65.567 Z0.500
G0 X29.124 Y-65.567 Z0.300
G1 X29.124 Y-65.567 Z-0.200 F100.000
G2 X29.269 Y-65.746 Z-0.200 I-0.359 J-0.440 K0.000 F150.000
G2 X29.528 Y-65.664 Z-0.200 I0.313 J-0.533 K0.000 F150.000
G1 X29.124 Y-65.567 Z-0.200 F150.000
G0 Z0.500
G0 X28.998 Y-65.724 Z0.500
G0 X28.998 Y-65.724 Z0.300
G1 X28.998 Y-65.724 Z-0.200 F100.000
G3 X28.024 Y-65.426 Z-0.200 I-0.860 J-1.070 K0.000 F150.000
G3 X27.207 Y-65.958 Z-0.200 I-0.007 J-0.882 K0.000 F150.000
G3 X27.072 Y-67.079 Z-0.200 I2.372 J-0.855 K0.000 F150.000
G3 X27.646 Y-67.889 Z-0.200 I0.759 J-0.070 K0.000 F150.000
G3 X28.116 Y-67.537 Z-0.200 I0.139 J0.304 K0.000 F150.000
G3 X27.984 Y-66.989 Z-0.200 I-0.346 J0.206 K0.000 F150.000
G2 X28.081 Y-66.379 Z-0.200 I15.570 J-2.178 K0.000 F150.000
G2 X28.298 Y-66.403 Z-0.200 I0.058 J-0.467 K0.000 F150.000
G2 X28.260 Y-67.034 Z-0.200 I-2.998 J-0.136 K0.000 F150.000
G3 X28.342 Y-67.818 Z-0.200 I1.218 J-0.269 K0.000 F150.000
G3 X29.299 Y-68.088 Z-0.200 I0.808 J1.031 K0.000 F150.000
G3 X30.063 Y-67.773 Z-0.200 I0.074 J0.904 K0.000 F150.000
G3 X30.349 Y-66.578 Z-0.200 I-1.654 J1.027 K0.000 F150.000
G1 X30.349 Y-66.578 Z-0.200 F150.000
G3 X30.340 Y-66.341 Z-0.200 I-1.554 J0.062 K0.000 F150.000
G3 X29.923 Y-65.943 Z-0.200 I-0.560 J-0.169 K0.000 F150.000
G3 X29.182 Y-66.271 Z-0.200 I-0.289 J-0.349 K0.000 F150.000
G3 X29.023 Y-65.745 Z-0.200 I-0.675 J0.082 K0.000 F150.000
G3 X28.998 Y-65.724 Z-0.200 I-0.885 J-1.050 K0.000 F150.000
G0 Z0.500
G0 X29.169 Y-66.464 Z0.500
G0 X29.169 Y-66.464 Z0.300
G1 X29.169 Y-66.464 Z-0.200 F100.000
G2 X29.080 Y-67.021 Z-0.200 I-7.051 J0.845 K0.000 F150.000
G3 X29.338 Y-66.996 Z-0.200 I-0.002 J1.376 K0.000 F150.000
G3 X29.378 Y-66.789 Z-0.200 I-4.589 J0.991 K0.000 F150.000
G2 X29.169 Y-66.464 Z-0.200 I0.169 J0.338 K0.000 F150.000
G0 Z0.500
G0 X30.066 Y-65.795 Z0.500
G0 X30.066 Y-65.795 Z0.300
G1 X30.066 Y-65.795 Z-0.200 F100.000
G2 X30.547 Y-66.732 Z-0.200 I-0.305 J-0.749 K0.000 F150.000
G2 X30.202 Y-67.917 Z-0.200 I-1.857 J-0.102 K0.000 F150.000
G2 X29.835 Y-68.190 Z-0.200 I-0.583 J0.401 K0.000 F150.000
G3 X30.568 Y-68.241 Z-0.200 I4.559 J59.900 K0.000 F150.000
G3 X31.098 Y-66.050 Z-0.200 I-21.200 J6.281 K0.000 F150.000
G3 X30.066 Y-65.795 Z-0.200 I-16.648 J-65.065 K0.000 F150.000
G0 Z0.500
G0 X30.699 Y-66.156 Z0.500
G0 X30.699 Y-66.156 Z0.300
G1 X30.699 Y-66.156 Z-0.200 F100.000
G2 X30.747 Y-66.745 Z-0.200 I-1.729 J-0.437 K0.000 F150.000
G3 X30.868 Y-66.199 Z-0.200 I-14.742 J3.571 K0.000 F150.000
G1 X30.699 Y-66.156 Z-0.200 F150.000
G0 Z0.500
G0 X30.455 Y-67.910 Z0.500
G0 X30.455 Y-67.910 Z0.300
G1 X30.455 Y-67.910 Z-0.200 F100.000
G2 X30.367 Y-68.027 Z-0.200 I-0.439 J0.239 K0.000 F150.000
G3 X30.421 Y-68.031 Z-0.200 I0.767 J10.797 K0.000 F150.000
G1 X30.455 Y-67.910 Z-0.200 F150.000
G0 Z0.500
G0 X28.338 Y-68.074 Z0.500
G0 X28.338 Y-68.074 Z0.300
G1 X28.338 Y-68.074 Z-0.200 F100.000
G2 X28.184 Y-67.939 Z-0.200 I0.261 J0.453 K0.000 F150.000
G2 X28.028 Y-68.049 Z-0.200 I-0.238 J0.170 K0.000 F150.000
G3 X28.338 Y-68.074 Z-0.200 I3.454 J40.959 K0.000 F150.000
G0 Z0.500
G0 X27.412 Y-67.999 Z0.500
G0 X27.412 Y-67.999 Z0.300
G1 X27.412 Y-67.999 Z-0.200 F100.000
G2 X26.872 Y-67.082 Z-0.200 I0.382 J0.843 K0.000 F150.000
G2 X26.994 Y-65.947 Z-0.200 I2.842 J0.269 K0.000 F150.000
G2 X27.807 Y-65.258 Z-0.200 I1.010 J-0.368 K0.000 F150.000
G3 X26.594 Y-64.978 Z-0.200 I-16.196 J-67.468 K0.000 F150.000
G3 X26.145 Y-67.888 Z-0.200 I126.455 J-21.004 K0.000 F150.000
G3 X27.412 Y-67.999 Z-0.200 I10.789 J116.600 K0.000 F150.000
G0 Z0.500
G0 X26.846 Y-67.750 Z0.500
G0 X26.846 Y-67.750 Z0.300
G1 X26.846 Y-67.750 Z-0.200 F100.000
G2 X26.669 Y-66.780 Z-0.200 I1.468 J0.769 K0.000 F150.000
G2 X27.178 Y-65.345 Z-0.200 I1.718 J0.199 K0.000 F150.000
G1 X27.209 Y-65.323 Z-0.200 F150.000
G3 X26.757 Y-65.219 Z-0.200 I-6.010 J-25.158 K0.000 F150.000
G3 X26.373 Y-67.708 Z-0.200 I145.312 J-23.699 K0.000 F150.000
G3 X26.846 Y-67.750 Z-0.200 I6.097 J66.994 K0.000 F150.000
G0 Z0.500
G0 X26.676 Y-67.635 Z0.500
G0 X26.676 Y-67.635 Z0.300
G1 X26.676 Y-67.635 Z-0.200 F100.000
G2 X26.572 Y-67.046 Z-0.200 I1.387 J0.550 K0.000 F150.000
G3 X26.487 Y-67.618 Z-0.200 I58.487 J-8.967 K0.000 F150.000
G3 X26.676 Y-67.635 Z-0.200 I2.420 J26.816 K0.000 F150.000
G0 Z0.500
G0 X26.781 Y-65.699 Z0.500
G0 X26.781 Y-65.699 Z0.300
G1 X26.781 Y-65.699 Z-0.200 F100.000
G2 X27.009 Y-65.379 Z-0.200 I0.889 J-0.394 K0.000 F150.000
G3 X26.838 Y-65.340 Z-0.200 I-2.257 J-9.509 K0.000 F150.000
G3 X26.781 Y-65.699 Z-0.200 I32.112 J-5.308 K0.000 F150.000
G0 Z0.500
G0 Z0.500
G0 X26.781 Y-65.699
G0 X31.820 Y-69.006
G0 X31.820 Y-69.006 Z0.300
G1 X31.820 Y-69.006 Z-0.200 F100.000
G3 X31.902 Y-69.755 Z-0.200 I0.495 J-0.325 K0.000 F150.000
G3 X32.696 Y-69.785 Z-0.200 I0.423 J0.678 K0.000 F150.000
G3 X33.386 Y-68.717 Z-0.200 I-0.904 J1.340 K0.000 F150.000
G3 X33.091 Y-68.611 Z-0.200 I-0.274 J-0.299 K0.000 F150.000
G3 X31.875 Y-68.935 Z-0.200 I-0.299 J-1.321 K0.000 F150.000
G3 X31.820 Y-69.006 Z-0.200 I0.440 J-0.396 K0.000 F150.000
G0 Z0.500
G0 X31.907 Y-69.060 Z0.500
G0 X31.907 Y-69.060 Z0.300
G1 X31.907 Y-69.060 Z-0.200 F100.000
G3 X31.912 Y-69.631 Z-0.200 I0.449 J-0.281 K0.000 F150.000
G3 X31.986 Y-69.689 Z-0.200 I0.226 J0.211 K0.000 F150.000
G2 X32.078 Y-69.000 Z-0.200 I0.380 J0.300 K0.000 F150.000
G2 X33.042 Y-68.812 Z-0.200 I0.612 J-0.573 K0.000 F150.000
G2 X33.185 Y-69.044 Z-0.200 I-0.135 J-0.243 K0.000 F150.000
G3 X33.288 Y-68.763 Z-0.200 I-0.427 J0.317 K0.000 F150.000
G3 X31.913 Y-69.051 Z-0.200 I-0.469 J-1.189 K0.000 F150.000
G3 X31.907 Y-69.060 Z-0.200 I0.443 J-0.291 K0.000 F150.000
G0 Z0.500
G0 X32.052 Y-69.165 Z0.500
G0 X32.052 Y-69.165 Z0.300
G1 X32.052 Y-69.165 Z-0.200 F100.000
G3 X32.122 Y-69.677 Z-0.200 I0.304 J-0.219 K0.000 F150.000
G1 X32.192 Y-69.714 Z-0.200 F150.000
G3 X33.044 Y-69.271 Z-0.200 I0.118 J0.814 K0.000 F150.000
G3 X32.923 Y-68.859 Z-0.200 I-0.222 J0.159 K0.000 F150.000
G3 X32.141 Y-69.077 Z-0.200 I-0.225 J-0.702 K0.000 F150.000
G3 X32.052 Y-69.165 Z-0.200 I0.216 J-0.307 K0.000 F150.000
G0 Z0.500
G0 Z0.500
G0 X32.052 Y-69.165
G0 X27.640 Y-74.614
G0 X27.640 Y-74.614 Z0.300
G1 X27.640 Y-74.614 Z-0.200 F100.000
G1 X27.568 Y-74.592 Z-0.200 F150.000
G3 X25.080 Y-73.996 Z-0.200 I-8.464 J-29.862 K0.000 F150.000
G3 X23.818 Y-77.994 Z-0.200 I70.152 J-24.342 K0.000 F150.000
G3 X26.602 Y-78.745 Z-0.200 I13.647 J45.011 K0.000 F150.000
G3 X27.640 Y-74.614 Z-0.200 I-38.476 J11.858 K0.000 F150.000
G0 Z0.500
G0 X27.415 Y-74.756 Z0.500
G0 X27.415 Y-74.756 Z0.300
G1 X27.415 Y-74.756 Z-0.200 F100.000
G1 X27.217 Y-74.701 Z-0.200 F150.000
G3 X25.212 Y-74.225 Z-0.200 I-8.864 J-32.884 K0.000 F150.000
G3 X24.995 Y-74.879 Z-0.200 I45.332 J-15.443 K0.000 F150.000
G2 X25.704 Y-74.873 Z-0.200 I0.362 J-0.824 K0.000 F150.000
G2 X27.035 Y-75.306 Z-0.200 I0.031 J-2.168 K0.000 F150.000
G2 X27.224 Y-75.628 Z-0.200 I-0.435 J-0.472 K0.000 F150.000
G3 X27.415 Y-74.756 Z-0.200 I-7.741 J2.149 K0.000 F150.000
G0 Z0.500
G0 X27.185 Y-74.900 Z0.500
G0 X27.185 Y-74.900 Z0.300
G1 X27.185 Y-74.900 Z-0.200 F100.000
G3 X25.342 Y-74.466 Z-0.200 I-7.164 J-26.310 K0.000 F150.000
G1 X25.300 Y-74.591 Z-0.200 F150.000
G3 X26.505 Y-74.801 Z-0.200 I4.001 J19.366 K0.000 F150.000
G2 X27.135 Y-75.129 Z-0.200 I-0.370 J-1.480 K0.000 F150.000
G3 X27.185 Y-74.900 Z-0.200 I-7.799 J1.850 K0.000 F150.000
G0 Z0.500
G0 X26.817 Y-75.382 Z0.500
G0 X26.817 Y-75.382 Z0.300
G1 X26.817 Y-75.382 Z-0.200 F100.000
G3 X26.716 Y-75.317 Z-0.200 I-0.424 J-0.555 K0.000 F150.000
G3 X25.597 Y-75.057 Z-0.200 I-1.162 J-2.464 K0.000 F150.000
G3 X24.939 Y-75.227 Z-0.200 I-0.249 J-0.394 K0.000 F150.000
G3 X24.508 Y-77.246 Z-0.200 I9.938 J-3.176 K0.000 F150.000
G3 X24.876 Y-77.821 Z-0.200 I0.395 J-0.152 K0.000 F150.000
G3 X25.347 Y-77.649 Z-0.200 I0.163 J0.285 K0.000 F150.000
G2 X25.706 Y-76.057 Z-0.200 I437.225 J-97.787 K0.000 F150.000
G2 X26.095 Y-76.145 Z-0.200 I-0.596 J-3.524 K0.000 F150.000
G3 X26.151 Y-76.433 Z-0.200 I0.308 J-0.089 K0.000 F150.000
G3 X26.874 Y-76.615 Z-0.200 I0.875 J1.946 K0.000 F150.000
G3 X27.113 Y-76.406 Z-0.200 I0.039 J0.196 K0.000 F150.000
G1 X27.088 Y-76.013 Z-0.200 F150.000
G3 X26.817 Y-75.382 Z-0.200 I-0.694 J0.076 K0.000 F150.000
G0 Z0.500
G0 X25.893 Y-76.300 Z0.500
G0 X25.893 Y-76.300 Z0.300
G1 X25.893 Y-76.300 Z-0.200 F100.000
G1 X25.848 Y-76.290 Z-0.200 F150.000
G2 X25.490 Y-77.814 Z-0.200 I-7.499 J0.959 K0.000 F150.000
G2 X24.829 Y-78.015 Z-0.200 I-0.452 J0.298 K0.000 F150.000
G2 X24.310 Y-77.221 Z-0.200 I0.072 J0.613 K0.000 F150.000
G2 X24.370 Y-76.828 Z-0.200 I6.753 J-0.828 K0.000 F150.000
G3 X24.050 Y-77.865 Z-0.200 I68.126 J-21.572 K0.000 F150.000
G3 X26.464 Y-78.519 Z-0.200 I37.929 J135.359 K0.000 F150.000
G3 X26.934 Y-76.802 Z-0.200 I-33.555 J10.104 K0.000 F150.000
G2 X26.018 Y-76.582 Z-0.200 I0.033 J2.150 K0.000 F150.000
G2 X25.893 Y-76.300 Z-0.200 I0.224 J0.268 K0.000 F150.000
G0 Z0.500
G0 X25.951 Y-76.784 Z0.500
G0 X25.951 Y-76.784 Z0.300
G1 X25.951 Y-76.784 Z-0.200 F100.000
G2 X25.671 Y-77.899 Z-0.200 I-4.729 J0.593 K0.000 F150.000
G2 X25.550 Y-78.070 Z-0.200 I-0.295 J0.081 K0.000 F150.000
G3 X26.328 Y-78.278 Z-0.200 I15.626 J56.940 K0.000 F150.000
G3 X26.679 Y-76.984 Z-0.200 I-38.660 J11.185 K0.000 F150.000
G2 X26.056 Y-76.854 Z-0.200 I1.622 J9.358 K0.000 F150.000
G1 X25.951 Y-76.784 Z-0.200 F150.000
G0 Z0.500
G0 X26.098 Y-77.074 Z0.500
G0 X26.098 Y-77.074 Z0.300
G1 X26.098 Y-77.074 Z-0.200 F100.000
G2 X25.869 Y-77.949 Z-0.200 I-3.832 J0.537 K0.000 F150.000
G3 X26.190 Y-78.035 Z-0.200 I8.808 J32.260 K0.000 F150.000
G3 X26.432 Y-77.139 Z-0.200 I-30.886 J8.838 K0.000 F150.000
G2 X26.098 Y-77.074 Z-0.200 I0.686 J4.398 K0.000 F150.000
G0 Z0.500
G0 X26.176 Y-77.198 Z0.500
G0 X26.176 Y-77.198 Z0.300
G1 X26.176 Y-77.198 Z-0.200 F100.000
G2 X26.006 Y-77.882 Z-0.200 I-4.202 J0.686 K0.000 F150.000
G1 X26.121 Y-77.913 Z-0.200 F150.000
G3 X26.308 Y-77.220 Z-0.200 I-27.415 J7.771 K0.000 F150.000
G2 X26.176 Y-77.198 Z-0.200 I0.010 J0.475 K0.000 F150.000
G0 Z0.500
G0 Z0.500
G0 X26.176 Y-77.198
G0 X22.163 Y-77.299
G0 X22.163 Y-77.299 Z0.300
G1 X22.163 Y-77.299 Z-0.200 F100.000
G3 X22.119 Y-76.075 Z-0.200 I-59.025 J-1.487 K0.000 F150.000
G3 X22.068 Y-75.907 Z-0.200 I-0.280 J0.006 K0.000 F150.000
G2 X19.154 Y-76.039 Z-0.200 I-3.364 J42.077 K0.000 F150.000
G3 X19.178 Y-79.795 Z-0.200 I84.915 J-1.345 K0.000 F150.000
G3 X19.198 Y-80.026 Z-0.200 I1.858 J0.042 K0.000 F150.000
G2 X21.581 Y-80.267 Z-0.200 I-76.097 J-763.698 K0.000 F150.000
G3 X22.161 Y-80.322 Z-0.200 I3.969 J39.041 K0.000 F150.000
G3 X22.163 Y-77.299 Z-0.200 I-59.024 J1.536 K0.000 F150.000
G0 Z0.500
G0 X21.954 Y-77.404 Z0.500
G0 X21.954 Y-77.404 Z0.300
G1 X21.954 Y-77.404 Z-0.200 F100.000
G1 X21.951 Y-77.408 Z-0.200 F150.000
G2 X21.143 Y-78.224 Z-0.200 I-412.097 J407.514 K0.000 F150.000
G2 X21.884 Y-79.338 Z-0.200 I-1077.849 J-718.067 K0.000 F150.000
G2 X21.551 Y-79.960 Z-0.200 I-0.333 J-0.222 K0.000 F150.000
G2 X20.595 Y-79.542 Z-0.200 I-0.162 J0.933 K0.000 F150.000
G1 X20.403 Y-79.292 Z-0.200 F150.000
G2 X19.738 Y-79.879 Z-0.200 I-0.570 J-0.024 K0.000 F150.000
G3 X21.961 Y-80.103 Z-0.200 I27.530 J261.619 K0.000 F150.000
G3 X21.954 Y-77.404 Z-0.200 I-124.718 J1.028 K0.000 F150.000
G0 Z0.500
G0 X21.809 Y-77.267 Z0.500
G0 X21.809 Y-77.267 Z0.300
G1 X21.809 Y-77.267 Z-0.200 F100.000
G3 X21.784 Y-76.965 Z-0.200 I-0.142 J0.141 K0.000 F150.000
G3 X20.453 Y-77.413 Z-0.200 I-0.363 J-1.125 K0.000 F150.000
G1 X20.453 Y-76.279 Z-0.200 F150.000
G1 X20.370 Y-76.118 Z-0.200 F150.000
G3 X19.973 Y-76.079 Z-0.200 I-0.257 J-0.592 K0.000 F150.000
G3 X19.449 Y-76.509 Z-0.200 I-0.101 J-0.411 K0.000 F150.000
G3 X19.335 Y-79.473 Z-0.200 I33.458 J-2.772 K0.000 F150.000
G3 X19.417 Y-79.641 Z-0.200 I0.200 J-0.005 K0.000 F150.000
G3 X19.772 Y-79.679 Z-0.200 I0.236 J0.527 K0.000 F150.000
G3 X20.187 Y-79.424 Z-0.200 I0.057 J0.373 K0.000 F150.000
G2 X20.282 Y-78.806 Z-0.200 I2.227 J-0.027 K0.000 F150.000
G2 X20.753 Y-79.420 Z-0.200 I-8.657 J-7.135 K0.000 F150.000
G3 X21.551 Y-79.760 Z-0.200 I0.651 J0.422 K0.000 F150.000
G3 X21.718 Y-79.449 Z-0.200 I-0.000 J0.200 K0.000 F150.000
G3 X20.886 Y-78.199 Z-0.200 I-1209.691 J-804.157 K0.000 F150.000
G3 X21.809 Y-77.267 Z-0.200 I-469.548 J466.244 K0.000 F150.000
G0 Z0.500
G0 X21.946 Y-76.845 Z0.500
G0 X21.946 Y-76.845 Z0.300
G1 X21.946 Y-76.845 Z-0.200 F100.000
G3 X21.922 Y-76.122 Z-0.200 I-20.574 J-0.319 K0.000 F150.000
G2 X20.638 Y-76.185 Z-0.200 I-2.684 J41.130 K0.000 F150.000
G1 X20.653 Y-76.279 Z-0.200 F150.000
G1 X20.653 Y-76.963 Z-0.200 F150.000
G2 X21.830 Y-76.761 Z-0.200 I0.787 J-1.057 K0.000 F150.000
G1 X21.946 Y-76.845 Z-0.200 F150.000
G0 Z0.500
G0 X21.738 Y-76.539 Z0.500
G0 X21.738 Y-76.539 Z0.300
G1 X21.738 Y-76.539 Z-0.200 F100.000
G3 X21.731 Y-76.334 Z-0.200 I-9.620 J-0.223 K0.000 F150.000
G2 X20.853 Y-76.377 Z-0.200 I-2.880 J50.532 K0.000 F150.000
G1 X20.853 Y-76.623 Z-0.200 F150.000
G2 X21.738 Y-76.539 Z-0.200 I0.626 J-1.901 K0.000 F150.000
G0 Z0.500
G0 X21.012 Y-76.470 Z0.500
G0 X21.012 Y-76.470 Z0.300
G1 X21.012 Y-76.470 Z-0.200 F100.000
G1 X20.953 Y-76.473 Z-0.200 F150.000
G1 X20.953 Y-76.482 Z-0.200 F150.000
G2 X21.012 Y-76.470 Z-0.200 I0.057 J-0.128 K0.000 F150.000
G0 Z0.500
G0 X21.758 Y-77.887 Z0.500
G0 X21.758 Y-77.887 Z0.300
G1 X21.758 Y-77.887 Z-0.200 F100.000
G2 X21.400 Y-78.249 Z-0.200 I-182.609 J180.624 K0.000 F150.000
G2 X21.761 Y-78.791 Z-0.200 I-524.893 J-349.743 K0.000 F150.000
G3 X21.758 Y-77.887 Z-0.200 I-95.355 J0.148 K0.000 F150.000
G0 Z0.500
G0 X21.659 Y-78.129 Z0.500
G0 X21.659 Y-78.129 Z0.300
G1 X21.659 Y-78.129 Z-0.200 F100.000
G2 X21.528 Y-78.261 Z-0.200 I-66.540 J65.869 K0.000 F150.000
G1 X21.660 Y-78.460 Z-0.200 F150.000
G3 X21.659 Y-78.129 Z-0.200 I-34.918 J0.011 K0.000 F150.000
G0 Z0.500
G0 X20.487 Y-79.720 Z0.500
G0 X20.487 Y-79.720 Z0.300
G1 X20.487 Y-79.720 Z-0.200 F100.000
G1 X20.469 Y-79.752 Z-0.200 F150.000
G1 X20.521 Y-79.758 Z-0.200 F150.000
G1 X20.487 Y-79.720 Z-0.200 F150.000
G0 Z0.500
G0 Z0.500
G0 X20.487 Y-79.720
G0 X17.957 Y-77.275
G0 X17.957 Y-77.275 Z0.300
G1 X17.957 Y-77.275 Z-0.200 F100.000
G1 X17.934 Y-77.206 Z-0.200 F150.000
G3 X16.524 Y-73.262 Z-0.200 I-65.027 J-21.035 K0.000 F150.000
G3 X14.024 Y-74.153 Z-0.200 I7.142 J-23.977 K0.000 F150.000
G3 X15.204 Y-78.188 Z-0.200 I95.602 J25.777 K0.000 F150.000
G3 X17.957 Y-77.275 Z-0.200 I-12.922 J43.571 K0.000 F150.000
G0 Z0.500
G0 X17.710 Y-77.165 Z0.500
G0 X17.710 Y-77.165 Z0.300
G1 X17.710 Y-77.165 Z-0.200 F100.000
G3 X17.107 Y-75.417 Z-0.200 I-116.311 J-39.187 K0.000 F150.000
G2 X16.135 Y-75.732 Z-0.200 I-0.759 J0.686 K0.000 F150.000
G2 X15.989 Y-75.631 Z-0.200 I0.134 J0.350 K0.000 F150.000
G3 X15.951 Y-75.668 Z-0.200 I-0.019 J-0.019 K0.000 F150.000
G2 X16.490 Y-77.101 Z-0.200 I-16.905 J-7.176 K0.000 F150.000
G2 X16.087 Y-77.630 Z-0.200 I-0.545 J-0.004 K0.000 F150.000
G2 X15.238 Y-77.442 Z-0.200 I-0.355 J0.407 K0.000 F150.000
G2 X15.048 Y-77.038 Z-0.200 I3.349 J1.828 K0.000 F150.000
G3 X15.329 Y-77.940 Z-0.200 I22.672 J6.569 K0.000 F150.000
G3 X17.710 Y-77.165 Z-0.200 I-37.794 J120.125 K0.000 F150.000
G0 Z0.500
G0 X17.456 Y-77.039 Z0.500
G0 X17.456 Y-77.039 Z0.300
G1 X17.456 Y-77.039 Z-0.200 F100.000
G3 X17.015 Y-75.762 Z-0.200 I-89.109 J-30.097 K0.000 F150.000
G2 X16.270 Y-75.959 Z-0.200 I-0.663 J0.995 K0.000 F150.000
G2 X16.687 Y-77.066 Z-0.200 I-8.413 J-3.799 K0.000 F150.000
G2 X16.678 Y-77.297 Z-0.200 I-0.321 J-0.104 K0.000 F150.000
G3 X17.456 Y-77.039 Z-0.200 I-21.214 J65.506 K0.000 F150.000
G0 Z0.500
G0 X17.202 Y-76.913 Z0.500
G0 X17.202 Y-76.913 Z0.300
G1 X17.202 Y-76.913 Z-0.200 F100.000
G3 X16.900 Y-76.040 Z-0.200 I-60.892 J-20.619 K0.000 F150.000
G2 X16.561 Y-76.145 Z-0.200 I-0.481 J0.956 K0.000 F150.000
G2 X16.882 Y-77.019 Z-0.200 I-5.368 J-2.463 K0.000 F150.000
G3 X17.202 Y-76.913 Z-0.200 I-12.553 J38.401 K0.000 F150.000
G0 Z0.500
G0 X17.075 Y-76.850 Z0.500
G0 X17.075 Y-76.850 Z0.300
G1 X17.075 Y-76.850 Z-0.200 F100.000
G3 X16.839 Y-76.169 Z-0.200 I-47.488 J-16.120 K0.000 F150.000
G2 X16.698 Y-76.215 Z-0.200 I-0.368 J0.890 K0.000 F150.000
G2 X16.951 Y-76.891 Z-0.200 I-7.179 J-3.076 K0.000 F150.000
G1 X17.075 Y-76.850 Z-0.200 F150.000
G0 Z0.500
G0 X16.289 Y-77.125 Z0.500
G0 X16.289 Y-77.125 Z0.300
G1 X16.289 Y-77.125 Z-0.200 F100.000
G3 X15.710 Y-75.562 Z-0.200 I-44.228 J-15.490 K0.000 F150.000
G2 X16.049 Y-75.406 Z-0.200 I0.369 J-0.358 K0.000 F150.000
G3 X16.222 Y-75.551 Z-0.200 I0.296 J0.177 K0.000 F150.000
G3 X16.904 Y-75.351 Z-0.200 I0.101 J0.918 K0.000 F150.000
G1 X16.974 Y-75.254 Z-0.200 F150.000
G3 X16.811 Y-74.698 Z-0.200 I-0.480 J0.161 K0.000 F150.000
G3 X16.055 Y-74.352 Z-0.200 I-0.639 J-0.396 K0.000 F150.000
G3 X14.928 Y-74.794 Z-0.200 I8.955 J-24.484 K0.000 F150.000
G3 X14.595 Y-75.299 Z-0.200 I0.045 J-0.392 K0.000 F150.000
G3 X15.415 Y-77.348 Z-0.200 I17.203 J5.698 K0.000 F150.000
G3 X15.959 Y-77.472 Z-0.200 I0.314 J0.121 K0.000 F150.000
G1 X15.959 Y-77.472 Z-0.200 F150.000
G3 X16.293 Y-77.135 Z-0.200 I-0.075 J0.408 K0.000 F150.000
G3 X16.289 Y-77.125 Z-0.200 I-44.232 J-15.480 K0.000 F150.000
G0 Z0.500
G0 X16.719 Y-74.323 Z0.500
G0 X16.719 Y-74.323 Z0.300
G1 X16.719 Y-74.323 Z-0.200 F100.000
G3 X16.422 Y-73.501 Z-0.200 I-67.545 J-23.946 K0.000 F150.000
G3 X14.263 Y-74.260 Z-0.200 I9.269 J-29.817 K0.000 F150.000
G2 X14.449 Y-74.917 Z-0.200 I-107.982 J-30.982 K0.000 F150.000
G2 X15.022 Y-74.546 Z-0.200 I0.653 J-0.382 K0.000 F150.000
G2 X16.040 Y-74.152 Z-0.200 I2.745 J-5.579 K0.000 F150.000
G2 X16.719 Y-74.323 Z-0.200 I0.156 J-0.817 K0.000 F150.000
G0 Z0.500
G0 X16.375 Y-73.955 Z0.500
G0 X16.375 Y-73.955 Z0.300
G1 X16.375 Y-73.955 Z-0.200 F100.000
G3 X16.300 Y-73.749 Z-0.200 I-16.879 J-6.032 K0.000 F150.000
G3 X14.505 Y-74.378 Z-0.200 I10.040 J-31.561 K0.000 F150.000
G2 X14.545 Y-74.519 Z-0.200 I-54.325 J-15.523 K0.000 F150.000
G3 X15.812 Y-73.997 Z-0.200 I-10.330 J26.862 K0.000 F150.000
G2 X16.375 Y-73.955 Z-0.200 I0.375 J-1.217 K0.000 F150.000
G0 Z0.500
G0 Z0.500
G0 X16.375 Y-73.955
G0 X13.719 Y-77.609
G0 X13.719 Y-77.609 Z0.300
G1 X13.719 Y-77.609 Z-0.200 F100.000
G3 X10.121 Y-76.324 Z-0.200 I-24.002 J-61.539 K0.000 F150.000
G3 X8.518 Y-81.356 Z-0.200 I347.070 J-113.371 K0.000 F150.000
G3 X12.175 Y-82.474 Z-0.200 I18.605 J54.308 K0.000 F150.000
G3 X12.307 Y-82.503 Z-0.200 I0.408 J1.591 K0.000 F150.000
G2 X13.719 Y-77.609 Z-0.200 I3833.271 J-1102.783 K0.000 F150.000
G0 Z0.500
G0 X13.477 Y-77.727 Z0.500
G0 X13.477 Y-77.727 Z0.300
G1 X13.477 Y-77.727 Z-0.200 F100.000
G3 X13.239 Y-77.634 Z-0.200 I-5.620 J-14.161 K0.000 F150.000
G2 X13.373 Y-78.090 Z-0.200 I-1.039 J-0.554 K0.000 F150.000
G3 X13.477 Y-77.727 Z-0.200 I-111.825 J32.206 K0.000 F150.000
G0 Z0.500
G0 X13.123 Y-77.867 Z0.500
G0 X13.123 Y-77.867 Z0.300
G1 X13.123 Y-77.867 Z-0.200 F100.000
G3 X12.822 Y-77.445 Z-0.200 I-0.995 J-0.393 K0.000 F150.000
G3 X10.659 Y-76.679 Z-0.200 I-4.165 J-8.318 K0.000 F150.000
G3 X10.369 Y-76.835 Z-0.200 I-0.021 J-0.309 K0.000 F150.000
G3 X9.017 Y-80.843 Z-0.200 I113.730 J-40.584 K0.000 F150.000
G3 X9.073 Y-81.248 Z-0.200 I0.275 J-0.168 K0.000 F150.000
G3 X10.995 Y-81.903 Z-0.200 I5.978 J14.385 K0.000 F150.000
G3 X12.135 Y-81.487 Z-0.200 I0.284 J0.992 K0.000 F150.000
G3 X12.398 Y-80.241 Z-0.200 I-1.259 J0.915 K0.000 F150.000
G3 X12.316 Y-79.993 Z-0.200 I-0.599 J-0.060 K0.000 F150.000
G3 X13.189 Y-78.393 Z-0.200 I-1.340 J1.769 K0.000 F150.000
G3 X13.123 Y-77.867 Z-0.200 I-1.061 J0.134 K0.000 F150.000
G0 Z0.500
G0 X12.918 Y-79.662 Z0.500
G0 X12.918 Y-79.662 Z0.300
G1 X12.918 Y-79.662 Z-0.200 F100.000
G2 X12.557 Y-80.044 Z-0.200 I-1.803 J1.343 K0.000 F150.000
G2 X12.611 Y-80.719 Z-0.200 I-1.797 J-0.484 K0.000 F150.000
G2 X12.918 Y-79.662 Z-0.200 I2023.796 J-587.550 K0.000 F150.000
G0 Z0.500
G0 X12.703 Y-80.045 Z0.500
G0 X12.703 Y-80.045 Z0.300
G1 X12.703 Y-80.045 Z-0.200 F100.000
G3 X12.681 Y-80.120 Z-0.200 I0.060 J-0.058 K0.000 F150.000
G1 X12.703 Y-80.045 Z-0.200 F150.000
G0 Z0.500
G0 X12.395 Y-81.465 Z0.500
G0 X12.395 Y-81.465 Z0.300
G1 X12.395 Y-81.465 Z-0.200 F100.000
G2 X11.577 Y-82.099 Z-0.200 I-1.164 J0.657 K0.000 F150.000
G3 X12.166 Y-82.266 Z-0.200 I3.708 J11.943 K0.000 F150.000
G2 X12.395 Y-81.465 Z-0.200 I206.781 J-58.768 K0.000 F150.000
G0 Z0.500
G0 X12.170 Y-81.887 Z0.500
G0 X12.170 Y-81.887 Z0.300
G1 X12.170 Y-81.887 Z-0.200 F100.000
G2 X11.889 Y-82.087 Z-0.200 I-0.733 J0.732 K0.000 F150.000
G3 X12.097 Y-82.144 Z-0.200 I3.161 J10.964 K0.000 F150.000
G2 X12.170 Y-81.887 Z-0.200 I84.513 J-23.972 K0.000 F150.000
G0 Z0.500
G0 X8.808 Y-81.238 Z0.500
G0 X8.808 Y-81.238 Z0.300
G1 X8.808 Y-81.238 Z-0.200 F100.000
G1 X8.779 Y-81.183 Z-0.200 F150.000
G3 X8.808 Y-81.238 Z-0.200 I0.015 J-0.027 K0.000 F150.000
G0 Z0.500
G0 X10.194 Y-76.745 Z0.500
G0 X10.194 Y-76.745 Z0.300
G1 X10.194 Y-76.745 Z-0.200 F100.000
G2 X10.315 Y-76.595 Z-0.200 I0.229 J-0.061 K0.000 F150.000
G3 X10.227 Y-76.643 Z-0.200 I-0.044 J-0.024 K0.000 F150.000
G1 X10.194 Y-76.745 Z-0.200 F150.000
G0 Z0.500
G0 Z0.500
G0 X10.194 Y-76.745
G0 X11.560 Y-77.890
G0 X11.560 Y-77.890 Z0.300
G1 X11.560 Y-77.890 Z-0.200 F100.000
G3 X11.179 Y-78.835 Z-0.200 I2.855 J-1.701 K0.000 F150.000
G3 X11.605 Y-79.003 Z-0.200 I3.200 J7.485 K0.000 F150.000
G3 X11.842 Y-78.063 Z-0.200 I-1.577 J0.898 K0.000 F150.000
G1 X11.808 Y-78.018 Z-0.200 F150.000
G3 X11.560 Y-77.890 Z-0.200 I-0.273 J-0.226 K0.000 F150.000
G0 Z0.500
G0 X11.631 Y-78.141 Z0.500
G0 X11.631 Y-78.141 Z0.300
G1 X11.631 Y-78.141 Z-0.200 F100.000
G3 X11.438 Y-78.725 Z-0.200 I1.216 J-0.725 K0.000 F150.000
G1 X11.497 Y-78.748 Z-0.200 F150.000
G3 X11.631 Y-78.141 Z-0.200 I-0.869 J0.509 K0.000 F150.000
G0 Z0.500
G0 Z0.500
G0 X11.631 Y-78.141
G0 X10.788 Y-79.794
G0 X10.788 Y-79.794 Z0.300
G1 X10.788 Y-79.794 Z-0.200 F100.000
G3 X10.632 Y-79.741 Z-0.200 I-0.265 J-0.519 K0.000 F150.000
G3 X10.297 Y-80.728 Z-0.200 I133.083 J-45.695 K0.000 F150.000
G3 X10.632 Y-80.807 Z-0.200 I0.282 J0.441 K0.000 F150.000
G1 X10.660 Y-80.786 Z-0.200 F150.000
G3 X10.917 Y-79.883 Z-0.200 I-1.921 J1.034 K0.000 F150.000
G3 X10.788 Y-79.794 Z-0.200 I-0.393 J-0.430 K0.000 F150.000
G0 Z0.500
G0 X10.747 Y-79.887 Z0.500
G0 X10.747 Y-79.887 Z0.300
G1 X10.747 Y-79.887 Z-0.200 F100.000
G3 X10.694 Y-79.868 Z-0.200 I-0.166 J-0.374 K0.000 F150.000
G3 X10.424 Y-80.665 Z-0.200 I152.481 J-52.105 K0.000 F150.000
G3 X10.594 Y-80.708 Z-0.200 I0.129 J0.151 K0.000 F150.000
G1 X10.621 Y-80.660 Z-0.200 F150.000
G3 X10.826 Y-79.933 Z-0.200 I-1.795 J0.899 K0.000 F150.000
G3 X10.747 Y-79.887 Z-0.200 I-0.244 J-0.328 K0.000 F150.000
G0 Z0.500
G0 Z0.500
G0 X10.747 Y-79.887
G0 X26.169 Y-79.736
G0 X26.169 Y-79.736 Z0.300
G1 X26.169 Y-79.736 Z-0.200 F100.000
G3 X26.223 Y-79.833 Z-0.200 I0.117 J0.001 K0.000 F150.000
G3 X26.992 Y-79.853 Z-0.200 I0.513 J4.841 K0.000 F150.000
G3 X30.192 Y-79.709 Z-0.200 I-0.677 J50.776 K0.000 F150.000
G3 X34.577 Y-78.590 Z-0.200 I-1.149 J13.650 K0.000 F150.000
G3 X34.949 Y-78.276 Z-0.200 I-0.133 J0.536 K0.000 F150.000
G3 X34.835 Y-78.183 Z-0.200 I-0.091 J0.005 K0.000 F150.000
G3 X33.523 Y-78.671 Z-0.200 I1.369 J-5.698 K0.000 F150.000
G2 X28.030 Y-79.583 Z-0.200 I-5.864 J18.324 K0.000 F150.000
G3 X26.293 Y-79.618 Z-0.200 I-0.538 J-16.016 K0.000 F150.000
G3 X26.169 Y-79.736 Z-0.200 I-0.007 J-0.116 K0.000 F150.000
G0 Z0.500
G0 X26.273 Y-79.739 Z0.500
G0 X26.273 Y-79.739 Z0.300
G1 X26.273 Y-79.739 Z-0.200 F100.000
G3 X26.990 Y-79.753 Z-0.200 I0.461 J5.222 K0.000 F150.000
G3 X30.182 Y-79.610 Z-0.200 I-0.676 J50.699 K0.000 F150.000
G3 X34.531 Y-78.501 Z-0.200 I-1.141 J13.563 K0.000 F150.000
G3 X34.840 Y-78.287 Z-0.200 I-0.321 J0.791 K0.000 F150.000
G3 X33.552 Y-78.766 Z-0.200 I1.311 J-5.487 K0.000 F150.000
G2 X28.032 Y-79.683 Z-0.200 I-5.894 J18.426 K0.000 F150.000
G3 X26.305 Y-79.718 Z-0.200 I-0.538 J-15.957 K0.000 F150.000
G3 X26.273 Y-79.739 Z-0.200 I-0.014 J-0.014 K0.000 F150.000
G0 Z0.500
G0 Z0.500
G0 X26.273 Y-79.739
G0 X26.292 Y-80.901
G0 X26.292 Y-80.901 Z0.300
G1 X26.292 Y-80.901 Z-0.200 F100.000
G2 X25.815 Y-80.906 Z-0.200 I-0.628 J38.477 K0.000 F150.000
G3 X21.041 Y-81.421 Z-0.200 I-0.264 J-19.934 K0.000 F150.000
G2 X15.094 Y-82.904 Z-0.200 I-50.754 J190.867 K0.000 F150.000
G2 X11.172 Y-83.286 Z-0.200 I-3.517 J15.772 K0.000 F150.000
G2 X8.774 Y-82.665 Z-0.200 I0.019 J5.013 K0.000 F150.000
G2 X7.825 Y-81.642 Z-0.200 I1.749 J2.574 K0.000 F150.000
G3 X6.716 Y-79.934 Z-0.200 I-7.702 J-3.787 K0.000 F150.000
G3 X4.530 Y-78.708 Z-0.200 I-2.760 J-2.360 K0.000 F150.000
G2 X0.200 Y-77.647 Z-0.200 I17.126 J79.241 K0.000 F150.000
G1 X0.200 Y-78.217 Z-0.200 F150.000
G3 X3.841 Y-79.113 Z-0.200 I18.030 J65.469 K0.000 F150.000
G2 X5.483 Y-79.602 Z-0.200 I-1.642 J-8.514 K0.000 F150.000
G2 X6.647 Y-80.721 Z-0.200 I-1.483 J-2.708 K0.000 F150.000
G3 X7.515 Y-82.126 Z-0.200 I40.937 J24.307 K0.000 F150.000
G3 X10.024 Y-83.693 Z-0.200 I2.995 J2.004 K0.000 F150.000
G3 X12.386 Y-83.767 Z-0.200 I1.475 J9.302 K0.000 F150.000
G3 X16.258 Y-83.181 Z-0.200 I-0.883 J18.916 K0.000 F150.000
G3 X21.027 Y-81.962 Z-0.200 I-108.614 J434.926 K0.000 F150.000
G2 X24.223 Y-81.568 Z-0.200 I3.394 J-14.344 K0.000 F150.000
G3 X29.919 Y-81.272 Z-0.200 I-1.452 J82.862 K0.000 F150.000
G3 X35.653 Y-79.775 Z-0.200 I-3.094 J23.590 K0.000 F150.000
G3 X38.561 Y-78.290 Z-0.200 I-3.810 J11.048 K0.000 F150.000
G3 X39.881 Y-76.993 Z-0.200 I-2.847 J4.219 K0.000 F150.000
G3 X40.226 Y-75.840 Z-0.200 I-1.409 J1.050 K0.000 F150.000
G3 X39.493 Y-74.812 Z-0.200 I-1.525 J-0.312 K0.000 F150.000
G3 X37.248 Y-73.882 Z-0.200 I-3.616 J-5.558 K0.000 F150.000
G3 X30.113 Y-73.243 Z-0.200 I-6.296 J-30.134 K0.000 F150.000
G2 X26.971 Y-73.241 Z-0.200 I-1.552 J35.225 K0.000 F150.000
G2 X22.899 Y-72.395 Z-0.200 I9.911 J57.918 K0.000 F150.000
G3 X18.374 Y-72.000 Z-0.200 I-4.379 J-24.053 K0.000 F150.000
G3 X8.110 Y-72.594 Z-0.200 I-0.179 J-85.989 K0.000 F150.000
G3 X1.809 Y-73.784 Z-0.200 I4.963 J-43.556 K0.000 F150.000
G3 X0.200 Y-74.320 Z-0.200 I4.119 J-15.039 K0.000 F150.000
G1 X0.200 Y-74.785 Z-0.200 F150.000
G2 X5.259 Y-73.468 Z-0.200 I8.940 J-23.969 K0.000 F150.000
G2 X21.151 Y-72.594 Z-0.200 I11.982 J-72.975 K0.000 F150.000
G2 X26.253 Y-73.518 Z-0.200 I-4.479 J-39.313 K0.000 F150.000
G3 X29.294 Y-73.641 Z-0.200 I2.492 J23.801 K0.000 F150.000
G2 X34.315 Y-73.754 Z-0.200 I1.234 J-56.702 K0.000 F150.000
G2 X38.059 Y-74.520 Z-0.200 I-1.982 J-19.241 K0.000 F150.000
G2 X39.341 Y-75.151 Z-0.200 I-1.119 J-3.889 K0.000 F150.000
G2 X39.628 Y-76.492 Z-0.200 I-0.584 J-0.826 K0.000 F150.000
G2 X38.403 Y-77.731 Z-0.200 I-3.077 J1.817 K0.000 F150.000
G2 X34.971 Y-79.414 Z-0.200 I-8.442 J12.875 K0.000 F150.000
G2 X31.098 Y-80.520 Z-0.200 I-9.026 J24.260 K0.000 F150.000
G2 X26.292 Y-80.901 Z-0.200 I-5.433 J38.097 K0.000 F150.000
G0 Z0.500
G0 X26.295 Y-81.101 Z0.500
G0 X26.295 Y-81.101 Z0.300
G1 X26.295 Y-81.101 Z-0.200 F100.000
G2 X25.821 Y-81.105 Z-0.200 I-0.633 J38.705 K0.000 F150.000
G3 X21.087 Y-81.615 Z-0.200 I-0.268 J-19.751 K0.000 F150.000
G2 X15.128 Y-83.101 Z-0.200 I-50.411 J189.537 K0.000 F150.000
G2 X11.157 Y-83.485 Z-0.200 I-3.549 J15.942 K0.000 F150.000
G2 X8.655 Y-82.826 Z-0.200 I0.027 J5.179 K0.000 F150.000
G2 X7.652 Y-81.742 Z-0.200 I1.873 J2.741 K0.000 F150.000
G3 X6.567 Y-80.068 Z-0.200 I-7.550 J-3.703 K0.000 F150.000
G3 X4.482 Y-78.902 Z-0.200 I-2.616 J-2.231 K0.000 F150.000
G2 X0.400 Y-77.916 Z-0.200 I42.537 J184.949 K0.000 F150.000
G1 X0.400 Y-78.066 Z-0.200 F150.000
G2 X4.658 Y-79.119 Z-0.200 I-91.836 J-380.469 K0.000 F150.000
G2 X6.818 Y-80.617 Z-0.200 I-0.515 J-3.048 K0.000 F150.000
G3 X7.679 Y-82.011 Z-0.200 I40.598 J24.103 K0.000 F150.000
G3 X10.065 Y-83.497 Z-0.200 I2.836 J1.895 K0.000 F150.000
G3 X12.376 Y-83.568 Z-0.200 I1.434 J9.115 K0.000 F150.000
G3 X16.213 Y-82.986 Z-0.200 I-0.874 J18.723 K0.000 F150.000
G3 X20.988 Y-81.766 Z-0.200 I-111.614 J446.759 K0.000 F150.000
G2 X24.216 Y-81.368 Z-0.200 I3.434 J-14.540 K0.000 F150.000
G3 X29.895 Y-81.073 Z-0.200 I-1.449 J82.759 K0.000 F150.000
G3 X35.582 Y-79.588 Z-0.200 I-3.070 J23.390 K0.000 F150.000
G3 X38.442 Y-78.129 Z-0.200 I-3.740 J10.861 K0.000 F150.000
G3 X39.715 Y-76.882 Z-0.200 I-2.732 J4.062 K0.000 F150.000
G3 X40.026 Y-75.866 Z-0.200 I-1.245 J0.938 K0.000 F150.000
G3 X39.785 Y-75.351 Z-0.200 I-0.987 J-0.147 K0.000 F150.000
G2 X39.798 Y-76.597 Z-0.200 I-1.031 J-0.634 K0.000 F150.000
G2 X38.512 Y-77.898 Z-0.200 I-3.255 J1.930 K0.000 F150.000
G2 X35.036 Y-79.603 Z-0.200 I-8.564 J13.068 K0.000 F150.000
G2 X31.127 Y-80.718 Z-0.200 I-9.074 J24.396 K0.000 F150.000
G2 X26.295 Y-81.101 Z-0.200 I-5.464 J38.322 K0.000 F150.000
G0 Z0.500
G0 X26.299 Y-81.180 Z0.500
G0 X26.299 Y-81.180 Z0.300
G1 X26.299 Y-81.180 Z-0.200 F100.000
G3 X23.949 Y-81.280 Z-0.200 I18.959 J-472.740 K0.000 F150.000
G3 X28.456 Y-81.098 Z-0.200 I-8.230 J260.185 K0.000 F150.000
G3 X26.299 Y-81.180 Z-0.200 I16.801 J-472.822 K0.000 F150.000
G0 Z0.500
G0 X29.013 Y-81.060 Z0.500
G0 X29.013 Y-81.060 Z0.300
G1 X29.013 Y-81.060 Z-0.200 F100.000
G3 X29.394 Y-81.028 Z-0.200 I-0.178 J4.385 K0.000 F150.000
G1 X29.013 Y-81.060 Z-0.200 F150.000
G0 Z0.500
G0 X30.002 Y-73.445 Z0.500
G0 X30.002 Y-73.445 Z0.300
G1 X30.002 Y-73.445 Z-0.200 F100.000
G2 X31.434 Y-73.454 Z-0.200 I-1.583 J-347.613 K0.000 F150.000
G3 X30.002 Y-73.445 Z-0.200 I-0.925 J-31.628 K0.000 F150.000
G0 Z0.500
G0 X23.098 Y-72.643 Z0.500
G0 X23.098 Y-72.643 Z0.300
G1 X23.098 Y-72.643 Z-0.200 F100.000
G3 X18.372 Y-72.200 Z-0.200 I-4.407 J-21.603 K0.000 F150.000
G3 X8.135 Y-72.792 Z-0.200 I-0.179 J-85.770 K0.000 F150.000
G3 X1.863 Y-73.976 Z-0.200 I4.937 J-43.352 K0.000 F150.000
G3 X0.400 Y-74.458 Z-0.200 I3.694 J-13.678 K0.000 F150.000
G1 X0.400 Y-74.491 Z-0.200 F150.000
G2 X5.228 Y-73.271 Z-0.200 I8.948 J-25.236 K0.000 F150.000
G2 X21.170 Y-72.395 Z-0.200 I12.012 J-73.155 K0.000 F150.000
G2 X23.098 Y-72.643 Z-0.200 I-1.463 J-19.010 K0.000 F150.000
G0 Z0.500
G0 X37.184 Y-74.073 Z0.500
G0 X37.184 Y-74.073 Z0.300
G1 X37.184 Y-74.073 Z-0.200 F100.000
G1 X37.210 Y-74.080 Z-0.200 F150.000
G3 X37.184 Y-74.073 Z-0.200 I-0.070 J-0.224 K0.000 F150.000
G0 Z0.500
G0 Z0.500
G0 X37.184 Y-74.073
G0 X38.573 Y-62.432
G0 X38.573 Y-62.432 Z0.300
G1 X38.573 Y-62.432 Z-0.200 F100.000
G3 X41.900 Y-62.798 Z-0.200 I22.045 J184.754 K0.000 F150.000
G3 X42.165 Y-60.298 Z-0.200 I-23.283 J3.726 K0.000 F150.000
G3 X42.342 Y-57.737 Z-0.200 I-23.212 J2.891 K0.000 F150.000
G3 X39.244 Y-57.486 Z-0.200 I-4.778 J-39.638 K0.000 F150.000
G3 X38.432 Y-62.415 Z-0.200 I167.082 J-30.036 K0.000 F150.000
G3 X38.573 Y-62.432 Z-0.200 I22.186 J184.737 K0.000 F150.000
G0 Z0.500
G0 X38.659 Y-62.241 Z0.500
G0 X38.659 Y-62.241 Z0.300
G1 X38.659 Y-62.241 Z-0.200 F100.000
G3 X41.739 Y-62.581 Z-0.200 I24.962 J211.948 K0.000 F150.000
G3 X42.134 Y-57.910 Z-0.200 I-58.058 J7.258 K0.000 F150.000
G3 X41.350 Y-57.830 Z-0.200 I-3.108 J-26.341 K0.000 F150.000
G1 X41.386 Y-58.057 Z-0.200 F150.000
G2 X40.800 Y-61.877 Z-0.200 I-114.224 J15.561 K0.000 F150.000
G2 X40.202 Y-62.299 Z-0.200 I-0.504 J0.080 K0.000 F150.000
G2 X39.447 Y-61.974 Z-0.200 I-0.101 J0.805 K0.000 F150.000
G2 X39.425 Y-61.328 Z-0.200 I1.001 J0.358 K0.000 F150.000
G3 X39.928 Y-57.887 Z-0.200 I-226.383 J34.873 K0.000 F150.000
G1 X40.010 Y-57.725 Z-0.200 F150.000
G3 X39.408 Y-57.691 Z-0.200 I-1.479 J-20.990 K0.000 F150.000
G3 X38.659 Y-62.241 Z-0.200 I187.449 J-33.206 K0.000 F150.000
G0 Z0.500
G0 X38.887 Y-62.067 Z0.500
G0 X38.887 Y-62.067 Z0.300
G1 X38.887 Y-62.067 Z-0.200 F100.000
G3 X39.313 Y-62.117 Z-0.200 I9.915 J83.218 K0.000 F150.000
G2 X39.227 Y-61.299 Z-0.200 I1.002 J0.519 K0.000 F150.000
G3 X39.718 Y-57.907 Z-0.200 I-107.792 J17.343 K0.000 F150.000
G3 X39.574 Y-57.899 Z-0.200 I-0.517 J-7.994 K0.000 F150.000
G3 X38.887 Y-62.067 Z-0.200 I197.235 J-34.624 K0.000 F150.000
G0 Z0.500
G0 X39.613 Y-61.814 Z0.500
G0 X39.613 Y-61.814 Z0.300
G1 X39.613 Y-61.814 Z-0.200 F100.000
G3 X39.689 Y-61.960 Z-0.200 I0.541 J0.189 K0.000 F150.000
G3 X40.221 Y-62.099 Z-0.200 I0.470 J0.711 K0.000 F150.000
G3 X40.606 Y-61.829 Z-0.200 I0.076 J0.301 K0.000 F150.000
G3 X41.188 Y-58.027 Z-0.200 I-117.045 J19.869 K0.000 F150.000
G1 X41.146 Y-57.870 Z-0.200 F150.000
G3 X40.679 Y-57.714 Z-0.200 I-0.456 J-0.587 K0.000 F150.000
G3 X40.123 Y-57.932 Z-0.200 I-0.157 J-0.417 K0.000 F150.000
G2 X39.610 Y-61.443 Z-0.200 I-179.457 J24.426 K0.000 F150.000
G3 X39.613 Y-61.814 Z-0.200 I0.543 J-0.182 K0.000 F150.000
G0 Z0.500
G0 X40.819 Y-62.284 Z0.500
G0 X40.819 Y-62.284 Z0.300
G1 X40.819 Y-62.284 Z-0.200 F100.000
G3 X41.566 Y-62.363 Z-0.200 I18.199 J167.887 K0.000 F150.000
G3 X41.939 Y-58.089 Z-0.200 I-115.823 J12.259 K0.000 F150.000
G3 X41.582 Y-58.053 Z-0.200 I-1.925 J-17.094 K0.000 F150.000
G1 X41.584 Y-58.088 Z-0.200 F150.000
G2 X40.994 Y-61.925 Z-0.200 I-111.187 J15.110 K0.000 F150.000
G2 X40.819 Y-62.284 Z-0.200 I-0.702 J0.121 K0.000 F150.000
G0 Z0.500
G0 X41.144 Y-62.117 Z0.500
G0 X41.144 Y-62.117 Z0.300
G1 X41.144 Y-62.117 Z-0.200 F100.000
G3 X41.391 Y-62.143 Z-0.200 I10.911 J101.789 K0.000 F150.000
G3 X41.706 Y-58.601 Z-0.200 I-213.836 J20.831 K0.000 F150.000
G2 X41.189 Y-61.973 Z-0.200 I-88.046 J11.784 K0.000 F150.000
G2 X41.144 Y-62.117 Z-0.200 I-0.772 J0.157 K0.000 F150.000
G0 Z0.500
G0 X41.277 Y-62.031 Z0.500
G0 X41.277 Y-62.031 Z0.300
G1 X41.277 Y-62.031 Z-0.200 F100.000
G1 X41.301 Y-62.033 Z-0.200 F150.000
G3 X41.323 Y-61.820 Z-0.200 I-17.945 J1.923 K0.000 F150.000
G2 X41.277 Y-62.031 Z-0.200 I-2.378 J0.408 K0.000 F150.000
G0 Z0.500
G0 Z0.500
G0 X41.277 Y-62.031
G0 X44.391 Y-56.302
G0 X44.391 Y-56.302 Z0.300
G1 X44.391 Y-56.302 Z-0.200 F100.000
G1 X44.457 Y-56.280 Z-0.200 F150.000
G3 X44.791 Y-56.115 Z-0.200 I-3.189 J6.909 K0.000 F150.000
G2 X44.346 Y-55.218 Z-0.200 I29.701 J15.292 K0.000 F150.000
G3 X44.006 Y-55.419 Z-0.200 I0.153 J-0.649 K0.000 F150.000
G3 X44.391 Y-56.302 Z-0.200 I1.505 J0.131 K0.000 F150.000
G0 Z0.500
G0 X44.447 Y-56.063 Z0.500
G0 X44.447 Y-56.063 Z0.300
G1 X44.447 Y-56.063 Z-0.200 F100.000
G1 X44.523 Y-56.026 Z-0.200 F150.000
G2 X44.248 Y-55.476 Z-0.200 I34.090 J17.338 K0.000 F150.000
G3 X44.220 Y-55.557 Z-0.200 I0.001 J-0.046 K0.000 F150.000
G3 X44.447 Y-56.063 Z-0.200 I1.699 J0.459 K0.000 F150.000
G0 Z0.500
G0 Z0.500
G0 X44.447 Y-56.063
G0 X45.310 Y-57.011
G0 X45.310 Y-57.011 Z0.300
G1 X45.310 Y-57.011 Z-0.200 F100.000
G3 X45.213 Y-57.295 Z-0.200 I0.210 J-0.231 K0.000 F150.000
G3 X45.572 Y-58.015 Z-0.200 I2.060 J0.578 K0.000 F150.000
G3 X45.889 Y-57.877 Z-0.200 I-0.598 J1.802 K0.000 F150.000
G3 X45.409 Y-56.950 Z-0.200 I-11.951 J-5.600 K0.000 F150.000
G3 X45.310 Y-57.011 Z-0.200 I0.111 J-0.292 K0.000 F150.000
G0 Z0.500
G0 X45.383 Y-57.107 Z0.500
G0 X45.383 Y-57.107 Z0.300
G1 X45.383 Y-57.107 Z-0.200 F100.000
G3 X45.378 Y-57.465 Z-0.200 I0.187 J-0.182 K0.000 F150.000
G3 X45.625 Y-57.891 Z-0.200 I0.989 J0.289 K0.000 F150.000
G1 X45.714 Y-57.853 Z-0.200 F150.000
G3 X45.753 Y-57.822 Z-0.200 I0.020 J0.016 K0.000 F150.000
G3 X45.383 Y-57.107 Z-0.200 I-13.042 J-6.298 K0.000 F150.000
G0 Z0.500
G0 Z0.500
G0 X45.383 Y-57.107
G0 X46.570 Y-56.518
G0 X46.570 Y-56.518 Z0.300
G1 X46.570 Y-56.518 Z-0.200 F100.000
G3 X45.382 Y-54.220 Z-0.200 I-70.596 J-35.039 K0.000 F150.000
G3 X45.048 Y-53.906 Z-0.200 I-0.443 J-0.135 K0.000 F150.000
G3 X42.957 Y-55.007 Z-0.200 I2.582 J-7.439 K0.000 F150.000
G3 X42.798 Y-56.162 Z-0.200 I0.739 J-0.690 K0.000 F150.000
G3 X43.805 Y-57.403 Z-0.200 I1.951 J0.555 K0.000 F150.000
G3 X44.666 Y-59.186 Z-0.200 I1.423 J-0.412 K0.000 F150.000
G3 X45.199 Y-59.185 Z-0.200 I0.264 J0.892 K0.000 F150.000
G3 X47.185 Y-58.232 Z-0.200 I-3.257 J9.338 K0.000 F150.000
G3 X47.270 Y-57.967 Z-0.200 I-0.094 J0.176 K0.000 F150.000
G3 X46.570 Y-56.518 Z-0.200 I-71.297 J-33.590 K0.000 F150.000
G0 Z0.500
G0 X46.869 Y-56.377 Z0.500
G0 X46.869 Y-56.377 Z0.300
G1 X46.869 Y-56.377 Z-0.200 F100.000
G3 X46.621 Y-55.859 Z-0.200 I-32.501 J-15.249 K0.000 F150.000
G1 X45.509 Y-53.487 Z-0.200 F150.000
G3 X42.094 Y-55.198 Z-0.200 I167.542 J-338.521 K0.000 F150.000
G3 X44.172 Y-59.919 Z-0.200 I150.998 J63.650 K0.000 F150.000
G3 X47.699 Y-58.288 Z-0.200 I-64.720 J144.590 K0.000 F150.000
G3 X46.869 Y-56.377 Z-0.200 I-33.330 J-13.338 K0.000 F150.000
G0 Z0.500
G0 X45.802 Y-54.583 Z0.500
G0 X45.802 Y-54.583 Z0.300
G1 X45.802 Y-54.583 Z-0.200 F100.000
G1 X45.415 Y-53.757 Z-0.200 F150.000
G1 X45.326 Y-53.802 Z-0.200 F150.000
G2 X45.802 Y-54.583 Z-0.200 I-2.459 J-2.033 K0.000 F150.000
G0 Z0.500
G0 X42.619 Y-55.157 Z0.500
G0 X42.619 Y-55.157 Z0.300
G1 X42.619 Y-55.157 Z-0.200 F100.000
G3 X42.350 Y-55.293 Z-0.200 I46.619 J-92.573 K0.000 F150.000
G3 X42.500 Y-55.647 Z-0.200 I39.423 J16.458 K0.000 F150.000
G2 X42.619 Y-55.157 Z-0.200 I0.813 J0.062 K0.000 F150.000
G0 Z0.500
G0 X43.170 Y-57.192 Z0.500
G0 X43.170 Y-57.192 Z0.300
G1 X43.170 Y-57.192 Z-0.200 F100.000
G3 X43.573 Y-58.106 Z-0.200 I144.100 J63.033 K0.000 F150.000
G2 X43.562 Y-57.490 Z-0.200 I1.184 J0.329 K0.000 F150.000
G2 X43.170 Y-57.192 Z-0.200 I0.608 J1.209 K0.000 F150.000
G0 Z0.500
G0 X43.422 Y-57.519 Z0.500
G0 X43.422 Y-57.519 Z0.300
G1 X43.422 Y-57.519 Z-0.200 F100.000
G1 X43.443 Y-57.566 Z-0.200 F150.000
G3 X43.422 Y-57.519 Z-0.200 I-0.020 J0.019 K0.000 F150.000
G0 Z0.500
G0 X43.897 Y-58.832 Z0.500
G0 X43.897 Y-58.832 Z0.300
G1 X43.897 Y-58.832 Z-0.200 F100.000
G3 X44.271 Y-59.657 Z-0.200 I58.974 J26.235 K0.000 F150.000
G3 X44.809 Y-59.412 Z-0.200 I-17.352 J38.967 K0.000 F150.000
G2 X43.897 Y-58.832 Z-0.200 I0.160 J1.258 K0.000 F150.000
G0 Z0.500
G0 X44.210 Y-59.285 Z0.500
G0 X44.210 Y-59.285 Z0.300
G1 X44.210 Y-59.285 Z-0.200 F100.000
G3 X44.320 Y-59.525 Z-0.200 I36.963 J16.733 K0.000 F150.000
G1 X44.502 Y-59.443 Z-0.200 F150.000
G2 X44.210 Y-59.285 Z-0.200 I0.309 J0.918 K0.000 F150.000
G0 Z0.500
G0 Z0.500
G0 X44.210 Y-59.285
G0 X37.533 Y-59.846
G0 X37.533 Y-59.846 Z0.300
G1 X37.533 Y-59.846 Z-0.200 F100.000
G3 X37.228 Y-56.650 Z-0.200 I-139.402 J-11.696 K0.000 F150.000
G3 X34.087 Y-56.901 Z-0.200 I4.212 J-72.597 K0.000 F150.000
G3 X34.312 Y-61.770 Z-0.200 I77.791 J1.156 K0.000 F150.000
G3 X37.639 Y-61.190 Z-0.200 I-13.157 J85.294 K0.000 F150.000
G3 X37.533 Y-59.846 Z-0.200 I-139.508 J-10.351 K0.000 F150.000
G0 Z0.500
G0 X37.167 Y-59.879 Z0.500
G0 X37.167 Y-59.879 Z0.300
G1 X37.167 Y-59.879 Z-0.200 F100.000
G3 X36.967 Y-58.544 Z-0.200 I-11.778 J-1.082 K0.000 F150.000
G3 X36.719 Y-57.712 Z-0.200 I-1.464 J0.017 K0.000 F150.000
G3 X36.193 Y-57.692 Z-0.200 I-0.281 J-0.454 K0.000 F150.000
G3 X35.814 Y-57.935 Z-0.200 I-0.041 J-0.353 K0.000 F150.000
G3 X36.020 Y-59.670 Z-0.200 I140.648 J15.839 K0.000 F150.000
G2 X35.617 Y-59.730 Z-0.200 I-0.668 J3.093 K0.000 F150.000
G2 X35.347 Y-58.036 Z-0.200 I12.245 J2.819 K0.000 F150.000
G1 X35.266 Y-57.903 Z-0.200 F150.000
G3 X34.899 Y-57.866 Z-0.200 I-0.240 J-0.547 K0.000 F150.000
G3 X34.283 Y-58.274 Z-0.200 I-0.128 J-0.475 K0.000 F150.000
G3 X34.490 Y-59.955 Z-0.200 I7.826 J0.109 K0.000 F150.000
G3 X35.061 Y-60.939 Z-0.200 I1.185 J0.030 K0.000 F150.000
G3 X36.115 Y-60.831 Z-0.200 I0.421 J1.090 K0.000 F150.000
G3 X36.259 Y-60.933 Z-0.200 I0.910 J1.139 K0.000 F150.000
G3 X36.783 Y-60.936 Z-0.200 I0.267 J0.985 K0.000 F150.000
G3 X37.212 Y-60.641 Z-0.200 I-0.008 J0.472 K0.000 F150.000
G3 X37.167 Y-59.879 Z-0.200 I-11.823 J-0.320 K0.000 F150.000
G0 Z0.500
G0 X37.294 Y-59.404 Z0.500
G0 X37.294 Y-59.404 Z0.300
G1 X37.294 Y-59.404 Z-0.200 F100.000
G3 X37.051 Y-56.860 Z-0.200 I-127.271 J-10.848 K0.000 F150.000
G3 X34.290 Y-57.080 Z-0.200 I5.562 J-87.046 K0.000 F150.000
G3 X34.312 Y-57.811 Z-0.200 I55.887 J1.325 K0.000 F150.000
G2 X34.898 Y-57.666 Z-0.200 I0.487 J-0.709 K0.000 F150.000
G2 X35.310 Y-57.699 Z-0.200 I0.129 J-0.987 K0.000 F150.000
G2 X35.545 Y-58.007 Z-0.200 I-0.161 J-0.366 K0.000 F150.000
G3 X35.771 Y-59.509 Z-0.200 I28.871 J3.573 K0.000 F150.000
G3 X35.801 Y-59.431 Z-0.200 I0.013 J0.040 K0.000 F150.000
G2 X35.614 Y-57.935 Z-0.200 I26.494 J4.074 K0.000 F150.000
G2 X36.061 Y-57.514 Z-0.200 I0.438 J-0.018 K0.000 F150.000
G2 X36.861 Y-57.570 Z-0.200 I0.347 J-0.782 K0.000 F150.000
G2 X37.165 Y-58.514 Z-0.200 I-1.332 J-0.949 K0.000 F150.000
G2 X37.294 Y-59.404 Z-0.200 I-61.328 J-9.327 K0.000 F150.000
G0 Z0.500
G0 X37.403 Y-60.688 Z0.500
G0 X37.403 Y-60.688 Z0.300
G1 X37.403 Y-60.688 Z-0.200 F100.000
G2 X36.655 Y-61.155 Z-0.200 I-0.686 J0.266 K0.000 F150.000
G2 X36.104 Y-61.069 Z-0.200 I-0.176 J0.686 K0.000 F150.000
G2 X34.461 Y-60.588 Z-0.200 I-0.598 J1.004 K0.000 F150.000
G1 X34.427 Y-60.495 Z-0.200 F150.000
G3 X34.491 Y-61.537 Z-0.200 I21.584 J0.804 K0.000 F150.000
G3 X37.428 Y-61.027 Z-0.200 I-17.569 J110.035 K0.000 F150.000
G3 X37.403 Y-60.688 Z-0.200 I-17.014 J-1.114 K0.000 F150.000
G0 Z0.500
G0 X34.840 Y-61.275 Z0.500
G0 X34.840 Y-61.275 Z0.300
G1 X34.840 Y-61.275 Z-0.200 F100.000
G2 X34.664 Y-61.166 Z-0.200 I0.374 J0.797 K0.000 F150.000
G3 X34.673 Y-61.303 Z-0.200 I11.616 J0.685 K0.000 F150.000
G1 X34.840 Y-61.275 Z-0.200 F150.000
G0 Z0.500
G0 X35.526 Y-57.599 Z0.500
G0 X35.526 Y-57.599 Z0.300
G1 X35.526 Y-57.599 Z-0.200 F100.000
G2 X36.217 Y-57.281 Z-0.200 I0.712 J-0.636 K0.000 F150.000
G2 X36.903 Y-57.368 Z-0.200 I0.254 J-0.743 K0.000 F150.000
G3 X36.872 Y-57.071 Z-0.200 I-19.501 J-1.868 K0.000 F150.000
G3 X34.495 Y-57.269 Z-0.200 I2.481 J-44.223 K0.000 F150.000
G1 X34.502 Y-57.504 Z-0.200 F150.000
G2 X35.352 Y-57.500 Z-0.200 I0.435 J-2.209 K0.000 F150.000
G1 X35.526 Y-57.599 Z-0.200 F150.000
G0 Z0.500
G0 X35.500 Y-57.470 Z0.500
G0 X35.500 Y-57.470 Z0.300
G1 X35.500 Y-57.470 Z-0.200 F100.000
G2 X35.905 Y-57.242 Z-0.200 I0.545 J-0.496 K0.000 F150.000
G3 X34.597 Y-57.352 Z-0.200 I6.139 J-80.683 K0.000 F150.000
G1 X34.598 Y-57.384 Z-0.200 F150.000
G2 X35.374 Y-57.402 Z-0.200 I0.320 J-2.892 K0.000 F150.000
G1 X35.500 Y-57.470 Z-0.200 F150.000
G0 Z0.500
G0 X36.768 Y-57.178 Z0.500
G0 X36.768 Y-57.178 Z0.300
G1 X36.768 Y-57.178 Z-0.200 F100.000
G1 X36.784 Y-57.184 Z-0.200 F150.000
G3 X36.768 Y-57.178 Z-0.200 I-0.008 J0.002 K0.000 F150.000
G0 Z0.500
G0 Z0.500
G0 X36.768 Y-57.178
G0 X36.780 Y-62.154
G0 X36.780 Y-62.154 Z0.300
G1 X36.780 Y-62.154 Z-0.200 F100.000
G3 X36.069 Y-62.460 Z-0.200 I0.002 J-0.986 K0.000 F150.000
G3 X35.942 Y-62.857 Z-0.200 I0.517 J-0.384 K0.000 F150.000
G1 X35.942 Y-62.857 Z-0.200 F150.000
G2 X35.391 Y-63.059 Z-0.200 I-0.293 J-0.053 K0.000 F150.000
G3 X34.985 Y-62.643 Z-0.200 I-1.658 J-1.211 K0.000 F150.000
G3 X34.474 Y-62.782 Z-0.200 I-0.165 J-0.402 K0.000 F150.000
G3 X34.115 Y-63.396 Z-0.200 I1.313 J-1.178 K0.000 F150.000
G3 X33.831 Y-65.419 Z-0.200 I6.653 J-1.966 K0.000 F150.000
G3 X33.950 Y-67.890 Z-0.200 I14.570 J-0.540 K0.000 F150.000
G3 X34.318 Y-68.853 Z-0.200 I1.533 J0.035 K0.000 F150.000
G3 X35.641 Y-69.233 Z-0.200 I1.043 J1.140 K0.000 F150.000
G3 X36.084 Y-68.887 Z-0.200 I-2.271 J3.368 K0.000 F150.000
G2 X36.676 Y-69.031 Z-0.200 I0.187 J-0.520 K0.000 F150.000
G3 X37.766 Y-69.532 Z-0.200 I2.668 J4.371 K0.000 F150.000
G3 X38.537 Y-69.358 Z-0.200 I0.210 J0.866 K0.000 F150.000
G3 X38.889 Y-68.763 Z-0.200 I-2.723 J2.012 K0.000 F150.000
G2 X39.081 Y-68.660 Z-0.200 I0.175 J-0.096 K0.000 F150.000
G2 X42.066 Y-69.200 Z-0.200 I-0.492 J-11.239 K0.000 F150.000
G2 X43.412 Y-70.177 Z-0.200 I-1.282 J-3.181 K0.000 F150.000
G3 X45.932 Y-72.716 Z-0.200 I28.061 J25.339 K0.000 F150.000
G3 X47.058 Y-73.353 Z-0.200 I2.945 J3.894 K0.000 F150.000
G3 X49.284 Y-74.130 Z-0.200 I3.199 J5.583 K0.000 F150.000
G3 X55.338 Y-74.550 Z-0.200 I5.764 J39.249 K0.000 F150.000
G2 X60.489 Y-74.707 Z-0.200 I-9.893 J-409.732 K0.000 F150.000
G3 X61.800 Y-74.683 Z-0.200 I-0.223 J48.043 K0.000 F150.000
G1 X61.800 Y-74.412 Z-0.200 F150.000
G2 X59.539 Y-74.379 Z-0.200 I-0.867 J17.695 K0.000 F150.000
G3 X56.384 Y-74.299 Z-0.200 I-3.179 J-63.236 K0.000 F150.000
G2 X50.357 Y-74.064 Z-0.200 I0.212 J83.015 K0.000 F150.000
G2 X46.799 Y-73.002 Z-0.200 I0.762 J9.038 K0.000 F150.000
G2 X44.752 Y-71.235 Z-0.200 I2.896 J5.424 K0.000 F150.000
G3 X43.151 Y-69.572 Z-0.200 I-6.832 J-4.978 K0.000 F150.000
G3 X41.360 Y-68.773 Z-0.200 I-2.675 J-3.591 K0.000 F150.000
G3 X39.016 Y-68.236 Z-0.200 I-4.559 J-14.509 K0.000 F150.000
G3 X38.566 Y-68.694 Z-0.200 I0.220 J-0.666 K0.000 F150.000
G1 X38.566 Y-68.694 Z-0.200 F150.000
G2 X37.478 Y-69.225 Z-0.200 I-0.792 J0.242 K0.000 F150.000
G2 X36.762 Y-68.785 Z-0.200 I0.376 J1.414 K0.000 F150.000
G3 X35.883 Y-68.439 Z-0.200 I-0.728 J-0.562 K0.000 F150.000
G3 X35.512 Y-68.811 Z-0.200 I0.580 J-0.949 K0.000 F150.000
G2 X34.920 Y-68.903 Z-0.200 I-0.363 J0.385 K0.000 F150.000
G2 X34.425 Y-68.635 Z-0.200 I0.257 J1.067 K0.000 F150.000
G2 X34.193 Y-68.160 Z-0.200 I0.892 J0.729 K0.000 F150.000
G2 X34.247 Y-65.565 Z-0.200 I7.579 J1.139 K0.000 F150.000
G2 X34.566 Y-63.277 Z-0.200 I20.136 J-1.639 K0.000 F150.000
G2 X35.070 Y-63.223 Z-0.200 I0.268 J-0.115 K0.000 F150.000
G3 X35.329 Y-63.471 Z-0.200 I0.557 J0.322 K0.000 F150.000
G3 X36.208 Y-63.409 Z-0.200 I0.351 J1.285 K0.000 F150.000
G3 X36.276 Y-63.247 Z-0.200 I-0.100 J0.138 K0.000 F150.000
G2 X36.499 Y-62.659 Z-0.200 I0.644 J0.092 K0.000 F150.000
G2 X37.436 Y-63.132 Z-0.200 I0.316 J-0.539 K0.000 F150.000
G3 X38.506 Y-63.635 Z-0.200 I0.936 J0.602 K0.000 F150.000
G2 X41.054 Y-63.862 Z-0.200 I-1.724 J-33.738 K0.000 F150.000
G3 X42.509 Y-63.568 Z-0.200 I0.314 J2.193 K0.000 F150.000
G3 X43.971 Y-62.557 Z-0.200 I-2.370 J4.989 K0.000 F150.000
G2 X45.178 Y-61.391 Z-0.200 I3.573 J-2.490 K0.000 F150.000
G2 X47.556 Y-59.860 Z-0.200 I7.260 J-8.664 K0.000 F150.000
G2 X50.519 Y-59.312 Z-0.200 I3.607 J-11.231 K0.000 F150.000
G2 X57.971 Y-59.050 Z-0.200 I5.945 J-62.949 K0.000 F150.000
G1 X61.800 Y-59.067 Z-0.200 F150.000
G1 X61.800 Y-58.733 Z-0.200 F150.000
G3 X52.406 Y-59.021 Z-0.200 I3.726 J-275.168 K0.000 F150.000
G3 X48.747 Y-59.367 Z-0.200 I1.254 J-32.744 K0.000 F150.000
G3 X45.353 Y-60.541 Z-0.200 I2.192 J-11.828 K0.000 F150.000
G3 X43.776 Y-61.813 Z-0.200 I1.399 J-3.348 K0.000 F150.000
G2 X42.113 Y-63.547 Z-0.200 I-5.996 J4.086 K0.000 F150.000
G2 X40.770 Y-63.720 Z-0.200 I-0.975 J2.285 K0.000 F150.000
G3 X37.963 Y-63.423 Z-0.200 I-7.264 J-55.404 K0.000 F150.000
G2 X37.790 Y-63.288 Z-0.200 I0.017 J0.199 K0.000 F150.000
G3 X37.444 Y-62.409 Z-0.200 I-2.560 J-0.500 K0.000 F150.000
G3 X36.780 Y-62.154 Z-0.200 I-0.661 J-0.731 K0.000 F150.000
G0 Z0.500
G0 X36.776 Y-62.362 Z0.500
G0 X36.776 Y-62.362 Z0.300
G1 X36.776 Y-62.362 Z-0.200 F100.000
G3 X36.234 Y-62.575 Z-0.200 I-0.017 J-0.752 K0.000 F150.000
G3 X36.159 Y-62.777 Z-0.200 I0.257 J-0.209 K0.000 F150.000
G2 X37.005 Y-62.403 Z-0.200 I0.645 J-0.316 K0.000 F150.000
G3 X36.776 Y-62.362 Z-0.200 I-0.246 J-0.710 K0.000 F150.000
G0 Z0.500
G0 X36.087 Y-63.130 Z0.500
G0 X36.087 Y-63.130 Z0.300
G1 X36.087 Y-63.130 Z-0.200 F100.000
G1 X35.991 Y-63.270 Z-0.200 F150.000
G3 X36.087 Y-63.130 Z-0.200 I0.023 J0.087 K0.000 F150.000
G0 Z0.500
G0 X35.059 Y-62.978 Z0.500
G0 X35.059 Y-62.978 Z0.300
G1 X35.059 Y-62.978 Z-0.200 F100.000
G3 X34.773 Y-62.814 Z-0.200 I-0.250 J-0.104 K0.000 F150.000
G3 X34.563 Y-62.987 Z-0.200 I0.193 J-0.448 K0.000 F150.000
G2 X35.059 Y-62.978 Z-0.200 I0.254 J-0.352 K0.000 F150.000
G0 Z0.500
G0 X34.321 Y-63.420 Z0.500
G0 X34.321 Y-63.420 Z0.300
G1 X34.321 Y-63.420 Z-0.200 F100.000
G3 X34.034 Y-65.660 Z-0.200 I6.431 J-1.961 K0.000 F150.000
G2 X34.321 Y-63.420 Z-0.200 I55.180 J-5.920 K0.000 F150.000
G0 Z0.500
G0 X35.948 Y-68.628 Z0.500
G0 X35.948 Y-68.628 Z0.300
G1 X35.948 Y-68.628 Z-0.200 F100.000
G3 X35.727 Y-68.868 Z-0.200 I0.097 J-0.311 K0.000 F150.000
G2 X35.519 Y-69.056 Z-0.200 I-0.391 J0.222 K0.000 F150.000
G3 X36.003 Y-68.704 Z-0.200 I-1.263 J2.247 K0.000 F150.000
G2 X36.190 Y-68.648 Z-0.200 I0.227 J-0.413 K0.000 F150.000
G3 X35.948 Y-68.628 Z-0.200 I-0.145 J-0.292 K0.000 F150.000
G0 Z0.500
G0 X38.981 Y-68.469 Z0.500
G0 X38.981 Y-68.469 Z0.300
G1 X38.981 Y-68.469 Z-0.200 F100.000
G2 X39.403 Y-68.486 Z-0.200 I0.157 J-1.337 K0.000 F150.000
G3 X39.039 Y-68.437 Z-0.200 I-0.275 J-0.658 K0.000 F150.000
G3 X38.981 Y-68.469 Z-0.200 I0.030 J-0.121 K0.000 F150.000
G0 Z0.500
G0 X43.015 Y-63.039 Z0.500
G0 X43.015 Y-63.039 Z0.300
G1 X43.015 Y-63.039 Z-0.200 F100.000
G3 X43.910 Y-62.316 Z-0.200 I-1.335 J2.568 K0.000 F150.000
G2 X45.247 Y-61.087 Z-0.200 I3.880 J-2.877 K0.000 F150.000
G3 X45.421 Y-60.954 Z-0.200 I-718.153 J941.349 K0.000 F150.000
G2 X46.411 Y-60.267 Z-0.200 I7.636 J-9.943 K0.000 F150.000
G3 X44.565 Y-61.242 Z-0.200 I3.996 J-9.796 K0.000 F150.000
G3 X43.128 Y-62.922 Z-0.200 I15.190 J-14.446 K0.000 F150.000
G1 X43.015 Y-63.039 Z-0.200 F150.000
G0 Z0.500
G0 X43.660 Y-62.443 Z0.500
G0 X43.660 Y-62.443 Z0.300
G1 X43.660 Y-62.443 Z-0.200 F100.000
G2 X44.720 Y-61.363 Z-0.200 I4.224 J-3.085 K0.000 F150.000
G3 X45.357 Y-60.877 Z-0.200 I-667.200 J875.537 K0.000 F150.000
G3 X44.011 Y-62.000 Z-0.200 I1.332 J-2.966 K0.000 F150.000
G2 X43.660 Y-62.443 Z-0.200 I-9.218 J6.945 K0.000 F150.000
G0 Z0.500
G0 Z0.500
(Finish operation: Pocket_Shape)
(Begin postamble)
M5
G17 G90
M2
