(Exported by FreeCAD)
(Post Processor: grbl_post)
(Output Time:2022-11-26 18:56:36.671515)
(Begin preamble)
G17 G90
G21
(Begin operation: G54)
(Path: G54)
G54
G0 Z5.000
(Finish operation: G54)
(Begin operation: endmill-2_5mm009)
(Path: endmill-2_5mm009)
(endmill-2_5mm009)
(Begin toolchange)
( M6 T2 )
M3 S10000
(Finish operation: endmill-2_5mm009)
(Begin operation: Profile007)
(Path: Profile007)
(Profile007)
(Compensated Tool Path. Diameter: 2.5)
G0 Z10.000
G0 X64.902 Y-25.135
G0 Z8.000
G1 X64.902 Y-25.135 Z-1.000 F100.000
G2 X64.555 Y-25.658 Z-1.000 I-0.554 J-0.009 K0.000 F250.000
G2 X63.834 Y-25.351 Z-1.000 I-0.207 J0.514 K0.000 F250.000
G2 X64.141 Y-24.630 Z-1.000 I0.514 J0.207 K0.000 F250.000
G2 X64.902 Y-25.135 Z-1.000 I0.207 J-0.514 K0.000 F250.000
G0 Z10.000
G0 X86.148 Y-74.541 Z10.000
G0 X86.148 Y-74.541 Z8.000
G1 X86.148 Y-74.541 Z-1.000 F100.000
G2 X86.387 Y-74.497 Z-1.000 I0.219 J-0.510 K0.000 F250.000
G2 X86.405 Y-75.604 Z-1.000 I-0.020 J-0.554 K0.000 F250.000
G1 X86.296 Y-75.601 Z-1.000 F250.000
G2 X86.148 Y-74.541 Z-1.000 I0.071 J0.550 K0.000 F250.000
G0 Z10.000
G0 X96.320 Y-130.441 Z10.000
G0 X96.320 Y-130.441 Z8.000
G1 X96.320 Y-130.441 Z-1.000 F100.000
G2 X96.667 Y-131.485 Z-1.000 I0.099 J-0.546 K0.000 F250.000
G2 X96.173 Y-130.490 Z-1.000 I-0.247 J0.497 K0.000 F250.000
G2 X96.320 Y-130.441 Z-1.000 I0.247 J-0.497 K0.000 F250.000
G0 Z10.000
G0 X14.614 Y-93.346 Z10.000
G0 X14.614 Y-93.346 Z8.000
G1 X14.614 Y-93.346 Z-1.000 F100.000
G2 X14.316 Y-93.631 Z-1.000 I-0.505 J0.229 K0.000 F250.000
G2 X13.595 Y-93.323 Z-1.000 I-0.207 J0.514 K0.000 F250.000
G2 X13.903 Y-92.602 Z-1.000 I0.514 J0.207 K0.000 F250.000
G2 X14.614 Y-93.346 Z-1.000 I0.207 J-0.514 K0.000 F250.000
G0 Z10.000
G0 X-88.425 Y-91.961 Z10.000
G0 X-88.425 Y-91.961 Z8.000
G1 X-88.425 Y-91.961 Z-1.000 F100.000
G2 X-88.773 Y-92.468 Z-1.000 I-0.554 J0.007 K0.000 F250.000
G2 X-89.494 Y-92.160 Z-1.000 I-0.207 J0.514 K0.000 F250.000
G2 X-89.186 Y-91.439 Z-1.000 I0.514 J0.207 K0.000 F250.000
G2 X-88.425 Y-91.961 Z-1.000 I0.207 J-0.514 K0.000 F250.000
G0 Z10.000
G0 X-105.438 Y-41.199 Z10.000
G0 X-105.438 Y-41.199 Z8.000
G1 X-105.438 Y-41.199 Z-1.000 F100.000
G2 X-105.862 Y-40.175 Z-1.000 I-0.176 J0.526 K0.000 F250.000
G2 X-105.368 Y-41.170 Z-1.000 I0.247 J-0.497 K0.000 F250.000
G2 X-105.438 Y-41.199 Z-1.000 I-0.247 J0.497 K0.000 F250.000
G1 X-105.438 Y-41.199 Z-2.000 F100.000
G2 X-105.862 Y-40.175 Z-2.000 I-0.176 J0.526 K0.000 F250.000
G2 X-105.368 Y-41.170 Z-2.000 I0.247 J-0.497 K0.000 F250.000
G2 X-105.438 Y-41.199 Z-2.000 I-0.247 J0.497 K0.000 F250.000
G0 Z10.000
G0 X-89.150 Y-91.426 Z10.000
G0 X-89.150 Y-91.426 Z8.000
G1 X-89.150 Y-91.426 Z-2.000 F100.000
G2 X-88.773 Y-92.468 Z-2.000 I0.171 J-0.527 K0.000 F250.000
G2 X-89.494 Y-92.160 Z-2.000 I-0.207 J0.514 K0.000 F250.000
G2 X-89.186 Y-91.439 Z-2.000 I0.514 J0.207 K0.000 F250.000
G2 X-89.150 Y-91.426 Z-2.000 I0.207 J-0.514 K0.000 F250.000
G0 Z10.000
G0 X13.555 Y-93.108 Z10.000
G0 X13.555 Y-93.108 Z8.000
G1 X13.555 Y-93.108 Z-2.000 F100.000
G2 X13.903 Y-92.602 Z-2.000 I0.554 J-0.009 K0.000 F250.000
G2 X14.624 Y-92.910 Z-2.000 I0.207 J-0.514 K0.000 F250.000
G2 X14.316 Y-93.631 Z-2.000 I-0.514 J-0.207 K0.000 F250.000
G2 X13.555 Y-93.108 Z-2.000 I-0.207 J0.514 K0.000 F250.000
G0 Z10.000
G0 X85.828 Y-75.185 Z10.000
G0 X85.828 Y-75.185 Z8.000
G1 X85.828 Y-75.185 Z-2.000 F100.000
G2 X86.387 Y-74.497 Z-2.000 I0.538 J0.134 K0.000 F250.000
G2 X86.405 Y-75.604 Z-2.000 I-0.020 J-0.554 K0.000 F250.000
G1 X86.296 Y-75.601 Z-2.000 F250.000
G2 X85.828 Y-75.185 Z-2.000 I0.071 J0.550 K0.000 F250.000
G0 Z10.000
G0 X64.567 Y-25.653 Z10.000
G0 X64.567 Y-25.653 Z8.000
G1 X64.567 Y-25.653 Z-2.000 F100.000
G2 X64.555 Y-25.658 Z-2.000 I-0.219 J0.509 K0.000 F250.000
G2 X63.834 Y-25.351 Z-2.000 I-0.207 J0.514 K0.000 F250.000
G2 X64.141 Y-24.630 Z-2.000 I0.514 J0.207 K0.000 F250.000
G2 X64.567 Y-25.653 Z-2.000 I0.207 J-0.514 K0.000 F250.000
G0 Z10.000
G0 X96.259 Y-130.456 Z10.000
G0 X96.259 Y-130.456 Z8.000
G1 X96.259 Y-130.456 Z-2.000 F100.000
G2 X96.667 Y-131.485 Z-2.000 I0.161 J-0.532 K0.000 F250.000
G2 X96.173 Y-130.490 Z-2.000 I-0.247 J0.497 K0.000 F250.000
G2 X96.259 Y-130.456 Z-2.000 I0.247 J-0.497 K0.000 F250.000
G1 X96.259 Y-130.456 Z-2.500 F100.000
G2 X96.667 Y-131.485 Z-2.500 I0.161 J-0.532 K0.000 F250.000
G2 X96.173 Y-130.490 Z-2.500 I-0.247 J0.497 K0.000 F250.000
G2 X96.259 Y-130.456 Z-2.500 I0.247 J-0.497 K0.000 F250.000
G0 Z10.000
G0 X86.465 Y-75.597 Z10.000
G0 X86.465 Y-75.597 Z8.000
G1 X86.465 Y-75.597 Z-2.500 F100.000
G2 X86.405 Y-75.604 Z-2.500 I-0.098 J0.546 K0.000 F250.000
G1 X86.296 Y-75.601 Z-2.500 F250.000
G2 X86.387 Y-74.497 Z-2.500 I0.071 J0.550 K0.000 F250.000
G2 X86.465 Y-75.597 Z-2.500 I-0.020 J-0.554 K0.000 F250.000
G0 Z10.000
G0 X64.571 Y-25.652 Z10.000
G0 X64.571 Y-25.652 Z8.000
G1 X64.571 Y-25.652 Z-2.500 F100.000
G2 X64.555 Y-25.658 Z-2.500 I-0.223 J0.508 K0.000 F250.000
G2 X63.834 Y-25.351 Z-2.500 I-0.207 J0.514 K0.000 F250.000
G2 X64.141 Y-24.630 Z-2.500 I0.514 J0.207 K0.000 F250.000
G2 X64.571 Y-25.652 Z-2.500 I0.207 J-0.514 K0.000 F250.000
G0 Z10.000
G0 X14.441 Y-92.673 Z10.000
G0 X14.441 Y-92.673 Z8.000
G1 X14.441 Y-92.673 Z-2.500 F100.000
G2 X14.316 Y-93.631 Z-2.500 I-0.332 J-0.444 K0.000 F250.000
G2 X13.595 Y-93.323 Z-2.500 I-0.207 J0.514 K0.000 F250.000
G2 X13.903 Y-92.602 Z-2.500 I0.514 J0.207 K0.000 F250.000
G2 X14.441 Y-92.673 Z-2.500 I0.207 J-0.514 K0.000 F250.000
G0 Z10.000
G0 X-88.425 Y-91.958 Z10.000
G0 X-88.425 Y-91.958 Z8.000
G1 X-88.425 Y-91.958 Z-2.500 F100.000
G2 X-88.773 Y-92.468 Z-2.500 I-0.554 J0.004 K0.000 F250.000
G2 X-89.494 Y-92.160 Z-2.500 I-0.207 J0.514 K0.000 F250.000
G2 X-89.186 Y-91.439 Z-2.500 I0.514 J0.207 K0.000 F250.000
G2 X-88.425 Y-91.958 Z-2.500 I0.207 J-0.514 K0.000 F250.000
G0 Z10.000
G0 X-105.438 Y-41.199 Z10.000
G0 X-105.438 Y-41.199 Z8.000
G1 X-105.438 Y-41.199 Z-2.500 F100.000
G2 X-105.862 Y-40.175 Z-2.500 I-0.176 J0.526 K0.000 F250.000
G2 X-105.368 Y-41.170 Z-2.500 I0.247 J-0.497 K0.000 F250.000
G2 X-105.438 Y-41.199 Z-2.500 I-0.247 J0.497 K0.000 F250.000
G0 Z10.000
G0 Z10.000
(Finish operation: Profile007)
(Begin postamble)
M5
G17 G90
M2
