(Exported by FreeCAD)
(Post Processor: grbl_post)
(Output Time:2022-11-26 16:33:07.387860)
(Begin preamble)
G17 G90
G21
(Begin operation: G54)
(Path: G54)
G54
G0 Z5.000
(Finish operation: G54)
(Begin operation: endmill-2_5mm007)
(Path: endmill-2_5mm007)
(endmill-2_5mm007)
(Begin toolchange)
( M6 T2 )
M3 S10000
(Finish operation: endmill-2_5mm007)
(Begin operation: DressupPathBoundary001)
(Path: DressupPathBoundary001)
(Profile005)
(Uncompensated Tool Path)
G0 Z8.000
G0 Z10.000
G0 X8.680 Y-100.110
G0 Z8.000
G1 Z-1.000 F100.000
G3 X14.600 Y-100.509 Z-1.000 I10.064 J105.282 K0.000 F150.000
G2 X22.795 Y-101.311 Z-1.000 I-23.596 J-283.418 K0.000 F150.000
G2 X34.884 Y-103.671 Z-1.000 I-11.233 J-89.693 K0.000 F150.000
G2 X52.837 Y-113.015 Z-1.000 I-17.407 J-55.361 K0.000 F150.000
G2 X58.846 Y-117.863 Z-1.000 I-61.368 J-82.220 K0.000 F150.000
G2 X65.523 Y-123.412 Z-1.000 I-73.019 J-94.641 K0.000 F150.000
G2 X71.818 Y-128.835 Z-1.000 I-138.783 J-167.489 K0.000 F150.000
G2 X78.601 Y-134.448 Z-1.000 I-1170.472 J-1421.163 K0.000 F150.000
G3 X85.250 Y-139.312 Z-1.000 I100.873 J130.919 K0.000 F150.000
G3 X92.481 Y-142.265 Z-1.000 I12.052 J19.182 K0.000 F150.000
G3 X95.718 Y-142.420 Z-1.000 I2.215 J12.426 K0.000 F150.000
G3 X99.421 Y-141.446 Z-1.000 I-1.031 J11.447 K0.000 F150.000
G3 X105.694 Y-136.826 Z-1.000 I-5.139 J13.547 K0.000 F150.000
G3 X107.762 Y-132.423 Z-1.000 I-9.239 J7.026 K0.000 F150.000
G3 X108.265 Y-124.804 Z-1.000 I-23.802 J5.398 K0.000 F150.000
G3 X107.563 Y-118.723 Z-1.000 I-42.435 J-1.822 K0.000 F150.000
G3 X104.908 Y-106.711 Z-1.000 I-108.236 J-17.617 K0.000 F150.000
G2 X103.830 Y-102.365 Z-1.000 I119.724 J32.001 K0.000 F150.000
G3 X100.788 Y-92.860 Z-1.000 I-205.947 J-60.683 K0.000 F150.000
G3 X93.556 Y-73.285 Z-1.000 I-414.748 J-142.096 K0.000 F150.000
G3 X90.825 Y-66.727 Z-1.000 I-267.047 J-107.393 K0.000 F150.000
G3 X88.779 Y-61.757 Z-1.000 I-318.459 J-128.176 K0.000 F150.000
G3 X83.092 Y-49.049 Z-1.000 I-2805.470 J-1247.765 K0.000 F150.000
G2 X77.785 Y-37.573 Z-1.000 I354.642 J170.984 K0.000 F150.000
G2 X74.625 Y-30.622 Z-1.000 I122.704 J59.972 K0.000 F150.000
G2 X71.776 Y-23.637 Z-1.000 I160.318 J69.464 K0.000 F150.000
G2 X67.258 Y-11.073 Z-1.000 I89.767 J39.372 K0.000 F150.000
G2 X65.633 Y-4.698 Z-1.000 I40.063 J13.609 K0.000 F150.000
G3 X65.049 Y-2.131 Z-1.000 I-53.171 J-10.739 K0.000 F150.000
G2 X64.051 Y3.555 Z-1.000 I572.752 J103.528 K0.000 F150.000
G2 X63.682 Y7.832 Z-1.000 I73.260 J8.463 K0.000 F150.000
G0 Z8.000
G0 Z10.000
G0 X8.680 Y-100.110
G0 Z8.000
G1 Z-2.000 F100.000
G3 X14.600 Y-100.509 Z-2.000 I10.064 J105.282 K0.000 F150.000
G2 X22.795 Y-101.311 Z-2.000 I-23.596 J-283.418 K0.000 F150.000
G2 X34.884 Y-103.671 Z-2.000 I-11.233 J-89.693 K0.000 F150.000
G2 X52.837 Y-113.015 Z-2.000 I-17.407 J-55.361 K0.000 F150.000
G2 X58.846 Y-117.863 Z-2.000 I-61.368 J-82.220 K0.000 F150.000
G2 X65.523 Y-123.412 Z-2.000 I-73.019 J-94.641 K0.000 F150.000
G2 X71.818 Y-128.835 Z-2.000 I-138.783 J-167.489 K0.000 F150.000
G2 X78.601 Y-134.448 Z-2.000 I-1170.472 J-1421.163 K0.000 F150.000
G3 X85.250 Y-139.312 Z-2.000 I100.873 J130.919 K0.000 F150.000
G3 X92.481 Y-142.265 Z-2.000 I12.052 J19.182 K0.000 F150.000
G3 X95.718 Y-142.420 Z-2.000 I2.215 J12.426 K0.000 F150.000
G3 X99.421 Y-141.446 Z-2.000 I-1.031 J11.447 K0.000 F150.000
G3 X105.694 Y-136.826 Z-2.000 I-5.139 J13.547 K0.000 F150.000
G3 X107.762 Y-132.423 Z-2.000 I-9.239 J7.026 K0.000 F150.000
G3 X108.265 Y-124.804 Z-2.000 I-23.802 J5.398 K0.000 F150.000
G3 X107.563 Y-118.723 Z-2.000 I-42.435 J-1.822 K0.000 F150.000
G3 X104.908 Y-106.711 Z-2.000 I-108.236 J-17.617 K0.000 F150.000
G2 X103.830 Y-102.365 Z-2.000 I119.724 J32.001 K0.000 F150.000
G3 X100.788 Y-92.860 Z-2.000 I-205.947 J-60.683 K0.000 F150.000
G3 X93.556 Y-73.285 Z-2.000 I-414.748 J-142.096 K0.000 F150.000
G3 X90.825 Y-66.727 Z-2.000 I-267.047 J-107.393 K0.000 F150.000
G3 X88.779 Y-61.757 Z-2.000 I-318.459 J-128.176 K0.000 F150.000
G3 X83.092 Y-49.049 Z-2.000 I-2805.470 J-1247.765 K0.000 F150.000
G2 X77.785 Y-37.573 Z-2.000 I354.642 J170.984 K0.000 F150.000
G2 X74.625 Y-30.622 Z-2.000 I122.704 J59.972 K0.000 F150.000
G2 X71.776 Y-23.637 Z-2.000 I160.318 J69.464 K0.000 F150.000
G2 X67.258 Y-11.073 Z-2.000 I89.767 J39.372 K0.000 F150.000
G2 X65.633 Y-4.698 Z-2.000 I40.063 J13.609 K0.000 F150.000
G3 X65.049 Y-2.131 Z-2.000 I-53.171 J-10.739 K0.000 F150.000
G2 X64.051 Y3.555 Z-2.000 I572.752 J103.528 K0.000 F150.000
G2 X63.682 Y7.832 Z-2.000 I73.260 J8.463 K0.000 F150.000
G0 Z8.000
G0 Z10.000
G0 X8.680 Y-100.110
G0 Z8.000
G1 Z-2.500 F100.000
G3 X14.600 Y-100.509 Z-2.500 I10.064 J105.282 K0.000 F150.000
G2 X22.795 Y-101.311 Z-2.500 I-23.596 J-283.418 K0.000 F150.000
G2 X34.884 Y-103.671 Z-2.500 I-11.233 J-89.693 K0.000 F150.000
G2 X52.837 Y-113.015 Z-2.500 I-17.407 J-55.361 K0.000 F150.000
G2 X58.846 Y-117.863 Z-2.500 I-61.368 J-82.220 K0.000 F150.000
G2 X65.523 Y-123.412 Z-2.500 I-73.019 J-94.641 K0.000 F150.000
G2 X71.818 Y-128.835 Z-2.500 I-138.783 J-167.489 K0.000 F150.000
G2 X78.601 Y-134.448 Z-2.500 I-1170.472 J-1421.163 K0.000 F150.000
G3 X85.250 Y-139.312 Z-2.500 I100.873 J130.919 K0.000 F150.000
G3 X92.481 Y-142.265 Z-2.500 I12.052 J19.182 K0.000 F150.000
G3 X95.718 Y-142.420 Z-2.500 I2.215 J12.426 K0.000 F150.000
G3 X99.421 Y-141.446 Z-2.500 I-1.031 J11.447 K0.000 F150.000
G3 X105.694 Y-136.826 Z-2.500 I-5.139 J13.547 K0.000 F150.000
G3 X107.762 Y-132.423 Z-2.500 I-9.239 J7.026 K0.000 F150.000
G3 X108.265 Y-124.804 Z-2.500 I-23.802 J5.398 K0.000 F150.000
G3 X107.563 Y-118.723 Z-2.500 I-42.435 J-1.822 K0.000 F150.000
G3 X104.908 Y-106.711 Z-2.500 I-108.236 J-17.617 K0.000 F150.000
G2 X103.830 Y-102.365 Z-2.500 I119.724 J32.001 K0.000 F150.000
G3 X100.788 Y-92.860 Z-2.500 I-205.947 J-60.683 K0.000 F150.000
G3 X93.556 Y-73.285 Z-2.500 I-414.748 J-142.096 K0.000 F150.000
G3 X90.825 Y-66.727 Z-2.500 I-267.047 J-107.393 K0.000 F150.000
G3 X88.779 Y-61.757 Z-2.500 I-318.459 J-128.176 K0.000 F150.000
G3 X83.092 Y-49.049 Z-2.500 I-2805.470 J-1247.765 K0.000 F150.000
G2 X77.785 Y-37.573 Z-2.500 I354.642 J170.984 K0.000 F150.000
G2 X74.625 Y-30.622 Z-2.500 I122.704 J59.972 K0.000 F150.000
G2 X71.776 Y-23.637 Z-2.500 I160.318 J69.464 K0.000 F150.000
G2 X67.258 Y-11.073 Z-2.500 I89.767 J39.372 K0.000 F150.000
G2 X65.633 Y-4.698 Z-2.500 I40.063 J13.609 K0.000 F150.000
G3 X65.049 Y-2.131 Z-2.500 I-53.171 J-10.739 K0.000 F150.000
G2 X64.051 Y3.555 Z-2.500 I572.752 J103.528 K0.000 F150.000
G2 X63.682 Y7.832 Z-2.500 I73.260 J8.463 K0.000 F150.000
G0 Z8.000
G0 Z10.000
(Finish operation: DressupPathBoundary001)
(Begin operation: DressupPathBoundary002)
(Path: DressupPathBoundary002)
(Profile006)
(Uncompensated Tool Path)
G0 Z8.000
G0 Z10.000
G0 X-96.583 Y7.832
G0 Z8.000
G1 Z-1.000 F100.000
G2 X-98.980 Y2.285 Z-1.000 I-67.668 J25.940 K0.000 F150.000
G3 X-100.778 Y-2.116 Z-1.000 I66.640 J-29.806 K0.000 F150.000
G3 X-104.363 Y-11.019 Z-1.000 I493.557 J-203.884 K0.000 F150.000
G2 X-106.651 Y-16.815 Z-1.000 I-368.646 J142.198 K0.000 F150.000
G3 X-108.208 Y-21.437 Z-1.000 I79.330 J-29.303 K0.000 F150.000
G3 X-110.682 Y-29.457 Z-1.000 I121.327 J-41.812 K0.000 F150.000
G3 X-111.866 Y-34.245 Z-1.000 I80.994 J-22.572 K0.000 F150.000
G3 X-112.480 Y-37.020 Z-1.000 I520.893 J-116.713 K0.000 F150.000
G2 X-113.402 Y-43.294 Z-1.000 I-320.273 J43.858 K0.000 F150.000
G3 X-113.911 Y-49.520 Z-1.000 I61.190 J-8.134 K0.000 F150.000
G3 X-114.032 Y-59.461 Z-1.000 I61.639 J-5.724 K0.000 F150.000
G3 X-112.989 Y-68.484 Z-1.000 I58.014 J2.140 K0.000 F150.000
G3 X-111.475 Y-75.118 Z-1.000 I58.540 J9.863 K0.000 F150.000
G3 X-109.514 Y-80.004 Z-1.000 I39.168 J12.882 K0.000 F150.000
G3 X-107.503 Y-84.134 Z-1.000 I20.476 J7.417 K0.000 F150.000
G3 X-99.912 Y-93.407 Z-1.000 I29.530 J16.432 K0.000 F150.000
G3 X-92.316 Y-97.874 Z-1.000 I22.474 J29.522 K0.000 F150.000
G3 X-89.124 Y-99.201 Z-1.000 I8.717 J16.459 K0.000 F150.000
G3 X-86.353 Y-99.801 Z-1.000 I66.361 J299.777 K0.000 F150.000
G3 X-84.241 Y-100.041 Z-1.000 I2.703 J14.402 K0.000 F150.000
G3 X-84.217 Y-100.040 Z-1.000 I0.006 J0.100 K0.000 F150.000
G0 Z8.000
G0 Z10.000
G0 X-96.583 Y7.832
G0 Z8.000
G1 Z-2.000 F100.000
G2 X-98.980 Y2.285 Z-2.000 I-67.668 J25.940 K0.000 F150.000
G3 X-100.778 Y-2.116 Z-2.000 I66.640 J-29.806 K0.000 F150.000
G3 X-104.363 Y-11.019 Z-2.000 I493.557 J-203.884 K0.000 F150.000
G2 X-106.651 Y-16.815 Z-2.000 I-368.646 J142.198 K0.000 F150.000
G3 X-108.208 Y-21.437 Z-2.000 I79.330 J-29.303 K0.000 F150.000
G3 X-110.682 Y-29.457 Z-2.000 I121.327 J-41.812 K0.000 F150.000
G3 X-111.866 Y-34.245 Z-2.000 I80.994 J-22.572 K0.000 F150.000
G3 X-112.480 Y-37.020 Z-2.000 I520.893 J-116.713 K0.000 F150.000
G2 X-113.402 Y-43.294 Z-2.000 I-320.273 J43.858 K0.000 F150.000
G3 X-113.911 Y-49.520 Z-2.000 I61.190 J-8.134 K0.000 F150.000
G3 X-114.032 Y-59.461 Z-2.000 I61.639 J-5.724 K0.000 F150.000
G3 X-112.989 Y-68.484 Z-2.000 I58.014 J2.140 K0.000 F150.000
G3 X-111.475 Y-75.118 Z-2.000 I58.540 J9.863 K0.000 F150.000
G3 X-109.514 Y-80.004 Z-2.000 I39.168 J12.882 K0.000 F150.000
G3 X-107.503 Y-84.134 Z-2.000 I20.476 J7.417 K0.000 F150.000
G3 X-99.912 Y-93.407 Z-2.000 I29.530 J16.432 K0.000 F150.000
G3 X-92.316 Y-97.874 Z-2.000 I22.474 J29.522 K0.000 F150.000
G3 X-89.124 Y-99.201 Z-2.000 I8.717 J16.459 K0.000 F150.000
G3 X-86.353 Y-99.801 Z-2.000 I66.361 J299.777 K0.000 F150.000
G3 X-84.241 Y-100.041 Z-2.000 I2.703 J14.402 K0.000 F150.000
G3 X-84.217 Y-100.040 Z-2.000 I0.006 J0.100 K0.000 F150.000
G0 Z8.000
G0 Z10.000
G0 X-96.583 Y7.832
G0 Z8.000
G1 Z-2.500 F100.000
G2 X-98.980 Y2.285 Z-2.500 I-67.668 J25.940 K0.000 F150.000
G3 X-100.778 Y-2.116 Z-2.500 I66.640 J-29.806 K0.000 F150.000
G3 X-104.363 Y-11.019 Z-2.500 I493.557 J-203.884 K0.000 F150.000
G2 X-106.651 Y-16.815 Z-2.500 I-368.646 J142.198 K0.000 F150.000
G3 X-108.208 Y-21.437 Z-2.500 I79.330 J-29.303 K0.000 F150.000
G3 X-110.682 Y-29.457 Z-2.500 I121.327 J-41.812 K0.000 F150.000
G3 X-111.866 Y-34.245 Z-2.500 I80.994 J-22.572 K0.000 F150.000
G3 X-112.480 Y-37.020 Z-2.500 I520.893 J-116.713 K0.000 F150.000
G2 X-113.402 Y-43.294 Z-2.500 I-320.273 J43.858 K0.000 F150.000
G3 X-113.911 Y-49.520 Z-2.500 I61.190 J-8.134 K0.000 F150.000
G3 X-114.032 Y-59.461 Z-2.500 I61.639 J-5.724 K0.000 F150.000
G3 X-112.989 Y-68.484 Z-2.500 I58.014 J2.140 K0.000 F150.000
G3 X-111.475 Y-75.118 Z-2.500 I58.540 J9.863 K0.000 F150.000
G3 X-109.514 Y-80.004 Z-2.500 I39.168 J12.882 K0.000 F150.000
G3 X-107.503 Y-84.134 Z-2.500 I20.476 J7.417 K0.000 F150.000
G3 X-99.912 Y-93.407 Z-2.500 I29.530 J16.432 K0.000 F150.000
G3 X-92.316 Y-97.874 Z-2.500 I22.474 J29.522 K0.000 F150.000
G3 X-89.124 Y-99.201 Z-2.500 I8.717 J16.459 K0.000 F150.000
G3 X-86.353 Y-99.801 Z-2.500 I66.361 J299.777 K0.000 F150.000
G3 X-84.241 Y-100.041 Z-2.500 I2.703 J14.402 K0.000 F150.000
G3 X-84.217 Y-100.040 Z-2.500 I0.006 J0.100 K0.000 F150.000
G0 Z8.000
G0 Z10.000
(Finish operation: DressupPathBoundary002)
(Begin postamble)
M5
G17 G90
M2
