(Exported by FreeCAD)
(Post Processor: grbl_post)
(Output Time:2022-11-13 15:08:15.730858)
(Begin preamble)
G17 G90
G21
(Begin operation: G54)
(Path: G54)
G54
G0 Z5.000
(Finish operation: G54)
(Begin operation: endmill-2_2mm003)
(Path: endmill-2_2mm003)
(endmill-2_2mm003)
(Begin toolchange)
( M6 T3 )
M3 S10000
(Finish operation: endmill-2_2mm003)
(Begin operation: Contour)
(Path: Contour)
(Profile)
(Compensated Tool Path. Diameter: 2.2)
G0 Z8.000
G0 Z10.000
G0 X64.707 Y7.648
G0 Z8.000
G1 Z-1.000 F100.000
G3 X65.053 Y3.697 Z-1.000 I72.691 J4.382 K0.000 F250.000
G3 X66.040 Y-1.921 Z-1.000 I569.851 J97.192 K0.000 F250.000
G2 X66.623 Y-4.489 Z-1.000 I-52.937 J-13.375 K0.000 F250.000
G3 X68.221 Y-10.762 Z-1.000 I40.921 J7.085 K0.000 F250.000
G3 X72.709 Y-23.245 Z-1.000 I93.553 J26.584 K0.000 F250.000
G3 X75.554 Y-30.221 Z-1.000 I162.508 J62.199 K0.000 F250.000
G3 X78.693 Y-37.128 Z-1.000 I126.182 J53.187 K0.000 F250.000
G3 X84.007 Y-48.615 Z-1.000 I362.301 J160.612 K0.000 F250.000
G2 X89.706 Y-61.352 Z-1.000 I-2751.761 J-1239.066 K0.000 F250.000
G3 X93.431 Y-70.250 Z-1.000 I324.500 J130.601 K0.000 F250.000
G2 X101.746 Y-92.535 Z-1.000 I-406.910 J-164.529 K0.000 F250.000
G2 X104.798 Y-102.070 Z-1.000 I-203.352 J-70.349 K0.000 F250.000
G3 X105.886 Y-106.450 Z-1.000 I131.892 J30.431 K0.000 F250.000
G2 X108.559 Y-118.547 Z-1.000 I-106.560 J-29.890 K0.000 F250.000
G2 X109.275 Y-124.734 Z-1.000 I-42.745 J-8.077 K0.000 F250.000
G2 X108.752 Y-132.627 Z-1.000 I-25.301 J-2.288 K0.000 F250.000
G2 X105.221 Y-138.905 Z-1.000 I-12.684 J3.002 K0.000 F250.000
G2 X98.705 Y-142.790 Z-1.000 I-11.923 J12.589 K0.000 F250.000
G2 X92.347 Y-143.252 Z-1.000 I-4.050 J11.774 K0.000 F250.000
G2 X84.749 Y-140.168 Z-1.000 I4.934 J23.060 K0.000 F250.000
G2 X78.011 Y-135.244 Z-1.000 I91.766 J132.655 K0.000 F250.000
G3 X71.193 Y-129.604 Z-1.000 I-1265.552 J-1522.687 K0.000 F250.000
G3 X64.892 Y-124.176 Z-1.000 I-146.156 J-163.316 K0.000 F250.000
G3 X58.240 Y-118.646 Z-1.000 I-79.239 J-88.552 K0.000 F250.000
G3 X52.250 Y-113.814 Z-1.000 I-67.743 J-77.838 K0.000 F250.000
G3 X34.614 Y-104.628 Z-1.000 I-34.757 J-45.206 K0.000 F250.000
G3 X17.988 Y-101.832 Z-1.000 I-23.636 J-89.736 K0.000 F250.000
G3 X13.476 Y-101.436 Z-1.000 I-8.539 J-71.336 K0.000 F250.000
G2 X8.584 Y-101.102 Z-1.000 I2.960 J79.223 K0.000 F250.000
G2 X7.585 Y-100.018 Z-1.000 I0.101 J1.095 K0.000 F250.000
G1 X7.401 Y-82.978 Z-1.000 F250.000
G1 X7.353 Y-82.675 Z-1.000 F250.000
G3 X6.429 Y-82.081 Z-1.000 I-1.016 J-0.565 K0.000 F250.000
G1 X-82.095 Y-82.080 Z-1.000 F250.000
G3 X-82.473 Y-82.173 Z-1.000 I-0.054 J-0.592 K0.000 F250.000
G3 X-82.980 Y-82.950 Z-1.000 I0.720 J-1.023 K0.000 F250.000
G1 X-83.123 Y-99.948 Z-1.000 F250.000
G2 X-84.008 Y-101.017 Z-1.000 I-1.100 J0.009 K0.000 F250.000
G2 X-86.502 Y-100.785 Z-1.000 I-0.183 J11.550 K0.000 F250.000
G2 X-89.325 Y-100.175 Z-1.000 I47.752 J227.881 K0.000 F250.000
G2 X-92.737 Y-98.773 Z-1.000 I5.557 J18.373 K0.000 F250.000
G2 X-100.490 Y-94.211 Z-1.000 I15.316 J34.899 K0.000 F250.000
G2 X-108.353 Y-84.639 Z-1.000 I22.462 J26.466 K0.000 F250.000
G2 X-110.423 Y-80.393 Z-1.000 I19.205 J11.992 K0.000 F250.000
G2 X-112.408 Y-75.442 Z-1.000 I37.992 J18.108 K0.000 F250.000
G2 X-113.960 Y-68.661 Z-1.000 I57.607 J16.753 K0.000 F250.000
G2 X-115.019 Y-59.511 Z-1.000 I57.963 J11.344 K0.000 F250.000
G2 X-114.897 Y-49.457 Z-1.000 I62.733 J4.268 K0.000 F250.000
G2 X-114.383 Y-43.172 Z-1.000 I62.587 J-1.957 K0.000 F250.000
G3 X-113.459 Y-36.879 Z-1.000 I-325.276 J50.995 K0.000 F250.000
G2 X-112.831 Y-34.025 Z-1.000 I297.208 J-63.890 K0.000 F250.000
G2 X-111.634 Y-29.189 Z-1.000 I83.086 J-17.993 K0.000 F250.000
G2 X-109.146 Y-21.120 Z-1.000 I124.968 J-34.118 K0.000 F250.000
G2 X-107.579 Y-16.471 Z-1.000 I81.942 J-25.028 K0.000 F250.000
G3 X-105.281 Y-10.650 Z-1.000 I-378.006 J152.580 K0.000 F250.000
G2 X-101.694 Y-1.740 Z-1.000 I500.993 J-196.519 K0.000 F250.000
G2 X-99.885 Y2.686 Z-1.000 I69.141 J-25.683 K0.000 F250.000
G3 X-97.723 Y7.648 Z-1.000 I-66.108 J31.755 K0.000 F250.000
G0 Z8.000
G0 Z10.000
G0 X64.707 Y7.648
G0 Z8.000
G1 Z-2.000 F100.000
G3 X65.053 Y3.697 Z-2.000 I72.691 J4.382 K0.000 F250.000
G3 X66.040 Y-1.921 Z-2.000 I569.851 J97.192 K0.000 F250.000
G2 X66.623 Y-4.489 Z-2.000 I-52.937 J-13.375 K0.000 F250.000
G3 X68.221 Y-10.762 Z-2.000 I40.921 J7.085 K0.000 F250.000
G3 X72.709 Y-23.245 Z-2.000 I93.553 J26.584 K0.000 F250.000
G3 X75.554 Y-30.221 Z-2.000 I162.508 J62.199 K0.000 F250.000
G3 X78.693 Y-37.128 Z-2.000 I126.182 J53.187 K0.000 F250.000
G3 X84.007 Y-48.615 Z-2.000 I362.301 J160.612 K0.000 F250.000
G2 X89.706 Y-61.352 Z-2.000 I-2751.761 J-1239.066 K0.000 F250.000
G3 X93.431 Y-70.250 Z-2.000 I324.500 J130.601 K0.000 F250.000
G2 X101.746 Y-92.535 Z-2.000 I-406.910 J-164.529 K0.000 F250.000
G2 X104.798 Y-102.070 Z-2.000 I-203.352 J-70.349 K0.000 F250.000
G3 X105.886 Y-106.450 Z-2.000 I131.892 J30.431 K0.000 F250.000
G2 X108.559 Y-118.547 Z-2.000 I-106.560 J-29.890 K0.000 F250.000
G2 X109.275 Y-124.734 Z-2.000 I-42.745 J-8.077 K0.000 F250.000
G2 X108.752 Y-132.627 Z-2.000 I-25.301 J-2.288 K0.000 F250.000
G2 X105.221 Y-138.905 Z-2.000 I-12.684 J3.002 K0.000 F250.000
G2 X98.705 Y-142.790 Z-2.000 I-11.923 J12.589 K0.000 F250.000
G2 X92.347 Y-143.252 Z-2.000 I-4.050 J11.774 K0.000 F250.000
G2 X84.749 Y-140.168 Z-2.000 I4.934 J23.060 K0.000 F250.000
G2 X78.011 Y-135.244 Z-2.000 I91.766 J132.655 K0.000 F250.000
G3 X71.193 Y-129.604 Z-2.000 I-1265.552 J-1522.687 K0.000 F250.000
G3 X64.892 Y-124.176 Z-2.000 I-146.156 J-163.316 K0.000 F250.000
G3 X58.240 Y-118.646 Z-2.000 I-79.239 J-88.552 K0.000 F250.000
G3 X52.250 Y-113.814 Z-2.000 I-67.743 J-77.838 K0.000 F250.000
G3 X34.614 Y-104.628 Z-2.000 I-34.757 J-45.206 K0.000 F250.000
G3 X17.988 Y-101.832 Z-2.000 I-23.636 J-89.736 K0.000 F250.000
G3 X13.476 Y-101.436 Z-2.000 I-8.539 J-71.336 K0.000 F250.000
G2 X8.584 Y-101.102 Z-2.000 I2.960 J79.223 K0.000 F250.000
G2 X7.585 Y-100.018 Z-2.000 I0.101 J1.095 K0.000 F250.000
G1 X7.401 Y-82.978 Z-2.000 F250.000
G1 X7.353 Y-82.675 Z-2.000 F250.000
G3 X6.429 Y-82.081 Z-2.000 I-1.016 J-0.565 K0.000 F250.000
G1 X-82.095 Y-82.080 Z-2.000 F250.000
G3 X-82.473 Y-82.173 Z-2.000 I-0.054 J-0.592 K0.000 F250.000
G3 X-82.980 Y-82.950 Z-2.000 I0.720 J-1.023 K0.000 F250.000
G1 X-83.123 Y-99.948 Z-2.000 F250.000
G2 X-84.008 Y-101.017 Z-2.000 I-1.100 J0.009 K0.000 F250.000
G2 X-86.502 Y-100.785 Z-2.000 I-0.183 J11.550 K0.000 F250.000
G2 X-89.325 Y-100.175 Z-2.000 I47.752 J227.881 K0.000 F250.000
G2 X-92.737 Y-98.773 Z-2.000 I5.557 J18.373 K0.000 F250.000
G2 X-100.490 Y-94.211 Z-2.000 I15.316 J34.899 K0.000 F250.000
G2 X-108.353 Y-84.639 Z-2.000 I22.462 J26.466 K0.000 F250.000
G2 X-110.423 Y-80.393 Z-2.000 I19.205 J11.992 K0.000 F250.000
G2 X-112.408 Y-75.442 Z-2.000 I37.992 J18.108 K0.000 F250.000
G2 X-113.960 Y-68.661 Z-2.000 I57.607 J16.753 K0.000 F250.000
G2 X-115.019 Y-59.511 Z-2.000 I57.963 J11.344 K0.000 F250.000
G2 X-114.897 Y-49.457 Z-2.000 I62.733 J4.268 K0.000 F250.000
G2 X-114.383 Y-43.172 Z-2.000 I62.587 J-1.957 K0.000 F250.000
G3 X-113.459 Y-36.879 Z-2.000 I-325.276 J50.995 K0.000 F250.000
G2 X-112.831 Y-34.025 Z-2.000 I297.208 J-63.890 K0.000 F250.000
G2 X-111.634 Y-29.189 Z-2.000 I83.086 J-17.993 K0.000 F250.000
G2 X-109.146 Y-21.120 Z-2.000 I124.968 J-34.118 K0.000 F250.000
G2 X-107.579 Y-16.471 Z-2.000 I81.942 J-25.028 K0.000 F250.000
G3 X-105.281 Y-10.650 Z-2.000 I-378.006 J152.580 K0.000 F250.000
G2 X-101.694 Y-1.740 Z-2.000 I500.993 J-196.519 K0.000 F250.000
G2 X-99.885 Y2.686 Z-2.000 I69.141 J-25.683 K0.000 F250.000
G3 X-97.723 Y7.648 Z-2.000 I-66.108 J31.755 K0.000 F250.000
G0 Z8.000
G0 Z10.000
G0 X64.707 Y7.648
G0 Z8.000
G1 Z-2.400 F100.000
G3 X65.053 Y3.697 Z-2.400 I72.691 J4.382 K0.000 F250.000
G3 X66.040 Y-1.921 Z-2.400 I569.851 J97.192 K0.000 F250.000
G2 X66.623 Y-4.489 Z-2.400 I-52.937 J-13.375 K0.000 F250.000
G3 X68.221 Y-10.762 Z-2.400 I40.921 J7.085 K0.000 F250.000
G3 X72.709 Y-23.245 Z-2.400 I93.553 J26.584 K0.000 F250.000
G3 X75.554 Y-30.221 Z-2.400 I162.508 J62.199 K0.000 F250.000
G3 X78.693 Y-37.128 Z-2.400 I126.182 J53.187 K0.000 F250.000
G3 X84.007 Y-48.615 Z-2.400 I362.301 J160.612 K0.000 F250.000
G2 X89.706 Y-61.352 Z-2.400 I-2751.761 J-1239.066 K0.000 F250.000
G3 X93.431 Y-70.250 Z-2.400 I324.500 J130.601 K0.000 F250.000
G2 X101.746 Y-92.535 Z-2.400 I-406.910 J-164.529 K0.000 F250.000
G2 X104.798 Y-102.070 Z-2.400 I-203.352 J-70.349 K0.000 F250.000
G3 X105.886 Y-106.450 Z-2.400 I131.892 J30.431 K0.000 F250.000
G2 X108.559 Y-118.547 Z-2.400 I-106.560 J-29.890 K0.000 F250.000
G2 X109.275 Y-124.734 Z-2.400 I-42.745 J-8.077 K0.000 F250.000
G2 X108.752 Y-132.627 Z-2.400 I-25.301 J-2.288 K0.000 F250.000
G2 X105.221 Y-138.905 Z-2.400 I-12.684 J3.002 K0.000 F250.000
G2 X98.705 Y-142.790 Z-2.400 I-11.923 J12.589 K0.000 F250.000
G2 X92.347 Y-143.252 Z-2.400 I-4.050 J11.774 K0.000 F250.000
G2 X84.749 Y-140.168 Z-2.400 I4.934 J23.060 K0.000 F250.000
G2 X78.011 Y-135.244 Z-2.400 I91.766 J132.655 K0.000 F250.000
G3 X71.193 Y-129.604 Z-2.400 I-1265.552 J-1522.687 K0.000 F250.000
G3 X64.892 Y-124.176 Z-2.400 I-146.156 J-163.316 K0.000 F250.000
G3 X58.240 Y-118.646 Z-2.400 I-79.239 J-88.552 K0.000 F250.000
G3 X52.250 Y-113.814 Z-2.400 I-67.743 J-77.838 K0.000 F250.000
G3 X34.614 Y-104.628 Z-2.400 I-34.757 J-45.206 K0.000 F250.000
G3 X17.988 Y-101.832 Z-2.400 I-23.636 J-89.736 K0.000 F250.000
G3 X13.476 Y-101.436 Z-2.400 I-8.539 J-71.336 K0.000 F250.000
G2 X8.584 Y-101.102 Z-2.400 I2.960 J79.223 K0.000 F250.000
G2 X7.585 Y-100.018 Z-2.400 I0.101 J1.095 K0.000 F250.000
G1 X7.401 Y-82.978 Z-2.400 F250.000
G1 X7.353 Y-82.675 Z-2.400 F250.000
G3 X6.429 Y-82.081 Z-2.400 I-1.016 J-0.565 K0.000 F250.000
G1 X-82.095 Y-82.080 Z-2.400 F250.000
G3 X-82.473 Y-82.173 Z-2.400 I-0.054 J-0.592 K0.000 F250.000
G3 X-82.980 Y-82.950 Z-2.400 I0.720 J-1.023 K0.000 F250.000
G1 X-83.123 Y-99.948 Z-2.400 F250.000
G2 X-84.008 Y-101.017 Z-2.400 I-1.100 J0.009 K0.000 F250.000
G2 X-86.502 Y-100.785 Z-2.400 I-0.183 J11.550 K0.000 F250.000
G2 X-89.325 Y-100.175 Z-2.400 I47.752 J227.881 K0.000 F250.000
G2 X-92.737 Y-98.773 Z-2.400 I5.557 J18.373 K0.000 F250.000
G2 X-100.490 Y-94.211 Z-2.400 I15.316 J34.899 K0.000 F250.000
G2 X-108.353 Y-84.639 Z-2.400 I22.462 J26.466 K0.000 F250.000
G2 X-110.423 Y-80.393 Z-2.400 I19.205 J11.992 K0.000 F250.000
G2 X-112.408 Y-75.442 Z-2.400 I37.992 J18.108 K0.000 F250.000
G2 X-113.960 Y-68.661 Z-2.400 I57.607 J16.753 K0.000 F250.000
G2 X-115.019 Y-59.511 Z-2.400 I57.963 J11.344 K0.000 F250.000
G2 X-114.897 Y-49.457 Z-2.400 I62.733 J4.268 K0.000 F250.000
G2 X-114.383 Y-43.172 Z-2.400 I62.587 J-1.957 K0.000 F250.000
G3 X-113.459 Y-36.879 Z-2.400 I-325.276 J50.995 K0.000 F250.000
G2 X-112.831 Y-34.025 Z-2.400 I297.208 J-63.890 K0.000 F250.000
G2 X-111.634 Y-29.189 Z-2.400 I83.086 J-17.993 K0.000 F250.000
G2 X-109.146 Y-21.120 Z-2.400 I124.968 J-34.118 K0.000 F250.000
G2 X-107.579 Y-16.471 Z-2.400 I81.942 J-25.028 K0.000 F250.000
G3 X-105.281 Y-10.650 Z-2.400 I-378.006 J152.580 K0.000 F250.000
G2 X-101.694 Y-1.740 Z-2.400 I500.993 J-196.519 K0.000 F250.000
G2 X-99.885 Y2.686 Z-2.400 I69.141 J-25.683 K0.000 F250.000
G3 X-97.723 Y7.648 Z-2.400 I-66.108 J31.755 K0.000 F250.000
G0 Z8.000
G0 Z10.000
(Finish operation: Contour)
(Begin postamble)
M5
G17 G90
M2
