(Exported by FreeCAD)
(Post Processor: grbl_post)
(Output Time:2022-11-13 17:30:21.331426)
(Begin preamble)
G17 G90
G21
(Begin operation: G54)
(Path: G54)
G54
G0 Z5.000
(Finish operation: G54)
(Begin operation: endmill-2_5mm009)
(Path: endmill-2_5mm009)
(endmill-2_5mm009)
(Begin toolchange)
( M6 T2 )
M3 S10000
(Finish operation: endmill-2_5mm009)
(Begin operation: Profile005)
(Path: Profile005)
(Profile005)
(Compensated Tool Path. Diameter: 2.5)
G0 Z10.000
G0 X64.914 Y-25.132
G0 Z8.000
G1 X64.914 Y-25.132 Z-1.000 F100.000
G2 X64.393 Y-25.695 Z-1.000 I-0.555 J-0.009 K0.000 F250.000
G2 X64.183 Y-25.667 Z-1.000 I-0.036 J0.544 K0.000 F250.000
G2 X64.438 Y-24.592 Z-1.000 I0.177 J0.526 K0.000 F250.000
G2 X64.914 Y-25.132 Z-1.000 I-0.079 J-0.549 K0.000 F250.000
G0 Z10.000
G0 X86.160 Y-74.538 Z10.000
G0 X86.160 Y-74.538 Z8.000
G1 X86.160 Y-74.538 Z-1.000 F100.000
G2 X86.227 Y-74.514 Z-1.000 I0.219 J-0.510 K0.000 F250.000
G2 X86.626 Y-75.545 Z-1.000 I0.152 J-0.533 K0.000 F250.000
G1 X86.524 Y-75.584 Z-1.000 F250.000
G2 X86.160 Y-74.538 Z-1.000 I-0.144 J0.536 K0.000 F250.000
G0 Z10.000
G0 X96.332 Y-130.439 Z10.000
G0 X96.332 Y-130.439 Z8.000
G1 X96.332 Y-130.439 Z-1.000 F100.000
G2 X96.691 Y-131.475 Z-1.000 I0.099 J-0.545 K0.000 F250.000
G2 X96.172 Y-130.495 Z-1.000 I-0.259 J0.490 K0.000 F250.000
G2 X96.332 Y-130.439 Z-1.000 I0.259 J-0.490 K0.000 F250.000
G0 Z10.000
G0 X14.626 Y-93.343 Z10.000
G0 X14.626 Y-93.343 Z8.000
G1 X14.626 Y-93.343 Z-1.000 F100.000
G2 X14.155 Y-93.668 Z-1.000 I-0.505 J0.229 K0.000 F250.000
G2 X13.944 Y-93.640 Z-1.000 I-0.036 J0.544 K0.000 F250.000
G2 X14.199 Y-92.565 Z-1.000 I0.177 J0.526 K0.000 F250.000
G2 X14.626 Y-93.343 Z-1.000 I-0.079 J-0.549 K0.000 F250.000
G0 Z10.000
G0 X-88.412 Y-91.958 Z10.000
G0 X-88.412 Y-91.958 Z8.000
G1 X-88.412 Y-91.958 Z-1.000 F100.000
G2 X-88.721 Y-92.448 Z-1.000 I-0.555 J0.007 K0.000 F250.000
G1 X-88.823 Y-92.487 Z-1.000 F250.000
G2 X-89.119 Y-91.418 Z-1.000 I-0.144 J0.536 K0.000 F250.000
G2 X-88.412 Y-91.958 Z-1.000 I0.152 J-0.533 K0.000 F250.000
G0 Z10.000
G0 X-105.427 Y-41.195 Z10.000
G0 X-105.427 Y-41.195 Z8.000
G1 X-105.427 Y-41.195 Z-1.000 F100.000
G2 X-105.862 Y-40.179 Z-1.000 I-0.176 J0.526 K0.000 F250.000
G2 X-105.344 Y-41.160 Z-1.000 I0.259 J-0.490 K0.000 F250.000
G2 X-105.427 Y-41.195 Z-1.000 I-0.259 J0.490 K0.000 F250.000
G1 X-105.427 Y-41.195 Z-2.000 F100.000
G2 X-105.862 Y-40.179 Z-2.000 I-0.176 J0.526 K0.000 F250.000
G2 X-105.344 Y-41.160 Z-2.000 I0.259 J-0.490 K0.000 F250.000
G2 X-105.427 Y-41.195 Z-2.000 I-0.259 J0.490 K0.000 F250.000
G0 Z10.000
G0 X-89.138 Y-91.423 Z10.000
G0 X-89.138 Y-91.423 Z8.000
G1 X-89.138 Y-91.423 Z-2.000 F100.000
G2 X-89.119 Y-91.418 Z-2.000 I0.171 J-0.528 K0.000 F250.000
G2 X-88.721 Y-92.448 Z-2.000 I0.152 J-0.533 K0.000 F250.000
G1 X-88.823 Y-92.487 Z-2.000 F250.000
G2 X-89.138 Y-91.423 Z-2.000 I-0.144 J0.536 K0.000 F250.000
G0 Z10.000
G0 X13.566 Y-93.105 Z10.000
G0 X13.566 Y-93.105 Z8.000
G1 X13.566 Y-93.105 Z-2.000 F100.000
G2 X14.199 Y-92.565 Z-2.000 I0.555 J-0.009 K0.000 F250.000
G2 X14.155 Y-93.668 Z-2.000 I-0.079 J-0.549 K0.000 F250.000
G2 X13.944 Y-93.640 Z-2.000 I-0.036 J0.544 K0.000 F250.000
G2 X13.566 Y-93.105 Z-2.000 I0.177 J0.526 K0.000 F250.000
G0 Z10.000
G0 X85.841 Y-75.181 Z10.000
G0 X85.841 Y-75.181 Z8.000
G1 X85.841 Y-75.181 Z-2.000 F100.000
G2 X86.227 Y-74.514 Z-2.000 I0.538 J0.134 K0.000 F250.000
G2 X86.626 Y-75.545 Z-2.000 I0.152 J-0.533 K0.000 F250.000
G1 X86.524 Y-75.584 Z-2.000 F250.000
G2 X85.841 Y-75.181 Z-2.000 I-0.144 J0.536 K0.000 F250.000
G0 Z10.000
G0 X64.579 Y-25.651 Z10.000
G0 X64.579 Y-25.651 Z8.000
G1 X64.579 Y-25.651 Z-2.000 F100.000
G2 X64.393 Y-25.695 Z-2.000 I-0.219 J0.510 K0.000 F250.000
G2 X64.183 Y-25.667 Z-2.000 I-0.036 J0.544 K0.000 F250.000
G2 X64.438 Y-24.592 Z-2.000 I0.177 J0.526 K0.000 F250.000
G2 X64.579 Y-25.651 Z-2.000 I-0.079 J-0.549 K0.000 F250.000
G0 Z10.000
G0 X96.271 Y-130.454 Z10.000
G0 X96.271 Y-130.454 Z8.000
G1 X96.271 Y-130.454 Z-2.000 F100.000
G2 X96.691 Y-131.475 Z-2.000 I0.160 J-0.531 K0.000 F250.000
G2 X96.172 Y-130.495 Z-2.000 I-0.259 J0.490 K0.000 F250.000
G2 X96.271 Y-130.454 Z-2.000 I0.259 J-0.490 K0.000 F250.000
G0 Z10.000
G0 Z10.000
(Finish operation: Profile005)
(Begin postamble)
M5
G17 G90
M2
