(Exported by FreeCAD)
(Post Processor: grbl_post)
(Output Time:2022-11-13 15:08:43.356270)
(Begin preamble)
G17 G90
G21
(Begin operation: G54)
(Path: G54)
G54
G0 Z5.000
(Finish operation: G54)
(Begin operation: endmill-2_5mm007)
(Path: endmill-2_5mm007)
(endmill-2_5mm007)
(Begin toolchange)
( M6 T3 )
M3 S10000
(Finish operation: endmill-2_5mm007)
(Begin operation: Chamfer-R001)
(Path: Chamfer-R001)
(Chamfer-R)
(Uncompensated Tool Path)
G0 Z8.000
G0 Z10.000
G0 X8.692 Y-100.108
G0 Z8.000
G1 Z-0.500 F100.000
G3 X13.531 Y-100.438 Z-0.500 I7.754 J78.036 K0.000 F250.000
G2 X18.068 Y-100.836 Z-0.500 I-3.989 J-71.521 K0.000 F250.000
G2 X34.895 Y-103.667 Z-0.500 I-7.090 J-93.537 K0.000 F250.000
G2 X52.848 Y-113.012 Z-0.500 I-17.405 J-55.357 K0.000 F250.000
G2 X58.858 Y-117.860 Z-0.500 I-61.479 J-82.362 K0.000 F250.000
G2 X65.534 Y-123.409 Z-0.500 I-72.885 J-94.472 K0.000 F250.000
G2 X71.829 Y-128.832 Z-0.500 I-138.968 J-167.704 K0.000 F250.000
G2 X78.612 Y-134.445 Z-0.500 I-1127.384 J-1369.206 K0.000 F250.000
G3 X85.261 Y-139.309 Z-0.500 I100.856 J130.897 K0.000 F250.000
G3 X92.493 Y-142.262 Z-0.500 I12.050 J19.178 K0.000 F250.000
G3 X95.730 Y-142.417 Z-0.500 I2.217 J12.441 K0.000 F250.000
G3 X99.432 Y-141.444 Z-0.500 I-1.027 J11.437 K0.000 F250.000
G3 X105.706 Y-136.823 Z-0.500 I-5.145 J13.557 K0.000 F250.000
G3 X107.774 Y-132.419 Z-0.500 I-9.245 J7.028 K0.000 F250.000
G3 X108.277 Y-124.801 Z-0.500 I-23.802 J5.398 K0.000 F250.000
G3 X107.574 Y-118.720 Z-0.500 I-42.467 J-1.826 K0.000 F250.000
G3 X104.920 Y-106.708 Z-0.500 I-108.243 J-17.619 K0.000 F250.000
G2 X103.842 Y-102.362 Z-0.500 I119.878 J32.043 K0.000 F250.000
G3 X100.800 Y-92.859 Z-0.500 I-205.434 J-60.519 K0.000 F250.000
G3 X92.513 Y-70.646 Z-0.500 I-414.473 J-141.986 K0.000 F250.000
G2 X88.791 Y-61.754 Z-0.500 I318.694 J138.621 K0.000 F250.000
G3 X83.104 Y-49.046 Z-0.500 I-2806.116 J-1248.055 K0.000 F250.000
G2 X77.796 Y-37.570 Z-0.500 I354.917 J171.127 K0.000 F250.000
G2 X74.636 Y-30.619 Z-0.500 I123.989 J60.557 K0.000 F250.000
G2 X71.788 Y-23.634 Z-0.500 I158.797 J68.831 K0.000 F250.000
G2 X67.270 Y-11.070 Z-0.500 I89.766 J39.372 K0.000 F250.000
G2 X65.645 Y-4.695 Z-0.500 I40.063 J13.609 K0.000 F250.000
G3 X65.061 Y-2.128 Z-0.500 I-53.171 J-10.739 K0.000 F250.000
G2 X64.062 Y3.558 Z-0.500 I572.764 J103.530 K0.000 F250.000
G2 X63.705 Y7.648 Z-0.500 I73.385 J8.472 K0.000 F250.000
G0 Z8.000
G0 Z10.000
G0 X8.692 Y-100.108
G0 Z8.000
G1 Z-1.000 F100.000
G3 X13.531 Y-100.438 Z-1.000 I7.754 J78.036 K0.000 F250.000
G2 X18.068 Y-100.836 Z-1.000 I-3.989 J-71.521 K0.000 F250.000
G2 X34.895 Y-103.667 Z-1.000 I-7.090 J-93.537 K0.000 F250.000
G2 X52.848 Y-113.012 Z-1.000 I-17.405 J-55.357 K0.000 F250.000
G2 X58.858 Y-117.860 Z-1.000 I-61.479 J-82.362 K0.000 F250.000
G2 X65.534 Y-123.409 Z-1.000 I-72.885 J-94.472 K0.000 F250.000
G2 X71.829 Y-128.832 Z-1.000 I-138.968 J-167.704 K0.000 F250.000
G2 X78.612 Y-134.445 Z-1.000 I-1127.384 J-1369.206 K0.000 F250.000
G3 X85.261 Y-139.309 Z-1.000 I100.856 J130.897 K0.000 F250.000
G3 X92.493 Y-142.262 Z-1.000 I12.050 J19.178 K0.000 F250.000
G3 X95.730 Y-142.417 Z-1.000 I2.217 J12.441 K0.000 F250.000
G3 X99.432 Y-141.444 Z-1.000 I-1.027 J11.437 K0.000 F250.000
G3 X105.706 Y-136.823 Z-1.000 I-5.145 J13.557 K0.000 F250.000
G3 X107.774 Y-132.419 Z-1.000 I-9.245 J7.028 K0.000 F250.000
G3 X108.277 Y-124.801 Z-1.000 I-23.802 J5.398 K0.000 F250.000
G3 X107.574 Y-118.720 Z-1.000 I-42.467 J-1.826 K0.000 F250.000
G3 X104.920 Y-106.708 Z-1.000 I-108.243 J-17.619 K0.000 F250.000
G2 X103.842 Y-102.362 Z-1.000 I119.878 J32.043 K0.000 F250.000
G3 X100.800 Y-92.859 Z-1.000 I-205.434 J-60.519 K0.000 F250.000
G3 X92.513 Y-70.646 Z-1.000 I-414.473 J-141.986 K0.000 F250.000
G2 X88.791 Y-61.754 Z-1.000 I318.694 J138.621 K0.000 F250.000
G3 X83.104 Y-49.046 Z-1.000 I-2806.116 J-1248.055 K0.000 F250.000
G2 X77.796 Y-37.570 Z-1.000 I354.917 J171.127 K0.000 F250.000
G2 X74.636 Y-30.619 Z-1.000 I123.989 J60.557 K0.000 F250.000
G2 X71.788 Y-23.634 Z-1.000 I158.797 J68.831 K0.000 F250.000
G2 X67.270 Y-11.070 Z-1.000 I89.766 J39.372 K0.000 F250.000
G2 X65.645 Y-4.695 Z-1.000 I40.063 J13.609 K0.000 F250.000
G3 X65.061 Y-2.128 Z-1.000 I-53.171 J-10.739 K0.000 F250.000
G2 X64.062 Y3.558 Z-1.000 I572.764 J103.530 K0.000 F250.000
G2 X63.705 Y7.648 Z-1.000 I73.385 J8.472 K0.000 F250.000
G0 Z8.000
G0 Z10.000
G0 X8.692 Y-100.108
G0 Z8.000
G1 Z-1.500 F100.000
G3 X13.531 Y-100.438 Z-1.500 I7.754 J78.036 K0.000 F250.000
G2 X18.068 Y-100.836 Z-1.500 I-3.989 J-71.521 K0.000 F250.000
G2 X34.895 Y-103.667 Z-1.500 I-7.090 J-93.537 K0.000 F250.000
G2 X52.848 Y-113.012 Z-1.500 I-17.405 J-55.357 K0.000 F250.000
G2 X58.858 Y-117.860 Z-1.500 I-61.479 J-82.362 K0.000 F250.000
G2 X65.534 Y-123.409 Z-1.500 I-72.885 J-94.472 K0.000 F250.000
G2 X71.829 Y-128.832 Z-1.500 I-138.968 J-167.704 K0.000 F250.000
G2 X78.612 Y-134.445 Z-1.500 I-1127.384 J-1369.206 K0.000 F250.000
G3 X85.261 Y-139.309 Z-1.500 I100.856 J130.897 K0.000 F250.000
G3 X92.493 Y-142.262 Z-1.500 I12.050 J19.178 K0.000 F250.000
G3 X95.730 Y-142.417 Z-1.500 I2.217 J12.441 K0.000 F250.000
G3 X99.432 Y-141.444 Z-1.500 I-1.027 J11.437 K0.000 F250.000
G3 X105.706 Y-136.823 Z-1.500 I-5.145 J13.557 K0.000 F250.000
G3 X107.774 Y-132.419 Z-1.500 I-9.245 J7.028 K0.000 F250.000
G3 X108.277 Y-124.801 Z-1.500 I-23.802 J5.398 K0.000 F250.000
G3 X107.574 Y-118.720 Z-1.500 I-42.467 J-1.826 K0.000 F250.000
G3 X104.920 Y-106.708 Z-1.500 I-108.243 J-17.619 K0.000 F250.000
G2 X103.842 Y-102.362 Z-1.500 I119.878 J32.043 K0.000 F250.000
G3 X100.800 Y-92.859 Z-1.500 I-205.434 J-60.519 K0.000 F250.000
G3 X92.513 Y-70.646 Z-1.500 I-414.473 J-141.986 K0.000 F250.000
G2 X88.791 Y-61.754 Z-1.500 I318.694 J138.621 K0.000 F250.000
G3 X83.104 Y-49.046 Z-1.500 I-2806.116 J-1248.055 K0.000 F250.000
G2 X77.796 Y-37.570 Z-1.500 I354.917 J171.127 K0.000 F250.000
G2 X74.636 Y-30.619 Z-1.500 I123.989 J60.557 K0.000 F250.000
G2 X71.788 Y-23.634 Z-1.500 I158.797 J68.831 K0.000 F250.000
G2 X67.270 Y-11.070 Z-1.500 I89.766 J39.372 K0.000 F250.000
G2 X65.645 Y-4.695 Z-1.500 I40.063 J13.609 K0.000 F250.000
G3 X65.061 Y-2.128 Z-1.500 I-53.171 J-10.739 K0.000 F250.000
G2 X64.062 Y3.558 Z-1.500 I572.764 J103.530 K0.000 F250.000
G2 X63.705 Y7.648 Z-1.500 I73.385 J8.472 K0.000 F250.000
G0 Z8.000
G0 Z10.000
G0 X8.692 Y-100.108
G0 Z8.000
G1 Z-2.000 F100.000
G3 X13.531 Y-100.438 Z-2.000 I7.754 J78.036 K0.000 F250.000
G2 X18.068 Y-100.836 Z-2.000 I-3.989 J-71.521 K0.000 F250.000
G2 X34.895 Y-103.667 Z-2.000 I-7.090 J-93.537 K0.000 F250.000
G2 X52.848 Y-113.012 Z-2.000 I-17.405 J-55.357 K0.000 F250.000
G2 X58.858 Y-117.860 Z-2.000 I-61.479 J-82.362 K0.000 F250.000
G2 X65.534 Y-123.409 Z-2.000 I-72.885 J-94.472 K0.000 F250.000
G2 X71.829 Y-128.832 Z-2.000 I-138.968 J-167.704 K0.000 F250.000
G2 X78.612 Y-134.445 Z-2.000 I-1127.384 J-1369.206 K0.000 F250.000
G3 X85.261 Y-139.309 Z-2.000 I100.856 J130.897 K0.000 F250.000
G3 X92.493 Y-142.262 Z-2.000 I12.050 J19.178 K0.000 F250.000
G3 X95.730 Y-142.417 Z-2.000 I2.217 J12.441 K0.000 F250.000
G3 X99.432 Y-141.444 Z-2.000 I-1.027 J11.437 K0.000 F250.000
G3 X105.706 Y-136.823 Z-2.000 I-5.145 J13.557 K0.000 F250.000
G3 X107.774 Y-132.419 Z-2.000 I-9.245 J7.028 K0.000 F250.000
G3 X108.277 Y-124.801 Z-2.000 I-23.802 J5.398 K0.000 F250.000
G3 X107.574 Y-118.720 Z-2.000 I-42.467 J-1.826 K0.000 F250.000
G3 X104.920 Y-106.708 Z-2.000 I-108.243 J-17.619 K0.000 F250.000
G2 X103.842 Y-102.362 Z-2.000 I119.878 J32.043 K0.000 F250.000
G3 X100.800 Y-92.859 Z-2.000 I-205.434 J-60.519 K0.000 F250.000
G3 X92.513 Y-70.646 Z-2.000 I-414.473 J-141.986 K0.000 F250.000
G2 X88.791 Y-61.754 Z-2.000 I318.694 J138.621 K0.000 F250.000
G3 X83.104 Y-49.046 Z-2.000 I-2806.116 J-1248.055 K0.000 F250.000
G2 X77.796 Y-37.570 Z-2.000 I354.917 J171.127 K0.000 F250.000
G2 X74.636 Y-30.619 Z-2.000 I123.989 J60.557 K0.000 F250.000
G2 X71.788 Y-23.634 Z-2.000 I158.797 J68.831 K0.000 F250.000
G2 X67.270 Y-11.070 Z-2.000 I89.766 J39.372 K0.000 F250.000
G2 X65.645 Y-4.695 Z-2.000 I40.063 J13.609 K0.000 F250.000
G3 X65.061 Y-2.128 Z-2.000 I-53.171 J-10.739 K0.000 F250.000
G2 X64.062 Y3.558 Z-2.000 I572.764 J103.530 K0.000 F250.000
G2 X63.705 Y7.648 Z-2.000 I73.385 J8.472 K0.000 F250.000
G0 Z8.000
G0 Z10.000
G0 X8.692 Y-100.108
G0 Z8.000
G1 Z-2.200 F100.000
G3 X13.531 Y-100.438 Z-2.200 I7.754 J78.036 K0.000 F250.000
G2 X18.068 Y-100.836 Z-2.200 I-3.989 J-71.521 K0.000 F250.000
G2 X34.895 Y-103.667 Z-2.200 I-7.090 J-93.537 K0.000 F250.000
G2 X52.848 Y-113.012 Z-2.200 I-17.405 J-55.357 K0.000 F250.000
G2 X58.858 Y-117.860 Z-2.200 I-61.479 J-82.362 K0.000 F250.000
G2 X65.534 Y-123.409 Z-2.200 I-72.885 J-94.472 K0.000 F250.000
G2 X71.829 Y-128.832 Z-2.200 I-138.968 J-167.704 K0.000 F250.000
G2 X78.612 Y-134.445 Z-2.200 I-1127.384 J-1369.206 K0.000 F250.000
G3 X85.261 Y-139.309 Z-2.200 I100.856 J130.897 K0.000 F250.000
G3 X92.493 Y-142.262 Z-2.200 I12.050 J19.178 K0.000 F250.000
G3 X95.730 Y-142.417 Z-2.200 I2.217 J12.441 K0.000 F250.000
G3 X99.432 Y-141.444 Z-2.200 I-1.027 J11.437 K0.000 F250.000
G3 X105.706 Y-136.823 Z-2.200 I-5.145 J13.557 K0.000 F250.000
G3 X107.774 Y-132.419 Z-2.200 I-9.245 J7.028 K0.000 F250.000
G3 X108.277 Y-124.801 Z-2.200 I-23.802 J5.398 K0.000 F250.000
G3 X107.574 Y-118.720 Z-2.200 I-42.467 J-1.826 K0.000 F250.000
G3 X104.920 Y-106.708 Z-2.200 I-108.243 J-17.619 K0.000 F250.000
G2 X103.842 Y-102.362 Z-2.200 I119.878 J32.043 K0.000 F250.000
G3 X100.800 Y-92.859 Z-2.200 I-205.434 J-60.519 K0.000 F250.000
G3 X92.513 Y-70.646 Z-2.200 I-414.473 J-141.986 K0.000 F250.000
G2 X88.791 Y-61.754 Z-2.200 I318.694 J138.621 K0.000 F250.000
G3 X83.104 Y-49.046 Z-2.200 I-2806.116 J-1248.055 K0.000 F250.000
G2 X77.796 Y-37.570 Z-2.200 I354.917 J171.127 K0.000 F250.000
G2 X74.636 Y-30.619 Z-2.200 I123.989 J60.557 K0.000 F250.000
G2 X71.788 Y-23.634 Z-2.200 I158.797 J68.831 K0.000 F250.000
G2 X67.270 Y-11.070 Z-2.200 I89.766 J39.372 K0.000 F250.000
G2 X65.645 Y-4.695 Z-2.200 I40.063 J13.609 K0.000 F250.000
G3 X65.061 Y-2.128 Z-2.200 I-53.171 J-10.739 K0.000 F250.000
G2 X64.062 Y3.558 Z-2.200 I572.764 J103.530 K0.000 F250.000
G2 X63.705 Y7.648 Z-2.200 I73.385 J8.472 K0.000 F250.000
G0 Z8.000
G0 Z10.000
(Finish operation: Chamfer-R001)
(Begin operation: Chamfer-L001)
(Path: Chamfer-L001)
(Chamfer-L)
(Uncompensated Tool Path)
G0 Z8.000
G0 Z10.000
G0 X-96.650 Y7.648
G0 Z8.000
G1 Z-0.500 F100.000
G2 X-98.968 Y2.288 Z-0.500 I-69.176 J26.733 K0.000 F250.000
G3 X-100.766 Y-2.113 Z-0.500 I66.630 J-29.802 K0.000 F250.000
G3 X-104.351 Y-11.016 Z-0.500 I493.367 J-203.808 K0.000 F250.000
G2 X-106.639 Y-16.812 Z-0.500 I-368.504 J142.141 K0.000 F250.000
G3 X-108.197 Y-21.436 Z-0.500 I79.435 J-29.340 K0.000 F250.000
G3 X-110.670 Y-29.455 Z-0.500 I121.440 J-41.843 K0.000 F250.000
G3 X-111.855 Y-34.242 Z-0.500 I80.864 J-22.547 K0.000 F250.000
G3 X-112.468 Y-37.017 Z-0.500 I494.898 J-110.889 K0.000 F250.000
G2 X-113.390 Y-43.291 Z-0.500 I-320.315 J43.863 K0.000 F250.000
G3 X-113.899 Y-49.517 Z-0.500 I61.160 J-8.131 K0.000 F250.000
G3 X-114.021 Y-59.458 Z-0.500 I61.646 J-5.725 K0.000 F250.000
G3 X-112.977 Y-68.481 Z-0.500 I58.014 J2.141 K0.000 F250.000
G3 X-111.463 Y-75.115 Z-0.500 I58.534 J9.862 K0.000 F250.000
G3 X-109.503 Y-80.002 Z-0.500 I39.131 J12.866 K0.000 F250.000
G3 X-107.491 Y-84.131 Z-0.500 I20.416 J7.389 K0.000 F250.000
G3 X-99.900 Y-93.404 Z-0.500 I29.530 J16.432 K0.000 F250.000
G3 X-92.304 Y-97.871 Z-0.500 I22.490 J29.546 K0.000 F250.000
G3 X-89.112 Y-99.198 Z-0.500 I8.702 J16.431 K0.000 F250.000
G3 X-86.341 Y-99.798 Z-0.500 I65.502 J295.829 K0.000 F250.000
G3 X-84.229 Y-100.038 Z-0.500 I2.713 J14.451 K0.000 F250.000
G3 X-84.206 Y-100.037 Z-0.500 I0.006 J0.100 K0.000 F250.000
G0 Z8.000
G0 Z10.000
G0 X-96.650 Y7.648
G0 Z8.000
G1 Z-1.000 F100.000
G2 X-98.968 Y2.288 Z-1.000 I-69.176 J26.733 K0.000 F250.000
G3 X-100.766 Y-2.113 Z-1.000 I66.630 J-29.802 K0.000 F250.000
G3 X-104.351 Y-11.016 Z-1.000 I493.367 J-203.808 K0.000 F250.000
G2 X-106.639 Y-16.812 Z-1.000 I-368.504 J142.141 K0.000 F250.000
G3 X-108.197 Y-21.436 Z-1.000 I79.435 J-29.340 K0.000 F250.000
G3 X-110.670 Y-29.455 Z-1.000 I121.440 J-41.843 K0.000 F250.000
G3 X-111.855 Y-34.242 Z-1.000 I80.864 J-22.547 K0.000 F250.000
G3 X-112.468 Y-37.017 Z-1.000 I494.898 J-110.889 K0.000 F250.000
G2 X-113.390 Y-43.291 Z-1.000 I-320.315 J43.863 K0.000 F250.000
G3 X-113.899 Y-49.517 Z-1.000 I61.160 J-8.131 K0.000 F250.000
G3 X-114.021 Y-59.458 Z-1.000 I61.646 J-5.725 K0.000 F250.000
G3 X-112.977 Y-68.481 Z-1.000 I58.014 J2.141 K0.000 F250.000
G3 X-111.463 Y-75.115 Z-1.000 I58.534 J9.862 K0.000 F250.000
G3 X-109.503 Y-80.002 Z-1.000 I39.131 J12.866 K0.000 F250.000
G3 X-107.491 Y-84.131 Z-1.000 I20.416 J7.389 K0.000 F250.000
G3 X-99.900 Y-93.404 Z-1.000 I29.530 J16.432 K0.000 F250.000
G3 X-92.304 Y-97.871 Z-1.000 I22.490 J29.546 K0.000 F250.000
G3 X-89.112 Y-99.198 Z-1.000 I8.702 J16.431 K0.000 F250.000
G3 X-86.341 Y-99.798 Z-1.000 I65.502 J295.829 K0.000 F250.000
G3 X-84.229 Y-100.038 Z-1.000 I2.713 J14.451 K0.000 F250.000
G3 X-84.206 Y-100.037 Z-1.000 I0.006 J0.100 K0.000 F250.000
G0 Z8.000
G0 Z10.000
G0 X-96.650 Y7.648
G0 Z8.000
G1 Z-1.500 F100.000
G2 X-98.968 Y2.288 Z-1.500 I-69.176 J26.733 K0.000 F250.000
G3 X-100.766 Y-2.113 Z-1.500 I66.630 J-29.802 K0.000 F250.000
G3 X-104.351 Y-11.016 Z-1.500 I493.367 J-203.808 K0.000 F250.000
G2 X-106.639 Y-16.812 Z-1.500 I-368.504 J142.141 K0.000 F250.000
G3 X-108.197 Y-21.436 Z-1.500 I79.435 J-29.340 K0.000 F250.000
G3 X-110.670 Y-29.455 Z-1.500 I121.440 J-41.843 K0.000 F250.000
G3 X-111.855 Y-34.242 Z-1.500 I80.864 J-22.547 K0.000 F250.000
G3 X-112.468 Y-37.017 Z-1.500 I494.898 J-110.889 K0.000 F250.000
G2 X-113.390 Y-43.291 Z-1.500 I-320.315 J43.863 K0.000 F250.000
G3 X-113.899 Y-49.517 Z-1.500 I61.160 J-8.131 K0.000 F250.000
G3 X-114.021 Y-59.458 Z-1.500 I61.646 J-5.725 K0.000 F250.000
G3 X-112.977 Y-68.481 Z-1.500 I58.014 J2.141 K0.000 F250.000
G3 X-111.463 Y-75.115 Z-1.500 I58.534 J9.862 K0.000 F250.000
G3 X-109.503 Y-80.002 Z-1.500 I39.131 J12.866 K0.000 F250.000
G3 X-107.491 Y-84.131 Z-1.500 I20.416 J7.389 K0.000 F250.000
G3 X-99.900 Y-93.404 Z-1.500 I29.530 J16.432 K0.000 F250.000
G3 X-92.304 Y-97.871 Z-1.500 I22.490 J29.546 K0.000 F250.000
G3 X-89.112 Y-99.198 Z-1.500 I8.702 J16.431 K0.000 F250.000
G3 X-86.341 Y-99.798 Z-1.500 I65.502 J295.829 K0.000 F250.000
G3 X-84.229 Y-100.038 Z-1.500 I2.713 J14.451 K0.000 F250.000
G3 X-84.206 Y-100.037 Z-1.500 I0.006 J0.100 K0.000 F250.000
G0 Z8.000
G0 Z10.000
G0 X-96.650 Y7.648
G0 Z8.000
G1 Z-2.000 F100.000
G2 X-98.968 Y2.288 Z-2.000 I-69.176 J26.733 K0.000 F250.000
G3 X-100.766 Y-2.113 Z-2.000 I66.630 J-29.802 K0.000 F250.000
G3 X-104.351 Y-11.016 Z-2.000 I493.367 J-203.808 K0.000 F250.000
G2 X-106.639 Y-16.812 Z-2.000 I-368.504 J142.141 K0.000 F250.000
G3 X-108.197 Y-21.436 Z-2.000 I79.435 J-29.340 K0.000 F250.000
G3 X-110.670 Y-29.455 Z-2.000 I121.440 J-41.843 K0.000 F250.000
G3 X-111.855 Y-34.242 Z-2.000 I80.864 J-22.547 K0.000 F250.000
G3 X-112.468 Y-37.017 Z-2.000 I494.898 J-110.889 K0.000 F250.000
G2 X-113.390 Y-43.291 Z-2.000 I-320.315 J43.863 K0.000 F250.000
G3 X-113.899 Y-49.517 Z-2.000 I61.160 J-8.131 K0.000 F250.000
G3 X-114.021 Y-59.458 Z-2.000 I61.646 J-5.725 K0.000 F250.000
G3 X-112.977 Y-68.481 Z-2.000 I58.014 J2.141 K0.000 F250.000
G3 X-111.463 Y-75.115 Z-2.000 I58.534 J9.862 K0.000 F250.000
G3 X-109.503 Y-80.002 Z-2.000 I39.131 J12.866 K0.000 F250.000
G3 X-107.491 Y-84.131 Z-2.000 I20.416 J7.389 K0.000 F250.000
G3 X-99.900 Y-93.404 Z-2.000 I29.530 J16.432 K0.000 F250.000
G3 X-92.304 Y-97.871 Z-2.000 I22.490 J29.546 K0.000 F250.000
G3 X-89.112 Y-99.198 Z-2.000 I8.702 J16.431 K0.000 F250.000
G3 X-86.341 Y-99.798 Z-2.000 I65.502 J295.829 K0.000 F250.000
G3 X-84.229 Y-100.038 Z-2.000 I2.713 J14.451 K0.000 F250.000
G3 X-84.206 Y-100.037 Z-2.000 I0.006 J0.100 K0.000 F250.000
G0 Z8.000
G0 Z10.000
G0 X-96.650 Y7.648
G0 Z8.000
G1 Z-2.200 F100.000
G2 X-98.968 Y2.288 Z-2.200 I-69.176 J26.733 K0.000 F250.000
G3 X-100.766 Y-2.113 Z-2.200 I66.630 J-29.802 K0.000 F250.000
G3 X-104.351 Y-11.016 Z-2.200 I493.367 J-203.808 K0.000 F250.000
G2 X-106.639 Y-16.812 Z-2.200 I-368.504 J142.141 K0.000 F250.000
G3 X-108.197 Y-21.436 Z-2.200 I79.435 J-29.340 K0.000 F250.000
G3 X-110.670 Y-29.455 Z-2.200 I121.440 J-41.843 K0.000 F250.000
G3 X-111.855 Y-34.242 Z-2.200 I80.864 J-22.547 K0.000 F250.000
G3 X-112.468 Y-37.017 Z-2.200 I494.898 J-110.889 K0.000 F250.000
G2 X-113.390 Y-43.291 Z-2.200 I-320.315 J43.863 K0.000 F250.000
G3 X-113.899 Y-49.517 Z-2.200 I61.160 J-8.131 K0.000 F250.000
G3 X-114.021 Y-59.458 Z-2.200 I61.646 J-5.725 K0.000 F250.000
G3 X-112.977 Y-68.481 Z-2.200 I58.014 J2.141 K0.000 F250.000
G3 X-111.463 Y-75.115 Z-2.200 I58.534 J9.862 K0.000 F250.000
G3 X-109.503 Y-80.002 Z-2.200 I39.131 J12.866 K0.000 F250.000
G3 X-107.491 Y-84.131 Z-2.200 I20.416 J7.389 K0.000 F250.000
G3 X-99.900 Y-93.404 Z-2.200 I29.530 J16.432 K0.000 F250.000
G3 X-92.304 Y-97.871 Z-2.200 I22.490 J29.546 K0.000 F250.000
G3 X-89.112 Y-99.198 Z-2.200 I8.702 J16.431 K0.000 F250.000
G3 X-86.341 Y-99.798 Z-2.200 I65.502 J295.829 K0.000 F250.000
G3 X-84.229 Y-100.038 Z-2.200 I2.713 J14.451 K0.000 F250.000
G3 X-84.206 Y-100.037 Z-2.200 I0.006 J0.100 K0.000 F250.000
G0 Z8.000
G0 Z10.000
(Finish operation: Chamfer-L001)
(Begin postamble)
M5
G17 G90
M2
