(Exported by FreeCAD)
(Post Processor: grbl_post)
(Output Time:2022-11-26 17:50:54.497697)
(Begin preamble)
G17 G90
G21
(Begin operation: G54)
(Path: G54)
G54
G0 Z5.000
(Finish operation: G54)
(Begin operation: endmill-2_5mm003)
(Path: endmill-2_5mm003)
(endmill-2_5mm003)
(Begin toolchange)
( M6 T2 )
M3 S10000
(Finish operation: endmill-2_5mm003)
(Begin operation: Profile001)
(Path: Profile001)
(Profile001)
(Compensated Tool Path. Diameter: 2.5)
G0 Z10.000
G0 X64.902 Y-25.135
G0 Z8.000
G1 X64.902 Y-25.135 Z-1.000 F100.000
G2 X63.858 Y-25.403 Z-1.000 I-0.554 J-0.009 K0.000 F250.000
G2 X64.838 Y-24.885 Z-1.000 I0.490 J0.259 K0.000 F250.000
G2 X64.902 Y-25.135 Z-1.000 I-0.490 J-0.259 K0.000 F250.000
G0 Z10.000
G0 X44.303 Y-28.242 Z10.000
G0 X44.303 Y-28.242 Z8.000
G1 X44.303 Y-28.242 Z-1.000 F100.000
G2 X43.327 Y-28.564 Z-1.000 I-0.515 J-0.078 K0.000 F250.000
G2 X44.248 Y-28.077 Z-1.000 I0.461 J0.244 K0.000 F250.000
G2 X44.303 Y-28.242 Z-1.000 I-0.461 J-0.244 K0.000 F250.000
G0 Z10.000
G0 X71.352 Y-58.425 Z10.000
G0 X71.352 Y-58.425 Z8.000
G1 X71.352 Y-58.425 Z-1.000 F100.000
G2 X72.160 Y-58.569 Z-1.000 I0.348 J-0.388 K0.000 F250.000
G2 X71.239 Y-59.056 Z-1.000 I-0.461 J-0.244 K0.000 F250.000
G2 X71.352 Y-58.425 Z-1.000 I0.461 J0.244 K0.000 F250.000
G0 Z10.000
G0 X85.995 Y-74.639 Z10.000
G0 X85.995 Y-74.639 Z8.000
G1 X85.995 Y-74.639 Z-1.000 F100.000
G2 X86.921 Y-75.017 Z-1.000 I0.372 J-0.412 K0.000 F250.000
G2 X86.893 Y-75.228 Z-1.000 I-0.544 J-0.036 K0.000 F250.000
G2 X85.818 Y-74.972 Z-1.000 I-0.526 J0.177 K0.000 F250.000
G2 X85.995 Y-74.639 Z-1.000 I0.549 J-0.079 K0.000 F250.000
G0 Z10.000
G0 X96.319 Y-130.442 Z10.000
G0 X96.319 Y-130.442 Z8.000
G1 X96.319 Y-130.442 Z-1.000 F100.000
G2 X96.917 Y-130.741 Z-1.000 I0.101 J-0.546 K0.000 F250.000
G2 X96.667 Y-131.485 Z-1.000 I-0.497 J-0.247 K0.000 F250.000
G2 X95.922 Y-131.235 Z-1.000 I-0.247 J0.497 K0.000 F250.000
G2 X96.319 Y-130.442 Z-1.000 I0.497 J0.247 K0.000 F250.000
G0 Z10.000
G0 X14.614 Y-93.346 Z10.000
G0 X14.614 Y-93.346 Z8.000
G1 X14.614 Y-93.346 Z-1.000 F100.000
G2 X13.619 Y-93.376 Z-1.000 I-0.505 J0.229 K0.000 F250.000
G2 X14.599 Y-92.858 Z-1.000 I0.490 J0.259 K0.000 F250.000
G2 X14.614 Y-93.346 Z-1.000 I-0.490 J-0.259 K0.000 F250.000
G0 Z10.000
G0 X-1.026 Y-64.013 Z10.000
G0 X-1.026 Y-64.013 Z8.000
G1 X-1.026 Y-64.013 Z-1.000 F100.000
G2 X-1.695 Y-63.544 Z-1.000 I-0.215 J0.404 K0.000 F250.000
G2 X-0.785 Y-63.581 Z-1.000 I0.453 J-0.065 K0.000 F250.000
G2 X-0.807 Y-63.755 Z-1.000 I-0.447 J-0.029 K0.000 F250.000
G2 X-1.026 Y-64.013 Z-1.000 I-0.434 J0.146 K0.000 F250.000
G0 Z10.000
G0 X-76.822 Y-49.928 Z10.000
G0 X-76.822 Y-49.928 Z8.000
G1 X-76.822 Y-49.928 Z-1.000 F100.000
G2 X-76.839 Y-49.990 Z-1.000 I-0.440 J0.082 K0.000 F250.000
G2 X-77.726 Y-49.779 Z-1.000 I-0.434 J0.146 K0.000 F250.000
G2 X-76.816 Y-49.817 Z-1.000 I0.453 J-0.065 K0.000 F250.000
G2 X-76.822 Y-49.928 Z-1.000 I-0.447 J-0.029 K0.000 F250.000
G0 Z10.000
G0 X-105.086 Y-40.843 Z10.000
G0 X-105.086 Y-40.843 Z8.000
G1 X-105.086 Y-40.843 Z-1.000 F100.000
G2 X-106.112 Y-40.919 Z-1.000 I-0.529 J0.170 K0.000 F250.000
G2 X-105.862 Y-40.175 Z-1.000 I0.497 J0.247 K0.000 F250.000
G2 X-105.117 Y-40.426 Z-1.000 I0.247 J-0.497 K0.000 F250.000
G2 X-105.086 Y-40.843 Z-1.000 I-0.497 J-0.247 K0.000 F250.000
G0 Z10.000
G0 X-89.146 Y-91.425 Z10.000
G0 X-89.146 Y-91.425 Z8.000
G1 X-89.146 Y-91.425 Z-1.000 F100.000
G2 X-88.489 Y-91.695 Z-1.000 I0.167 J-0.529 K0.000 F250.000
G2 X-89.469 Y-92.213 Z-1.000 I-0.490 J-0.259 K0.000 F250.000
G2 X-89.146 Y-91.425 Z-1.000 I0.490 J0.259 K0.000 F250.000
G1 X-89.146 Y-91.425 Z-2.000 F100.000
G2 X-88.489 Y-91.695 Z-2.000 I0.167 J-0.529 K0.000 F250.000
G2 X-89.469 Y-92.213 Z-2.000 I-0.490 J-0.259 K0.000 F250.000
G2 X-89.146 Y-91.425 Z-2.000 I0.490 J0.259 K0.000 F250.000
G0 Z10.000
G0 X-77.398 Y-50.285 Z10.000
G0 X-77.398 Y-50.285 Z8.000
G1 X-77.398 Y-50.285 Z-2.000 F100.000
G2 X-77.726 Y-49.779 Z-2.000 I0.126 J0.440 K0.000 F250.000
G2 X-76.816 Y-49.817 Z-2.000 I0.453 J-0.065 K0.000 F250.000
G2 X-76.839 Y-49.990 Z-2.000 I-0.447 J-0.029 K0.000 F250.000
G2 X-77.398 Y-50.285 Z-2.000 I-0.434 J0.146 K0.000 F250.000
G0 Z10.000
G0 X-105.089 Y-40.852 Z10.000
G0 X-105.089 Y-40.852 Z8.000
G1 X-105.089 Y-40.852 Z-2.000 F100.000
G2 X-106.112 Y-40.919 Z-2.000 I-0.526 J0.179 K0.000 F250.000
G2 X-105.862 Y-40.175 Z-2.000 I0.497 J0.247 K0.000 F250.000
G2 X-105.117 Y-40.426 Z-2.000 I0.247 J-0.497 K0.000 F250.000
G2 X-105.089 Y-40.852 Z-2.000 I-0.497 J-0.247 K0.000 F250.000
G0 Z10.000
G0 X-1.689 Y-63.511 Z10.000
G0 X-1.689 Y-63.511 Z8.000
G1 X-1.689 Y-63.511 Z-2.000 F100.000
G2 X-0.785 Y-63.581 Z-2.000 I0.447 J-0.098 K0.000 F250.000
G2 X-0.807 Y-63.755 Z-2.000 I-0.447 J-0.029 K0.000 F250.000
G2 X-1.695 Y-63.544 Z-2.000 I-0.434 J0.146 K0.000 F250.000
G2 X-1.689 Y-63.511 Z-2.000 I0.453 J-0.065 K0.000 F250.000
G0 Z10.000
G0 X13.848 Y-92.628 Z10.000
G0 X13.848 Y-92.628 Z8.000
G1 X13.848 Y-92.628 Z-2.000 F100.000
G2 X14.599 Y-92.858 Z-2.000 I0.261 J-0.489 K0.000 F250.000
G2 X13.619 Y-93.376 Z-2.000 I-0.490 J-0.259 K0.000 F250.000
G2 X13.848 Y-92.628 Z-2.000 I0.490 J0.259 K0.000 F250.000
G0 Z10.000
G0 X71.250 Y-59.076 Z10.000
G0 X71.250 Y-59.076 Z8.000
G1 X71.250 Y-59.076 Z-2.000 F100.000
G2 X71.239 Y-59.056 Z-2.000 I0.450 J0.263 K0.000 F250.000
G2 X72.160 Y-58.569 Z-2.000 I0.461 J0.244 K0.000 F250.000
G2 X71.250 Y-59.076 Z-2.000 I-0.461 J-0.244 K0.000 F250.000
G0 Z10.000
G0 X85.986 Y-74.648 Z10.000
G0 X85.986 Y-74.648 Z8.000
G1 X85.986 Y-74.648 Z-2.000 F100.000
G2 X86.921 Y-75.017 Z-2.000 I0.381 J-0.403 K0.000 F250.000
G2 X86.893 Y-75.228 Z-2.000 I-0.544 J-0.036 K0.000 F250.000
G2 X85.818 Y-74.972 Z-2.000 I-0.526 J0.177 K0.000 F250.000
G2 X85.986 Y-74.648 Z-2.000 I0.549 J-0.079 K0.000 F250.000
G0 Z10.000
G0 X64.570 Y-25.652 Z10.000
G0 X64.570 Y-25.652 Z8.000
G1 X64.570 Y-25.652 Z-2.000 F100.000
G2 X63.858 Y-25.403 Z-2.000 I-0.222 J0.508 K0.000 F250.000
G2 X64.838 Y-24.885 Z-2.000 I0.490 J0.259 K0.000 F250.000
G2 X64.570 Y-25.652 Z-2.000 I-0.490 J-0.259 K0.000 F250.000
G0 Z10.000
G0 X44.304 Y-28.254 Z10.000
G0 X44.304 Y-28.254 Z8.000
G1 X44.304 Y-28.254 Z-2.000 F100.000
G2 X43.327 Y-28.564 Z-2.000 I-0.517 J-0.066 K0.000 F250.000
G2 X44.248 Y-28.077 Z-2.000 I0.461 J0.244 K0.000 F250.000
G2 X44.304 Y-28.254 Z-2.000 I-0.461 J-0.244 K0.000 F250.000
G0 Z10.000
G0 X96.169 Y-130.493 Z10.000
G0 X96.169 Y-130.493 Z8.000
G1 X96.169 Y-130.493 Z-2.000 F100.000
G2 X96.917 Y-130.741 Z-2.000 I0.251 J-0.495 K0.000 F250.000
G2 X96.667 Y-131.485 Z-2.000 I-0.497 J-0.247 K0.000 F250.000
G2 X95.922 Y-131.235 Z-2.000 I-0.247 J0.497 K0.000 F250.000
G2 X96.169 Y-130.493 Z-2.000 I0.497 J0.247 K0.000 F250.000
G1 X96.169 Y-130.493 Z-2.600 F100.000
G2 X96.917 Y-130.741 Z-2.600 I0.251 J-0.495 K0.000 F250.000
G2 X96.667 Y-131.485 Z-2.600 I-0.497 J-0.247 K0.000 F250.000
G2 X95.922 Y-131.235 Z-2.600 I-0.247 J0.497 K0.000 F250.000
G2 X96.169 Y-130.493 Z-2.600 I0.497 J0.247 K0.000 F250.000
G0 Z10.000
G0 X86.464 Y-75.597 Z10.000
G0 X86.464 Y-75.597 Z8.000
G1 X86.464 Y-75.597 Z-2.600 F100.000
G2 X85.818 Y-74.972 Z-2.600 I-0.097 J0.546 K0.000 F250.000
G2 X86.921 Y-75.017 Z-2.600 I0.549 J-0.079 K0.000 F250.000
G2 X86.893 Y-75.228 Z-2.600 I-0.544 J-0.036 K0.000 F250.000
G2 X86.464 Y-75.597 Z-2.600 I-0.526 J0.177 K0.000 F250.000
G0 Z10.000
G0 X72.044 Y-59.204 Z10.000
G0 X72.044 Y-59.204 Z8.000
G1 X72.044 Y-59.204 Z-2.600 F100.000
G2 X71.239 Y-59.056 Z-2.600 I-0.344 J0.391 K0.000 F250.000
G2 X72.160 Y-58.569 Z-2.600 I0.461 J0.244 K0.000 F250.000
G2 X72.044 Y-59.204 Z-2.600 I-0.461 J-0.244 K0.000 F250.000
G0 Z10.000
G0 X64.470 Y-25.685 Z10.000
G0 X64.470 Y-25.685 Z8.000
G1 X64.470 Y-25.685 Z-2.600 F100.000
G2 X63.858 Y-25.403 Z-2.600 I-0.122 J0.541 K0.000 F250.000
G2 X64.838 Y-24.885 Z-2.600 I0.490 J0.259 K0.000 F250.000
G2 X64.470 Y-25.685 Z-2.600 I-0.490 J-0.259 K0.000 F250.000
G0 Z10.000
G0 X44.304 Y-28.254 Z10.000
G0 X44.304 Y-28.254 Z8.000
G1 X44.304 Y-28.254 Z-2.600 F100.000
G2 X43.327 Y-28.564 Z-2.600 I-0.517 J-0.066 K0.000 F250.000
G2 X44.248 Y-28.077 Z-2.600 I0.461 J0.244 K0.000 F250.000
G2 X44.304 Y-28.254 Z-2.600 I-0.461 J-0.244 K0.000 F250.000
G0 Z10.000
G0 X-0.880 Y-63.328 Z10.000
G0 X-0.880 Y-63.328 Z8.000
G1 X-0.880 Y-63.328 Z-2.600 F100.000
G2 X-0.785 Y-63.581 Z-2.600 I-0.362 J-0.281 K0.000 F250.000
G2 X-0.807 Y-63.755 Z-2.600 I-0.447 J-0.029 K0.000 F250.000
G2 X-1.695 Y-63.544 Z-2.600 I-0.434 J0.146 K0.000 F250.000
G2 X-0.880 Y-63.328 Z-2.600 I0.453 J-0.065 K0.000 F250.000
G0 Z10.000
G0 X13.860 Y-92.622 Z10.000
G0 X13.860 Y-92.622 Z8.000
G1 X13.860 Y-92.622 Z-2.600 F100.000
G2 X14.599 Y-92.858 Z-2.600 I0.249 J-0.495 K0.000 F250.000
G2 X13.619 Y-93.376 Z-2.600 I-0.490 J-0.259 K0.000 F250.000
G2 X13.860 Y-92.622 Z-2.600 I0.490 J0.259 K0.000 F250.000
G0 Z10.000
G0 X-76.858 Y-50.039 Z10.000
G0 X-76.858 Y-50.039 Z8.000
G1 X-76.858 Y-50.039 Z-2.600 F100.000
G2 X-77.726 Y-49.779 Z-2.600 I-0.415 J0.195 K0.000 F250.000
G2 X-76.816 Y-49.817 Z-2.600 I0.453 J-0.065 K0.000 F250.000
G2 X-76.839 Y-49.990 Z-2.600 I-0.447 J-0.029 K0.000 F250.000
G2 X-76.858 Y-50.039 Z-2.600 I-0.434 J0.146 K0.000 F250.000
G0 Z10.000
G0 X-105.087 Y-40.845 Z10.000
G0 X-105.087 Y-40.845 Z8.000
G1 X-105.087 Y-40.845 Z-2.600 F100.000
G2 X-106.112 Y-40.919 Z-2.600 I-0.528 J0.172 K0.000 F250.000
G2 X-105.862 Y-40.175 Z-2.600 I0.497 J0.247 K0.000 F250.000
G2 X-105.117 Y-40.426 Z-2.600 I0.247 J-0.497 K0.000 F250.000
G2 X-105.087 Y-40.845 Z-2.600 I-0.497 J-0.247 K0.000 F250.000
G0 Z10.000
G0 X-89.146 Y-91.425 Z10.000
G0 X-89.146 Y-91.425 Z8.000
G1 X-89.146 Y-91.425 Z-2.600 F100.000
G2 X-88.489 Y-91.695 Z-2.600 I0.167 J-0.529 K0.000 F250.000
G2 X-89.469 Y-92.213 Z-2.600 I-0.490 J-0.259 K0.000 F250.000
G2 X-89.146 Y-91.425 Z-2.600 I0.490 J0.259 K0.000 F250.000
G0 Z10.000
G0 Z10.000
(Finish operation: Profile001)
(Begin postamble)
M5
G17 G90
M2
