(Exported by FreeCAD)
(Post Processor: grbl_post)
(Output Time:2022-11-26 16:32:32.622458)
(Begin preamble)
G17 G90
G21
(Begin operation: G54)
(Path: G54)
G54
G0 Z5.000
(Finish operation: G54)
(Begin operation: endmill-2_5mm003)
(Path: endmill-2_5mm003)
(endmill-2_5mm003)
(Begin toolchange)
( M6 T2 )
M3 S10000
(Finish operation: endmill-2_5mm003)
(Begin operation: Profile001)
(Path: Profile001)
(Profile001)
(Compensated Tool Path. Diameter: 2.5)
G0 Z10.000
G0 X64.785 Y-24.803
G0 Z8.000
G1 X64.785 Y-24.803 Z-1.000 F100.000
G2 X64.382 Y-25.698 Z-1.000 I-0.437 J-0.341 K0.000 F250.000
G2 X64.171 Y-25.670 Z-1.000 I-0.036 J0.544 K0.000 F250.000
G2 X64.426 Y-24.595 Z-1.000 I0.177 J0.526 K0.000 F250.000
G2 X64.785 Y-24.803 Z-1.000 I-0.079 J-0.549 K0.000 F250.000
G0 Z10.000
G0 X44.302 Y-28.234 Z10.000
G0 X44.302 Y-28.234 Z8.000
G1 X44.302 Y-28.234 Z-1.000 F100.000
G2 X44.019 Y-28.788 Z-1.000 I-0.515 J-0.086 K0.000 F250.000
G2 X43.320 Y-28.552 Z-1.000 I-0.232 J0.468 K0.000 F250.000
G2 X43.555 Y-27.853 Z-1.000 I0.468 J0.232 K0.000 F250.000
G2 X44.302 Y-28.234 Z-1.000 I0.232 J-0.468 K0.000 F250.000
G0 Z10.000
G0 X71.351 Y-58.424 Z10.000
G0 X71.351 Y-58.424 Z8.000
G1 X71.351 Y-58.424 Z-1.000 F100.000
G2 X71.468 Y-58.345 Z-1.000 I0.348 J-0.389 K0.000 F250.000
G2 X72.167 Y-58.581 Z-1.000 I0.232 J-0.468 K0.000 F250.000
G2 X71.932 Y-59.280 Z-1.000 I-0.468 J-0.232 K0.000 F250.000
G2 X71.351 Y-58.424 Z-1.000 I-0.232 J0.468 K0.000 F250.000
G0 Z10.000
G0 X85.996 Y-74.639 Z10.000
G0 X85.996 Y-74.639 Z8.000
G1 X85.996 Y-74.639 Z-1.000 F100.000
G2 X86.215 Y-74.517 Z-1.000 I0.372 J-0.412 K0.000 F250.000
G2 X86.614 Y-75.548 Z-1.000 I0.152 J-0.533 K0.000 F250.000
G1 X86.512 Y-75.587 Z-1.000 F250.000
G2 X85.996 Y-74.639 Z-1.000 I-0.144 J0.536 K0.000 F250.000
G0 Z10.000
G0 X96.319 Y-130.443 Z10.000
G0 X96.319 Y-130.443 Z8.000
G1 X96.319 Y-130.443 Z-1.000 F100.000
G2 X96.679 Y-131.478 Z-1.000 I0.101 J-0.545 K0.000 F250.000
G2 X96.161 Y-130.498 Z-1.000 I-0.259 J0.490 K0.000 F250.000
G2 X96.319 Y-130.443 Z-1.000 I0.259 J-0.490 K0.000 F250.000
G0 Z10.000
G0 X14.614 Y-93.346 Z10.000
G0 X14.614 Y-93.346 Z8.000
G1 X14.614 Y-93.346 Z-1.000 F100.000
G2 X14.143 Y-93.671 Z-1.000 I-0.505 J0.229 K0.000 F250.000
G2 X13.932 Y-93.643 Z-1.000 I-0.036 J0.544 K0.000 F250.000
G2 X14.188 Y-92.568 Z-1.000 I0.177 J0.526 K0.000 F250.000
G2 X14.614 Y-93.346 Z-1.000 I-0.079 J-0.549 K0.000 F250.000
G0 Z10.000
G0 X-1.027 Y-64.013 Z10.000
G0 X-1.027 Y-64.013 Z8.000
G1 X-1.027 Y-64.013 Z-1.000 F100.000
G2 X-1.215 Y-64.066 Z-1.000 I-0.215 J0.404 K0.000 F250.000
G2 X-1.388 Y-64.043 Z-1.000 I-0.029 J0.447 K0.000 F250.000
G2 X-1.177 Y-63.155 Z-1.000 I0.146 J0.434 K0.000 F250.000
G2 X-1.027 Y-64.013 Z-1.000 I-0.065 J-0.453 K0.000 F250.000
G0 Z10.000
G0 X-76.823 Y-49.928 Z10.000
G0 X-76.823 Y-49.928 Z8.000
G1 X-76.823 Y-49.928 Z-1.000 F100.000
G2 X-77.246 Y-50.301 Z-1.000 I-0.450 J0.084 K0.000 F250.000
G2 X-77.419 Y-50.278 Z-1.000 I-0.029 J0.447 K0.000 F250.000
G2 X-77.208 Y-49.391 Z-1.000 I0.146 J0.434 K0.000 F250.000
G2 X-76.823 Y-49.928 Z-1.000 I-0.065 J-0.453 K0.000 F250.000
G0 Z10.000
G0 X-105.087 Y-40.842 Z10.000
G0 X-105.087 Y-40.842 Z8.000
G1 X-105.087 Y-40.842 Z-1.000 F100.000
G2 X-105.356 Y-41.163 Z-1.000 I-0.528 J0.170 K0.000 F250.000
G2 X-105.874 Y-40.182 Z-1.000 I-0.259 J0.490 K0.000 F250.000
G2 X-105.087 Y-40.842 Z-1.000 I0.259 J-0.490 K0.000 F250.000
G0 Z10.000
G0 X-77.758 Y-0.493 Z10.000
G0 X-77.758 Y-0.493 Z8.000
G1 X-77.758 Y-0.493 Z-1.000 F100.000
G2 X-77.719 Y0.289 Z-1.000 I0.257 J0.379 K0.000 F250.000
G2 X-77.284 Y-0.517 Z-1.000 I0.217 J-0.403 K0.000 F250.000
G2 X-77.758 Y-0.493 Z-1.000 I-0.217 J0.403 K0.000 F250.000
G0 Z10.000
G0 X-88.911 Y-91.403 Z10.000
G0 X-88.911 Y-91.403 Z8.000
G1 X-88.911 Y-91.403 Z-1.000 F100.000
G2 X-88.733 Y-92.451 Z-1.000 I-0.068 J-0.551 K0.000 F250.000
G1 X-88.834 Y-92.490 Z-1.000 F250.000
G2 X-89.131 Y-91.421 Z-1.000 I-0.144 J0.536 K0.000 F250.000
G2 X-88.911 Y-91.403 Z-1.000 I0.152 J-0.533 K0.000 F250.000
G1 X-88.911 Y-91.403 Z-2.000 F100.000
G2 X-88.733 Y-92.451 Z-2.000 I-0.068 J-0.551 K0.000 F250.000
G1 X-88.834 Y-92.490 Z-2.000 F250.000
G2 X-89.131 Y-91.421 Z-2.000 I-0.144 J0.536 K0.000 F250.000
G2 X-88.911 Y-91.403 Z-2.000 I0.152 J-0.533 K0.000 F250.000
G0 Z10.000
G0 X-77.396 Y-50.286 Z10.000
G0 X-77.396 Y-50.286 Z8.000
G1 X-77.396 Y-50.286 Z-2.000 F100.000
G2 X-77.419 Y-50.278 Z-2.000 I0.121 J0.431 K0.000 F250.000
G2 X-77.208 Y-49.391 Z-2.000 I0.146 J0.434 K0.000 F250.000
G2 X-77.246 Y-50.301 Z-2.000 I-0.065 J-0.453 K0.000 F250.000
G2 X-77.396 Y-50.286 Z-2.000 I-0.029 J0.447 K0.000 F250.000
G0 Z10.000
G0 X-105.090 Y-40.851 Z10.000
G0 X-105.090 Y-40.851 Z8.000
G1 X-105.090 Y-40.851 Z-2.000 F100.000
G2 X-105.356 Y-41.163 Z-2.000 I-0.525 J0.179 K0.000 F250.000
G2 X-105.874 Y-40.182 Z-2.000 I-0.259 J0.490 K0.000 F250.000
G2 X-105.090 Y-40.851 Z-2.000 I0.259 J-0.490 K0.000 F250.000
G0 Z10.000
G0 X-77.758 Y-0.493 Z10.000
G0 X-77.758 Y-0.493 Z8.000
G1 X-77.758 Y-0.493 Z-2.000 F100.000
G2 X-77.719 Y0.289 Z-2.000 I0.257 J0.379 K0.000 F250.000
G2 X-77.284 Y-0.517 Z-2.000 I0.217 J-0.403 K0.000 F250.000
G2 X-77.758 Y-0.493 Z-2.000 I-0.217 J0.403 K0.000 F250.000
G0 Z10.000
G0 X-1.596 Y-63.317 Z10.000
G0 X-1.596 Y-63.317 Z8.000
G1 X-1.596 Y-63.317 Z-2.000 F100.000
G2 X-1.177 Y-63.155 Z-2.000 I0.353 J-0.291 K0.000 F250.000
G2 X-1.215 Y-64.066 Z-2.000 I-0.065 J-0.453 K0.000 F250.000
G2 X-1.388 Y-64.043 Z-2.000 I-0.029 J0.447 K0.000 F250.000
G2 X-1.596 Y-63.317 Z-2.000 I0.146 J0.434 K0.000 F250.000
G0 Z10.000
G0 X13.850 Y-92.626 Z10.000
G0 X13.850 Y-92.626 Z8.000
G1 X13.850 Y-92.626 Z-2.000 F100.000
G2 X14.188 Y-92.568 Z-2.000 I0.259 J-0.491 K0.000 F250.000
G2 X14.143 Y-93.671 Z-2.000 I-0.079 J-0.549 K0.000 F250.000
G2 X13.932 Y-93.643 Z-2.000 I-0.036 J0.544 K0.000 F250.000
G2 X13.850 Y-92.626 Z-2.000 I0.177 J0.526 K0.000 F250.000
G0 Z10.000
G0 X71.249 Y-59.076 Z10.000
G0 X71.249 Y-59.076 Z8.000
G1 X71.249 Y-59.076 Z-2.000 F100.000
G2 X71.468 Y-58.345 Z-2.000 I0.451 J0.263 K0.000 F250.000
G2 X72.167 Y-58.581 Z-2.000 I0.232 J-0.468 K0.000 F250.000
G2 X71.932 Y-59.280 Z-2.000 I-0.468 J-0.232 K0.000 F250.000
G2 X71.249 Y-59.076 Z-2.000 I-0.232 J0.468 K0.000 F250.000
G0 Z10.000
G0 X85.986 Y-74.648 Z10.000
G0 X85.986 Y-74.648 Z8.000
G1 X85.986 Y-74.648 Z-2.000 F100.000
G2 X86.215 Y-74.517 Z-2.000 I0.381 J-0.403 K0.000 F250.000
G2 X86.614 Y-75.548 Z-2.000 I0.152 J-0.533 K0.000 F250.000
G1 X86.512 Y-75.587 Z-2.000 F250.000
G2 X85.986 Y-74.648 Z-2.000 I-0.144 J0.536 K0.000 F250.000
G0 Z10.000
G0 X64.570 Y-25.652 Z10.000
G0 X64.570 Y-25.652 Z8.000
G1 X64.570 Y-25.652 Z-2.000 F100.000
G2 X64.382 Y-25.698 Z-2.000 I-0.222 J0.508 K0.000 F250.000
G2 X64.171 Y-25.670 Z-2.000 I-0.036 J0.544 K0.000 F250.000
G2 X64.426 Y-24.595 Z-2.000 I0.177 J0.526 K0.000 F250.000
G2 X64.570 Y-25.652 Z-2.000 I-0.079 J-0.549 K0.000 F250.000
G0 Z10.000
G0 X44.305 Y-28.254 Z10.000
G0 X44.305 Y-28.254 Z8.000
G1 X44.305 Y-28.254 Z-2.000 F100.000
G2 X44.019 Y-28.788 Z-2.000 I-0.518 J-0.066 K0.000 F250.000
G2 X43.320 Y-28.552 Z-2.000 I-0.232 J0.468 K0.000 F250.000
G2 X43.555 Y-27.853 Z-2.000 I0.468 J0.232 K0.000 F250.000
G2 X44.305 Y-28.254 Z-2.000 I0.232 J-0.468 K0.000 F250.000
G0 Z10.000
G0 X96.161 Y-130.498 Z10.000
G0 X96.161 Y-130.498 Z8.000
G1 X96.161 Y-130.498 Z-2.000 F100.000
G2 X96.679 Y-131.478 Z-2.000 I0.259 J-0.490 K0.000 F250.000
G2 X96.161 Y-130.498 Z-2.000 I-0.259 J0.490 K0.000 F250.000
G1 X96.161 Y-130.498 Z-2.600 F100.000
G2 X96.679 Y-131.478 Z-2.600 I0.259 J-0.490 K0.000 F250.000
G2 X96.161 Y-130.498 Z-2.600 I-0.259 J0.490 K0.000 F250.000
G0 Z10.000
G0 X86.464 Y-75.597 Z10.000
G0 X86.464 Y-75.597 Z8.000
G1 X86.464 Y-75.597 Z-2.600 F100.000
G2 X86.215 Y-74.517 Z-2.600 I-0.096 J0.546 K0.000 F250.000
G2 X86.614 Y-75.548 Z-2.600 I0.152 J-0.533 K0.000 F250.000
G1 X86.512 Y-75.587 Z-2.600 F250.000
G2 X86.464 Y-75.597 Z-2.600 I-0.144 J0.536 K0.000 F250.000
G0 Z10.000
G0 X72.044 Y-59.205 Z10.000
G0 X72.044 Y-59.205 Z8.000
G1 X72.044 Y-59.205 Z-2.600 F100.000
G2 X71.932 Y-59.280 Z-2.600 I-0.345 J0.392 K0.000 F250.000
G2 X71.232 Y-59.045 Z-2.600 I-0.232 J0.468 K0.000 F250.000
G2 X71.468 Y-58.345 Z-2.600 I0.468 J0.232 K0.000 F250.000
G2 X72.044 Y-59.205 Z-2.600 I0.232 J-0.468 K0.000 F250.000
G0 Z10.000
G0 X64.470 Y-25.685 Z10.000
G0 X64.470 Y-25.685 Z8.000
G1 X64.470 Y-25.685 Z-2.600 F100.000
G2 X64.382 Y-25.698 Z-2.600 I-0.122 J0.541 K0.000 F250.000
G2 X64.171 Y-25.670 Z-2.600 I-0.036 J0.544 K0.000 F250.000
G2 X64.426 Y-24.595 Z-2.600 I0.177 J0.526 K0.000 F250.000
G2 X64.470 Y-25.685 Z-2.600 I-0.079 J-0.549 K0.000 F250.000
G0 Z10.000
G0 X44.305 Y-28.254 Z10.000
G0 X44.305 Y-28.254 Z8.000
G1 X44.305 Y-28.254 Z-2.600 F100.000
G2 X44.019 Y-28.788 Z-2.600 I-0.518 J-0.066 K0.000 F250.000
G2 X43.320 Y-28.552 Z-2.600 I-0.232 J0.468 K0.000 F250.000
G2 X43.555 Y-27.853 Z-2.600 I0.468 J0.232 K0.000 F250.000
G2 X44.305 Y-28.254 Z-2.600 I0.232 J-0.468 K0.000 F250.000
G0 Z10.000
G0 X-0.880 Y-63.328 Z10.000
G0 X-0.880 Y-63.328 Z8.000
G1 X-0.880 Y-63.328 Z-2.600 F100.000
G2 X-1.215 Y-64.066 Z-2.600 I-0.362 J-0.281 K0.000 F250.000
G2 X-1.388 Y-64.043 Z-2.600 I-0.029 J0.447 K0.000 F250.000
G2 X-1.177 Y-63.155 Z-2.600 I0.146 J0.434 K0.000 F250.000
G2 X-0.880 Y-63.328 Z-2.600 I-0.065 J-0.453 K0.000 F250.000
G0 Z10.000
G0 X13.859 Y-92.622 Z10.000
G0 X13.859 Y-92.622 Z8.000
G1 X13.859 Y-92.622 Z-2.600 F100.000
G2 X14.188 Y-92.568 Z-2.600 I0.249 J-0.496 K0.000 F250.000
G2 X14.143 Y-93.671 Z-2.600 I-0.079 J-0.549 K0.000 F250.000
G2 X13.932 Y-93.643 Z-2.600 I-0.036 J0.544 K0.000 F250.000
G2 X13.859 Y-92.622 Z-2.600 I0.177 J0.526 K0.000 F250.000
G0 Z10.000
G0 X-76.859 Y-50.039 Z10.000
G0 X-76.859 Y-50.039 Z8.000
G1 X-76.859 Y-50.039 Z-2.600 F100.000
G2 X-77.246 Y-50.301 Z-2.600 I-0.414 J0.195 K0.000 F250.000
G2 X-77.419 Y-50.278 Z-2.600 I-0.029 J0.447 K0.000 F250.000
G2 X-77.208 Y-49.391 Z-2.600 I0.146 J0.434 K0.000 F250.000
G2 X-76.859 Y-50.039 Z-2.600 I-0.065 J-0.453 K0.000 F250.000
G0 Z10.000
G0 X-105.088 Y-40.844 Z10.000
G0 X-105.088 Y-40.844 Z8.000
G1 X-105.088 Y-40.844 Z-2.600 F100.000
G2 X-105.356 Y-41.163 Z-2.600 I-0.527 J0.172 K0.000 F250.000
G2 X-105.874 Y-40.182 Z-2.600 I-0.259 J0.490 K0.000 F250.000
G2 X-105.088 Y-40.844 Z-2.600 I0.259 J-0.490 K0.000 F250.000
G0 Z10.000
G0 X-77.758 Y-0.493 Z10.000
G0 X-77.758 Y-0.493 Z8.000
G1 X-77.758 Y-0.493 Z-2.600 F100.000
G2 X-77.719 Y0.289 Z-2.600 I0.257 J0.379 K0.000 F250.000
G2 X-77.284 Y-0.517 Z-2.600 I0.217 J-0.403 K0.000 F250.000
G2 X-77.758 Y-0.493 Z-2.600 I-0.217 J0.403 K0.000 F250.000
G0 Z10.000
G0 X-88.911 Y-91.403 Z10.000
G0 X-88.911 Y-91.403 Z8.000
G1 X-88.911 Y-91.403 Z-2.600 F100.000
G2 X-88.733 Y-92.451 Z-2.600 I-0.068 J-0.551 K0.000 F250.000
G1 X-88.834 Y-92.490 Z-2.600 F250.000
G2 X-89.131 Y-91.421 Z-2.600 I-0.144 J0.536 K0.000 F250.000
G2 X-88.911 Y-91.403 Z-2.600 I0.152 J-0.533 K0.000 F250.000
G0 Z10.000
G0 Z10.000
(Finish operation: Profile001)
(Begin postamble)
M5
G17 G90
M2
