(Exported by FreeCAD)
(Post Processor: grbl_post)
(Output Time:2022-11-26 18:57:15.362026)
(Begin preamble)
G17 G90
G21
(Begin operation: G54)
(Path: G54)
G54
G0 Z5.000
(Finish operation: G54)
(Begin operation: endmill-2_5mm009)
(Path: endmill-2_5mm009)
(endmill-2_5mm009)
(Begin toolchange)
( M6 T2 )
(Post processing added : Ramp up the spindle speed)
M3 S100
G4 P.25
M3 S200
G4 P.25
M3 S400
G4 P.25
M3 S600
G4 P.25
M3 S800
G4 P.25
M3 S1000
G4 P.25
M3 S2000
G4 P.25
M3 S4000
G4 P.25
M3 S6000
G4 P.25
M3 S10000
(End post processing)
(Finish operation: endmill-2_5mm009)
(Begin operation: Profile006)
(Path: Profile006)
(Profile006)
(Compensated Tool Path. Diameter: 2.5)
G0 Z10.000
G0 X-88.228 Y10.360
G0 Z8.000
G1 X-88.228 Y10.360 Z-1.000 F100.000
G2 X-88.374 Y9.471 Z-1.000 I-0.392 J-0.392 K0.000 F250.000
G1 X-88.476 Y9.432 Z-1.000 F250.000
G2 X-88.773 Y10.501 Z-1.000 I-0.144 J0.536 K0.000 F250.000
G2 X-88.228 Y10.360 Z-1.000 I0.152 J-0.533 K0.000 F250.000
G1 X-88.228 Y10.360 Z-2.000 F100.000
G2 X-88.374 Y9.471 Z-2.000 I-0.392 J-0.392 K0.000 F250.000
G1 X-88.476 Y9.432 Z-2.000 F250.000
G2 X-88.773 Y10.501 Z-2.000 I-0.144 J0.536 K0.000 F250.000
G2 X-88.228 Y10.360 Z-2.000 I0.152 J-0.533 K0.000 F250.000
G1 X-88.228 Y10.360 Z-2.500 F100.000
G2 X-88.374 Y9.471 Z-2.500 I-0.392 J-0.392 K0.000 F250.000
G1 X-88.476 Y9.432 Z-2.500 F250.000
G2 X-88.773 Y10.501 Z-2.500 I-0.144 J0.536 K0.000 F250.000
G2 X-88.228 Y10.360 Z-2.500 I0.152 J-0.533 K0.000 F250.000
G0 Z10.000
G0 Z10.000
G0 X-88.228 Y10.360
G0 X-83.161 Y111.636
G0 X-83.161 Y111.636 Z8.000
G1 X-83.161 Y111.636 Z-1.000 F100.000
G2 X-83.380 Y112.688 Z-1.000 I0.028 J0.555 K0.000 F250.000
G2 X-82.886 Y111.693 Z-1.000 I0.247 J-0.497 K0.000 F250.000
G2 X-83.161 Y111.636 Z-1.000 I-0.247 J0.497 K0.000 F250.000
G0 Z10.000
G0 X-3.335 Y80.762 Z10.000
G0 X-3.335 Y80.762 Z8.000
G1 X-3.335 Y80.762 Z-1.000 F100.000
G2 X-3.063 Y81.059 Z-1.000 I0.518 J-0.200 K0.000 F250.000
G2 X-2.570 Y80.064 Z-1.000 I0.247 J-0.497 K0.000 F250.000
G2 X-3.335 Y80.762 Z-1.000 I-0.247 J0.497 K0.000 F250.000
G0 Z10.000
G0 X71.290 Y69.177 Z10.000
G0 X71.290 Y69.177 Z8.000
G1 X71.290 Y69.177 Z-1.000 F100.000
G2 X71.592 Y69.589 Z-1.000 I0.549 J-0.085 K0.000 F250.000
G2 X72.085 Y68.594 Z-1.000 I0.247 J-0.497 K0.000 F250.000
G2 X71.290 Y69.177 Z-1.000 I-0.247 J0.497 K0.000 F250.000
G0 Z10.000
G0 X79.591 Y129.066 Z10.000
G0 X79.591 Y129.066 Z8.000
G1 X79.591 Y129.066 Z-1.000 F100.000
G2 X79.420 Y130.114 Z-1.000 I0.076 J0.550 K0.000 F250.000
G2 X79.913 Y129.119 Z-1.000 I0.247 J-0.497 K0.000 F250.000
G2 X79.591 Y129.066 Z-1.000 I-0.247 J0.497 K0.000 F250.000
G1 X79.591 Y129.066 Z-2.000 F100.000
G2 X79.420 Y130.114 Z-2.000 I0.076 J0.550 K0.000 F250.000
G2 X79.913 Y129.119 Z-2.000 I0.247 J-0.497 K0.000 F250.000
G2 X79.591 Y129.066 Z-2.000 I-0.247 J0.497 K0.000 F250.000
G0 Z10.000
G0 X71.910 Y69.642 Z10.000
G0 X71.910 Y69.642 Z8.000
G1 X71.910 Y69.642 Z-2.000 F100.000
G2 X72.085 Y68.594 Z-2.000 I-0.071 J-0.551 K0.000 F250.000
G2 X71.592 Y69.589 Z-2.000 I-0.247 J0.497 K0.000 F250.000
G2 X71.910 Y69.642 Z-2.000 I0.247 J-0.497 K0.000 F250.000
G0 Z10.000
G0 X-2.267 Y80.481 Z10.000
G0 X-2.267 Y80.481 Z8.000
G1 X-2.267 Y80.481 Z-2.000 F100.000
G2 X-2.570 Y80.064 Z-2.000 I-0.549 J0.080 K0.000 F250.000
G2 X-3.063 Y81.059 Z-2.000 I-0.247 J0.497 K0.000 F250.000
G2 X-2.267 Y80.481 Z-2.000 I0.247 J-0.497 K0.000 F250.000
G0 Z10.000
G0 X-82.616 Y111.988 Z10.000
G0 X-82.616 Y111.988 Z8.000
G1 X-82.616 Y111.988 Z-2.000 F100.000
G2 X-82.886 Y111.693 Z-2.000 I-0.517 J0.203 K0.000 F250.000
G2 X-83.380 Y112.688 Z-2.000 I-0.247 J0.497 K0.000 F250.000
G2 X-82.616 Y111.988 Z-2.000 I0.247 J-0.497 K0.000 F250.000
G1 X-82.616 Y111.988 Z-2.500 F100.000
G2 X-82.886 Y111.693 Z-2.500 I-0.517 J0.203 K0.000 F250.000
G2 X-83.380 Y112.688 Z-2.500 I-0.247 J0.497 K0.000 F250.000
G2 X-82.616 Y111.988 Z-2.500 I0.247 J-0.497 K0.000 F250.000
G0 Z10.000
G0 X-3.333 Y80.765 Z10.000
G0 X-3.333 Y80.765 Z8.000
G1 X-3.333 Y80.765 Z-2.500 F100.000
G2 X-3.063 Y81.059 Z-2.500 I0.517 J-0.203 K0.000 F250.000
G2 X-2.570 Y80.064 Z-2.500 I0.247 J-0.497 K0.000 F250.000
G2 X-3.333 Y80.765 Z-2.500 I-0.247 J0.497 K0.000 F250.000
G0 Z10.000
G0 X71.290 Y69.177 Z10.000
G0 X71.290 Y69.177 Z8.000
G1 X71.290 Y69.177 Z-2.500 F100.000
G2 X71.592 Y69.589 Z-2.500 I0.549 J-0.085 K0.000 F250.000
G2 X72.085 Y68.594 Z-2.500 I0.247 J-0.497 K0.000 F250.000
G2 X71.290 Y69.177 Z-2.500 I-0.247 J0.497 K0.000 F250.000
G0 Z10.000
G0 X79.591 Y129.066 Z10.000
G0 X79.591 Y129.066 Z8.000
G1 X79.591 Y129.066 Z-2.500 F100.000
G2 X79.420 Y130.114 Z-2.500 I0.076 J0.550 K0.000 F250.000
G2 X79.913 Y129.119 Z-2.500 I0.247 J-0.497 K0.000 F250.000
G2 X79.591 Y129.066 Z-2.500 I-0.247 J0.497 K0.000 F250.000
G0 Z10.000
G0 Z10.000
(Finish operation: Profile006)
(Begin postamble)
M5
G17 G90
M2
