(Exported by FreeCAD)
(Post Processor: grbl_post)
(Output Time:2022-11-26 16:32:45.223592)
(Begin preamble)
G17 G90
G21
(Begin operation: G54)
(Path: G54)
G54
G0 Z5.000
(Finish operation: G54)
(Begin operation: endmill-2_5mm001)
(Path: endmill-2_5mm001)
(endmill-2_5mm001)
(Begin toolchange)
( M6 T2 )
(Post processing added : Ramp up the spindle speed)
M3 S100
G4 P.25
M3 S200
G4 P.25
M3 S400
G4 P.25
M3 S600
G4 P.25
M3 S800
G4 P.25
M3 S1000
G4 P.25
M3 S2000
G4 P.25
M3 S4000
G4 P.25
M3 S6000
G4 P.25
M3 S10000
(End post processing)
(Finish operation: endmill-2_5mm001)
(Begin operation: DressupPathBoundary)
(Path: DressupPathBoundary)
(Profile)
(Compensated Tool Path. Diameter: 2.5)
G0 Z8.000
G0 Z5.000
G0 X64.834 Y7.832
G0 Z8.000
G1 Z-1.000 F100.000
G3 X65.190 Y3.715 Z-1.000 I72.424 J4.186 K0.000 F250.000
G3 X66.175 Y-1.893 Z-1.000 I569.253 J97.092 K0.000 F250.000
G2 X66.758 Y-4.461 Z-1.000 I-52.988 J-13.385 K0.000 F250.000
G3 X68.352 Y-10.719 Z-1.000 I40.806 J7.063 K0.000 F250.000
G3 X72.835 Y-23.190 Z-1.000 I93.445 J26.550 K0.000 F250.000
G3 X75.680 Y-30.165 Z-1.000 I164.165 J62.888 K0.000 F250.000
G3 X78.816 Y-37.064 Z-1.000 I124.757 J52.542 K0.000 F250.000
G3 X84.130 Y-48.554 Z-1.000 I362.377 J160.632 K0.000 F250.000
G2 X89.832 Y-61.295 Z-1.000 I-2744.198 J-1235.693 K0.000 F250.000
G3 X93.557 Y-70.194 Z-1.000 I324.829 J130.739 K0.000 F250.000
G2 X101.876 Y-92.487 Z-1.000 I-407.386 J-164.718 K0.000 F250.000
G2 X104.930 Y-102.028 Z-1.000 I-204.009 J-70.565 K0.000 F250.000
G3 X106.019 Y-106.414 Z-1.000 I133.468 J30.821 K0.000 F250.000
G2 X108.695 Y-118.524 Z-1.000 I-106.699 J-29.928 K0.000 F250.000
G2 X109.413 Y-124.727 Z-1.000 I-42.859 J-8.099 K0.000 F250.000
G2 X108.887 Y-132.661 Z-1.000 I-25.451 J-2.298 K0.000 F250.000
G2 X105.319 Y-139.010 Z-1.000 I-12.829 J3.033 K0.000 F250.000
G2 X98.745 Y-142.934 Z-1.000 I-12.024 J12.676 K0.000 F250.000
G2 X92.314 Y-143.403 Z-1.000 I-4.102 J11.911 K0.000 F250.000
G2 X84.661 Y-140.300 Z-1.000 I4.953 J23.205 K0.000 F250.000
G2 X77.909 Y-135.367 Z-1.000 I91.447 J132.253 K0.000 F250.000
G3 X71.087 Y-129.722 Z-1.000 I-1343.051 J-1616.287 K0.000 F250.000
G3 X64.785 Y-124.294 Z-1.000 I-146.094 J-163.244 K0.000 F250.000
G3 X58.136 Y-118.767 Z-1.000 I-79.324 J-88.664 K0.000 F250.000
G3 X52.149 Y-113.937 Z-1.000 I-67.668 J-77.743 K0.000 F250.000
G3 X34.561 Y-104.775 Z-1.000 I-34.668 J-45.090 K0.000 F250.000
G3 X22.653 Y-102.452 Z-1.000 I-22.983 J-86.133 K0.000 F250.000
G3 X14.523 Y-101.657 Z-1.000 I-31.578 J-280.796 K0.000 F250.000
G2 X8.564 Y-101.255 Z-1.000 I4.204 J106.616 K0.000 F250.000
G2 X7.424 Y-100.022 Z-1.000 I0.110 J1.245 K0.000 F250.000
G1 X7.240 Y-82.464 Z-1.000 F250.000
G1 X7.197 Y-82.196 Z-1.000 F250.000
G3 X6.395 Y-81.705 Z-1.000 I-0.874 J-0.525 K0.000 F250.000
G1 X-82.095 Y-81.703 Z-1.000 F250.000
G1 X-82.349 Y-81.744 Z-1.000 F250.000
G3 X-82.842 Y-82.457 Z-1.000 I0.537 J-0.899 K0.000 F250.000
G1 X-82.985 Y-99.951 Z-1.000 F250.000
G2 X-84.002 Y-101.169 Z-1.000 I-1.250 J0.010 K0.000 F250.000
G2 X-86.537 Y-100.936 Z-1.000 I-0.208 J11.653 K0.000 F250.000
G2 X-89.369 Y-100.325 Z-1.000 I46.620 J222.719 K0.000 F250.000
G2 X-92.814 Y-98.911 Z-1.000 I5.580 J18.496 K0.000 F250.000
G2 X-100.590 Y-94.335 Z-1.000 I15.362 J35.007 K0.000 F250.000
G2 X-108.494 Y-84.718 Z-1.000 I22.541 J26.581 K0.000 F250.000
G2 X-110.573 Y-80.455 Z-1.000 I19.386 J12.092 K0.000 F250.000
G2 X-112.562 Y-75.495 Z-1.000 I38.153 J18.178 K0.000 F250.000
G2 X-114.120 Y-68.691 Z-1.000 I57.702 J16.793 K0.000 F250.000
G2 X-115.181 Y-59.521 Z-1.000 I58.112 J11.371 K0.000 F250.000
G2 X-115.059 Y-49.451 Z-1.000 I62.871 J4.275 K0.000 F250.000
G2 X-114.544 Y-43.157 Z-1.000 I62.756 J-1.967 K0.000 F250.000
G3 X-113.619 Y-36.861 Z-1.000 I-326.130 J51.120 K0.000 F250.000
G2 X-112.989 Y-33.995 Z-1.000 I289.108 J-62.096 K0.000 F250.000
G2 X-111.791 Y-29.151 Z-1.000 I83.369 J-18.050 K0.000 F250.000
G2 X-109.300 Y-21.073 Z-1.000 I125.014 J-34.130 K0.000 F250.000
G2 X-107.732 Y-16.423 Z-1.000 I81.977 J-25.039 K0.000 F250.000
G3 X-105.433 Y-10.598 Z-1.000 I-379.960 J153.350 K0.000 F250.000
G2 X-101.846 Y-1.687 Z-1.000 I501.792 J-196.838 K0.000 F250.000
G2 X-100.034 Y2.743 Z-1.000 I69.257 J-25.729 K0.000 F250.000
G3 X-97.816 Y7.832 Z-1.000 I-64.374 J31.085 K0.000 F250.000
G0 Z8.000
G0 Z5.000
G0 X64.834 Y7.832
G0 Z8.000
G1 Z-2.000 F100.000
G3 X65.190 Y3.715 Z-2.000 I72.424 J4.186 K0.000 F250.000
G3 X66.175 Y-1.893 Z-2.000 I569.253 J97.092 K0.000 F250.000
G2 X66.758 Y-4.461 Z-2.000 I-52.988 J-13.385 K0.000 F250.000
G3 X68.352 Y-10.719 Z-2.000 I40.806 J7.063 K0.000 F250.000
G3 X72.835 Y-23.190 Z-2.000 I93.445 J26.550 K0.000 F250.000
G3 X75.680 Y-30.165 Z-2.000 I164.165 J62.888 K0.000 F250.000
G3 X78.816 Y-37.064 Z-2.000 I124.757 J52.542 K0.000 F250.000
G3 X84.130 Y-48.554 Z-2.000 I362.377 J160.632 K0.000 F250.000
G2 X89.832 Y-61.295 Z-2.000 I-2744.198 J-1235.693 K0.000 F250.000
G3 X93.557 Y-70.194 Z-2.000 I324.829 J130.739 K0.000 F250.000
G2 X101.876 Y-92.487 Z-2.000 I-407.386 J-164.718 K0.000 F250.000
G2 X104.930 Y-102.028 Z-2.000 I-204.009 J-70.565 K0.000 F250.000
G3 X106.019 Y-106.414 Z-2.000 I133.468 J30.821 K0.000 F250.000
G2 X108.695 Y-118.524 Z-2.000 I-106.699 J-29.928 K0.000 F250.000
G2 X109.413 Y-124.727 Z-2.000 I-42.859 J-8.099 K0.000 F250.000
G2 X108.887 Y-132.661 Z-2.000 I-25.451 J-2.298 K0.000 F250.000
G2 X105.319 Y-139.010 Z-2.000 I-12.829 J3.033 K0.000 F250.000
G2 X98.745 Y-142.934 Z-2.000 I-12.024 J12.676 K0.000 F250.000
G2 X92.314 Y-143.403 Z-2.000 I-4.102 J11.911 K0.000 F250.000
G2 X84.661 Y-140.300 Z-2.000 I4.953 J23.205 K0.000 F250.000
G2 X77.909 Y-135.367 Z-2.000 I91.447 J132.253 K0.000 F250.000
G3 X71.087 Y-129.722 Z-2.000 I-1343.051 J-1616.287 K0.000 F250.000
G3 X64.785 Y-124.294 Z-2.000 I-146.094 J-163.244 K0.000 F250.000
G3 X58.136 Y-118.767 Z-2.000 I-79.324 J-88.664 K0.000 F250.000
G3 X52.149 Y-113.937 Z-2.000 I-67.668 J-77.743 K0.000 F250.000
G3 X34.561 Y-104.775 Z-2.000 I-34.668 J-45.090 K0.000 F250.000
G3 X22.653 Y-102.452 Z-2.000 I-22.983 J-86.133 K0.000 F250.000
G3 X14.523 Y-101.657 Z-2.000 I-31.578 J-280.796 K0.000 F250.000
G2 X8.564 Y-101.255 Z-2.000 I4.204 J106.616 K0.000 F250.000
G2 X7.424 Y-100.022 Z-2.000 I0.110 J1.245 K0.000 F250.000
G1 X7.240 Y-82.464 Z-2.000 F250.000
G1 X7.197 Y-82.196 Z-2.000 F250.000
G3 X6.395 Y-81.705 Z-2.000 I-0.874 J-0.525 K0.000 F250.000
G1 X-82.095 Y-81.703 Z-2.000 F250.000
G1 X-82.349 Y-81.744 Z-2.000 F250.000
G3 X-82.842 Y-82.457 Z-2.000 I0.537 J-0.899 K0.000 F250.000
G1 X-82.985 Y-99.951 Z-2.000 F250.000
G2 X-84.002 Y-101.169 Z-2.000 I-1.250 J0.010 K0.000 F250.000
G2 X-86.537 Y-100.936 Z-2.000 I-0.208 J11.653 K0.000 F250.000
G2 X-89.369 Y-100.325 Z-2.000 I46.620 J222.719 K0.000 F250.000
G2 X-92.814 Y-98.911 Z-2.000 I5.580 J18.496 K0.000 F250.000
G2 X-100.590 Y-94.335 Z-2.000 I15.362 J35.007 K0.000 F250.000
G2 X-108.494 Y-84.718 Z-2.000 I22.541 J26.581 K0.000 F250.000
G2 X-110.573 Y-80.455 Z-2.000 I19.386 J12.092 K0.000 F250.000
G2 X-112.562 Y-75.495 Z-2.000 I38.153 J18.178 K0.000 F250.000
G2 X-114.120 Y-68.691 Z-2.000 I57.702 J16.793 K0.000 F250.000
G2 X-115.181 Y-59.521 Z-2.000 I58.112 J11.371 K0.000 F250.000
G2 X-115.059 Y-49.451 Z-2.000 I62.871 J4.275 K0.000 F250.000
G2 X-114.544 Y-43.157 Z-2.000 I62.756 J-1.967 K0.000 F250.000
G3 X-113.619 Y-36.861 Z-2.000 I-326.130 J51.120 K0.000 F250.000
G2 X-112.989 Y-33.995 Z-2.000 I289.108 J-62.096 K0.000 F250.000
G2 X-111.791 Y-29.151 Z-2.000 I83.369 J-18.050 K0.000 F250.000
G2 X-109.300 Y-21.073 Z-2.000 I125.014 J-34.130 K0.000 F250.000
G2 X-107.732 Y-16.423 Z-2.000 I81.977 J-25.039 K0.000 F250.000
G3 X-105.433 Y-10.598 Z-2.000 I-379.960 J153.350 K0.000 F250.000
G2 X-101.846 Y-1.687 Z-2.000 I501.792 J-196.838 K0.000 F250.000
G2 X-100.034 Y2.743 Z-2.000 I69.257 J-25.729 K0.000 F250.000
G3 X-97.816 Y7.832 Z-2.000 I-64.374 J31.085 K0.000 F250.000
G0 Z8.000
G0 Z5.000
G0 X64.834 Y7.832
G0 Z8.000
G1 Z-2.600 F100.000
G3 X65.190 Y3.715 Z-2.600 I72.424 J4.186 K0.000 F250.000
G3 X66.175 Y-1.893 Z-2.600 I569.253 J97.092 K0.000 F250.000
G2 X66.758 Y-4.461 Z-2.600 I-52.988 J-13.385 K0.000 F250.000
G3 X68.352 Y-10.719 Z-2.600 I40.806 J7.063 K0.000 F250.000
G3 X72.835 Y-23.190 Z-2.600 I93.445 J26.550 K0.000 F250.000
G3 X75.680 Y-30.165 Z-2.600 I164.165 J62.888 K0.000 F250.000
G3 X78.816 Y-37.064 Z-2.600 I124.757 J52.542 K0.000 F250.000
G3 X84.130 Y-48.554 Z-2.600 I362.377 J160.632 K0.000 F250.000
G2 X89.832 Y-61.295 Z-2.600 I-2744.198 J-1235.693 K0.000 F250.000
G3 X93.557 Y-70.194 Z-2.600 I324.829 J130.739 K0.000 F250.000
G2 X101.876 Y-92.487 Z-2.600 I-407.386 J-164.718 K0.000 F250.000
G2 X104.930 Y-102.028 Z-2.600 I-204.009 J-70.565 K0.000 F250.000
G3 X106.019 Y-106.414 Z-2.600 I133.468 J30.821 K0.000 F250.000
G2 X108.695 Y-118.524 Z-2.600 I-106.699 J-29.928 K0.000 F250.000
G2 X109.413 Y-124.727 Z-2.600 I-42.859 J-8.099 K0.000 F250.000
G2 X108.887 Y-132.661 Z-2.600 I-25.451 J-2.298 K0.000 F250.000
G2 X105.319 Y-139.010 Z-2.600 I-12.829 J3.033 K0.000 F250.000
G2 X98.745 Y-142.934 Z-2.600 I-12.024 J12.676 K0.000 F250.000
G2 X92.314 Y-143.403 Z-2.600 I-4.102 J11.911 K0.000 F250.000
G2 X84.661 Y-140.300 Z-2.600 I4.953 J23.205 K0.000 F250.000
G2 X77.909 Y-135.367 Z-2.600 I91.447 J132.253 K0.000 F250.000
G3 X71.087 Y-129.722 Z-2.600 I-1343.051 J-1616.287 K0.000 F250.000
G3 X64.785 Y-124.294 Z-2.600 I-146.094 J-163.244 K0.000 F250.000
G3 X58.136 Y-118.767 Z-2.600 I-79.324 J-88.664 K0.000 F250.000
G3 X52.149 Y-113.937 Z-2.600 I-67.668 J-77.743 K0.000 F250.000
G3 X34.561 Y-104.775 Z-2.600 I-34.668 J-45.090 K0.000 F250.000
G3 X22.653 Y-102.452 Z-2.600 I-22.983 J-86.133 K0.000 F250.000
G3 X14.523 Y-101.657 Z-2.600 I-31.578 J-280.796 K0.000 F250.000
G2 X8.564 Y-101.255 Z-2.600 I4.204 J106.616 K0.000 F250.000
G2 X7.424 Y-100.022 Z-2.600 I0.110 J1.245 K0.000 F250.000
G1 X7.240 Y-82.464 Z-2.600 F250.000
G1 X7.197 Y-82.196 Z-2.600 F250.000
G3 X6.395 Y-81.705 Z-2.600 I-0.874 J-0.525 K0.000 F250.000
G1 X-82.095 Y-81.703 Z-2.600 F250.000
G1 X-82.349 Y-81.744 Z-2.600 F250.000
G3 X-82.842 Y-82.457 Z-2.600 I0.537 J-0.899 K0.000 F250.000
G1 X-82.985 Y-99.951 Z-2.600 F250.000
G2 X-84.002 Y-101.169 Z-2.600 I-1.250 J0.010 K0.000 F250.000
G2 X-86.537 Y-100.936 Z-2.600 I-0.208 J11.653 K0.000 F250.000
G2 X-89.369 Y-100.325 Z-2.600 I46.620 J222.719 K0.000 F250.000
G2 X-92.814 Y-98.911 Z-2.600 I5.580 J18.496 K0.000 F250.000
G2 X-100.590 Y-94.335 Z-2.600 I15.362 J35.007 K0.000 F250.000
G2 X-108.494 Y-84.718 Z-2.600 I22.541 J26.581 K0.000 F250.000
G2 X-110.573 Y-80.455 Z-2.600 I19.386 J12.092 K0.000 F250.000
G2 X-112.562 Y-75.495 Z-2.600 I38.153 J18.178 K0.000 F250.000
G2 X-114.120 Y-68.691 Z-2.600 I57.702 J16.793 K0.000 F250.000
G2 X-115.181 Y-59.521 Z-2.600 I58.112 J11.371 K0.000 F250.000
G2 X-115.059 Y-49.451 Z-2.600 I62.871 J4.275 K0.000 F250.000
G2 X-114.544 Y-43.157 Z-2.600 I62.756 J-1.967 K0.000 F250.000
G3 X-113.619 Y-36.861 Z-2.600 I-326.130 J51.120 K0.000 F250.000
G2 X-112.989 Y-33.995 Z-2.600 I289.108 J-62.096 K0.000 F250.000
G2 X-111.791 Y-29.151 Z-2.600 I83.369 J-18.050 K0.000 F250.000
G2 X-109.300 Y-21.073 Z-2.600 I125.014 J-34.130 K0.000 F250.000
G2 X-107.732 Y-16.423 Z-2.600 I81.977 J-25.039 K0.000 F250.000
G3 X-105.433 Y-10.598 Z-2.600 I-379.960 J153.350 K0.000 F250.000
G2 X-101.846 Y-1.687 Z-2.600 I501.792 J-196.838 K0.000 F250.000
G2 X-100.034 Y2.743 Z-2.600 I69.257 J-25.729 K0.000 F250.000
G3 X-97.816 Y7.832 Z-2.600 I-64.374 J31.085 K0.000 F250.000
G0 Z8.000
G0 Z5.000
(Finish operation: DressupPathBoundary)
(Begin postamble)
M5
G17 G90
M2
