(Exported by FreeCAD)
(Post Processor: grbl_post)
(Output Time:2022-11-26 16:31:27.313511)
(Begin preamble)
G17 G90
G21
(Begin operation: G54)
(Path: G54)
G54
G0 Z5.000
(Finish operation: G54)
(Begin operation: endmill-2_5mm001)
(Path: endmill-2_5mm001)
(endmill-2_5mm001)
(Begin toolchange)
( M6 T2 )
(Post processing added : Ramp up the spindle speed)
M3 S100
G4 P.25
M3 S200
G4 P.25
M3 S400
G4 P.25
M3 S600
G4 P.25
M3 S800
G4 P.25
M3 S1000
G4 P.25
M3 S2000
G4 P.25
M3 S4000
G4 P.25
M3 S6000
G4 P.25
M3 S10000
(End post processing)
(Finish operation: endmill-2_5mm001)
(Begin operation: DressupPathBoundary)
(Path: DressupPathBoundary)
(Profile)
(Compensated Tool Path. Diameter: 2.5)
G0 Z8.000
G0 Z10.000
G0 X83.482 Y138.998
G0 Z8.000
G1 Z1.000 F100.000
G1 X83.482 Y138.998 Z-1.000 F100.000
G2 X84.788 Y136.364 Z-1.000 I-15.791 J-9.469 K0.000 F250.000
G1 X84.788 Y136.364 Z-1.000 F250.000
G1 X85.115 Y135.626 Z-1.000 F250.000
G2 X87.817 Y128.463 Z-1.000 I-36.365 J-17.808 K0.000 F250.000
G2 X89.603 Y120.486 Z-1.000 I-34.804 J-11.981 K0.000 F250.000
G2 X90.477 Y108.821 Z-1.000 I-77.989 J-11.709 K0.000 F250.000
G2 X90.268 Y104.502 Z-1.000 I-381.484 J16.292 K0.000 F250.000
G2 X88.379 Y91.989 Z-1.000 I-134.851 J13.962 K0.000 F250.000
G3 X87.511 Y88.300 Z-1.000 I107.935 J-27.346 K0.000 F250.000
G2 X81.366 Y69.260 Z-1.000 I-168.208 J43.781 K0.000 F250.000
G3 X79.837 Y65.452 Z-1.000 I70.860 J-30.655 K0.000 F250.000
G2 X76.625 Y57.842 Z-1.000 I-242.630 J97.919 K0.000 F250.000
G2 X73.737 Y51.260 Z-1.000 I-812.746 J352.686 K0.000 F250.000
G3 X70.355 Y42.513 Z-1.000 I339.540 J-136.326 K0.000 F250.000
G3 X69.518 Y40.212 Z-1.000 I19.349 J-8.336 K0.000 F250.000
G2 X68.566 Y37.041 Z-1.000 I-52.677 J14.082 K0.000 F250.000
G3 X66.470 Y28.667 Z-1.000 I85.609 J-25.880 K0.000 F250.000
G3 X65.616 Y23.791 Z-1.000 I24096.613 J-4220.886 K0.000 F250.000
G3 X64.700 Y11.239 Z-1.000 I84.734 J-12.494 K0.000 F250.000
G1 X64.726 Y10.538 Z-1.000 F250.000
G3 X65.527 Y1.857 Z-1.000 I48.107 J0.065 K0.000 F250.000
G3 X66.568 Y-3.556 Z-1.000 I55.576 J7.874 K0.000 F250.000
G3 X67.113 Y-6.336 Z-1.000 I45.556 J7.499 K0.000 F250.000
G0 Z8.000
G0 Z10.000
G0 X-103.728 Y-6.336
G0 Z8.000
G1 Z-1.000 F100.000
G3 X-103.029 Y-4.528 Z-1.000 I-282.892 J110.399 K0.000 F250.000
G3 X-100.623 Y1.389 Z-1.000 I-177.189 J75.494 K0.000 F250.000
G3 X-96.864 Y10.395 Z-1.000 I-102.892 J48.237 K0.000 F250.000
G2 X-94.350 Y17.725 Z-1.000 I119.835 J-37.006 K0.000 F250.000
G3 X-92.086 Y25.733 Z-1.000 I-116.731 J37.329 K0.000 F250.000
G3 X-90.468 Y32.297 Z-1.000 I-57.984 J17.772 K0.000 F250.000
G3 X-89.064 Y39.390 Z-1.000 I-187.575 J40.803 K0.000 F250.000
G3 X-87.125 Y63.725 Z-1.000 I-169.706 J25.771 K0.000 F250.000
G3 X-87.672 Y74.170 Z-1.000 I-149.420 J-2.600 K0.000 F250.000
G3 X-88.331 Y81.242 Z-1.000 I-109.583 J-6.633 K0.000 F250.000
G3 X-89.502 Y89.016 Z-1.000 I-565.624 J-81.275 K0.000 F250.000
G3 X-90.888 Y95.602 Z-1.000 I-147.243 J-27.544 K0.000 F250.000
G3 X-92.266 Y102.063 Z-1.000 I-143.872 J-27.299 K0.000 F250.000
G2 X-93.583 Y108.449 Z-1.000 I48.741 J13.386 K0.000 F250.000
G2 X-93.273 Y114.208 Z-1.000 I24.505 J1.566 K0.000 F250.000
G2 X-91.051 Y118.336 Z-1.000 I8.561 J-1.945 K0.000 F250.000
G2 X-86.090 Y121.262 Z-1.000 I6.847 J-5.940 K0.000 F250.000
G2 X-79.829 Y121.100 Z-1.000 I2.767 J-14.104 K0.000 F250.000
G2 X-75.619 Y119.580 Z-1.000 I-13.226 J-43.215 K0.000 F250.000
G3 X-73.184 Y118.596 Z-1.000 I14.911 J33.388 K0.000 F250.000
G2 X-65.377 Y114.656 Z-1.000 I-15.255 J-39.932 K0.000 F250.000
G2 X-64.795 Y113.577 Z-1.000 I-0.667 J-1.057 K0.000 F250.000
G1 X-65.184 Y90.800 Z-1.000 F250.000
G1 X-65.085 Y89.845 Z-1.000 F250.000
G3 X-64.300 Y88.195 Z-1.000 I4.464 J1.110 K0.000 F250.000
G3 X-61.376 Y86.045 Z-1.000 I6.023 J5.130 K0.000 F250.000
G3 X-52.280 Y84.430 Z-1.000 I12.209 J42.342 K0.000 F250.000
G3 X-44.295 Y83.870 Z-1.000 I10.467 J92.077 K0.000 F250.000
G3 X-37.128 Y83.783 Z-1.000 I4.561 J80.233 K0.000 F250.000
G3 X-23.506 Y84.660 Z-1.000 I-1.770 J133.711 K0.000 F250.000
G3 X-15.353 Y86.174 Z-1.000 I-4.196 J45.316 K0.000 F250.000
G3 X-14.362 Y86.715 Z-1.000 I-1.003 J3.017 K0.000 F250.000
G3 X-13.291 Y87.877 Z-1.000 I-10.991 J11.208 K0.000 F250.000
G3 X-11.691 Y91.187 Z-1.000 I-12.547 J8.104 K0.000 F250.000
G2 X-10.424 Y91.987 Z-1.000 I1.168 J-0.446 K0.000 F250.000
G2 X-9.311 Y91.646 Z-1.000 I-0.793 J-4.573 K0.000 F250.000
G2 X-0.354 Y87.925 Z-1.000 I-79.294 J-203.477 K0.000 F250.000
G3 X7.598 Y84.680 Z-1.000 I59.139 J133.576 K0.000 F250.000
G3 X14.931 Y82.829 Z-1.000 I13.653 J38.642 K0.000 F250.000
G3 X23.869 Y82.138 Z-1.000 I7.557 J39.573 K0.000 F250.000
G3 X32.606 Y83.074 Z-1.000 I-4.021 J78.760 K0.000 F250.000
G3 X43.933 Y87.482 Z-1.000 I-8.220 J37.879 K0.000 F250.000
G3 X56.164 Y96.891 Z-1.000 I-24.627 J44.667 K0.000 F250.000
G2 X58.661 Y99.623 Z-1.000 I87.103 J-77.122 K0.000 F250.000
G3 X62.462 Y104.790 Z-1.000 I-48.642 J39.764 K0.000 F250.000
G3 X66.827 Y112.901 Z-1.000 I-37.217 J25.253 K0.000 F250.000
G3 X68.815 Y118.076 Z-1.000 I-29.608 J14.349 K0.000 F250.000
G3 X70.782 Y125.878 Z-1.000 I-42.360 J14.825 K0.000 F250.000
G3 X71.946 Y131.645 Z-1.000 I-151.747 J33.620 K0.000 F250.000
G2 X73.672 Y139.160 Z-1.000 I61.752 J-10.231 K0.000 F250.000
G2 X74.845 Y141.539 Z-1.000 I6.463 J-1.707 K0.000 F250.000
G2 X77.391 Y143.153 Z-1.000 I3.239 J-2.296 K0.000 F250.000
G2 X81.465 Y141.748 Z-1.000 I0.626 J-4.794 K0.000 F250.000
G2 X83.482 Y138.998 Z-1.000 I-13.773 J-12.219 K0.000 F250.000
G1 X83.482 Y138.998 Z-2.000 F100.000
G2 X84.788 Y136.364 Z-2.000 I-15.791 J-9.469 K0.000 F250.000
G1 X84.788 Y136.364 Z-2.000 F250.000
G1 X85.115 Y135.626 Z-2.000 F250.000
G2 X87.817 Y128.463 Z-2.000 I-36.365 J-17.808 K0.000 F250.000
G2 X89.603 Y120.486 Z-2.000 I-34.804 J-11.981 K0.000 F250.000
G2 X90.477 Y108.821 Z-2.000 I-77.989 J-11.709 K0.000 F250.000
G2 X90.268 Y104.502 Z-2.000 I-381.484 J16.292 K0.000 F250.000
G2 X88.379 Y91.989 Z-2.000 I-134.851 J13.962 K0.000 F250.000
G3 X87.511 Y88.300 Z-2.000 I107.935 J-27.346 K0.000 F250.000
G2 X81.366 Y69.260 Z-2.000 I-168.208 J43.781 K0.000 F250.000
G3 X79.837 Y65.452 Z-2.000 I70.860 J-30.655 K0.000 F250.000
G2 X76.625 Y57.842 Z-2.000 I-242.630 J97.919 K0.000 F250.000
G2 X73.737 Y51.260 Z-2.000 I-812.746 J352.686 K0.000 F250.000
G3 X70.355 Y42.513 Z-2.000 I339.540 J-136.326 K0.000 F250.000
G3 X69.518 Y40.212 Z-2.000 I19.349 J-8.336 K0.000 F250.000
G2 X68.566 Y37.041 Z-2.000 I-52.677 J14.082 K0.000 F250.000
G3 X66.470 Y28.667 Z-2.000 I85.609 J-25.880 K0.000 F250.000
G3 X65.616 Y23.791 Z-2.000 I24096.613 J-4220.886 K0.000 F250.000
G3 X64.700 Y11.239 Z-2.000 I84.734 J-12.494 K0.000 F250.000
G1 X64.726 Y10.538 Z-2.000 F250.000
G3 X65.527 Y1.857 Z-2.000 I48.107 J0.065 K0.000 F250.000
G3 X66.568 Y-3.556 Z-2.000 I55.576 J7.874 K0.000 F250.000
G3 X67.113 Y-6.336 Z-2.000 I45.556 J7.499 K0.000 F250.000
G0 Z8.000
G0 Z10.000
G0 X-103.728 Y-6.336
G0 Z8.000
G1 Z-2.000 F100.000
G3 X-103.029 Y-4.528 Z-2.000 I-282.892 J110.399 K0.000 F250.000
G3 X-100.623 Y1.389 Z-2.000 I-177.189 J75.494 K0.000 F250.000
G3 X-96.864 Y10.395 Z-2.000 I-102.892 J48.237 K0.000 F250.000
G2 X-94.350 Y17.725 Z-2.000 I119.835 J-37.006 K0.000 F250.000
G3 X-92.086 Y25.733 Z-2.000 I-116.731 J37.329 K0.000 F250.000
G3 X-90.468 Y32.297 Z-2.000 I-57.984 J17.772 K0.000 F250.000
G3 X-89.064 Y39.390 Z-2.000 I-187.575 J40.803 K0.000 F250.000
G3 X-87.125 Y63.725 Z-2.000 I-169.706 J25.771 K0.000 F250.000
G3 X-87.672 Y74.170 Z-2.000 I-149.420 J-2.600 K0.000 F250.000
G3 X-88.331 Y81.242 Z-2.000 I-109.583 J-6.633 K0.000 F250.000
G3 X-89.502 Y89.016 Z-2.000 I-565.624 J-81.275 K0.000 F250.000
G3 X-90.888 Y95.602 Z-2.000 I-147.243 J-27.544 K0.000 F250.000
G3 X-92.266 Y102.063 Z-2.000 I-143.872 J-27.299 K0.000 F250.000
G2 X-93.583 Y108.449 Z-2.000 I48.741 J13.386 K0.000 F250.000
G2 X-93.273 Y114.208 Z-2.000 I24.505 J1.566 K0.000 F250.000
G2 X-91.051 Y118.336 Z-2.000 I8.561 J-1.945 K0.000 F250.000
G2 X-86.090 Y121.262 Z-2.000 I6.847 J-5.940 K0.000 F250.000
G2 X-79.829 Y121.100 Z-2.000 I2.767 J-14.104 K0.000 F250.000
G2 X-75.619 Y119.580 Z-2.000 I-13.226 J-43.215 K0.000 F250.000
G3 X-73.184 Y118.596 Z-2.000 I14.911 J33.388 K0.000 F250.000
G2 X-65.377 Y114.656 Z-2.000 I-15.255 J-39.932 K0.000 F250.000
G2 X-64.795 Y113.577 Z-2.000 I-0.667 J-1.057 K0.000 F250.000
G1 X-65.184 Y90.800 Z-2.000 F250.000
G1 X-65.085 Y89.845 Z-2.000 F250.000
G3 X-64.300 Y88.195 Z-2.000 I4.464 J1.110 K0.000 F250.000
G3 X-61.376 Y86.045 Z-2.000 I6.023 J5.130 K0.000 F250.000
G3 X-52.280 Y84.430 Z-2.000 I12.209 J42.342 K0.000 F250.000
G3 X-44.295 Y83.870 Z-2.000 I10.467 J92.077 K0.000 F250.000
G3 X-37.128 Y83.783 Z-2.000 I4.561 J80.233 K0.000 F250.000
G3 X-23.506 Y84.660 Z-2.000 I-1.770 J133.711 K0.000 F250.000
G3 X-15.353 Y86.174 Z-2.000 I-4.196 J45.316 K0.000 F250.000
G3 X-14.362 Y86.715 Z-2.000 I-1.003 J3.017 K0.000 F250.000
G3 X-13.291 Y87.877 Z-2.000 I-10.991 J11.208 K0.000 F250.000
G3 X-11.691 Y91.187 Z-2.000 I-12.547 J8.104 K0.000 F250.000
G2 X-10.424 Y91.987 Z-2.000 I1.168 J-0.446 K0.000 F250.000
G2 X-9.311 Y91.646 Z-2.000 I-0.793 J-4.573 K0.000 F250.000
G2 X-0.354 Y87.925 Z-2.000 I-79.294 J-203.477 K0.000 F250.000
G3 X7.598 Y84.680 Z-2.000 I59.139 J133.576 K0.000 F250.000
G3 X14.931 Y82.829 Z-2.000 I13.653 J38.642 K0.000 F250.000
G3 X23.869 Y82.138 Z-2.000 I7.557 J39.573 K0.000 F250.000
G3 X32.606 Y83.074 Z-2.000 I-4.021 J78.760 K0.000 F250.000
G3 X43.933 Y87.482 Z-2.000 I-8.220 J37.879 K0.000 F250.000
G3 X56.164 Y96.891 Z-2.000 I-24.627 J44.667 K0.000 F250.000
G2 X58.661 Y99.623 Z-2.000 I87.103 J-77.122 K0.000 F250.000
G3 X62.462 Y104.790 Z-2.000 I-48.642 J39.764 K0.000 F250.000
G3 X66.827 Y112.901 Z-2.000 I-37.217 J25.253 K0.000 F250.000
G3 X68.815 Y118.076 Z-2.000 I-29.608 J14.349 K0.000 F250.000
G3 X70.782 Y125.878 Z-2.000 I-42.360 J14.825 K0.000 F250.000
G3 X71.946 Y131.645 Z-2.000 I-151.747 J33.620 K0.000 F250.000
G2 X73.672 Y139.160 Z-2.000 I61.752 J-10.231 K0.000 F250.000
G2 X74.845 Y141.539 Z-2.000 I6.463 J-1.707 K0.000 F250.000
G2 X77.391 Y143.153 Z-2.000 I3.239 J-2.296 K0.000 F250.000
G2 X81.465 Y141.748 Z-2.000 I0.626 J-4.794 K0.000 F250.000
G2 X83.482 Y138.998 Z-2.000 I-13.773 J-12.219 K0.000 F250.000
G1 X83.482 Y138.998 Z-2.600 F100.000
G2 X84.788 Y136.364 Z-2.600 I-15.791 J-9.469 K0.000 F250.000
G1 X84.788 Y136.364 Z-2.600 F250.000
G1 X85.115 Y135.626 Z-2.600 F250.000
G2 X87.817 Y128.463 Z-2.600 I-36.365 J-17.808 K0.000 F250.000
G2 X89.603 Y120.486 Z-2.600 I-34.804 J-11.981 K0.000 F250.000
G2 X90.477 Y108.821 Z-2.600 I-77.989 J-11.709 K0.000 F250.000
G2 X90.268 Y104.502 Z-2.600 I-381.484 J16.292 K0.000 F250.000
G2 X88.379 Y91.989 Z-2.600 I-134.851 J13.962 K0.000 F250.000
G3 X87.511 Y88.300 Z-2.600 I107.935 J-27.346 K0.000 F250.000
G2 X81.366 Y69.260 Z-2.600 I-168.208 J43.781 K0.000 F250.000
G3 X79.837 Y65.452 Z-2.600 I70.860 J-30.655 K0.000 F250.000
G2 X76.625 Y57.842 Z-2.600 I-242.630 J97.919 K0.000 F250.000
G2 X73.737 Y51.260 Z-2.600 I-812.746 J352.686 K0.000 F250.000
G3 X70.355 Y42.513 Z-2.600 I339.540 J-136.326 K0.000 F250.000
G3 X69.518 Y40.212 Z-2.600 I19.349 J-8.336 K0.000 F250.000
G2 X68.566 Y37.041 Z-2.600 I-52.677 J14.082 K0.000 F250.000
G3 X66.470 Y28.667 Z-2.600 I85.609 J-25.880 K0.000 F250.000
G3 X65.616 Y23.791 Z-2.600 I24096.613 J-4220.886 K0.000 F250.000
G3 X64.700 Y11.239 Z-2.600 I84.734 J-12.494 K0.000 F250.000
G1 X64.726 Y10.538 Z-2.600 F250.000
G3 X65.527 Y1.857 Z-2.600 I48.107 J0.065 K0.000 F250.000
G3 X66.568 Y-3.556 Z-2.600 I55.576 J7.874 K0.000 F250.000
G3 X67.113 Y-6.336 Z-2.600 I45.556 J7.499 K0.000 F250.000
G0 Z8.000
G0 Z10.000
G0 X-103.728 Y-6.336
G0 Z8.000
G1 Z-2.600 F100.000
G3 X-103.029 Y-4.528 Z-2.600 I-282.892 J110.399 K0.000 F250.000
G3 X-100.623 Y1.389 Z-2.600 I-177.189 J75.494 K0.000 F250.000
G3 X-96.864 Y10.395 Z-2.600 I-102.892 J48.237 K0.000 F250.000
G2 X-94.350 Y17.725 Z-2.600 I119.835 J-37.006 K0.000 F250.000
G3 X-92.086 Y25.733 Z-2.600 I-116.731 J37.329 K0.000 F250.000
G3 X-90.468 Y32.297 Z-2.600 I-57.984 J17.772 K0.000 F250.000
G3 X-89.064 Y39.390 Z-2.600 I-187.575 J40.803 K0.000 F250.000
G3 X-87.125 Y63.725 Z-2.600 I-169.706 J25.771 K0.000 F250.000
G3 X-87.672 Y74.170 Z-2.600 I-149.420 J-2.600 K0.000 F250.000
G3 X-88.331 Y81.242 Z-2.600 I-109.583 J-6.633 K0.000 F250.000
G3 X-89.502 Y89.016 Z-2.600 I-565.624 J-81.275 K0.000 F250.000
G3 X-90.888 Y95.602 Z-2.600 I-147.243 J-27.544 K0.000 F250.000
G3 X-92.266 Y102.063 Z-2.600 I-143.872 J-27.299 K0.000 F250.000
G2 X-93.583 Y108.449 Z-2.600 I48.741 J13.386 K0.000 F250.000
G2 X-93.273 Y114.208 Z-2.600 I24.505 J1.566 K0.000 F250.000
G2 X-91.051 Y118.336 Z-2.600 I8.561 J-1.945 K0.000 F250.000
G2 X-86.090 Y121.262 Z-2.600 I6.847 J-5.940 K0.000 F250.000
G2 X-79.829 Y121.100 Z-2.600 I2.767 J-14.104 K0.000 F250.000
G2 X-75.619 Y119.580 Z-2.600 I-13.226 J-43.215 K0.000 F250.000
G3 X-73.184 Y118.596 Z-2.600 I14.911 J33.388 K0.000 F250.000
G2 X-65.377 Y114.656 Z-2.600 I-15.255 J-39.932 K0.000 F250.000
G2 X-64.795 Y113.577 Z-2.600 I-0.667 J-1.057 K0.000 F250.000
G1 X-65.184 Y90.800 Z-2.600 F250.000
G1 X-65.085 Y89.845 Z-2.600 F250.000
G3 X-64.300 Y88.195 Z-2.600 I4.464 J1.110 K0.000 F250.000
G3 X-61.376 Y86.045 Z-2.600 I6.023 J5.130 K0.000 F250.000
G3 X-52.280 Y84.430 Z-2.600 I12.209 J42.342 K0.000 F250.000
G3 X-44.295 Y83.870 Z-2.600 I10.467 J92.077 K0.000 F250.000
G3 X-37.128 Y83.783 Z-2.600 I4.561 J80.233 K0.000 F250.000
G3 X-23.506 Y84.660 Z-2.600 I-1.770 J133.711 K0.000 F250.000
G3 X-15.353 Y86.174 Z-2.600 I-4.196 J45.316 K0.000 F250.000
G3 X-14.362 Y86.715 Z-2.600 I-1.003 J3.017 K0.000 F250.000
G3 X-13.291 Y87.877 Z-2.600 I-10.991 J11.208 K0.000 F250.000
G3 X-11.691 Y91.187 Z-2.600 I-12.547 J8.104 K0.000 F250.000
G2 X-10.424 Y91.987 Z-2.600 I1.168 J-0.446 K0.000 F250.000
G2 X-9.311 Y91.646 Z-2.600 I-0.793 J-4.573 K0.000 F250.000
G2 X-0.354 Y87.925 Z-2.600 I-79.294 J-203.477 K0.000 F250.000
G3 X7.598 Y84.680 Z-2.600 I59.139 J133.576 K0.000 F250.000
G3 X14.931 Y82.829 Z-2.600 I13.653 J38.642 K0.000 F250.000
G3 X23.869 Y82.138 Z-2.600 I7.557 J39.573 K0.000 F250.000
G3 X32.606 Y83.074 Z-2.600 I-4.021 J78.760 K0.000 F250.000
G3 X43.933 Y87.482 Z-2.600 I-8.220 J37.879 K0.000 F250.000
G3 X56.164 Y96.891 Z-2.600 I-24.627 J44.667 K0.000 F250.000
G2 X58.661 Y99.623 Z-2.600 I87.103 J-77.122 K0.000 F250.000
G3 X62.462 Y104.790 Z-2.600 I-48.642 J39.764 K0.000 F250.000
G3 X66.827 Y112.901 Z-2.600 I-37.217 J25.253 K0.000 F250.000
G3 X68.815 Y118.076 Z-2.600 I-29.608 J14.349 K0.000 F250.000
G3 X70.782 Y125.878 Z-2.600 I-42.360 J14.825 K0.000 F250.000
G3 X71.946 Y131.645 Z-2.600 I-151.747 J33.620 K0.000 F250.000
G2 X73.672 Y139.160 Z-2.600 I61.752 J-10.231 K0.000 F250.000
G2 X74.845 Y141.539 Z-2.600 I6.463 J-1.707 K0.000 F250.000
G2 X77.391 Y143.153 Z-2.600 I3.239 J-2.296 K0.000 F250.000
G2 X81.465 Y141.748 Z-2.600 I0.626 J-4.794 K0.000 F250.000
G2 X83.482 Y138.998 Z-2.600 I-13.773 J-12.219 K0.000 F250.000
G1 X83.482 Y138.998 Z1.000 F100.000
G0 Z8.000
G0 Z10.000
(Finish operation: DressupPathBoundary)
(Begin postamble)
M5
G17 G90
M2
