(Exported by FreeCAD)
(Post Processor: grbl_post)
(Output Time:2022-11-26 16:31:42.602333)
(Begin preamble)
G17 G90
G21
(Begin operation: G54)
(Path: G54)
G54
G0 Z5.000
(Finish operation: G54)
(Begin operation: endmill-2_5mm005)
(Path: endmill-2_5mm005)
(endmill-2_5mm005)
(Begin toolchange)
( M6 T2 )
(Post processing added : Ramp up the spindle speed)
M3 S100
G4 P.25
M3 S200
G4 P.25
M3 S400
G4 P.25
M3 S600
G4 P.25
M3 S800
G4 P.25
M3 S1000
G4 P.25
M3 S2000
G4 P.25
M3 S4000
G4 P.25
M3 S6000
G4 P.25
M3 S10000
(End post processing)
(Finish operation: endmill-2_5mm005)
(Begin operation: Profile002)
(Path: Profile002)
(Profile002)
(Compensated Tool Path. Diameter: 2.5)
G0 Z10.000
G0 X-6.599 Y65.987
G0 Z8.000
G1 X-6.599 Y65.987 Z-1.000 F100.000
G2 X-6.510 Y53.988 Z-1.000 I-6.281 J-6.046 K0.000 F250.000
G2 X-12.030 Y51.533 Z-1.000 I-5.515 J4.966 K0.000 F250.000
G1 X-64.998 Y51.527 Z-1.000 F250.000
G2 X-69.536 Y53.058 Z-1.000 I0.079 J7.725 K0.000 F250.000
G2 X-70.526 Y65.872 Z-1.000 I5.379 J6.861 K0.000 F250.000
G2 X-65.007 Y68.326 Z-1.000 I5.515 J-4.966 K0.000 F250.000
G1 X-12.039 Y68.333 Z-1.000 F250.000
G2 X-7.501 Y66.802 Z-1.000 I-0.079 J-7.725 K0.000 F250.000
G2 X-6.599 Y65.987 Z-1.000 I-5.379 J-6.861 K0.000 F250.000
G0 Z10.000
G0 X-11.695 Y8.406 Z10.000
G0 X-11.695 Y8.406 Z8.000
G1 X-11.695 Y8.406 Z-1.000 F100.000
G2 X-7.759 Y6.905 Z-1.000 I-0.681 J-7.695 K0.000 F250.000
G2 X-6.769 Y-5.909 Z-1.000 I-5.379 J-6.861 K0.000 F250.000
G2 X-12.289 Y-8.364 Z-1.000 I-5.514 J4.966 K0.000 F250.000
G1 X-65.257 Y-8.370 Z-1.000 F250.000
G2 X-69.795 Y-6.839 Z-1.000 I0.079 J7.725 K0.000 F250.000
G2 X-70.785 Y5.975 Z-1.000 I5.379 J6.861 K0.000 F250.000
G2 X-65.265 Y8.430 Z-1.000 I5.514 J-4.966 K0.000 F250.000
G1 X-12.297 Y8.436 Z-1.000 F250.000
G2 X-11.695 Y8.406 Z-1.000 I-0.079 J-7.725 K0.000 F250.000
G1 X-11.695 Y8.406 Z-2.000 F100.000
G2 X-7.759 Y6.905 Z-2.000 I-0.681 J-7.695 K0.000 F250.000
G2 X-6.769 Y-5.909 Z-2.000 I-5.379 J-6.861 K0.000 F250.000
G2 X-12.289 Y-8.364 Z-2.000 I-5.514 J4.966 K0.000 F250.000
G1 X-65.257 Y-8.370 Z-2.000 F250.000
G2 X-69.795 Y-6.839 Z-2.000 I0.079 J7.725 K0.000 F250.000
G2 X-70.785 Y5.975 Z-2.000 I5.379 J6.861 K0.000 F250.000
G2 X-65.265 Y8.430 Z-2.000 I5.514 J-4.966 K0.000 F250.000
G1 X-12.297 Y8.436 Z-2.000 F250.000
G2 X-11.695 Y8.406 Z-2.000 I-0.079 J-7.725 K0.000 F250.000
G0 Z10.000
G0 X-11.977 Y51.533 Z10.000
G0 X-11.977 Y51.533 Z8.000
G1 X-11.977 Y51.533 Z-2.000 F100.000
G2 X-12.030 Y51.533 Z-2.000 I-0.048 J7.421 K0.000 F250.000
G1 X-64.998 Y51.527 Z-2.000 F250.000
G2 X-69.536 Y53.058 Z-2.000 I0.079 J7.725 K0.000 F250.000
G2 X-70.526 Y65.872 Z-2.000 I5.379 J6.861 K0.000 F250.000
G2 X-65.007 Y68.326 Z-2.000 I5.515 J-4.966 K0.000 F250.000
G1 X-12.039 Y68.333 Z-2.000 F250.000
G2 X-7.501 Y66.802 Z-2.000 I-0.079 J-7.725 K0.000 F250.000
G2 X-6.510 Y53.988 Z-2.000 I-5.379 J-6.861 K0.000 F250.000
G2 X-11.977 Y51.533 Z-2.000 I-5.515 J4.966 K0.000 F250.000
G1 X-11.977 Y51.533 Z-2.600 F100.000
G2 X-12.030 Y51.533 Z-2.600 I-0.048 J7.421 K0.000 F250.000
G1 X-64.998 Y51.527 Z-2.600 F250.000
G2 X-69.536 Y53.058 Z-2.600 I0.079 J7.725 K0.000 F250.000
G2 X-70.526 Y65.872 Z-2.600 I5.379 J6.861 K0.000 F250.000
G2 X-65.007 Y68.326 Z-2.600 I5.515 J-4.966 K0.000 F250.000
G1 X-12.039 Y68.333 Z-2.600 F250.000
G2 X-7.501 Y66.802 Z-2.600 I-0.079 J-7.725 K0.000 F250.000
G2 X-6.510 Y53.988 Z-2.600 I-5.379 J-6.861 K0.000 F250.000
G2 X-11.977 Y51.533 Z-2.600 I-5.515 J4.966 K0.000 F250.000
G0 Z10.000
G0 X-12.297 Y8.436 Z10.000
G0 X-12.297 Y8.436 Z8.000
G1 X-12.297 Y8.436 Z-2.600 F100.000
G2 X-7.759 Y6.905 Z-2.600 I-0.079 J-7.725 K0.000 F250.000
G2 X-6.769 Y-5.909 Z-2.600 I-5.379 J-6.861 K0.000 F250.000
G2 X-12.289 Y-8.364 Z-2.600 I-5.514 J4.966 K0.000 F250.000
G1 X-65.257 Y-8.370 Z-2.600 F250.000
G2 X-69.795 Y-6.839 Z-2.600 I0.079 J7.725 K0.000 F250.000
G2 X-70.785 Y5.975 Z-2.600 I5.379 J6.861 K0.000 F250.000
G2 X-65.265 Y8.430 Z-2.600 I5.514 J-4.966 K0.000 F250.000
G1 X-12.297 Y8.436 Z-2.600 F250.000
G0 Z10.000
G0 Z10.000
(Finish operation: Profile002)
(Begin postamble)
M5
G17 G90
M2
