(Exported by FreeCAD)
(Post Processor: grbl_post)
(Output Time:2022-11-26 16:34:30.070657)
(Begin preamble)
G17 G90
G21
(Begin operation: G54)
(Path: G54)
G54
G0 Z5.000
(Finish operation: G54)
(Begin operation: endmill-2_5mm005)
(Path: endmill-2_5mm005)
(endmill-2_5mm005)
(Begin toolchange)
( M6 T2 )
(Post processing added : Ramp up the spindle speed)
M3 S100
G4 P.25
M3 S200
G4 P.25
M3 S400
G4 P.25
M3 S600
G4 P.25
M3 S800
G4 P.25
M3 S1000
G4 P.25
M3 S2000
G4 P.25
M3 S4000
G4 P.25
M3 S6000
G4 P.25
M3 S10000
(End post processing)
(Finish operation: endmill-2_5mm005)
(Begin operation: Profile002)
(Path: Profile002)
(Profile002)
(Compensated Tool Path. Diameter: 2.5)
G0 Z10.000
G0 X57.375 Y-81.647
G0 Z8.000
G1 X57.375 Y-81.647 Z-1.000 F100.000
G2 X58.511 Y-83.609 Z-1.000 I-2.308 J-2.646 K0.000 F250.000
G2 X51.623 Y-84.976 Z-1.000 I-3.444 J-0.683 K0.000 F250.000
G2 X57.375 Y-81.647 Z-1.000 I3.444 J0.683 K0.000 F250.000
G0 Z10.000
G0 X84.721 Y-113.861 Z10.000
G0 X84.721 Y-113.861 Z8.000
G1 X84.721 Y-113.861 Z-1.000 F100.000
G2 X90.437 Y-115.855 Z-1.000 I2.272 J-2.677 K0.000 F250.000
G2 X83.549 Y-117.221 Z-1.000 I-3.444 J-0.683 K0.000 F250.000
G2 X84.721 Y-113.861 Z-1.000 I3.444 J0.683 K0.000 F250.000
G0 Z10.000
G0 X20.301 Y-60.822 Z10.000
G0 X20.301 Y-60.822 Z8.000
G1 X20.301 Y-60.822 Z-1.000 F100.000
G2 X14.146 Y-59.274 Z-1.000 I-2.711 J2.232 K0.000 F250.000
G2 X21.034 Y-57.908 Z-1.000 I3.444 J0.683 K0.000 F250.000
G2 X20.301 Y-60.822 Z-1.000 I-3.444 J-0.683 K0.000 F250.000
G0 Z10.000
G0 X-5.350 Y-61.313 Z10.000
G0 X-5.350 Y-61.313 Z8.000
G1 X-5.350 Y-61.313 Z-1.000 F100.000
G2 X-8.940 Y-68.509 Z-1.000 I-8.674 J-0.166 K0.000 F250.000
G2 X-14.755 Y-69.881 Z-1.000 I-4.472 J5.946 K0.000 F250.000
G1 X-66.852 Y-60.310 Z-1.000 F250.000
G2 X-71.038 Y-57.984 Z-1.000 I1.474 J7.583 K0.000 F250.000
G2 X-69.695 Y-45.202 Z-1.000 I6.530 J5.775 K0.000 F250.000
G2 X-63.823 Y-43.785 Z-1.000 I4.526 J-5.881 K0.000 F250.000
G1 X-11.726 Y-53.356 Z-1.000 F250.000
G2 X-8.034 Y-55.197 Z-1.000 I-1.475 J-7.585 K0.000 F250.000
G2 X-5.448 Y-60.168 Z-1.000 I-5.586 J-6.063 K0.000 F250.000
G2 X-5.350 Y-61.313 Z-1.000 I-8.576 J-1.311 K0.000 F250.000
G1 X-5.350 Y-61.313 Z-2.000 F100.000
G2 X-8.940 Y-68.509 Z-2.000 I-8.674 J-0.166 K0.000 F250.000
G2 X-14.755 Y-69.881 Z-2.000 I-4.472 J5.946 K0.000 F250.000
G1 X-66.852 Y-60.310 Z-2.000 F250.000
G2 X-71.038 Y-57.984 Z-2.000 I1.474 J7.583 K0.000 F250.000
G2 X-69.695 Y-45.202 Z-2.000 I6.530 J5.775 K0.000 F250.000
G2 X-63.823 Y-43.785 Z-2.000 I4.526 J-5.881 K0.000 F250.000
G1 X-11.726 Y-53.356 Z-2.000 F250.000
G2 X-8.034 Y-55.197 Z-2.000 I-1.475 J-7.585 K0.000 F250.000
G2 X-5.448 Y-60.168 Z-2.000 I-5.586 J-6.063 K0.000 F250.000
G2 X-5.350 Y-61.313 Z-2.000 I-8.576 J-1.311 K0.000 F250.000
G0 Z10.000
G0 X14.104 Y-59.005 Z10.000
G0 X14.104 Y-59.005 Z8.000
G1 X14.104 Y-59.005 Z-2.000 F100.000
G2 X21.034 Y-57.908 Z-2.000 I3.487 J0.414 K0.000 F250.000
G2 X14.146 Y-59.274 Z-2.000 I-3.444 J-0.683 K0.000 F250.000
G2 X14.104 Y-59.005 Z-2.000 I3.444 J0.683 K0.000 F250.000
G0 Z10.000
G0 X52.079 Y-82.448 Z10.000
G0 X52.079 Y-82.448 Z8.000
G1 X52.079 Y-82.448 Z-2.000 F100.000
G2 X58.511 Y-83.609 Z-2.000 I2.988 J-1.844 K0.000 F250.000
G2 X51.623 Y-84.976 Z-2.000 I-3.444 J-0.683 K0.000 F250.000
G2 X52.079 Y-82.448 Z-2.000 I3.444 J0.683 K0.000 F250.000
G0 Z10.000
G0 X84.481 Y-114.085 Z10.000
G0 X84.481 Y-114.085 Z8.000
G1 X84.481 Y-114.085 Z-2.000 F100.000
G2 X90.437 Y-115.855 Z-2.000 I2.512 J-2.453 K0.000 F250.000
G2 X83.549 Y-117.221 Z-2.000 I-3.444 J-0.683 K0.000 F250.000
G2 X84.481 Y-114.085 Z-2.000 I3.444 J0.683 K0.000 F250.000
G1 X84.481 Y-114.085 Z-2.600 F100.000
G2 X90.437 Y-115.855 Z-2.600 I2.512 J-2.453 K0.000 F250.000
G2 X83.549 Y-117.221 Z-2.600 I-3.444 J-0.683 K0.000 F250.000
G2 X84.481 Y-114.085 Z-2.600 I3.444 J0.683 K0.000 F250.000
G0 Z10.000
G0 X57.534 Y-86.791 Z10.000
G0 X57.534 Y-86.791 Z8.000
G1 X57.534 Y-86.791 Z-2.600 F100.000
G2 X51.623 Y-84.976 Z-2.600 I-2.467 J2.498 K0.000 F250.000
G2 X58.511 Y-83.609 Z-2.600 I3.444 J0.683 K0.000 F250.000
G2 X57.534 Y-86.791 Z-2.600 I-3.444 J-0.683 K0.000 F250.000
G0 Z10.000
G0 X20.458 Y-60.616 Z10.000
G0 X20.458 Y-60.616 Z8.000
G1 X20.458 Y-60.616 Z-2.600 F100.000
G2 X14.146 Y-59.274 Z-2.600 I-2.868 J2.025 K0.000 F250.000
G2 X21.034 Y-57.908 Z-2.600 I3.444 J0.683 K0.000 F250.000
G2 X20.458 Y-60.616 Z-2.600 I-3.444 J-0.683 K0.000 F250.000
G0 Z10.000
G0 X-5.351 Y-61.262 Z10.000
G0 X-5.351 Y-61.262 Z8.000
G1 X-5.351 Y-61.262 Z-2.600 F100.000
G2 X-8.940 Y-68.509 Z-2.600 I-8.673 J-0.217 K0.000 F250.000
G2 X-14.755 Y-69.881 Z-2.600 I-4.472 J5.946 K0.000 F250.000
G1 X-66.852 Y-60.310 Z-2.600 F250.000
G2 X-71.038 Y-57.984 Z-2.600 I1.474 J7.583 K0.000 F250.000
G2 X-69.695 Y-45.202 Z-2.600 I6.530 J5.775 K0.000 F250.000
G2 X-63.823 Y-43.785 Z-2.600 I4.526 J-5.881 K0.000 F250.000
G1 X-11.726 Y-53.356 Z-2.600 F250.000
G2 X-8.034 Y-55.197 Z-2.600 I-1.475 J-7.585 K0.000 F250.000
G2 X-5.448 Y-60.168 Z-2.600 I-5.586 J-6.063 K0.000 F250.000
G2 X-5.351 Y-61.262 Z-2.600 I-8.576 J-1.311 K0.000 F250.000
G0 Z10.000
G0 Z10.000
(Finish operation: Profile002)
(Begin postamble)
M5
G17 G90
M2
