(Exported by FreeCAD)
(Post Processor: grbl_post)
(Output Time:2022-11-13 14:17:11.516294)
(Begin preamble)
G17 G90
G21
(Begin operation: G54)
(Path: G54)
G54
G0 Z5.000
(Finish operation: G54)
(Begin operation: endmill-2_5mm001)
(Path: endmill-2_5mm001)
(endmill-2_5mm001)
(Begin toolchange)
( M6 T2 )
M3 S10000
(Finish operation: endmill-2_5mm001)
(Begin operation: Chamfer-L)
(Path: Chamfer-L)
(Profile004)
(Uncompensated Tool Path)
G0 Z8.000
G0 Z10.000
G0 X-65.952 Y113.879
G0 Z8.000
G1 Z-0.500 F100.000
G2 X-69.754 Y115.820 Z-0.500 I106.670 J213.536 K0.000 F250.000
G3 X-74.972 Y118.061 Z-0.500 I-23.433 J-47.383 K0.000 F250.000
G3 X-80.082 Y119.984 Z-0.500 I-19.182 J-43.210 K0.000 F250.000
G3 X-85.793 Y120.151 Z-0.500 I-3.234 J-12.832 K0.000 F250.000
G3 X-90.178 Y117.577 Z-0.500 I1.598 J-7.746 K0.000 F250.000
G3 X-92.123 Y114.046 Z-0.500 I5.528 J-5.345 K0.000 F250.000
G3 X-92.434 Y108.623 Z-0.500 I23.361 J-4.062 K0.000 F250.000
G3 X-91.137 Y102.337 Z-0.500 I49.070 J6.853 K0.000 F250.000
G2 X-89.752 Y95.846 Z-0.500 I-143.874 J-34.089 K0.000 F250.000
G2 X-88.358 Y89.218 Z-0.500 I-146.647 J-34.306 K0.000 F250.000
G2 X-87.178 Y81.389 Z-0.500 I-560.663 J-88.503 K0.000 F250.000
G2 X-86.514 Y74.263 Z-0.500 I-109.744 J-13.816 K0.000 F250.000
G2 X-85.963 Y63.734 Z-0.500 I-149.341 J-13.095 K0.000 F250.000
G2 X-87.916 Y39.213 Z-0.500 I-172.859 J1.433 K0.000 F250.000
G2 X-89.329 Y32.069 Z-0.500 I-189.275 J33.720 K0.000 F250.000
G2 X-90.960 Y25.451 Z-0.500 I-60.001 J11.276 K0.000 F250.000
G2 X-93.249 Y17.358 Z-0.500 I-119.594 J29.448 K0.000 F250.000
G3 X-95.766 Y10.019 Z-0.500 I116.489 J-44.052 K0.000 F250.000
G2 X-99.541 Y0.972 Z-0.500 I-106.719 J39.220 K0.000 F250.000
G2 X-101.944 Y-4.939 Z-0.500 I-178.233 J69.030 K0.000 F250.000
G2 X-102.486 Y-6.343 Z-0.500 I-283.876 J108.698 K0.000 F250.000
G0 Z8.000
G0 Z10.000
G0 X-65.952 Y113.879
G0 Z8.000
G1 Z-1.000 F100.000
G2 X-69.754 Y115.820 Z-1.000 I106.670 J213.536 K0.000 F250.000
G3 X-74.972 Y118.061 Z-1.000 I-23.433 J-47.383 K0.000 F250.000
G3 X-80.082 Y119.984 Z-1.000 I-19.182 J-43.210 K0.000 F250.000
G3 X-85.793 Y120.151 Z-1.000 I-3.234 J-12.832 K0.000 F250.000
G3 X-90.178 Y117.577 Z-1.000 I1.598 J-7.746 K0.000 F250.000
G3 X-92.123 Y114.046 Z-1.000 I5.528 J-5.345 K0.000 F250.000
G3 X-92.434 Y108.623 Z-1.000 I23.361 J-4.062 K0.000 F250.000
G3 X-91.137 Y102.337 Z-1.000 I49.070 J6.853 K0.000 F250.000
G2 X-89.752 Y95.846 Z-1.000 I-143.874 J-34.089 K0.000 F250.000
G2 X-88.358 Y89.218 Z-1.000 I-146.647 J-34.306 K0.000 F250.000
G2 X-87.178 Y81.389 Z-1.000 I-560.663 J-88.503 K0.000 F250.000
G2 X-86.514 Y74.263 Z-1.000 I-109.744 J-13.816 K0.000 F250.000
G2 X-85.963 Y63.734 Z-1.000 I-149.341 J-13.095 K0.000 F250.000
G2 X-87.916 Y39.213 Z-1.000 I-172.859 J1.433 K0.000 F250.000
G2 X-89.329 Y32.069 Z-1.000 I-189.275 J33.720 K0.000 F250.000
G2 X-90.960 Y25.451 Z-1.000 I-60.001 J11.276 K0.000 F250.000
G2 X-93.249 Y17.358 Z-1.000 I-119.594 J29.448 K0.000 F250.000
G3 X-95.766 Y10.019 Z-1.000 I116.489 J-44.052 K0.000 F250.000
G2 X-99.541 Y0.972 Z-1.000 I-106.719 J39.220 K0.000 F250.000
G2 X-101.944 Y-4.939 Z-1.000 I-178.233 J69.030 K0.000 F250.000
G2 X-102.486 Y-6.343 Z-1.000 I-283.876 J108.698 K0.000 F250.000
G0 Z8.000
G0 Z10.000
G0 X-65.952 Y113.879
G0 Z8.000
G1 Z-1.500 F100.000
G2 X-69.754 Y115.820 Z-1.500 I106.670 J213.536 K0.000 F250.000
G3 X-74.972 Y118.061 Z-1.500 I-23.433 J-47.383 K0.000 F250.000
G3 X-80.082 Y119.984 Z-1.500 I-19.182 J-43.210 K0.000 F250.000
G3 X-85.793 Y120.151 Z-1.500 I-3.234 J-12.832 K0.000 F250.000
G3 X-90.178 Y117.577 Z-1.500 I1.598 J-7.746 K0.000 F250.000
G3 X-92.123 Y114.046 Z-1.500 I5.528 J-5.345 K0.000 F250.000
G3 X-92.434 Y108.623 Z-1.500 I23.361 J-4.062 K0.000 F250.000
G3 X-91.137 Y102.337 Z-1.500 I49.070 J6.853 K0.000 F250.000
G2 X-89.752 Y95.846 Z-1.500 I-143.874 J-34.089 K0.000 F250.000
G2 X-88.358 Y89.218 Z-1.500 I-146.647 J-34.306 K0.000 F250.000
G2 X-87.178 Y81.389 Z-1.500 I-560.663 J-88.503 K0.000 F250.000
G2 X-86.514 Y74.263 Z-1.500 I-109.744 J-13.816 K0.000 F250.000
G2 X-85.963 Y63.734 Z-1.500 I-149.341 J-13.095 K0.000 F250.000
G2 X-87.916 Y39.213 Z-1.500 I-172.859 J1.433 K0.000 F250.000
G2 X-89.329 Y32.069 Z-1.500 I-189.275 J33.720 K0.000 F250.000
G2 X-90.960 Y25.451 Z-1.500 I-60.001 J11.276 K0.000 F250.000
G2 X-93.249 Y17.358 Z-1.500 I-119.594 J29.448 K0.000 F250.000
G3 X-95.766 Y10.019 Z-1.500 I116.489 J-44.052 K0.000 F250.000
G2 X-99.541 Y0.972 Z-1.500 I-106.719 J39.220 K0.000 F250.000
G2 X-101.944 Y-4.939 Z-1.500 I-178.233 J69.030 K0.000 F250.000
G2 X-102.486 Y-6.343 Z-1.500 I-283.876 J108.698 K0.000 F250.000
G0 Z8.000
G0 Z10.000
G0 X-65.952 Y113.879
G0 Z8.000
G1 Z-2.000 F100.000
G2 X-69.754 Y115.820 Z-2.000 I106.670 J213.536 K0.000 F250.000
G3 X-74.972 Y118.061 Z-2.000 I-23.433 J-47.383 K0.000 F250.000
G3 X-80.082 Y119.984 Z-2.000 I-19.182 J-43.210 K0.000 F250.000
G3 X-85.793 Y120.151 Z-2.000 I-3.234 J-12.832 K0.000 F250.000
G3 X-90.178 Y117.577 Z-2.000 I1.598 J-7.746 K0.000 F250.000
G3 X-92.123 Y114.046 Z-2.000 I5.528 J-5.345 K0.000 F250.000
G3 X-92.434 Y108.623 Z-2.000 I23.361 J-4.062 K0.000 F250.000
G3 X-91.137 Y102.337 Z-2.000 I49.070 J6.853 K0.000 F250.000
G2 X-89.752 Y95.846 Z-2.000 I-143.874 J-34.089 K0.000 F250.000
G2 X-88.358 Y89.218 Z-2.000 I-146.647 J-34.306 K0.000 F250.000
G2 X-87.178 Y81.389 Z-2.000 I-560.663 J-88.503 K0.000 F250.000
G2 X-86.514 Y74.263 Z-2.000 I-109.744 J-13.816 K0.000 F250.000
G2 X-85.963 Y63.734 Z-2.000 I-149.341 J-13.095 K0.000 F250.000
G2 X-87.916 Y39.213 Z-2.000 I-172.859 J1.433 K0.000 F250.000
G2 X-89.329 Y32.069 Z-2.000 I-189.275 J33.720 K0.000 F250.000
G2 X-90.960 Y25.451 Z-2.000 I-60.001 J11.276 K0.000 F250.000
G2 X-93.249 Y17.358 Z-2.000 I-119.594 J29.448 K0.000 F250.000
G3 X-95.766 Y10.019 Z-2.000 I116.489 J-44.052 K0.000 F250.000
G2 X-99.541 Y0.972 Z-2.000 I-106.719 J39.220 K0.000 F250.000
G2 X-101.944 Y-4.939 Z-2.000 I-178.233 J69.030 K0.000 F250.000
G2 X-102.486 Y-6.343 Z-2.000 I-283.876 J108.698 K0.000 F250.000
G0 Z8.000
G0 Z10.000
G0 X-65.952 Y113.879
G0 Z8.000
G1 Z-2.200 F100.000
G2 X-69.754 Y115.820 Z-2.200 I106.670 J213.536 K0.000 F250.000
G3 X-74.972 Y118.061 Z-2.200 I-23.433 J-47.383 K0.000 F250.000
G3 X-80.082 Y119.984 Z-2.200 I-19.182 J-43.210 K0.000 F250.000
G3 X-85.793 Y120.151 Z-2.200 I-3.234 J-12.832 K0.000 F250.000
G3 X-90.178 Y117.577 Z-2.200 I1.598 J-7.746 K0.000 F250.000
G3 X-92.123 Y114.046 Z-2.200 I5.528 J-5.345 K0.000 F250.000
G3 X-92.434 Y108.623 Z-2.200 I23.361 J-4.062 K0.000 F250.000
G3 X-91.137 Y102.337 Z-2.200 I49.070 J6.853 K0.000 F250.000
G2 X-89.752 Y95.846 Z-2.200 I-143.874 J-34.089 K0.000 F250.000
G2 X-88.358 Y89.218 Z-2.200 I-146.647 J-34.306 K0.000 F250.000
G2 X-87.178 Y81.389 Z-2.200 I-560.663 J-88.503 K0.000 F250.000
G2 X-86.514 Y74.263 Z-2.200 I-109.744 J-13.816 K0.000 F250.000
G2 X-85.963 Y63.734 Z-2.200 I-149.341 J-13.095 K0.000 F250.000
G2 X-87.916 Y39.213 Z-2.200 I-172.859 J1.433 K0.000 F250.000
G2 X-89.329 Y32.069 Z-2.200 I-189.275 J33.720 K0.000 F250.000
G2 X-90.960 Y25.451 Z-2.200 I-60.001 J11.276 K0.000 F250.000
G2 X-93.249 Y17.358 Z-2.200 I-119.594 J29.448 K0.000 F250.000
G3 X-95.766 Y10.019 Z-2.200 I116.489 J-44.052 K0.000 F250.000
G2 X-99.541 Y0.972 Z-2.200 I-106.719 J39.220 K0.000 F250.000
G2 X-101.944 Y-4.939 Z-2.200 I-178.233 J69.030 K0.000 F250.000
G2 X-102.486 Y-6.343 Z-2.200 I-283.876 J108.698 K0.000 F250.000
G0 Z8.000
G0 Z10.000
(Finish operation: Chamfer-L)
(Begin operation: Chamfer-R001)
(Path: Chamfer-R001)
(Chamfer-R)
(Uncompensated Tool Path)
G0 Z8.000
G0 Z10.000
G0 X82.613 Y138.200
G0 Z8.000
G1 Z1.000 F100.000
G1 X82.613 Y138.200 Z-0.500 F100.000
G3 X82.290 Y138.747 Z-0.500 I-20.588 J-11.787 K0.000 F250.000
G3 X80.713 Y140.891 Z-0.500 I-11.701 J-6.958 K0.000 F250.000
G3 X77.661 Y142.035 Z-0.500 I-2.709 J-2.585 K0.000 F250.000
G3 X75.795 Y140.878 Z-0.500 I0.430 J-2.775 K0.000 F250.000
G3 X74.792 Y138.855 Z-0.500 I4.332 J-3.409 K0.000 F250.000
G3 X73.089 Y131.443 Z-0.500 I58.975 J-17.449 K0.000 F250.000
G2 X71.926 Y125.681 Z-0.500 I-149.525 J27.179 K0.000 F250.000
G2 X69.925 Y117.735 Z-0.500 I-45.286 J7.182 K0.000 F250.000
G2 X67.895 Y112.449 Z-0.500 I-32.477 J9.440 K0.000 F250.000
G2 X63.434 Y104.159 Z-0.500 I-42.627 J17.591 K0.000 F250.000
G2 X59.546 Y98.875 Z-0.500 I-53.661 J35.415 K0.000 F250.000
G3 X57.013 Y96.105 Z-0.500 I86.718 J-81.830 K0.000 F250.000
G2 X44.504 Y86.480 Z-0.500 I-37.692 J36.047 K0.000 F250.000
G2 X32.836 Y81.947 Z-0.500 I-20.108 J34.472 K0.000 F250.000
G2 X23.922 Y80.991 Z-0.500 I-12.998 J79.171 K0.000 F250.000
G2 X14.736 Y81.701 Z-0.500 I-1.420 J41.438 K0.000 F250.000
G2 X7.221 Y83.601 Z-0.500 I6.511 J41.563 K0.000 F250.000
G2 X-0.793 Y86.869 Z-0.500 I51.116 J136.784 K0.000 F250.000
G3 X-9.830 Y90.631 Z-0.500 I-100.222 J-228.057 K0.000 F250.000
G1 X-10.690 Y90.924 Z-0.500 F250.000
G3 X-10.722 Y90.930 Z-0.500 I-0.032 J-0.095 K0.000 F250.000
G0 Z8.000
G0 Z10.000
G0 X65.949 Y-6.343
G0 Z8.000
G1 Z-0.500 F100.000
G2 X65.459 Y-3.811 Z-0.500 I45.759 J10.169 K0.000 F250.000
G2 X64.406 Y1.663 Z-0.500 I55.321 J13.476 K0.000 F250.000
G2 X63.588 Y10.500 Z-0.500 I48.203 J8.918 K0.000 F250.000
G1 X63.562 Y11.230 Z-0.500 F250.000
G2 X64.497 Y24.000 Z-0.500 I86.746 J0.067 K0.000 F250.000
G3 X65.351 Y28.881 Z-0.500 I-23559.728 J4126.876 K0.000 F250.000
G2 X67.476 Y37.371 Z-0.500 I88.701 J-17.685 K0.000 F250.000
G3 X68.427 Y40.543 Z-0.500 I-51.476 J17.175 K0.000 F250.000
G2 X69.284 Y42.905 Z-0.500 I20.335 J-6.039 K0.000 F250.000
G2 X72.689 Y51.709 Z-0.500 I345.409 J-128.515 K0.000 F250.000
G3 X75.577 Y58.292 Z-0.500 I-814.462 J361.283 K0.000 F250.000
G3 X78.776 Y65.870 Z-0.500 I-238.952 J105.336 K0.000 F250.000
G2 X80.307 Y69.684 Z-0.500 I72.058 J-26.708 K0.000 F250.000
G3 X86.400 Y88.551 Z-0.500 I-161.448 J62.555 K0.000 F250.000
G2 X87.261 Y92.206 Z-0.500 I102.753 J-22.281 K0.000 F250.000
G3 X89.132 Y104.571 Z-0.500 I-132.581 J26.386 K0.000 F250.000
G3 X89.339 Y108.806 Z-0.500 I-496.581 J26.422 K0.000 F250.000
G3 X88.475 Y120.337 Z-0.500 I-77.747 J-0.029 K0.000 F250.000
G3 X86.730 Y128.128 Z-0.500 I-35.484 J-3.858 K0.000 F250.000
G3 X84.077 Y135.161 Z-0.500 I-38.018 J-10.324 K0.000 F250.000
G3 X82.613 Y138.200 Z-0.500 I-22.051 J-8.748 K0.000 F250.000
G1 X82.613 Y138.200 Z-1.000 F100.000
G3 X82.290 Y138.747 Z-1.000 I-20.588 J-11.787 K0.000 F250.000
G3 X80.713 Y140.891 Z-1.000 I-11.701 J-6.958 K0.000 F250.000
G3 X77.661 Y142.035 Z-1.000 I-2.709 J-2.585 K0.000 F250.000
G3 X75.795 Y140.878 Z-1.000 I0.430 J-2.775 K0.000 F250.000
G3 X74.792 Y138.855 Z-1.000 I4.332 J-3.409 K0.000 F250.000
G3 X73.089 Y131.443 Z-1.000 I58.975 J-17.449 K0.000 F250.000
G2 X71.926 Y125.681 Z-1.000 I-149.525 J27.179 K0.000 F250.000
G2 X69.925 Y117.735 Z-1.000 I-45.286 J7.182 K0.000 F250.000
G2 X67.895 Y112.449 Z-1.000 I-32.477 J9.440 K0.000 F250.000
G2 X63.434 Y104.159 Z-1.000 I-42.627 J17.591 K0.000 F250.000
G2 X59.546 Y98.875 Z-1.000 I-53.661 J35.415 K0.000 F250.000
G3 X57.013 Y96.105 Z-1.000 I86.718 J-81.830 K0.000 F250.000
G2 X44.504 Y86.480 Z-1.000 I-37.692 J36.047 K0.000 F250.000
G2 X32.836 Y81.947 Z-1.000 I-20.108 J34.472 K0.000 F250.000
G2 X23.922 Y80.991 Z-1.000 I-12.998 J79.171 K0.000 F250.000
G2 X14.736 Y81.701 Z-1.000 I-1.420 J41.438 K0.000 F250.000
G2 X7.221 Y83.601 Z-1.000 I6.511 J41.563 K0.000 F250.000
G2 X-0.793 Y86.869 Z-1.000 I51.116 J136.784 K0.000 F250.000
G3 X-9.830 Y90.631 Z-1.000 I-100.222 J-228.057 K0.000 F250.000
G1 X-10.690 Y90.924 Z-1.000 F250.000
G3 X-10.722 Y90.930 Z-1.000 I-0.032 J-0.095 K0.000 F250.000
G0 Z8.000
G0 Z10.000
G0 X65.949 Y-6.343
G0 Z8.000
G1 Z-1.000 F100.000
G2 X65.459 Y-3.811 Z-1.000 I45.759 J10.169 K0.000 F250.000
G2 X64.406 Y1.663 Z-1.000 I55.321 J13.476 K0.000 F250.000
G2 X63.588 Y10.500 Z-1.000 I48.203 J8.918 K0.000 F250.000
G1 X63.562 Y11.230 Z-1.000 F250.000
G2 X64.497 Y24.000 Z-1.000 I86.746 J0.067 K0.000 F250.000
G3 X65.351 Y28.881 Z-1.000 I-23559.728 J4126.876 K0.000 F250.000
G2 X67.476 Y37.371 Z-1.000 I88.701 J-17.685 K0.000 F250.000
G3 X68.427 Y40.543 Z-1.000 I-51.476 J17.175 K0.000 F250.000
G2 X69.284 Y42.905 Z-1.000 I20.335 J-6.039 K0.000 F250.000
G2 X72.689 Y51.709 Z-1.000 I345.409 J-128.515 K0.000 F250.000
G3 X75.577 Y58.292 Z-1.000 I-814.462 J361.283 K0.000 F250.000
G3 X78.776 Y65.870 Z-1.000 I-238.952 J105.336 K0.000 F250.000
G2 X80.307 Y69.684 Z-1.000 I72.058 J-26.708 K0.000 F250.000
G3 X86.400 Y88.551 Z-1.000 I-161.448 J62.555 K0.000 F250.000
G2 X87.261 Y92.206 Z-1.000 I102.753 J-22.281 K0.000 F250.000
G3 X89.132 Y104.571 Z-1.000 I-132.581 J26.386 K0.000 F250.000
G3 X89.339 Y108.806 Z-1.000 I-496.581 J26.422 K0.000 F250.000
G3 X88.475 Y120.337 Z-1.000 I-77.747 J-0.029 K0.000 F250.000
G3 X86.730 Y128.128 Z-1.000 I-35.484 J-3.858 K0.000 F250.000
G3 X84.077 Y135.161 Z-1.000 I-38.018 J-10.324 K0.000 F250.000
G3 X82.613 Y138.200 Z-1.000 I-22.051 J-8.748 K0.000 F250.000
G1 X82.613 Y138.200 Z-1.500 F100.000
G3 X82.290 Y138.747 Z-1.500 I-20.588 J-11.787 K0.000 F250.000
G3 X80.713 Y140.891 Z-1.500 I-11.701 J-6.958 K0.000 F250.000
G3 X77.661 Y142.035 Z-1.500 I-2.709 J-2.585 K0.000 F250.000
G3 X75.795 Y140.878 Z-1.500 I0.430 J-2.775 K0.000 F250.000
G3 X74.792 Y138.855 Z-1.500 I4.332 J-3.409 K0.000 F250.000
G3 X73.089 Y131.443 Z-1.500 I58.975 J-17.449 K0.000 F250.000
G2 X71.926 Y125.681 Z-1.500 I-149.525 J27.179 K0.000 F250.000
G2 X69.925 Y117.735 Z-1.500 I-45.286 J7.182 K0.000 F250.000
G2 X67.895 Y112.449 Z-1.500 I-32.477 J9.440 K0.000 F250.000
G2 X63.434 Y104.159 Z-1.500 I-42.627 J17.591 K0.000 F250.000
G2 X59.546 Y98.875 Z-1.500 I-53.661 J35.415 K0.000 F250.000
G3 X57.013 Y96.105 Z-1.500 I86.718 J-81.830 K0.000 F250.000
G2 X44.504 Y86.480 Z-1.500 I-37.692 J36.047 K0.000 F250.000
G2 X32.836 Y81.947 Z-1.500 I-20.108 J34.472 K0.000 F250.000
G2 X23.922 Y80.991 Z-1.500 I-12.998 J79.171 K0.000 F250.000
G2 X14.736 Y81.701 Z-1.500 I-1.420 J41.438 K0.000 F250.000
G2 X7.221 Y83.601 Z-1.500 I6.511 J41.563 K0.000 F250.000
G2 X-0.793 Y86.869 Z-1.500 I51.116 J136.784 K0.000 F250.000
G3 X-9.830 Y90.631 Z-1.500 I-100.222 J-228.057 K0.000 F250.000
G1 X-10.690 Y90.924 Z-1.500 F250.000
G3 X-10.722 Y90.930 Z-1.500 I-0.032 J-0.095 K0.000 F250.000
G0 Z8.000
G0 Z10.000
G0 X65.949 Y-6.343
G0 Z8.000
G1 Z-1.500 F100.000
G2 X65.459 Y-3.811 Z-1.500 I45.759 J10.169 K0.000 F250.000
G2 X64.406 Y1.663 Z-1.500 I55.321 J13.476 K0.000 F250.000
G2 X63.588 Y10.500 Z-1.500 I48.203 J8.918 K0.000 F250.000
G1 X63.562 Y11.230 Z-1.500 F250.000
G2 X64.497 Y24.000 Z-1.500 I86.746 J0.067 K0.000 F250.000
G3 X65.351 Y28.881 Z-1.500 I-23559.728 J4126.876 K0.000 F250.000
G2 X67.476 Y37.371 Z-1.500 I88.701 J-17.685 K0.000 F250.000
G3 X68.427 Y40.543 Z-1.500 I-51.476 J17.175 K0.000 F250.000
G2 X69.284 Y42.905 Z-1.500 I20.335 J-6.039 K0.000 F250.000
G2 X72.689 Y51.709 Z-1.500 I345.409 J-128.515 K0.000 F250.000
G3 X75.577 Y58.292 Z-1.500 I-814.462 J361.283 K0.000 F250.000
G3 X78.776 Y65.870 Z-1.500 I-238.952 J105.336 K0.000 F250.000
G2 X80.307 Y69.684 Z-1.500 I72.058 J-26.708 K0.000 F250.000
G3 X86.400 Y88.551 Z-1.500 I-161.448 J62.555 K0.000 F250.000
G2 X87.261 Y92.206 Z-1.500 I102.753 J-22.281 K0.000 F250.000
G3 X89.132 Y104.571 Z-1.500 I-132.581 J26.386 K0.000 F250.000
G3 X89.339 Y108.806 Z-1.500 I-496.581 J26.422 K0.000 F250.000
G3 X88.475 Y120.337 Z-1.500 I-77.747 J-0.029 K0.000 F250.000
G3 X86.730 Y128.128 Z-1.500 I-35.484 J-3.858 K0.000 F250.000
G3 X84.077 Y135.161 Z-1.500 I-38.018 J-10.324 K0.000 F250.000
G3 X82.613 Y138.200 Z-1.500 I-22.051 J-8.748 K0.000 F250.000
G1 X82.613 Y138.200 Z-2.000 F100.000
G3 X82.290 Y138.747 Z-2.000 I-20.588 J-11.787 K0.000 F250.000
G3 X80.713 Y140.891 Z-2.000 I-11.701 J-6.958 K0.000 F250.000
G3 X77.661 Y142.035 Z-2.000 I-2.709 J-2.585 K0.000 F250.000
G3 X75.795 Y140.878 Z-2.000 I0.430 J-2.775 K0.000 F250.000
G3 X74.792 Y138.855 Z-2.000 I4.332 J-3.409 K0.000 F250.000
G3 X73.089 Y131.443 Z-2.000 I58.975 J-17.449 K0.000 F250.000
G2 X71.926 Y125.681 Z-2.000 I-149.525 J27.179 K0.000 F250.000
G2 X69.925 Y117.735 Z-2.000 I-45.286 J7.182 K0.000 F250.000
G2 X67.895 Y112.449 Z-2.000 I-32.477 J9.440 K0.000 F250.000
G2 X63.434 Y104.159 Z-2.000 I-42.627 J17.591 K0.000 F250.000
G2 X59.546 Y98.875 Z-2.000 I-53.661 J35.415 K0.000 F250.000
G3 X57.013 Y96.105 Z-2.000 I86.718 J-81.830 K0.000 F250.000
G2 X44.504 Y86.480 Z-2.000 I-37.692 J36.047 K0.000 F250.000
G2 X32.836 Y81.947 Z-2.000 I-20.108 J34.472 K0.000 F250.000
G2 X23.922 Y80.991 Z-2.000 I-12.998 J79.171 K0.000 F250.000
G2 X14.736 Y81.701 Z-2.000 I-1.420 J41.438 K0.000 F250.000
G2 X7.221 Y83.601 Z-2.000 I6.511 J41.563 K0.000 F250.000
G2 X-0.793 Y86.869 Z-2.000 I51.116 J136.784 K0.000 F250.000
G3 X-9.830 Y90.631 Z-2.000 I-100.222 J-228.057 K0.000 F250.000
G1 X-10.690 Y90.924 Z-2.000 F250.000
G3 X-10.722 Y90.930 Z-2.000 I-0.032 J-0.095 K0.000 F250.000
G0 Z8.000
G0 Z10.000
G0 X65.949 Y-6.343
G0 Z8.000
G1 Z-2.000 F100.000
G2 X65.459 Y-3.811 Z-2.000 I45.759 J10.169 K0.000 F250.000
G2 X64.406 Y1.663 Z-2.000 I55.321 J13.476 K0.000 F250.000
G2 X63.588 Y10.500 Z-2.000 I48.203 J8.918 K0.000 F250.000
G1 X63.562 Y11.230 Z-2.000 F250.000
G2 X64.497 Y24.000 Z-2.000 I86.746 J0.067 K0.000 F250.000
G3 X65.351 Y28.881 Z-2.000 I-23559.728 J4126.876 K0.000 F250.000
G2 X67.476 Y37.371 Z-2.000 I88.701 J-17.685 K0.000 F250.000
G3 X68.427 Y40.543 Z-2.000 I-51.476 J17.175 K0.000 F250.000
G2 X69.284 Y42.905 Z-2.000 I20.335 J-6.039 K0.000 F250.000
G2 X72.689 Y51.709 Z-2.000 I345.409 J-128.515 K0.000 F250.000
G3 X75.577 Y58.292 Z-2.000 I-814.462 J361.283 K0.000 F250.000
G3 X78.776 Y65.870 Z-2.000 I-238.952 J105.336 K0.000 F250.000
G2 X80.307 Y69.684 Z-2.000 I72.058 J-26.708 K0.000 F250.000
G3 X86.400 Y88.551 Z-2.000 I-161.448 J62.555 K0.000 F250.000
G2 X87.261 Y92.206 Z-2.000 I102.753 J-22.281 K0.000 F250.000
G3 X89.132 Y104.571 Z-2.000 I-132.581 J26.386 K0.000 F250.000
G3 X89.339 Y108.806 Z-2.000 I-496.581 J26.422 K0.000 F250.000
G3 X88.475 Y120.337 Z-2.000 I-77.747 J-0.029 K0.000 F250.000
G3 X86.730 Y128.128 Z-2.000 I-35.484 J-3.858 K0.000 F250.000
G3 X84.077 Y135.161 Z-2.000 I-38.018 J-10.324 K0.000 F250.000
G3 X82.613 Y138.200 Z-2.000 I-22.051 J-8.748 K0.000 F250.000
G1 X82.613 Y138.200 Z-2.200 F100.000
G3 X82.290 Y138.747 Z-2.200 I-20.588 J-11.787 K0.000 F250.000
G3 X80.713 Y140.891 Z-2.200 I-11.701 J-6.958 K0.000 F250.000
G3 X77.661 Y142.035 Z-2.200 I-2.709 J-2.585 K0.000 F250.000
G3 X75.795 Y140.878 Z-2.200 I0.430 J-2.775 K0.000 F250.000
G3 X74.792 Y138.855 Z-2.200 I4.332 J-3.409 K0.000 F250.000
G3 X73.089 Y131.443 Z-2.200 I58.975 J-17.449 K0.000 F250.000
G2 X71.926 Y125.681 Z-2.200 I-149.525 J27.179 K0.000 F250.000
G2 X69.925 Y117.735 Z-2.200 I-45.286 J7.182 K0.000 F250.000
G2 X67.895 Y112.449 Z-2.200 I-32.477 J9.440 K0.000 F250.000
G2 X63.434 Y104.159 Z-2.200 I-42.627 J17.591 K0.000 F250.000
G2 X59.546 Y98.875 Z-2.200 I-53.661 J35.415 K0.000 F250.000
G3 X57.013 Y96.105 Z-2.200 I86.718 J-81.830 K0.000 F250.000
G2 X44.504 Y86.480 Z-2.200 I-37.692 J36.047 K0.000 F250.000
G2 X32.836 Y81.947 Z-2.200 I-20.108 J34.472 K0.000 F250.000
G2 X23.922 Y80.991 Z-2.200 I-12.998 J79.171 K0.000 F250.000
G2 X14.736 Y81.701 Z-2.200 I-1.420 J41.438 K0.000 F250.000
G2 X7.221 Y83.601 Z-2.200 I6.511 J41.563 K0.000 F250.000
G2 X-0.793 Y86.869 Z-2.200 I51.116 J136.784 K0.000 F250.000
G3 X-9.830 Y90.631 Z-2.200 I-100.222 J-228.057 K0.000 F250.000
G1 X-10.690 Y90.924 Z-2.200 F250.000
G3 X-10.722 Y90.930 Z-2.200 I-0.032 J-0.095 K0.000 F250.000
G0 Z8.000
G0 Z10.000
G0 X65.949 Y-6.343
G0 Z8.000
G1 Z-2.200 F100.000
G2 X65.459 Y-3.811 Z-2.200 I45.759 J10.169 K0.000 F250.000
G2 X64.406 Y1.663 Z-2.200 I55.321 J13.476 K0.000 F250.000
G2 X63.588 Y10.500 Z-2.200 I48.203 J8.918 K0.000 F250.000
G1 X63.562 Y11.230 Z-2.200 F250.000
G2 X64.497 Y24.000 Z-2.200 I86.746 J0.067 K0.000 F250.000
G3 X65.351 Y28.881 Z-2.200 I-23559.728 J4126.876 K0.000 F250.000
G2 X67.476 Y37.371 Z-2.200 I88.701 J-17.685 K0.000 F250.000
G3 X68.427 Y40.543 Z-2.200 I-51.476 J17.175 K0.000 F250.000
G2 X69.284 Y42.905 Z-2.200 I20.335 J-6.039 K0.000 F250.000
G2 X72.689 Y51.709 Z-2.200 I345.409 J-128.515 K0.000 F250.000
G3 X75.577 Y58.292 Z-2.200 I-814.462 J361.283 K0.000 F250.000
G3 X78.776 Y65.870 Z-2.200 I-238.952 J105.336 K0.000 F250.000
G2 X80.307 Y69.684 Z-2.200 I72.058 J-26.708 K0.000 F250.000
G3 X86.400 Y88.551 Z-2.200 I-161.448 J62.555 K0.000 F250.000
G2 X87.261 Y92.206 Z-2.200 I102.753 J-22.281 K0.000 F250.000
G3 X89.132 Y104.571 Z-2.200 I-132.581 J26.386 K0.000 F250.000
G3 X89.339 Y108.806 Z-2.200 I-496.581 J26.422 K0.000 F250.000
G3 X88.475 Y120.337 Z-2.200 I-77.747 J-0.029 K0.000 F250.000
G3 X86.730 Y128.128 Z-2.200 I-35.484 J-3.858 K0.000 F250.000
G3 X84.077 Y135.161 Z-2.200 I-38.018 J-10.324 K0.000 F250.000
G3 X82.613 Y138.200 Z-2.200 I-22.051 J-8.748 K0.000 F250.000
G1 X82.613 Y138.200 Z1.000 F100.000
G0 Z8.000
G0 Z10.000
(Finish operation: Chamfer-R001)
(Begin postamble)
M5
G17 G90
M2
