(Exported by FreeCAD)
(Post Processor: grbl_post)
(Output Time:2022-11-13 17:25:34.611063)
(Begin preamble)
G17 G90
G21
(Begin operation: G54)
(Path: G54)
G54
G0 Z5.000
(Finish operation: G54)
(Begin operation: endmill-2_5mm009)
(Path: endmill-2_5mm009)
(endmill-2_5mm009)
(Begin toolchange)
( M6 T2 )
M3 S10000
(Finish operation: endmill-2_5mm009)
(Begin operation: Profile005)
(Path: Profile005)
(Profile005)
(Compensated Tool Path. Diameter: 2.5)
G0 Z10.000
G0 X79.571 Y129.511
G0 Z8.000
G1 X79.571 Y129.511 Z-1.000 F100.000
G2 X79.438 Y128.629 Z-1.000 I-0.392 J-0.392 K0.000 F250.000
G2 X78.919 Y129.609 Z-1.000 I-0.259 J0.490 K0.000 F250.000
G2 X79.571 Y129.511 Z-1.000 I0.259 J-0.490 K0.000 F250.000
G0 Z10.000
G0 X71.920 Y69.644 Z10.000
G0 X71.920 Y69.644 Z8.000
G1 X71.920 Y69.644 Z-1.000 F100.000
G2 X72.110 Y68.604 Z-1.000 I-0.070 J-0.550 K0.000 F250.000
G2 X71.591 Y69.584 Z-1.000 I-0.259 J0.490 K0.000 F250.000
G2 X71.920 Y69.644 Z-1.000 I0.259 J-0.490 K0.000 F250.000
G0 Z10.000
G0 X-2.756 Y79.989 Z10.000
G0 X-2.756 Y79.989 Z8.000
G1 X-2.756 Y79.989 Z-1.000 F100.000
G2 X-3.046 Y79.575 Z-1.000 I-0.549 J0.076 K0.000 F250.000
G2 X-3.564 Y80.555 Z-1.000 I-0.259 J0.490 K0.000 F250.000
G2 X-2.756 Y79.989 Z-1.000 I0.259 J-0.490 K0.000 F250.000
G0 Z10.000
G0 X-83.105 Y111.491 Z10.000
G0 X-83.105 Y111.491 Z8.000
G1 X-83.105 Y111.491 Z-1.000 F100.000
G2 X-83.588 Y111.139 Z-1.000 I-0.516 J0.202 K0.000 F250.000
G2 X-83.799 Y111.167 Z-1.000 I-0.036 J0.544 K0.000 F250.000
G2 X-83.543 Y112.242 Z-1.000 I0.177 J0.526 K0.000 F250.000
G2 X-83.105 Y111.491 Z-1.000 I-0.079 J-0.549 K0.000 F250.000
G0 Z10.000
G0 X-88.578 Y10.525 Z10.000
G0 X-88.578 Y10.525 Z8.000
G1 X-88.578 Y10.525 Z-1.000 F100.000
G2 X-88.362 Y9.474 Z-1.000 I-0.030 J-0.554 K0.000 F250.000
G1 X-88.464 Y9.435 Z-1.000 F250.000
G2 X-88.761 Y10.504 Z-1.000 I-0.144 J0.536 K0.000 F250.000
G2 X-88.578 Y10.525 Z-1.000 I0.152 J-0.533 K0.000 F250.000
G1 X-88.578 Y10.525 Z-2.000 F100.000
G2 X-88.362 Y9.474 Z-2.000 I-0.030 J-0.554 K0.000 F250.000
G1 X-88.464 Y9.435 Z-2.000 F250.000
G2 X-88.761 Y10.504 Z-2.000 I-0.144 J0.536 K0.000 F250.000
G2 X-88.578 Y10.525 Z-2.000 I0.152 J-0.533 K0.000 F250.000
G0 Z10.000
G0 X-83.650 Y111.139 Z10.000
G0 X-83.650 Y111.139 Z8.000
G1 X-83.650 Y111.139 Z-2.000 F100.000
G2 X-83.799 Y111.167 Z-2.000 I0.027 J0.544 K0.000 F250.000
G2 X-83.543 Y112.242 Z-2.000 I0.177 J0.526 K0.000 F250.000
G2 X-83.588 Y111.139 Z-2.000 I-0.079 J-0.549 K0.000 F250.000
G2 X-83.650 Y111.139 Z-2.000 I-0.036 J0.544 K0.000 F250.000
G0 Z10.000
G0 X-3.822 Y80.265 Z10.000
G0 X-3.822 Y80.265 Z8.000
G1 X-3.822 Y80.265 Z-2.000 F100.000
G2 X-3.564 Y80.555 Z-2.000 I0.517 J-0.200 K0.000 F250.000
G2 X-3.046 Y79.575 Z-2.000 I0.259 J-0.490 K0.000 F250.000
G2 X-3.822 Y80.265 Z-2.000 I-0.259 J0.490 K0.000 F250.000
G0 Z10.000
G0 X71.302 Y69.175 Z10.000
G0 X71.302 Y69.175 Z8.000
G1 X71.302 Y69.175 Z-2.000 F100.000
G2 X71.591 Y69.584 Z-2.000 I0.548 J-0.081 K0.000 F250.000
G2 X72.110 Y68.604 Z-2.000 I0.259 J-0.490 K0.000 F250.000
G2 X71.302 Y69.175 Z-2.000 I-0.259 J0.490 K0.000 F250.000
G0 Z10.000
G0 X79.106 Y128.570 Z10.000
G0 X79.106 Y128.570 Z8.000
G1 X79.106 Y128.570 Z-2.000 F100.000
G2 X78.919 Y129.609 Z-2.000 I0.072 J0.550 K0.000 F250.000
G2 X79.438 Y128.629 Z-2.000 I0.259 J-0.490 K0.000 F250.000
G2 X79.106 Y128.570 Z-2.000 I-0.259 J0.490 K0.000 F250.000
G0 Z10.000
G0 Z10.000
(Finish operation: Profile005)
(Begin postamble)
M5
G17 G90
M2
