(Exported by FreeCAD)
(Post Processor: grbl_post)
(Output Time:2022-11-26 16:31:56.292757)
(Begin preamble)
G17 G90
G21
(Begin operation: G54)
(Path: G54)
G54
G0 Z5.000
(Finish operation: G54)
(Begin operation: endmill-2_5mm007)
(Path: endmill-2_5mm007)
(endmill-2_5mm007)
(Begin toolchange)
( M6 T2 )
M3 S10000
(Finish operation: endmill-2_5mm007)
(Begin operation: DressupPathBoundary001)
(Path: DressupPathBoundary001)
(Profile004)
(Uncompensated Tool Path)
G0 Z8.000
G0 Z10.000
G0 X-66.368 Y113.922
G0 Z8.000
G1 Z-1.000 F100.000
G3 X-73.598 Y117.523 Z-1.000 I-22.033 J-35.183 K0.000 F150.000
G2 X-76.047 Y118.512 Z-1.000 I12.451 J34.335 K0.000 F150.000
G3 X-80.094 Y119.981 Z-1.000 I-17.422 J-41.699 K0.000 F150.000
G3 X-85.806 Y120.148 Z-1.000 I-3.234 J-12.832 K0.000 F150.000
G3 X-90.190 Y117.574 Z-1.000 I1.597 J-7.741 K0.000 F150.000
G3 X-92.135 Y114.043 Z-1.000 I5.542 J-5.353 K0.000 F150.000
G3 X-92.446 Y108.620 Z-1.000 I23.357 J-4.062 K0.000 F150.000
G3 X-91.150 Y102.340 Z-1.000 I48.930 J6.829 K0.000 F150.000
G2 X-89.764 Y95.845 Z-1.000 I-143.006 J-33.900 K0.000 F150.000
G2 X-88.370 Y89.215 Z-1.000 I-146.696 J-34.318 K0.000 F150.000
G2 X-87.190 Y81.386 Z-1.000 I-561.579 J-88.645 K0.000 F150.000
G2 X-86.526 Y74.260 Z-1.000 I-109.703 J-13.811 K0.000 F150.000
G2 X-85.974 Y63.731 Z-1.000 I-150.049 J-13.140 K0.000 F150.000
G2 X-87.928 Y39.210 Z-1.000 I-172.810 J1.433 K0.000 F150.000
G2 X-89.341 Y32.066 Z-1.000 I-189.721 J33.810 K0.000 F150.000
G2 X-90.971 Y25.448 Z-1.000 I-60.134 J11.303 K0.000 F150.000
G2 X-93.261 Y17.355 Z-1.000 I-120.185 J29.623 K0.000 F150.000
G3 X-95.777 Y10.016 Z-1.000 I116.703 J-44.128 K0.000 F150.000
G2 X-99.553 Y0.969 Z-1.000 I-106.604 J39.170 K0.000 F150.000
G2 X-101.956 Y-4.942 Z-1.000 I-178.296 J69.055 K0.000 F150.000
G2 X-102.494 Y-6.336 Z-1.000 I-284.529 J108.952 K0.000 F150.000
G0 Z8.000
G0 Z10.000
G0 X-66.368 Y113.922
G0 Z8.000
G1 Z-2.000 F100.000
G3 X-73.598 Y117.523 Z-2.000 I-22.033 J-35.183 K0.000 F150.000
G2 X-76.047 Y118.512 Z-2.000 I12.451 J34.335 K0.000 F150.000
G3 X-80.094 Y119.981 Z-2.000 I-17.422 J-41.699 K0.000 F150.000
G3 X-85.806 Y120.148 Z-2.000 I-3.234 J-12.832 K0.000 F150.000
G3 X-90.190 Y117.574 Z-2.000 I1.597 J-7.741 K0.000 F150.000
G3 X-92.135 Y114.043 Z-2.000 I5.542 J-5.353 K0.000 F150.000
G3 X-92.446 Y108.620 Z-2.000 I23.357 J-4.062 K0.000 F150.000
G3 X-91.150 Y102.340 Z-2.000 I48.930 J6.829 K0.000 F150.000
G2 X-89.764 Y95.845 Z-2.000 I-143.006 J-33.900 K0.000 F150.000
G2 X-88.370 Y89.215 Z-2.000 I-146.696 J-34.318 K0.000 F150.000
G2 X-87.190 Y81.386 Z-2.000 I-561.579 J-88.645 K0.000 F150.000
G2 X-86.526 Y74.260 Z-2.000 I-109.703 J-13.811 K0.000 F150.000
G2 X-85.974 Y63.731 Z-2.000 I-150.049 J-13.140 K0.000 F150.000
G2 X-87.928 Y39.210 Z-2.000 I-172.810 J1.433 K0.000 F150.000
G2 X-89.341 Y32.066 Z-2.000 I-189.721 J33.810 K0.000 F150.000
G2 X-90.971 Y25.448 Z-2.000 I-60.134 J11.303 K0.000 F150.000
G2 X-93.261 Y17.355 Z-2.000 I-120.185 J29.623 K0.000 F150.000
G3 X-95.777 Y10.016 Z-2.000 I116.703 J-44.128 K0.000 F150.000
G2 X-99.553 Y0.969 Z-2.000 I-106.604 J39.170 K0.000 F150.000
G2 X-101.956 Y-4.942 Z-2.000 I-178.296 J69.055 K0.000 F150.000
G2 X-102.494 Y-6.336 Z-2.000 I-284.529 J108.952 K0.000 F150.000
G0 Z8.000
G0 Z10.000
G0 X-66.368 Y113.922
G0 Z8.000
G1 Z-2.500 F100.000
G3 X-73.598 Y117.523 Z-2.500 I-22.033 J-35.183 K0.000 F150.000
G2 X-76.047 Y118.512 Z-2.500 I12.451 J34.335 K0.000 F150.000
G3 X-80.094 Y119.981 Z-2.500 I-17.422 J-41.699 K0.000 F150.000
G3 X-85.806 Y120.148 Z-2.500 I-3.234 J-12.832 K0.000 F150.000
G3 X-90.190 Y117.574 Z-2.500 I1.597 J-7.741 K0.000 F150.000
G3 X-92.135 Y114.043 Z-2.500 I5.542 J-5.353 K0.000 F150.000
G3 X-92.446 Y108.620 Z-2.500 I23.357 J-4.062 K0.000 F150.000
G3 X-91.150 Y102.340 Z-2.500 I48.930 J6.829 K0.000 F150.000
G2 X-89.764 Y95.845 Z-2.500 I-143.006 J-33.900 K0.000 F150.000
G2 X-88.370 Y89.215 Z-2.500 I-146.696 J-34.318 K0.000 F150.000
G2 X-87.190 Y81.386 Z-2.500 I-561.579 J-88.645 K0.000 F150.000
G2 X-86.526 Y74.260 Z-2.500 I-109.703 J-13.811 K0.000 F150.000
G2 X-85.974 Y63.731 Z-2.500 I-150.049 J-13.140 K0.000 F150.000
G2 X-87.928 Y39.210 Z-2.500 I-172.810 J1.433 K0.000 F150.000
G2 X-89.341 Y32.066 Z-2.500 I-189.721 J33.810 K0.000 F150.000
G2 X-90.971 Y25.448 Z-2.500 I-60.134 J11.303 K0.000 F150.000
G2 X-93.261 Y17.355 Z-2.500 I-120.185 J29.623 K0.000 F150.000
G3 X-95.777 Y10.016 Z-2.500 I116.703 J-44.128 K0.000 F150.000
G2 X-99.553 Y0.969 Z-2.500 I-106.604 J39.170 K0.000 F150.000
G2 X-101.956 Y-4.942 Z-2.500 I-178.296 J69.055 K0.000 F150.000
G2 X-102.494 Y-6.336 Z-2.500 I-284.529 J108.952 K0.000 F150.000
G0 Z8.000
G0 Z10.000
(Finish operation: DressupPathBoundary001)
(Begin operation: DressupPathBoundary002)
(Path: DressupPathBoundary002)
(Profile005)
(Uncompensated Tool Path)
G0 Z8.000
G0 Z10.000
G0 X82.601 Y138.197
G0 Z8.000
G1 Z1.000 F100.000
G1 X82.601 Y138.197 Z-1.000 F100.000
G3 X82.278 Y138.744 Z-1.000 I-20.593 J-11.788 K0.000 F150.000
G3 X80.701 Y140.889 Z-1.000 I-11.697 J-6.954 K0.000 F150.000
G3 X77.647 Y142.031 Z-1.000 I-2.707 J-2.583 K0.000 F150.000
G3 X75.783 Y140.875 Z-1.000 I0.432 J-2.776 K0.000 F150.000
G3 X74.780 Y138.851 Z-1.000 I4.328 J-3.407 K0.000 F150.000
G3 X73.077 Y131.440 Z-1.000 I58.984 J-17.452 K0.000 F150.000
G2 X71.914 Y125.677 Z-1.000 I-149.715 J27.214 K0.000 F150.000
G2 X69.913 Y117.732 Z-1.000 I-45.301 J7.186 K0.000 F150.000
G2 X67.883 Y112.447 Z-1.000 I-32.443 J9.428 K0.000 F150.000
G2 X63.422 Y104.156 Z-1.000 I-42.612 J17.582 K0.000 F150.000
G2 X59.534 Y98.872 Z-1.000 I-53.634 J35.395 K0.000 F150.000
G3 X57.001 Y96.102 Z-1.000 I84.641 J-79.931 K0.000 F150.000
G2 X44.492 Y86.477 Z-1.000 I-37.695 J36.051 K0.000 F150.000
G2 X32.824 Y81.944 Z-1.000 I-20.108 J34.472 K0.000 F150.000
G2 X23.910 Y80.988 Z-1.000 I-12.998 J79.171 K0.000 F150.000
G2 X14.724 Y81.698 Z-1.000 I-1.420 J41.408 K0.000 F150.000
G2 X7.209 Y83.598 Z-1.000 I6.502 J41.540 K0.000 F150.000
G2 X-0.805 Y86.867 Z-1.000 I51.529 J137.782 K0.000 F150.000
G3 X-9.685 Y90.559 Z-1.000 I-89.010 J-201.558 K0.000 F150.000
G1 X-10.480 Y90.832 Z-1.000 F150.000
G0 Z8.000
G0 Z10.000
G0 X65.935 Y-6.336
G0 Z8.000
G1 Z-1.000 F100.000
G2 X65.447 Y-3.814 Z-1.000 I45.711 J10.148 K0.000 F150.000
G2 X64.394 Y1.660 Z-1.000 I55.316 J13.475 K0.000 F150.000
G2 X63.576 Y10.497 Z-1.000 I48.212 J8.919 K0.000 F150.000
G1 X63.550 Y11.227 Z-1.000 F150.000
G2 X64.485 Y23.997 Z-1.000 I86.715 J0.069 K0.000 F150.000
G2 X65.340 Y28.878 Z-1.000 I89819.565 J-15724.543 K0.000 F150.000
G2 X67.464 Y37.368 Z-1.000 I88.774 J-17.700 K0.000 F150.000
G3 X68.416 Y40.540 Z-1.000 I-51.366 J17.144 K0.000 F150.000
G2 X69.272 Y42.902 Z-1.000 I20.332 J-6.038 K0.000 F150.000
G2 X72.677 Y51.707 Z-1.000 I343.438 J-127.752 K0.000 F150.000
G3 X75.565 Y58.289 Z-1.000 I-821.228 J364.262 K0.000 F150.000
G3 X78.764 Y65.867 Z-1.000 I-239.389 J105.517 K0.000 F150.000
G2 X80.295 Y69.681 Z-1.000 I72.128 J-26.738 K0.000 F150.000
G3 X86.388 Y88.548 Z-1.000 I-161.217 J62.480 K0.000 F150.000
G2 X87.249 Y92.203 Z-1.000 I102.814 J-22.295 K0.000 F150.000
G3 X89.120 Y104.569 Z-1.000 I-132.573 J26.385 K0.000 F150.000
G3 X89.327 Y108.803 Z-1.000 I-449.808 J24.125 K0.000 F150.000
G3 X88.463 Y120.334 Z-1.000 I-77.718 J-0.026 K0.000 F150.000
G3 X86.718 Y128.125 Z-1.000 I-35.484 J-3.859 K0.000 F150.000
G3 X84.065 Y135.158 Z-1.000 I-37.969 J-10.305 K0.000 F150.000
G3 X82.601 Y138.197 Z-1.000 I-22.056 J-8.749 K0.000 F150.000
G1 X82.601 Y138.197 Z-2.000 F100.000
G3 X82.278 Y138.744 Z-2.000 I-20.593 J-11.788 K0.000 F150.000
G3 X80.701 Y140.889 Z-2.000 I-11.697 J-6.954 K0.000 F150.000
G3 X77.647 Y142.031 Z-2.000 I-2.707 J-2.583 K0.000 F150.000
G3 X75.783 Y140.875 Z-2.000 I0.432 J-2.776 K0.000 F150.000
G3 X74.780 Y138.851 Z-2.000 I4.328 J-3.407 K0.000 F150.000
G3 X73.077 Y131.440 Z-2.000 I58.984 J-17.452 K0.000 F150.000
G2 X71.914 Y125.677 Z-2.000 I-149.715 J27.214 K0.000 F150.000
G2 X69.913 Y117.732 Z-2.000 I-45.301 J7.186 K0.000 F150.000
G2 X67.883 Y112.447 Z-2.000 I-32.443 J9.428 K0.000 F150.000
G2 X63.422 Y104.156 Z-2.000 I-42.612 J17.582 K0.000 F150.000
G2 X59.534 Y98.872 Z-2.000 I-53.634 J35.395 K0.000 F150.000
G3 X57.001 Y96.102 Z-2.000 I84.641 J-79.931 K0.000 F150.000
G2 X44.492 Y86.477 Z-2.000 I-37.695 J36.051 K0.000 F150.000
G2 X32.824 Y81.944 Z-2.000 I-20.108 J34.472 K0.000 F150.000
G2 X23.910 Y80.988 Z-2.000 I-12.998 J79.171 K0.000 F150.000
G2 X14.724 Y81.698 Z-2.000 I-1.420 J41.408 K0.000 F150.000
G2 X7.209 Y83.598 Z-2.000 I6.502 J41.540 K0.000 F150.000
G2 X-0.805 Y86.867 Z-2.000 I51.529 J137.782 K0.000 F150.000
G3 X-9.685 Y90.559 Z-2.000 I-89.010 J-201.558 K0.000 F150.000
G1 X-10.480 Y90.832 Z-2.000 F150.000
G0 Z8.000
G0 Z10.000
G0 X65.935 Y-6.336
G0 Z8.000
G1 Z-2.000 F100.000
G2 X65.447 Y-3.814 Z-2.000 I45.711 J10.148 K0.000 F150.000
G2 X64.394 Y1.660 Z-2.000 I55.316 J13.475 K0.000 F150.000
G2 X63.576 Y10.497 Z-2.000 I48.212 J8.919 K0.000 F150.000
G1 X63.550 Y11.227 Z-2.000 F150.000
G2 X64.485 Y23.997 Z-2.000 I86.715 J0.069 K0.000 F150.000
G2 X65.340 Y28.878 Z-2.000 I89819.565 J-15724.543 K0.000 F150.000
G2 X67.464 Y37.368 Z-2.000 I88.774 J-17.700 K0.000 F150.000
G3 X68.416 Y40.540 Z-2.000 I-51.366 J17.144 K0.000 F150.000
G2 X69.272 Y42.902 Z-2.000 I20.332 J-6.038 K0.000 F150.000
G2 X72.677 Y51.707 Z-2.000 I343.438 J-127.752 K0.000 F150.000
G3 X75.565 Y58.289 Z-2.000 I-821.228 J364.262 K0.000 F150.000
G3 X78.764 Y65.867 Z-2.000 I-239.389 J105.517 K0.000 F150.000
G2 X80.295 Y69.681 Z-2.000 I72.128 J-26.738 K0.000 F150.000
G3 X86.388 Y88.548 Z-2.000 I-161.217 J62.480 K0.000 F150.000
G2 X87.249 Y92.203 Z-2.000 I102.814 J-22.295 K0.000 F150.000
G3 X89.120 Y104.569 Z-2.000 I-132.573 J26.385 K0.000 F150.000
G3 X89.327 Y108.803 Z-2.000 I-449.808 J24.125 K0.000 F150.000
G3 X88.463 Y120.334 Z-2.000 I-77.718 J-0.026 K0.000 F150.000
G3 X86.718 Y128.125 Z-2.000 I-35.484 J-3.859 K0.000 F150.000
G3 X84.065 Y135.158 Z-2.000 I-37.969 J-10.305 K0.000 F150.000
G3 X82.601 Y138.197 Z-2.000 I-22.056 J-8.749 K0.000 F150.000
G1 X82.601 Y138.197 Z-2.500 F100.000
G3 X82.278 Y138.744 Z-2.500 I-20.593 J-11.788 K0.000 F150.000
G3 X80.701 Y140.889 Z-2.500 I-11.697 J-6.954 K0.000 F150.000
G3 X77.647 Y142.031 Z-2.500 I-2.707 J-2.583 K0.000 F150.000
G3 X75.783 Y140.875 Z-2.500 I0.432 J-2.776 K0.000 F150.000
G3 X74.780 Y138.851 Z-2.500 I4.328 J-3.407 K0.000 F150.000
G3 X73.077 Y131.440 Z-2.500 I58.984 J-17.452 K0.000 F150.000
G2 X71.914 Y125.677 Z-2.500 I-149.715 J27.214 K0.000 F150.000
G2 X69.913 Y117.732 Z-2.500 I-45.301 J7.186 K0.000 F150.000
G2 X67.883 Y112.447 Z-2.500 I-32.443 J9.428 K0.000 F150.000
G2 X63.422 Y104.156 Z-2.500 I-42.612 J17.582 K0.000 F150.000
G2 X59.534 Y98.872 Z-2.500 I-53.634 J35.395 K0.000 F150.000
G3 X57.001 Y96.102 Z-2.500 I84.641 J-79.931 K0.000 F150.000
G2 X44.492 Y86.477 Z-2.500 I-37.695 J36.051 K0.000 F150.000
G2 X32.824 Y81.944 Z-2.500 I-20.108 J34.472 K0.000 F150.000
G2 X23.910 Y80.988 Z-2.500 I-12.998 J79.171 K0.000 F150.000
G2 X14.724 Y81.698 Z-2.500 I-1.420 J41.408 K0.000 F150.000
G2 X7.209 Y83.598 Z-2.500 I6.502 J41.540 K0.000 F150.000
G2 X-0.805 Y86.867 Z-2.500 I51.529 J137.782 K0.000 F150.000
G3 X-9.685 Y90.559 Z-2.500 I-89.010 J-201.558 K0.000 F150.000
G1 X-10.480 Y90.832 Z-2.500 F150.000
G0 Z8.000
G0 Z10.000
G0 X65.935 Y-6.336
G0 Z8.000
G1 Z-2.500 F100.000
G2 X65.447 Y-3.814 Z-2.500 I45.711 J10.148 K0.000 F150.000
G2 X64.394 Y1.660 Z-2.500 I55.316 J13.475 K0.000 F150.000
G2 X63.576 Y10.497 Z-2.500 I48.212 J8.919 K0.000 F150.000
G1 X63.550 Y11.227 Z-2.500 F150.000
G2 X64.485 Y23.997 Z-2.500 I86.715 J0.069 K0.000 F150.000
G2 X65.340 Y28.878 Z-2.500 I89819.565 J-15724.543 K0.000 F150.000
G2 X67.464 Y37.368 Z-2.500 I88.774 J-17.700 K0.000 F150.000
G3 X68.416 Y40.540 Z-2.500 I-51.366 J17.144 K0.000 F150.000
G2 X69.272 Y42.902 Z-2.500 I20.332 J-6.038 K0.000 F150.000
G2 X72.677 Y51.707 Z-2.500 I343.438 J-127.752 K0.000 F150.000
G3 X75.565 Y58.289 Z-2.500 I-821.228 J364.262 K0.000 F150.000
G3 X78.764 Y65.867 Z-2.500 I-239.389 J105.517 K0.000 F150.000
G2 X80.295 Y69.681 Z-2.500 I72.128 J-26.738 K0.000 F150.000
G3 X86.388 Y88.548 Z-2.500 I-161.217 J62.480 K0.000 F150.000
G2 X87.249 Y92.203 Z-2.500 I102.814 J-22.295 K0.000 F150.000
G3 X89.120 Y104.569 Z-2.500 I-132.573 J26.385 K0.000 F150.000
G3 X89.327 Y108.803 Z-2.500 I-449.808 J24.125 K0.000 F150.000
G3 X88.463 Y120.334 Z-2.500 I-77.718 J-0.026 K0.000 F150.000
G3 X86.718 Y128.125 Z-2.500 I-35.484 J-3.859 K0.000 F150.000
G3 X84.065 Y135.158 Z-2.500 I-37.969 J-10.305 K0.000 F150.000
G3 X82.601 Y138.197 Z-2.500 I-22.056 J-8.749 K0.000 F150.000
G1 X82.601 Y138.197 Z1.000 F100.000
G0 Z8.000
G0 Z10.000
(Finish operation: DressupPathBoundary002)
(Begin postamble)
M5
G17 G90
M2
