(Exported by FreeCAD)
(Post Processor: grbl_post)
(Output Time:2022-11-26 16:30:58.163923)
(Begin preamble)
G17 G90
G21
(Begin operation: G54)
(Path: G54)
G54
G0 Z5.000
(Finish operation: G54)
(Begin operation: endmill-2_5mm003)
(Path: endmill-2_5mm003)
(endmill-2_5mm003)
(Begin toolchange)
( M6 T2 )
M3 S10000
(Finish operation: endmill-2_5mm003)
(Begin operation: Profile001)
(Path: Profile001)
(Profile001)
(Compensated Tool Path. Diameter: 2.5)
G0 Z10.000
G0 X0.369 Y60.491
G0 Z8.000
G1 X0.369 Y60.491 Z-1.000 F100.000
G2 X0.454 Y60.374 Z-1.000 I-0.324 J-0.324 K0.000 F250.000
G1 X0.486 Y60.290 Z-1.000 F250.000
G2 X-0.394 Y60.038 Z-1.000 I-0.441 J-0.123 K0.000 F250.000
G2 X0.369 Y60.491 Z-1.000 I0.439 J0.129 K0.000 F250.000
G1 X0.369 Y60.491 Z-2.000 F100.000
G2 X0.454 Y60.374 Z-2.000 I-0.324 J-0.324 K0.000 F250.000
G1 X0.486 Y60.290 Z-2.000 F250.000
G2 X-0.394 Y60.038 Z-2.000 I-0.441 J-0.123 K0.000 F250.000
G2 X0.369 Y60.491 Z-2.000 I0.439 J0.129 K0.000 F250.000
G1 X0.369 Y60.491 Z-2.600 F100.000
G2 X0.454 Y60.374 Z-2.600 I-0.324 J-0.324 K0.000 F250.000
G1 X0.486 Y60.290 Z-2.600 F250.000
G2 X-0.394 Y60.038 Z-2.600 I-0.441 J-0.123 K0.000 F250.000
G2 X0.369 Y60.491 Z-2.600 I0.439 J0.129 K0.000 F250.000
G0 Z10.000
G0 Z10.000
G0 X0.369 Y60.491
G0 X-2.730 Y80.013
G0 X-2.730 Y80.013 Z8.000
G1 X-2.730 Y80.013 Z-1.000 F100.000
G2 X-3.314 Y80.315 Z-1.000 I-0.087 J0.548 K0.000 F250.000
G2 X-3.064 Y81.059 Z-1.000 I0.497 J0.247 K0.000 F250.000
G2 X-2.319 Y80.809 Z-1.000 I0.247 J-0.497 K0.000 F250.000
G2 X-2.730 Y80.013 Z-1.000 I-0.497 J-0.247 K0.000 F250.000
G0 Z10.000
G0 X71.289 Y69.172 Z10.000
G0 X71.289 Y69.172 Z8.000
G1 X71.289 Y69.172 Z-1.000 F100.000
G2 X72.336 Y69.338 Z-1.000 I0.549 J-0.080 K0.000 F250.000
G2 X72.085 Y68.594 Z-1.000 I-0.497 J-0.247 K0.000 F250.000
G2 X71.341 Y68.845 Z-1.000 I-0.247 J0.497 K0.000 F250.000
G2 X71.289 Y69.172 Z-1.000 I0.497 J0.247 K0.000 F250.000
G0 Z10.000
G0 X79.591 Y129.066 Z10.000
G0 X79.591 Y129.066 Z8.000
G1 X79.591 Y129.066 Z-1.000 F100.000
G2 X79.169 Y129.370 Z-1.000 I0.076 J0.550 K0.000 F250.000
G2 X79.420 Y130.114 Z-1.000 I0.497 J0.247 K0.000 F250.000
G2 X80.164 Y129.863 Z-1.000 I0.247 J-0.497 K0.000 F250.000
G2 X79.591 Y129.066 Z-1.000 I-0.497 J-0.247 K0.000 F250.000
G0 Z10.000
G0 X0.239 Y0.389 Z10.000
G0 X0.239 Y0.389 Z8.000
G1 X0.239 Y0.389 Z-1.000 F100.000
G2 X0.408 Y0.205 Z-1.000 I-0.240 J-0.390 K0.000 F250.000
G1 X0.440 Y0.122 Z-1.000 F250.000
G2 X-0.440 Y-0.130 Z-1.000 I-0.441 J-0.123 K0.000 F250.000
G2 X0.239 Y0.389 Z-1.000 I0.439 J0.129 K0.000 F250.000
G0 Z10.000
G0 X-77.043 Y-0.111 Z10.000
G0 X-77.043 Y-0.111 Z8.000
G1 X-77.043 Y-0.111 Z-1.000 F100.000
G2 X-77.911 Y-0.321 Z-1.000 I-0.458 J-0.003 K0.000 F250.000
G2 X-77.709 Y0.295 Z-1.000 I0.409 J0.207 K0.000 F250.000
G2 X-77.092 Y0.093 Z-1.000 I0.207 J-0.409 K0.000 F250.000
G2 X-77.043 Y-0.111 Z-1.000 I-0.409 J-0.207 K0.000 F250.000
G0 Z10.000
G0 X-88.202 Y9.604 Z10.000
G0 X-88.202 Y9.604 Z8.000
G1 X-88.202 Y9.604 Z-1.000 F100.000
G2 X-89.154 Y9.816 Z-1.000 I-0.418 J0.364 K0.000 F250.000
G2 X-88.124 Y10.215 Z-1.000 I0.533 J0.152 K0.000 F250.000
G1 X-88.085 Y10.113 Z-1.000 F250.000
G2 X-88.202 Y9.604 Z-1.000 I-0.536 J-0.144 K0.000 F250.000
G0 Z10.000
G0 X-77.562 Y59.552 Z10.000
G0 X-77.562 Y59.552 Z8.000
G1 X-77.562 Y59.552 Z-1.000 F100.000
G2 X-77.870 Y59.783 Z-1.000 I0.095 J0.448 K0.000 F250.000
G2 X-77.064 Y60.217 Z-1.000 I0.403 J0.217 K0.000 F250.000
G2 X-77.562 Y59.552 Z-1.000 I-0.403 J-0.217 K0.000 F250.000
G0 Z10.000
G0 X-83.075 Y111.638 Z10.000
G0 X-83.075 Y111.638 Z8.000
G1 X-83.075 Y111.638 Z-1.000 F100.000
G2 X-83.631 Y111.944 Z-1.000 I-0.058 J0.552 K0.000 F250.000
G2 X-83.380 Y112.688 Z-1.000 I0.497 J0.247 K0.000 F250.000
G2 X-82.636 Y112.437 Z-1.000 I0.247 J-0.497 K0.000 F250.000
G2 X-83.075 Y111.638 Z-1.000 I-0.497 J-0.247 K0.000 F250.000
G1 X-83.075 Y111.638 Z-2.000 F100.000
G2 X-83.631 Y111.944 Z-2.000 I-0.058 J0.552 K0.000 F250.000
G2 X-83.380 Y112.688 Z-2.000 I0.497 J0.247 K0.000 F250.000
G2 X-82.636 Y112.437 Z-2.000 I0.247 J-0.497 K0.000 F250.000
G2 X-83.075 Y111.638 Z-2.000 I-0.497 J-0.247 K0.000 F250.000
G0 Z10.000
G0 X-77.516 Y60.455 Z10.000
G0 X-77.516 Y60.455 Z8.000
G1 X-77.516 Y60.455 Z-2.000 F100.000
G2 X-77.064 Y60.217 Z-2.000 I0.049 J-0.455 K0.000 F250.000
G2 X-77.870 Y59.783 Z-2.000 I-0.403 J-0.217 K0.000 F250.000
G2 X-77.516 Y60.455 Z-2.000 I0.403 J0.217 K0.000 F250.000
G0 Z10.000
G0 X-88.502 Y10.511 Z10.000
G0 X-88.502 Y10.511 Z8.000
G1 X-88.502 Y10.511 Z-2.000 F100.000
G2 X-88.124 Y10.215 Z-2.000 I-0.119 J-0.542 K0.000 F250.000
G1 X-88.085 Y10.113 Z-2.000 F250.000
G2 X-89.154 Y9.816 Z-2.000 I-0.536 J-0.144 K0.000 F250.000
G2 X-88.502 Y10.511 Z-2.000 I0.533 J0.152 K0.000 F250.000
G0 Z10.000
G0 X-77.831 Y0.205 Z10.000
G0 X-77.831 Y0.205 Z8.000
G1 X-77.831 Y0.205 Z-2.000 F100.000
G2 X-77.092 Y0.093 Z-2.000 I0.330 J-0.318 K0.000 F250.000
G2 X-77.294 Y-0.523 Z-2.000 I-0.409 J-0.207 K0.000 F250.000
G2 X-77.911 Y-0.321 Z-2.000 I-0.207 J0.409 K0.000 F250.000
G2 X-77.831 Y0.205 Z-2.000 I0.409 J0.207 K0.000 F250.000
G0 Z10.000
G0 X-0.459 Y0.000 Z10.000
G0 X-0.459 Y0.000 Z8.000
G1 X-0.459 Y0.000 Z-2.000 F100.000
G2 X0.408 Y0.205 Z-2.000 I0.458 J-0.001 K0.000 F250.000
G1 X0.440 Y0.122 Z-2.000 F250.000
G2 X-0.440 Y-0.130 Z-2.000 I-0.441 J-0.123 K0.000 F250.000
G2 X-0.459 Y0.000 Z-2.000 I0.439 J0.129 K0.000 F250.000
G0 Z10.000
G0 X-2.800 Y80.007 Z10.000
G0 X-2.800 Y80.007 Z8.000
G1 X-2.800 Y80.007 Z-2.000 F100.000
G2 X-3.314 Y80.315 Z-2.000 I-0.016 J0.555 K0.000 F250.000
G2 X-3.064 Y81.059 Z-2.000 I0.497 J0.247 K0.000 F250.000
G2 X-2.319 Y80.809 Z-2.000 I0.247 J-0.497 K0.000 F250.000
G2 X-2.800 Y80.007 Z-2.000 I-0.497 J-0.247 K0.000 F250.000
G0 Z10.000
G0 X71.289 Y69.172 Z10.000
G0 X71.289 Y69.172 Z8.000
G1 X71.289 Y69.172 Z-2.000 F100.000
G2 X72.336 Y69.338 Z-2.000 I0.549 J-0.080 K0.000 F250.000
G2 X72.085 Y68.594 Z-2.000 I-0.497 J-0.247 K0.000 F250.000
G2 X71.341 Y68.845 Z-2.000 I-0.247 J0.497 K0.000 F250.000
G2 X71.289 Y69.172 Z-2.000 I0.497 J0.247 K0.000 F250.000
G0 Z10.000
G0 X79.591 Y129.066 Z10.000
G0 X79.591 Y129.066 Z8.000
G1 X79.591 Y129.066 Z-2.000 F100.000
G2 X79.169 Y129.370 Z-2.000 I0.076 J0.550 K0.000 F250.000
G2 X79.420 Y130.114 Z-2.000 I0.497 J0.247 K0.000 F250.000
G2 X80.164 Y129.863 Z-2.000 I0.247 J-0.497 K0.000 F250.000
G2 X79.591 Y129.066 Z-2.000 I-0.497 J-0.247 K0.000 F250.000
G1 X79.591 Y129.066 Z-2.600 F100.000
G2 X79.169 Y129.370 Z-2.600 I0.076 J0.550 K0.000 F250.000
G2 X79.420 Y130.114 Z-2.600 I0.497 J0.247 K0.000 F250.000
G2 X80.164 Y129.863 Z-2.600 I0.247 J-0.497 K0.000 F250.000
G2 X79.591 Y129.066 Z-2.600 I-0.497 J-0.247 K0.000 F250.000
G0 Z10.000
G0 X71.910 Y69.642 Z10.000
G0 X71.910 Y69.642 Z8.000
G1 X71.910 Y69.642 Z-2.600 F100.000
G2 X72.336 Y69.338 Z-2.600 I-0.071 J-0.551 K0.000 F250.000
G2 X72.085 Y68.594 Z-2.600 I-0.497 J-0.247 K0.000 F250.000
G2 X71.341 Y68.845 Z-2.600 I-0.247 J0.497 K0.000 F250.000
G2 X71.910 Y69.642 Z-2.600 I0.497 J0.247 K0.000 F250.000
G0 Z10.000
G0 X-2.267 Y80.481 Z10.000
G0 X-2.267 Y80.481 Z8.000
G1 X-2.267 Y80.481 Z-2.600 F100.000
G2 X-3.314 Y80.315 Z-2.600 I-0.549 J0.080 K0.000 F250.000
G2 X-3.064 Y81.059 Z-2.600 I0.497 J0.247 K0.000 F250.000
G2 X-2.319 Y80.809 Z-2.600 I0.247 J-0.497 K0.000 F250.000
G2 X-2.267 Y80.481 Z-2.600 I-0.497 J-0.247 K0.000 F250.000
G0 Z10.000
G0 X-77.025 Y60.120 Z10.000
G0 X-77.025 Y60.120 Z8.000
G1 X-77.025 Y60.120 Z-2.600 F100.000
G2 X-77.870 Y59.783 Z-2.600 I-0.442 J-0.120 K0.000 F250.000
G2 X-77.064 Y60.217 Z-2.600 I0.403 J0.217 K0.000 F250.000
G2 X-77.025 Y60.120 Z-2.600 I-0.403 J-0.217 K0.000 F250.000
G0 Z10.000
G0 X-88.496 Y10.509 Z10.000
G0 X-88.496 Y10.509 Z8.000
G1 X-88.496 Y10.509 Z-2.600 F100.000
G2 X-88.124 Y10.215 Z-2.600 I-0.125 J-0.541 K0.000 F250.000
G1 X-88.085 Y10.113 Z-2.600 F250.000
G2 X-89.154 Y9.816 Z-2.600 I-0.536 J-0.144 K0.000 F250.000
G2 X-88.496 Y10.509 Z-2.600 I0.533 J0.152 K0.000 F250.000
G0 Z10.000
G0 X-77.831 Y0.205 Z10.000
G0 X-77.831 Y0.205 Z8.000
G1 X-77.831 Y0.205 Z-2.600 F100.000
G2 X-77.092 Y0.093 Z-2.600 I0.330 J-0.319 K0.000 F250.000
G2 X-77.294 Y-0.523 Z-2.600 I-0.409 J-0.207 K0.000 F250.000
G2 X-77.911 Y-0.321 Z-2.600 I-0.207 J0.409 K0.000 F250.000
G2 X-77.831 Y0.205 Z-2.600 I0.409 J0.207 K0.000 F250.000
G0 Z10.000
G0 X-0.459 Y0.000 Z10.000
G0 X-0.459 Y0.000 Z8.000
G1 X-0.459 Y0.000 Z-2.600 F100.000
G2 X0.408 Y0.205 Z-2.600 I0.458 J-0.001 K0.000 F250.000
G1 X0.440 Y0.122 Z-2.600 F250.000
G2 X-0.440 Y-0.130 Z-2.600 I-0.441 J-0.123 K0.000 F250.000
G2 X-0.459 Y0.000 Z-2.600 I0.439 J0.129 K0.000 F250.000
G0 Z10.000
G0 X-82.804 Y111.743 Z10.000
G0 X-82.804 Y111.743 Z8.000
G1 X-82.804 Y111.743 Z-2.600 F100.000
G2 X-83.631 Y111.944 Z-2.600 I-0.329 J0.447 K0.000 F250.000
G2 X-83.380 Y112.688 Z-2.600 I0.497 J0.247 K0.000 F250.000
G2 X-82.636 Y112.437 Z-2.600 I0.247 J-0.497 K0.000 F250.000
G2 X-82.804 Y111.743 Z-2.600 I-0.497 J-0.247 K0.000 F250.000
G0 Z10.000
G0 Z10.000
(Finish operation: Profile001)
(Begin postamble)
M5
G17 G90
M2
