(Exported by FreeCAD)
(Post Processor: grbl_post)
(Output Time:2023-03-08 21:36:06.361515)
(Begin preamble)
G17 G90
G21
(Begin operation: G54)
(Path: G54)
G54
G0 Z5.100
(Finish operation: G54)
(Begin operation: ballend-015mm001)
(Path: ballend-015mm001)
(ballend-015mm001)
(Begin toolchange)
( M6 T2 )
(Post processing added : Ramp up the spindle speed)
M3 S100
G4 P.25
M3 S200
G4 P.25
M3 S400
G4 P.25
M3 S600
G4 P.25
M3 S800
G4 P.25
M3 S1000
G4 P.25
M3 S2000
G4 P.25
M3 S4000
G4 P.25
M3 S6000
G4 P.25
M3 S10000
(End post processing)
(Finish operation: ballend-015mm001)
(Begin operation: Profile)
(Path: Profile)
(Profile)
(Compensated Tool Path. Diameter: 0.15)
G0 Z1.000
G0 X1.603 Y1.595
G0 Z0.500
G1 X1.603 Y1.595 Z-0.200 F100.000
G1 X0.864 Y2.088 Z-0.200 F200.000
G1 X-0.005 Y2.260 Z-0.200 F200.000
G1 X-0.876 Y2.088 Z-0.200 F200.000
G1 X-1.613 Y1.595 Z-0.200 F200.000
G1 X-2.106 Y0.858 Z-0.200 F200.000
G1 X-2.279 Y-0.013 Z-0.200 F200.000
G1 X-2.106 Y-0.883 Z-0.200 F200.000
G1 X-1.613 Y-1.621 Z-0.200 F200.000
G1 X-0.876 Y-2.113 Z-0.200 F200.000
G1 X-0.005 Y-2.286 Z-0.200 F200.000
G1 X0.864 Y-2.113 Z-0.200 F200.000
G1 X1.603 Y-1.621 Z-0.200 F200.000
G1 X2.095 Y-0.883 Z-0.200 F200.000
G1 X2.268 Y-0.013 Z-0.200 F200.000
G1 X2.095 Y0.858 Z-0.200 F200.000
G1 X1.603 Y1.595 Z-0.200 F200.000
G1 X1.603 Y1.595 Z-0.300 F100.000
G1 X0.864 Y2.088 Z-0.300 F200.000
G1 X-0.005 Y2.260 Z-0.300 F200.000
G1 X-0.876 Y2.088 Z-0.300 F200.000
G1 X-1.613 Y1.595 Z-0.300 F200.000
G1 X-2.106 Y0.858 Z-0.300 F200.000
G1 X-2.279 Y-0.013 Z-0.300 F200.000
G1 X-2.106 Y-0.883 Z-0.300 F200.000
G1 X-1.613 Y-1.621 Z-0.300 F200.000
G1 X-0.876 Y-2.113 Z-0.300 F200.000
G1 X-0.005 Y-2.286 Z-0.300 F200.000
G1 X0.864 Y-2.113 Z-0.300 F200.000
G1 X1.603 Y-1.621 Z-0.300 F200.000
G1 X2.095 Y-0.883 Z-0.300 F200.000
G1 X2.268 Y-0.013 Z-0.300 F200.000
G1 X2.095 Y0.858 Z-0.300 F200.000
G1 X1.603 Y1.595 Z-0.300 F200.000
G0 Z1.000
G0 Z1.000
G0 X1.603 Y1.595
G0 X15.770 Y18.663
G0 X15.770 Y18.663 Z0.500
G1 X15.770 Y18.663 Z-0.200 F100.000
G1 X17.220 Y18.663 Z-0.200 F200.000
G1 X17.220 Y21.013 Z-0.200 F200.000
G1 X15.770 Y21.013 Z-0.200 F200.000
G1 X15.770 Y18.663 Z-0.200 F200.000
G1 X15.770 Y18.663 Z-0.300 F100.000
G1 X17.220 Y18.663 Z-0.300 F200.000
G1 X17.220 Y21.013 Z-0.300 F200.000
G1 X15.770 Y21.013 Z-0.300 F200.000
G1 X15.770 Y18.663 Z-0.300 F200.000
G0 Z1.000
G0 Z1.000
G0 X15.770 Y18.663
G0 Y21.962
G0 Y21.962 Z0.500
G1 X15.770 Y21.962 Z-0.200 F100.000
G1 X17.220 Y21.962 Z-0.200 F200.000
G1 X17.220 Y24.312 Z-0.200 F200.000
G1 X15.770 Y24.312 Z-0.200 F200.000
G1 X15.770 Y21.962 Z-0.200 F200.000
G1 X15.770 Y21.962 Z-0.300 F100.000
G1 X17.220 Y21.962 Z-0.300 F200.000
G1 X17.220 Y24.312 Z-0.300 F200.000
G1 X15.770 Y24.312 Z-0.300 F200.000
G1 X15.770 Y21.962 Z-0.300 F200.000
G0 Z1.000
G0 Z1.000
G0 X15.770 Y21.962
G0 X15.773 Y25.991
G0 X15.773 Y25.991 Z0.500
G1 X15.773 Y25.991 Z-0.200 F100.000
G1 X17.217 Y25.991 Z-0.200 F200.000
G1 X17.217 Y28.582 Z-0.200 F200.000
G1 X15.773 Y28.582 Z-0.200 F200.000
G1 X15.773 Y25.991 Z-0.200 F200.000
G1 X15.773 Y25.991 Z-0.300 F100.000
G1 X17.217 Y25.991 Z-0.300 F200.000
G1 X17.217 Y28.582 Z-0.300 F200.000
G1 X15.773 Y28.582 Z-0.300 F200.000
G1 X15.773 Y25.991 Z-0.300 F200.000
G0 Z1.000
G0 Z1.000
G0 X15.773 Y25.991
G0 X20.469 Y28.612
G0 X20.469 Y28.612 Z0.500
G1 X20.469 Y28.612 Z-0.200 F100.000
G1 X21.219 Y28.612 Z-0.200 F200.000
G1 X21.219 Y28.963 Z-0.200 F200.000
G1 X20.469 Y28.963 Z-0.200 F200.000
G1 X20.469 Y28.612 Z-0.200 F200.000
G1 X20.469 Y28.612 Z-0.300 F100.000
G1 X21.219 Y28.612 Z-0.300 F200.000
G1 X21.219 Y28.963 Z-0.300 F200.000
G1 X20.469 Y28.963 Z-0.300 F200.000
G1 X20.469 Y28.612 Z-0.300 F200.000
G0 Z1.000
G0 Z1.000
G0 X20.469 Y28.612
G0 Y27.462
G0 Y27.462 Z0.500
G1 X20.469 Y27.462 Z-0.200 F100.000
G1 X20.469 Y27.112 Z-0.200 F200.000
G1 X21.219 Y27.112 Z-0.200 F200.000
G1 X21.219 Y27.462 Z-0.200 F200.000
G1 X20.469 Y27.462 Z-0.200 F200.000
G1 X20.469 Y27.462 Z-0.300 F100.000
G1 X20.469 Y27.112 Z-0.300 F200.000
G1 X21.219 Y27.112 Z-0.300 F200.000
G1 X21.219 Y27.462 Z-0.300 F200.000
G1 X20.469 Y27.462 Z-0.300 F200.000
G0 Z1.000
G0 Z1.000
G0 X20.469 Y27.462
G0 X22.299
G0 X22.299 Z0.500
G1 X22.299 Y27.462 Z-0.200 F100.000
G1 X22.299 Y27.112 Z-0.200 F200.000
G1 X23.049 Y27.112 Z-0.200 F200.000
G1 X23.049 Y27.462 Z-0.200 F200.000
G1 X22.299 Y27.462 Z-0.200 F200.000
G1 X22.299 Y27.462 Z-0.300 F100.000
G1 X22.299 Y27.112 Z-0.300 F200.000
G1 X23.049 Y27.112 Z-0.300 F200.000
G1 X23.049 Y27.462 Z-0.300 F200.000
G1 X22.299 Y27.462 Z-0.300 F200.000
G0 Z1.000
G0 Z1.000
G0 X22.299 Y27.462
G0 Y28.612
G0 Y28.612 Z0.500
G1 X22.299 Y28.612 Z-0.200 F100.000
G1 X23.049 Y28.612 Z-0.200 F200.000
G1 X23.049 Y28.963 Z-0.200 F200.000
G1 X22.299 Y28.963 Z-0.200 F200.000
G1 X22.299 Y28.612 Z-0.200 F200.000
G1 X22.299 Y28.612 Z-0.300 F100.000
G1 X23.049 Y28.612 Z-0.300 F200.000
G1 X23.049 Y28.963 Z-0.300 F200.000
G1 X22.299 Y28.963 Z-0.300 F200.000
G1 X22.299 Y28.612 Z-0.300 F200.000
G0 Z1.000
G0 Z1.000
G0 X22.299 Y28.612
G0 X25.689 Y31.542
G0 X25.689 Y31.542 Z0.500
G1 X25.689 Y31.542 Z-0.200 F100.000
G1 X27.239 Y31.542 Z-0.200 F200.000
G1 X27.239 Y32.492 Z-0.200 F200.000
G1 X25.689 Y32.492 Z-0.200 F200.000
G1 X25.689 Y31.542 Z-0.200 F200.000
G1 X25.689 Y31.542 Z-0.300 F100.000
G1 X27.239 Y31.542 Z-0.300 F200.000
G1 X27.239 Y32.492 Z-0.300 F200.000
G1 X25.689 Y32.492 Z-0.300 F200.000
G1 X25.689 Y31.542 Z-0.300 F200.000
G0 Z1.000
G0 Z1.000
G0 X25.689 Y31.542
G0 X27.270 Y30.387
G0 X27.270 Y30.387 Z0.500
G1 X27.270 Y30.387 Z-0.200 F100.000
G1 X27.270 Y27.587 Z-0.200 F200.000
G1 X28.720 Y27.587 Z-0.200 F200.000
G1 X28.720 Y30.387 Z-0.200 F200.000
G1 X27.270 Y30.387 Z-0.200 F200.000
G1 X27.270 Y30.387 Z-0.300 F100.000
G1 X27.270 Y27.587 Z-0.300 F200.000
G1 X28.720 Y27.587 Z-0.300 F200.000
G1 X28.720 Y30.387 Z-0.300 F200.000
G1 X27.270 Y30.387 Z-0.300 F200.000
G0 Z1.000
G0 Z1.000
G0 X27.270 Y30.387
G0 X28.520 Y31.542
G0 X28.520 Y31.542 Z0.500
G1 X28.520 Y31.542 Z-0.200 F100.000
G1 X30.070 Y31.542 Z-0.200 F200.000
G1 X30.070 Y32.492 Z-0.200 F200.000
G1 X28.520 Y32.492 Z-0.200 F200.000
G1 X28.520 Y31.542 Z-0.200 F200.000
G1 X28.520 Y31.542 Z-0.300 F100.000
G1 X30.070 Y31.542 Z-0.300 F200.000
G1 X30.070 Y32.492 Z-0.300 F200.000
G1 X28.520 Y32.492 Z-0.300 F200.000
G1 X28.520 Y31.542 Z-0.300 F200.000
G0 Z1.000
G0 Z1.000
G0 X28.520 Y31.542
G0 Y34.743
G0 Y34.743 Z0.500
G1 X28.520 Y34.743 Z-0.200 F100.000
G1 X30.070 Y34.743 Z-0.200 F200.000
G1 X30.070 Y35.693 Z-0.200 F200.000
G1 X28.520 Y35.693 Z-0.200 F200.000
G1 X28.520 Y34.743 Z-0.200 F200.000
G1 X28.520 Y34.743 Z-0.300 F100.000
G1 X30.070 Y34.743 Z-0.300 F200.000
G1 X30.070 Y35.693 Z-0.300 F200.000
G1 X28.520 Y35.693 Z-0.300 F200.000
G1 X28.520 Y34.743 Z-0.300 F200.000
G0 Z1.000
G0 Z1.000
G0 X28.520 Y34.743
G0 X27.239
G0 X27.239 Z0.500
G1 X27.239 Y34.743 Z-0.200 F100.000
G1 X27.239 Y35.693 Z-0.200 F200.000
G1 X25.689 Y35.693 Z-0.200 F200.000
G1 X25.689 Y34.743 Z-0.200 F200.000
G1 X27.239 Y34.743 Z-0.200 F200.000
G1 X27.239 Y34.743 Z-0.300 F100.000
G1 X27.239 Y35.693 Z-0.300 F200.000
G1 X25.689 Y35.693 Z-0.300 F200.000
G1 X25.689 Y34.743 Z-0.300 F200.000
G1 X27.239 Y34.743 Z-0.300 F200.000
G0 Z1.000
G0 Z1.000
G0 X27.239 Y34.743
G0 X24.965 Y37.352
G0 X24.965 Y37.352 Z0.500
G1 X24.965 Y37.352 Z-0.200 F100.000
G1 X24.965 Y37.801 Z-0.200 F200.000
G1 X23.564 Y37.801 Z-0.200 F200.000
G1 X23.564 Y37.352 Z-0.200 F200.000
G1 X24.965 Y37.352 Z-0.200 F200.000
G1 X24.965 Y37.352 Z-0.300 F100.000
G1 X24.965 Y37.801 Z-0.300 F200.000
G1 X23.564 Y37.801 Z-0.300 F200.000
G1 X23.564 Y37.352 Z-0.300 F200.000
G1 X24.965 Y37.352 Z-0.300 F200.000
G0 Z1.000
G0 Z1.000
G0 X24.965 Y37.352
G0 Y38.622
G0 Y38.622 Z0.500
G1 X24.965 Y38.622 Z-0.200 F100.000
G1 X24.965 Y39.072 Z-0.200 F200.000
G1 X23.564 Y39.072 Z-0.200 F200.000
G1 X23.564 Y38.622 Z-0.200 F200.000
G1 X24.965 Y38.622 Z-0.200 F200.000
G1 X24.965 Y38.622 Z-0.300 F100.000
G1 X24.965 Y39.072 Z-0.300 F200.000
G1 X23.564 Y39.072 Z-0.300 F200.000
G1 X23.564 Y38.622 Z-0.300 F200.000
G1 X24.965 Y38.622 Z-0.300 F200.000
G0 Z1.000
G0 Z1.000
G0 X24.965 Y38.622
G0 Y39.903
G0 Y39.903 Z0.500
G1 X24.965 Y39.903 Z-0.200 F100.000
G1 X24.965 Y40.352 Z-0.200 F200.000
G1 X23.564 Y40.352 Z-0.200 F200.000
G1 X23.564 Y39.903 Z-0.200 F200.000
G1 X24.965 Y39.903 Z-0.200 F200.000
G1 X24.965 Y39.903 Z-0.300 F100.000
G1 X24.965 Y40.352 Z-0.300 F200.000
G1 X23.564 Y40.352 Z-0.300 F200.000
G1 X23.564 Y39.903 Z-0.300 F200.000
G1 X24.965 Y39.903 Z-0.300 F200.000
G0 Z1.000
G0 Z1.000
G0 X24.965 Y39.903
G0 Y41.172
G0 Y41.172 Z0.500
G1 X24.965 Y41.172 Z-0.200 F100.000
G1 X24.965 Y41.621 Z-0.200 F200.000
G1 X23.564 Y41.621 Z-0.200 F200.000
G1 X23.564 Y41.172 Z-0.200 F200.000
G1 X24.965 Y41.172 Z-0.200 F200.000
G1 X24.965 Y41.172 Z-0.300 F100.000
G1 X24.965 Y41.621 Z-0.300 F200.000
G1 X23.564 Y41.621 Z-0.300 F200.000
G1 X23.564 Y41.172 Z-0.300 F200.000
G1 X24.965 Y41.172 Z-0.300 F200.000
G0 Z1.000
G0 Z1.000
G0 X24.965 Y41.172
G0 X26.085 Y40.453
G0 X26.085 Y40.453 Z0.500
G1 X26.085 Y40.453 Z-0.200 F100.000
G1 X26.085 Y39.802 Z-0.200 F200.000
G1 X26.785 Y39.802 Z-0.200 F200.000
G1 X26.785 Y40.453 Z-0.200 F200.000
G1 X26.085 Y40.453 Z-0.200 F200.000
G1 X26.085 Y40.453 Z-0.300 F100.000
G1 X26.085 Y39.802 Z-0.300 F200.000
G1 X26.785 Y39.802 Z-0.300 F200.000
G1 X26.785 Y40.453 Z-0.300 F200.000
G1 X26.085 Y40.453 Z-0.300 F200.000
G0 Z1.000
G0 Z1.000
G0 X26.085 Y40.453
G0 Y38.953
G0 Y38.953 Z0.500
G1 X26.085 Y38.953 Z-0.200 F100.000
G1 X26.085 Y38.302 Z-0.200 F200.000
G1 X26.785 Y38.302 Z-0.200 F200.000
G1 X26.785 Y38.953 Z-0.200 F200.000
G1 X26.085 Y38.953 Z-0.200 F200.000
G1 X26.085 Y38.953 Z-0.300 F100.000
G1 X26.085 Y38.302 Z-0.300 F200.000
G1 X26.785 Y38.302 Z-0.300 F200.000
G1 X26.785 Y38.953 Z-0.300 F200.000
G1 X26.085 Y38.953 Z-0.300 F200.000
G0 Z1.000
G0 Z1.000
G0 X26.085 Y38.953
G0 X22.670 Y35.957
G0 X22.670 Y35.957 Z0.500
G1 X22.670 Y35.957 Z-0.200 F100.000
G1 X22.019 Y35.957 Z-0.200 F200.000
G1 X22.019 Y35.257 Z-0.200 F200.000
G1 X22.670 Y35.257 Z-0.200 F200.000
G1 X22.670 Y35.957 Z-0.200 F200.000
G1 X22.670 Y35.957 Z-0.300 F100.000
G1 X22.019 Y35.957 Z-0.300 F200.000
G1 X22.019 Y35.257 Z-0.300 F200.000
G1 X22.670 Y35.257 Z-0.300 F200.000
G1 X22.670 Y35.957 Z-0.300 F200.000
G0 Z1.000
G0 Z1.000
G0 X22.670 Y35.957
G0 X21.171
G0 X21.171 Z0.500
G1 X21.171 Y35.957 Z-0.200 F100.000
G1 X20.520 Y35.957 Z-0.200 F200.000
G1 X20.520 Y35.257 Z-0.200 F200.000
G1 X21.171 Y35.257 Z-0.200 F200.000
G1 X21.171 Y35.957 Z-0.200 F200.000
G1 X21.171 Y35.957 Z-0.300 F100.000
G1 X20.520 Y35.957 Z-0.300 F200.000
G1 X20.520 Y35.257 Z-0.300 F200.000
G1 X21.171 Y35.257 Z-0.300 F200.000
G1 X21.171 Y35.957 Z-0.300 F200.000
G0 Z1.000
G0 Z1.000
G0 X21.171 Y35.957
G0 X19.625 Y37.353
G0 X19.625 Y37.353 Z0.500
G1 X19.625 Y37.353 Z-0.200 F100.000
G1 X19.625 Y37.803 Z-0.200 F200.000
G1 X18.224 Y37.803 Z-0.200 F200.000
G1 X18.224 Y37.353 Z-0.200 F200.000
G1 X19.625 Y37.353 Z-0.200 F200.000
G1 X19.625 Y37.353 Z-0.300 F100.000
G1 X19.625 Y37.803 Z-0.300 F200.000
G1 X18.224 Y37.803 Z-0.300 F200.000
G1 X18.224 Y37.353 Z-0.300 F200.000
G1 X19.625 Y37.353 Z-0.300 F200.000
G0 Z1.000
G0 Z1.000
G0 X19.625 Y37.353
G0 Y38.622
G0 Y38.622 Z0.500
G1 X19.625 Y38.622 Z-0.200 F100.000
G1 X19.625 Y39.072 Z-0.200 F200.000
G1 X18.224 Y39.072 Z-0.200 F200.000
G1 X18.224 Y38.622 Z-0.200 F200.000
G1 X19.625 Y38.622 Z-0.200 F200.000
G1 X19.625 Y38.622 Z-0.300 F100.000
G1 X19.625 Y39.072 Z-0.300 F200.000
G1 X18.224 Y39.072 Z-0.300 F200.000
G1 X18.224 Y38.622 Z-0.300 F200.000
G1 X19.625 Y38.622 Z-0.300 F200.000
G0 Z1.000
G0 Z1.000
G0 X19.625 Y38.622
G0 Y39.903
G0 Y39.903 Z0.500
G1 X19.625 Y39.903 Z-0.200 F100.000
G1 X19.625 Y40.352 Z-0.200 F200.000
G1 X18.224 Y40.352 Z-0.200 F200.000
G1 X18.224 Y39.903 Z-0.200 F200.000
G1 X19.625 Y39.903 Z-0.200 F200.000
G1 X19.625 Y39.903 Z-0.300 F100.000
G1 X19.625 Y40.352 Z-0.300 F200.000
G1 X18.224 Y40.352 Z-0.300 F200.000
G1 X18.224 Y39.903 Z-0.300 F200.000
G1 X19.625 Y39.903 Z-0.300 F200.000
G0 Z1.000
G0 Z1.000
G0 X19.625 Y39.903
G0 Y41.173
G0 Y41.173 Z0.500
G1 X19.625 Y41.173 Z-0.200 F100.000
G1 X19.625 Y41.623 Z-0.200 F200.000
G1 X18.224 Y41.623 Z-0.200 F200.000
G1 X18.224 Y41.173 Z-0.200 F200.000
G1 X19.625 Y41.173 Z-0.200 F200.000
G1 X19.625 Y41.173 Z-0.300 F100.000
G1 X19.625 Y41.623 Z-0.300 F200.000
G1 X18.224 Y41.623 Z-0.300 F200.000
G1 X18.224 Y41.173 Z-0.300 F200.000
G1 X19.625 Y41.173 Z-0.300 F200.000
G0 Z1.000
G0 Z1.000
G0 X19.625 Y41.173
G0 X17.104 Y40.672
G0 X17.104 Y40.672 Z0.500
G1 X17.104 Y40.672 Z-0.200 F100.000
G1 X16.404 Y40.672 Z-0.200 F200.000
G1 X16.404 Y40.021 Z-0.200 F200.000
G1 X17.104 Y40.021 Z-0.200 F200.000
G1 X17.104 Y40.672 Z-0.200 F200.000
G1 X17.104 Y40.672 Z-0.300 F100.000
G1 X16.404 Y40.672 Z-0.300 F200.000
G1 X16.404 Y40.021 Z-0.300 F200.000
G1 X17.104 Y40.021 Z-0.300 F200.000
G1 X17.104 Y40.672 Z-0.300 F200.000
G0 Z1.000
G0 Z1.000
G0 X17.104 Y40.672
G0 X15.289
G0 X15.289 Z0.500
G1 X15.289 Y40.672 Z-0.200 F100.000
G1 X15.289 Y41.303 Z-0.200 F200.000
G1 X14.039 Y41.303 Z-0.200 F200.000
G1 X14.039 Y40.353 Z-0.200 F200.000
G1 X15.289 Y40.353 Z-0.200 F200.000
G1 X15.289 Y40.672 Z-0.200 F200.000
G1 X15.289 Y40.672 Z-0.300 F100.000
G1 X15.289 Y41.303 Z-0.300 F200.000
G1 X14.039 Y41.303 Z-0.300 F200.000
G1 X14.039 Y40.353 Z-0.300 F200.000
G1 X15.289 Y40.353 Z-0.300 F200.000
G1 X15.289 Y40.672 Z-0.300 F200.000
G0 Z1.000
G0 Z1.000
G0 X15.289 Y40.672
G0 Y39.502
G0 Y39.502 Z0.500
G1 X15.289 Y39.502 Z-0.200 F100.000
G1 X14.039 Y39.502 Z-0.200 F200.000
G1 X14.039 Y38.552 Z-0.200 F200.000
G1 X15.289 Y38.552 Z-0.200 F200.000
G1 X15.289 Y39.502 Z-0.200 F200.000
G1 X15.289 Y39.502 Z-0.300 F100.000
G1 X14.039 Y39.502 Z-0.300 F200.000
G1 X14.039 Y38.552 Z-0.300 F200.000
G1 X15.289 Y38.552 Z-0.300 F200.000
G1 X15.289 Y39.502 Z-0.300 F200.000
G0 Z1.000
G0 Z1.000
G0 X15.289 Y39.502
G0 X12.910
G0 X12.910 Z0.500
G1 X12.910 Y39.502 Z-0.200 F100.000
G1 X12.160 Y39.502 Z-0.200 F200.000
G1 X12.160 Y39.152 Z-0.200 F200.000
G1 X12.910 Y39.152 Z-0.200 F200.000
G1 X12.910 Y39.502 Z-0.200 F200.000
G1 X12.910 Y39.502 Z-0.300 F100.000
G1 X12.160 Y39.502 Z-0.300 F200.000
G1 X12.160 Y39.152 Z-0.300 F200.000
G1 X12.910 Y39.152 Z-0.300 F200.000
G1 X12.910 Y39.502 Z-0.300 F200.000
G0 Z1.000
G0 Z1.000
G0 X12.910 Y39.502
G0 Y40.652
G0 Y40.652 Z0.500
G1 X12.910 Y40.652 Z-0.200 F100.000
G1 X12.910 Y41.003 Z-0.200 F200.000
G1 X12.160 Y41.003 Z-0.200 F200.000
G1 X12.160 Y40.652 Z-0.200 F200.000
G1 X12.910 Y40.652 Z-0.200 F200.000
G1 X12.910 Y40.652 Z-0.300 F100.000
G1 X12.910 Y41.003 Z-0.300 F200.000
G1 X12.160 Y41.003 Z-0.300 F200.000
G1 X12.160 Y40.652 Z-0.300 F200.000
G1 X12.910 Y40.652 Z-0.300 F200.000
G0 Z1.000
G0 Z1.000
G0 X12.910 Y40.652
G0 X15.080 Y37.432
G0 X15.080 Y37.432 Z0.500
G1 X15.080 Y37.432 Z-0.200 F100.000
G1 X15.080 Y36.682 Z-0.200 F200.000
G1 X15.430 Y36.682 Z-0.200 F200.000
G1 X15.430 Y37.432 Z-0.200 F200.000
G1 X15.080 Y37.432 Z-0.200 F200.000
G1 X15.080 Y37.432 Z-0.300 F100.000
G1 X15.080 Y36.682 Z-0.300 F200.000
G1 X15.430 Y36.682 Z-0.300 F200.000
G1 X15.430 Y37.432 Z-0.300 F200.000
G1 X15.080 Y37.432 Z-0.300 F200.000
G0 Z1.000
G0 Z1.000
G0 X15.080 Y37.432
G0 Y35.602
G0 Y35.602 Z0.500
G1 X15.080 Y35.602 Z-0.200 F100.000
G1 X15.080 Y34.852 Z-0.200 F200.000
G1 X15.430 Y34.852 Z-0.200 F200.000
G1 X15.430 Y35.602 Z-0.200 F200.000
G1 X15.080 Y35.602 Z-0.200 F200.000
G1 X15.080 Y35.602 Z-0.300 F100.000
G1 X15.080 Y34.852 Z-0.300 F200.000
G1 X15.430 Y34.852 Z-0.300 F200.000
G1 X15.430 Y35.602 Z-0.300 F200.000
G1 X15.080 Y35.602 Z-0.300 F200.000
G0 Z1.000
G0 Z1.000
G0 X15.080 Y35.602
G0 X16.579
G0 X16.579 Z0.500
G1 X16.579 Y35.602 Z-0.200 F100.000
G1 X16.579 Y34.852 Z-0.200 F200.000
G1 X16.929 Y34.852 Z-0.200 F200.000
G1 X16.929 Y35.602 Z-0.200 F200.000
G1 X16.579 Y35.602 Z-0.200 F200.000
G1 X16.579 Y35.602 Z-0.300 F100.000
G1 X16.579 Y34.852 Z-0.300 F200.000
G1 X16.929 Y34.852 Z-0.300 F200.000
G1 X16.929 Y35.602 Z-0.300 F200.000
G1 X16.579 Y35.602 Z-0.300 F200.000
G0 Z1.000
G0 Z1.000
G0 X16.579 Y35.602
G0 Y36.682
G0 Y36.682 Z0.500
G1 X16.579 Y36.682 Z-0.200 F100.000
G1 X16.929 Y36.682 Z-0.200 F200.000
G1 X16.929 Y37.432 Z-0.200 F200.000
G1 X16.579 Y37.432 Z-0.200 F200.000
G1 X16.579 Y36.682 Z-0.200 F200.000
G1 X16.579 Y36.682 Z-0.300 F100.000
G1 X16.929 Y36.682 Z-0.300 F200.000
G1 X16.929 Y37.432 Z-0.300 F200.000
G1 X16.579 Y37.432 Z-0.300 F200.000
G1 X16.579 Y36.682 Z-0.300 F200.000
G0 Z1.000
G0 Z1.000
G0 X16.579 Y36.682
G0 Y38.522
G0 Y38.522 Z0.500
G1 X16.579 Y38.522 Z-0.200 F100.000
G1 X17.104 Y38.522 Z-0.200 F200.000
G1 X17.104 Y39.172 Z-0.200 F200.000
G1 X16.404 Y39.172 Z-0.200 F200.000
G1 X16.404 Y38.522 Z-0.200 F200.000
G1 X16.579 Y38.522 Z-0.200 F200.000
G1 X16.579 Y38.522 Z-0.300 F100.000
G1 X17.104 Y38.522 Z-0.300 F200.000
G1 X17.104 Y39.172 Z-0.300 F200.000
G1 X16.404 Y39.172 Z-0.300 F200.000
G1 X16.404 Y38.522 Z-0.300 F200.000
G1 X16.579 Y38.522 Z-0.300 F200.000
G0 Z1.000
G0 Z1.000
G0 X16.579 Y38.522
G0 Y33.482
G0 Y33.482 Z0.500
G1 X16.579 Y33.482 Z-0.200 F100.000
G1 X15.773 Y33.482 Z-0.200 F200.000
G1 X15.773 Y30.891 Z-0.200 F200.000
G1 X17.217 Y30.891 Z-0.200 F200.000
G1 X17.217 Y33.482 Z-0.200 F200.000
G1 X16.579 Y33.482 Z-0.200 F200.000
G1 X16.579 Y33.482 Z-0.300 F100.000
G1 X15.773 Y33.482 Z-0.300 F200.000
G1 X15.773 Y30.891 Z-0.300 F200.000
G1 X17.217 Y30.891 Z-0.300 F200.000
G1 X17.217 Y33.482 Z-0.300 F200.000
G1 X16.579 Y33.482 Z-0.300 F200.000
G0 Z1.000
G0 Z1.000
G0 X16.579 Y33.482
G0 X20.520 Y43.017
G0 X20.520 Y43.017 Z0.500
G1 X20.520 Y43.017 Z-0.200 F100.000
G1 X21.171 Y43.017 Z-0.200 F200.000
G1 X21.171 Y43.717 Z-0.200 F200.000
G1 X20.520 Y43.717 Z-0.200 F200.000
G1 X20.520 Y43.017 Z-0.200 F200.000
G1 X20.520 Y43.017 Z-0.300 F100.000
G1 X21.171 Y43.017 Z-0.300 F200.000
G1 X21.171 Y43.717 Z-0.300 F200.000
G1 X20.520 Y43.717 Z-0.300 F200.000
G1 X20.520 Y43.017 Z-0.300 F200.000
G0 Z1.000
G0 Z1.000
G0 X20.520 Y43.017
G0 X22.019
G0 X22.019 Z0.500
G1 X22.019 Y43.017 Z-0.200 F100.000
G1 X22.670 Y43.017 Z-0.200 F200.000
G1 X22.670 Y43.717 Z-0.200 F200.000
G1 X22.019 Y43.717 Z-0.200 F200.000
G1 X22.019 Y43.017 Z-0.200 F200.000
G1 X22.019 Y43.017 Z-0.300 F100.000
G1 X22.670 Y43.017 Z-0.300 F200.000
G1 X22.670 Y43.717 Z-0.300 F200.000
G1 X22.019 Y43.717 Z-0.300 F200.000
G1 X22.019 Y43.017 Z-0.300 F200.000
G0 Z1.000
G0 Z1.000
G0 X22.019 Y43.017
G0 X30.949 Y44.402
G0 X30.949 Y44.402 Z0.500
G1 X30.949 Y44.402 Z-0.200 F100.000
G1 X32.290 Y44.402 Z-0.200 F200.000
G1 X32.290 Y44.953 Z-0.200 F200.000
G1 X30.949 Y44.953 Z-0.200 F200.000
G1 X30.949 Y44.402 Z-0.200 F200.000
G1 X30.949 Y44.402 Z-0.300 F100.000
G1 X32.290 Y44.402 Z-0.300 F200.000
G1 X32.290 Y44.953 Z-0.300 F200.000
G1 X30.949 Y44.953 Z-0.300 F200.000
G1 X30.949 Y44.402 Z-0.300 F200.000
G0 Z1.000
G0 Z1.000
G0 X30.949 Y44.402
G0 Y46.942
G0 Y46.942 Z0.500
G1 X30.949 Y46.942 Z-0.200 F100.000
G1 X32.290 Y46.942 Z-0.200 F200.000
G1 X32.290 Y47.493 Z-0.200 F200.000
G1 X30.949 Y47.493 Z-0.200 F200.000
G1 X30.949 Y46.942 Z-0.200 F200.000
G1 X30.949 Y46.942 Z-0.300 F100.000
G1 X32.290 Y46.942 Z-0.300 F200.000
G1 X32.290 Y47.493 Z-0.300 F200.000
G1 X30.949 Y47.493 Z-0.300 F200.000
G1 X30.949 Y46.942 Z-0.300 F200.000
G0 Z1.000
G0 Z1.000
G0 X30.949 Y46.942
G0 Y49.481
G0 Y49.481 Z0.500
G1 X30.949 Y49.481 Z-0.200 F100.000
G1 X32.290 Y49.481 Z-0.200 F200.000
G1 X32.290 Y50.033 Z-0.200 F200.000
G1 X30.949 Y50.033 Z-0.200 F200.000
G1 X30.949 Y49.481 Z-0.200 F200.000
G1 X30.949 Y49.481 Z-0.300 F100.000
G1 X32.290 Y49.481 Z-0.300 F200.000
G1 X32.290 Y50.033 Z-0.300 F200.000
G1 X30.949 Y50.033 Z-0.300 F200.000
G1 X30.949 Y49.481 Z-0.300 F200.000
G0 Z1.000
G0 Z1.000
G0 X30.949 Y49.481
G0 Y52.021
G0 Y52.021 Z0.500
G1 X30.949 Y52.021 Z-0.200 F100.000
G1 X32.290 Y52.021 Z-0.200 F200.000
G1 X32.290 Y52.573 Z-0.200 F200.000
G1 X30.949 Y52.573 Z-0.200 F200.000
G1 X30.949 Y52.021 Z-0.200 F200.000
G1 X30.949 Y52.021 Z-0.300 F100.000
G1 X32.290 Y52.021 Z-0.300 F200.000
G1 X32.290 Y52.573 Z-0.300 F200.000
G1 X30.949 Y52.573 Z-0.300 F200.000
G1 X30.949 Y52.021 Z-0.300 F200.000
G0 Z1.000
G0 Z1.000
G0 X30.949 Y52.021
G0 X38.100
G0 X38.100 Z0.500
G1 X38.100 Y52.021 Z-0.200 F100.000
G1 X39.441 Y52.021 Z-0.200 F200.000
G1 X39.441 Y52.573 Z-0.200 F200.000
G1 X38.100 Y52.573 Z-0.200 F200.000
G1 X38.100 Y52.021 Z-0.200 F200.000
G1 X38.100 Y52.021 Z-0.300 F100.000
G1 X39.441 Y52.021 Z-0.300 F200.000
G1 X39.441 Y52.573 Z-0.300 F200.000
G1 X38.100 Y52.573 Z-0.300 F200.000
G1 X38.100 Y52.021 Z-0.300 F200.000
G0 Z1.000
G0 Z1.000
G0 X38.100 Y52.021
G0 Y50.033
G0 Y50.033 Z0.500
G1 X38.100 Y50.033 Z-0.200 F100.000
G1 X38.100 Y49.481 Z-0.200 F200.000
G1 X39.441 Y49.481 Z-0.200 F200.000
G1 X39.441 Y50.033 Z-0.200 F200.000
G1 X38.100 Y50.033 Z-0.200 F200.000
G1 X38.100 Y50.033 Z-0.300 F100.000
G1 X38.100 Y49.481 Z-0.300 F200.000
G1 X39.441 Y49.481 Z-0.300 F200.000
G1 X39.441 Y50.033 Z-0.300 F200.000
G1 X38.100 Y50.033 Z-0.300 F200.000
G0 Z1.000
G0 Z1.000
G0 X38.100 Y50.033
G0 Y47.493
G0 Y47.493 Z0.500
G1 X38.100 Y47.493 Z-0.200 F100.000
G1 X38.100 Y46.942 Z-0.200 F200.000
G1 X39.441 Y46.942 Z-0.200 F200.000
G1 X39.441 Y47.493 Z-0.200 F200.000
G1 X38.100 Y47.493 Z-0.200 F200.000
G1 X38.100 Y47.493 Z-0.300 F100.000
G1 X38.100 Y46.942 Z-0.300 F200.000
G1 X39.441 Y46.942 Z-0.300 F200.000
G1 X39.441 Y47.493 Z-0.300 F200.000
G1 X38.100 Y47.493 Z-0.300 F200.000
G0 Z1.000
G0 Z1.000
G0 X38.100 Y47.493
G0 Y44.953
G0 Y44.953 Z0.500
G1 X38.100 Y44.953 Z-0.200 F100.000
G1 X38.100 Y44.402 Z-0.200 F200.000
G1 X39.441 Y44.402 Z-0.200 F200.000
G1 X39.441 Y44.953 Z-0.200 F200.000
G1 X38.100 Y44.953 Z-0.200 F200.000
G1 X38.100 Y44.953 Z-0.300 F100.000
G1 X38.100 Y44.402 Z-0.300 F200.000
G1 X39.441 Y44.402 Z-0.300 F200.000
G1 X39.441 Y44.953 Z-0.300 F200.000
G1 X38.100 Y44.953 Z-0.300 F200.000
G0 Z1.000
G0 Z1.000
G0 X38.100 Y44.953
G0 X40.919
G0 X40.919 Z0.500
G1 X40.919 Y44.953 Z-0.200 F100.000
G1 X40.919 Y43.562 Z-0.200 F200.000
G1 X41.369 Y43.562 Z-0.200 F200.000
G1 X41.369 Y45.212 Z-0.200 F200.000
G1 X40.919 Y45.212 Z-0.200 F200.000
G1 X40.919 Y44.953 Z-0.200 F200.000
G1 X40.919 Y44.953 Z-0.300 F100.000
G1 X40.919 Y43.562 Z-0.300 F200.000
G1 X41.369 Y43.562 Z-0.300 F200.000
G1 X41.369 Y45.212 Z-0.300 F200.000
G1 X40.919 Y45.212 Z-0.300 F200.000
G1 X40.919 Y44.953 Z-0.300 F200.000
G0 Z1.000
G0 Z1.000
G0 X40.919 Y44.953
G0 X43.419
G0 X43.419 Z0.500
G1 X43.419 Y44.953 Z-0.200 F100.000
G1 X43.419 Y43.562 Z-0.200 F200.000
G1 X43.868 Y43.562 Z-0.200 F200.000
G1 X43.868 Y45.212 Z-0.200 F200.000
G1 X43.419 Y45.212 Z-0.200 F200.000
G1 X43.419 Y44.953 Z-0.200 F200.000
G1 X43.419 Y44.953 Z-0.300 F100.000
G1 X43.419 Y43.562 Z-0.300 F200.000
G1 X43.868 Y43.562 Z-0.300 F200.000
G1 X43.868 Y45.212 Z-0.300 F200.000
G1 X43.419 Y45.212 Z-0.300 F200.000
G1 X43.419 Y44.953 Z-0.300 F200.000
G0 Z1.000
G0 Z1.000
G0 X43.419 Y44.953
G0 X41.985 Y42.363
G0 X41.985 Y42.363 Z0.500
G1 X41.985 Y42.363 Z-0.200 F100.000
G1 X41.235 Y42.363 Z-0.200 F200.000
G1 X41.235 Y41.512 Z-0.200 F200.000
G1 X41.985 Y41.512 Z-0.200 F200.000
G1 X41.985 Y42.363 Z-0.200 F200.000
G1 X41.985 Y42.363 Z-0.300 F100.000
G1 X41.235 Y42.363 Z-0.300 F200.000
G1 X41.235 Y41.512 Z-0.300 F200.000
G1 X41.985 Y41.512 Z-0.300 F200.000
G1 X41.985 Y42.363 Z-0.300 F200.000
G0 Z1.000
G0 Z1.000
G0 X41.985 Y42.363
G0 X41.034 Y40.163
G0 X41.034 Y40.163 Z0.500
G1 X41.034 Y40.163 Z-0.200 F100.000
G1 X40.284 Y40.163 Z-0.200 F200.000
G1 X40.284 Y39.313 Z-0.200 F200.000
G1 X41.034 Y39.313 Z-0.200 F200.000
G1 X41.034 Y40.163 Z-0.200 F200.000
G1 X41.034 Y40.163 Z-0.300 F100.000
G1 X40.284 Y40.163 Z-0.300 F200.000
G1 X40.284 Y39.313 Z-0.300 F200.000
G1 X41.034 Y39.313 Z-0.300 F200.000
G1 X41.034 Y40.163 Z-0.300 F200.000
G0 Z1.000
G0 Z1.000
G0 X41.034 Y40.163
G0 X39.095 Y40.087
G0 X39.095 Y40.087 Z0.500
G1 X39.095 Y40.087 Z-0.200 F100.000
G1 X38.444 Y40.087 Z-0.200 F200.000
G1 X38.444 Y39.387 Z-0.200 F200.000
G1 X39.095 Y39.387 Z-0.200 F200.000
G1 X39.095 Y40.087 Z-0.200 F200.000
G1 X39.095 Y40.087 Z-0.300 F100.000
G1 X38.444 Y40.087 Z-0.300 F200.000
G1 X38.444 Y39.387 Z-0.300 F200.000
G1 X39.095 Y39.387 Z-0.300 F200.000
G1 X39.095 Y40.087 Z-0.300 F200.000
G0 Z1.000
G0 Z1.000
G0 X39.095 Y40.087
G0 X37.596
G0 X37.596 Z0.500
G1 X37.596 Y40.087 Z-0.200 F100.000
G1 X36.945 Y40.087 Z-0.200 F200.000
G1 X36.945 Y39.387 Z-0.200 F200.000
G1 X37.596 Y39.387 Z-0.200 F200.000
G1 X37.596 Y40.087 Z-0.200 F200.000
G1 X37.596 Y40.087 Z-0.300 F100.000
G1 X36.945 Y40.087 Z-0.300 F200.000
G1 X36.945 Y39.387 Z-0.300 F200.000
G1 X37.596 Y39.387 Z-0.300 F200.000
G1 X37.596 Y40.087 Z-0.300 F200.000
G0 Z1.000
G0 Z1.000
G0 X37.596 Y40.087
G0 X36.944 Y41.782
G0 X36.944 Y41.782 Z0.500
G1 X36.944 Y41.782 Z-0.200 F100.000
G1 X36.944 Y42.032 Z-0.200 F200.000
G1 X36.194 Y42.032 Z-0.200 F200.000
G1 X36.194 Y41.782 Z-0.200 F200.000
G1 X36.944 Y41.782 Z-0.200 F200.000
G1 X36.944 Y41.782 Z-0.300 F100.000
G1 X36.944 Y42.032 Z-0.300 F200.000
G1 X36.194 Y42.032 Z-0.300 F200.000
G1 X36.194 Y41.782 Z-0.300 F200.000
G1 X36.944 Y41.782 Z-0.300 F200.000
G0 Z1.000
G0 Z1.000
G0 X36.944 Y41.782
G0 X38.395
G0 X38.395 Z0.500
G1 X38.395 Y41.782 Z-0.200 F100.000
G1 X39.145 Y41.782 Z-0.200 F200.000
G1 X39.145 Y42.032 Z-0.200 F200.000
G1 X38.395 Y42.032 Z-0.200 F200.000
G1 X38.395 Y41.782 Z-0.200 F200.000
G1 X38.395 Y41.782 Z-0.300 F100.000
G1 X39.145 Y41.782 Z-0.300 F200.000
G1 X39.145 Y42.032 Z-0.300 F200.000
G1 X38.395 Y42.032 Z-0.300 F200.000
G1 X38.395 Y41.782 Z-0.300 F200.000
G0 Z1.000
G0 Z1.000
G0 X38.395 Y41.782
G0 X42.184 Y40.163
G0 X42.184 Y40.163 Z0.500
G1 X42.184 Y40.163 Z-0.200 F100.000
G1 X42.184 Y39.313 Z-0.200 F200.000
G1 X42.934 Y39.313 Z-0.200 F200.000
G1 X42.934 Y40.163 Z-0.200 F200.000
G1 X42.184 Y40.163 Z-0.200 F200.000
G1 X42.184 Y40.163 Z-0.300 F100.000
G1 X42.184 Y39.313 Z-0.300 F200.000
G1 X42.934 Y39.313 Z-0.300 F200.000
G1 X42.934 Y40.163 Z-0.300 F200.000
G1 X42.184 Y40.163 Z-0.300 F200.000
G0 Z1.000
G0 Z1.000
G0 X42.184 Y40.163
G0 X44.100 Y40.063
G0 X44.100 Y40.063 Z0.500
G1 X44.100 Y40.063 Z-0.200 F100.000
G1 X44.100 Y39.412 Z-0.200 F200.000
G1 X44.800 Y39.412 Z-0.200 F200.000
G1 X44.800 Y40.063 Z-0.200 F200.000
G1 X44.100 Y40.063 Z-0.200 F200.000
G1 X44.100 Y40.063 Z-0.300 F100.000
G1 X44.100 Y39.412 Z-0.300 F200.000
G1 X44.800 Y39.412 Z-0.300 F200.000
G1 X44.800 Y40.063 Z-0.300 F200.000
G1 X44.100 Y40.063 Z-0.300 F200.000
G0 Z1.000
G0 Z1.000
G0 X44.100 Y40.063
G0 Y40.911
G0 Y40.911 Z0.500
G1 X44.100 Y40.911 Z-0.200 F100.000
G1 X44.800 Y40.911 Z-0.200 F200.000
G1 X44.800 Y41.562 Z-0.200 F200.000
G1 X44.100 Y41.562 Z-0.200 F200.000
G1 X44.100 Y40.911 Z-0.200 F200.000
G1 X44.100 Y40.911 Z-0.300 F100.000
G1 X44.800 Y40.911 Z-0.300 F200.000
G1 X44.800 Y41.562 Z-0.300 F200.000
G1 X44.100 Y41.562 Z-0.300 F200.000
G1 X44.100 Y40.911 Z-0.300 F200.000
G0 Z1.000
G0 Z1.000
G0 X44.100 Y40.911
G0 X45.959 Y40.213
G0 X45.959 Y40.213 Z0.500
G1 X45.959 Y40.213 Z-0.200 F100.000
G1 X45.959 Y39.263 Z-0.200 F200.000
G1 X47.509 Y39.263 Z-0.200 F200.000
G1 X47.509 Y40.213 Z-0.200 F200.000
G1 X45.959 Y40.213 Z-0.200 F200.000
G1 X45.959 Y40.213 Z-0.300 F100.000
G1 X45.959 Y39.263 Z-0.300 F200.000
G1 X47.509 Y39.263 Z-0.300 F200.000
G1 X47.509 Y40.213 Z-0.300 F200.000
G1 X45.959 Y40.213 Z-0.300 F200.000
G0 Z1.000
G0 Z1.000
G0 X45.959 Y40.213
G0 X45.960 Y37.012
G0 X45.960 Y37.012 Z0.500
G1 X45.960 Y37.012 Z-0.200 F100.000
G1 X45.960 Y36.062 Z-0.200 F200.000
G1 X47.510 Y36.062 Z-0.200 F200.000
G1 X47.510 Y37.012 Z-0.200 F200.000
G1 X45.960 Y37.012 Z-0.200 F200.000
G1 X45.960 Y37.012 Z-0.300 F100.000
G1 X45.960 Y36.062 Z-0.300 F200.000
G1 X47.510 Y36.062 Z-0.300 F200.000
G1 X47.510 Y37.012 Z-0.300 F200.000
G1 X45.960 Y37.012 Z-0.300 F200.000
G0 Z1.000
G0 Z1.000
G0 X45.960 Y37.012
G0 X48.985 Y39.013
G0 X48.985 Y39.013 Z0.500
G1 X48.985 Y39.013 Z-0.200 F100.000
G1 X51.785 Y39.013 Z-0.200 F200.000
G1 X51.785 Y40.462 Z-0.200 F200.000
G1 X48.985 Y40.462 Z-0.200 F200.000
G1 X48.985 Y39.013 Z-0.200 F200.000
G1 X48.985 Y39.013 Z-0.300 F100.000
G1 X51.785 Y39.013 Z-0.300 F200.000
G1 X51.785 Y40.462 Z-0.300 F200.000
G1 X48.985 Y40.462 Z-0.300 F200.000
G1 X48.985 Y39.013 Z-0.300 F200.000
G0 Z1.000
G0 Z1.000
G0 X48.985 Y39.013
G0 X54.184
G0 X54.184 Z0.500
G1 X54.184 Y39.013 Z-0.200 F100.000
G1 X56.985 Y39.013 Z-0.200 F200.000
G1 X56.985 Y40.462 Z-0.200 F200.000
G1 X54.184 Y40.462 Z-0.200 F200.000
G1 X54.184 Y39.013 Z-0.200 F200.000
G1 X54.184 Y39.013 Z-0.300 F100.000
G1 X56.985 Y39.013 Z-0.300 F200.000
G1 X56.985 Y40.462 Z-0.300 F200.000
G1 X54.184 Y40.462 Z-0.300 F200.000
G1 X54.184 Y39.013 Z-0.300 F200.000
G0 Z1.000
G0 Z1.000
G0 X54.184 Y39.013
G0 X60.509 Y34.832
G0 X60.509 Y34.832 Z0.500
G1 X60.509 Y34.832 Z-0.200 F100.000
G1 X60.509 Y32.482 Z-0.200 F200.000
G1 X61.959 Y32.482 Z-0.200 F200.000
G1 X61.959 Y34.832 Z-0.200 F200.000
G1 X60.509 Y34.832 Z-0.200 F200.000
G1 X60.509 Y34.832 Z-0.300 F100.000
G1 X60.509 Y32.482 Z-0.300 F200.000
G1 X61.959 Y32.482 Z-0.300 F200.000
G1 X61.959 Y34.832 Z-0.300 F200.000
G1 X60.509 Y34.832 Z-0.300 F200.000
G0 Z1.000
G0 Z1.000
G0 X60.509 Y34.832
G0 Y31.533
G0 Y31.533 Z0.500
G1 X60.509 Y31.533 Z-0.200 F100.000
G1 X60.509 Y29.183 Z-0.200 F200.000
G1 X61.959 Y29.183 Z-0.200 F200.000
G1 X61.959 Y31.533 Z-0.200 F200.000
G1 X60.509 Y31.533 Z-0.200 F200.000
G1 X60.509 Y31.533 Z-0.300 F100.000
G1 X60.509 Y29.183 Z-0.300 F200.000
G1 X61.959 Y29.183 Z-0.300 F200.000
G1 X61.959 Y31.533 Z-0.300 F200.000
G1 X60.509 Y31.533 Z-0.300 F200.000
G0 Z1.000
G0 Z1.000
G0 X60.509 Y31.533
G0 X59.781 Y27.673
G0 X59.781 Y27.673 Z0.500
G1 X59.781 Y27.673 Z-0.200 F100.000
G1 X58.930 Y27.673 Z-0.200 F200.000
G1 X58.930 Y26.923 Z-0.200 F200.000
G1 X59.781 Y26.923 Z-0.200 F200.000
G1 X59.781 Y27.673 Z-0.200 F200.000
G1 X59.781 Y27.673 Z-0.300 F100.000
G1 X58.930 Y27.673 Z-0.300 F200.000
G1 X58.930 Y26.923 Z-0.300 F200.000
G1 X59.781 Y26.923 Z-0.300 F200.000
G1 X59.781 Y27.673 Z-0.300 F200.000
G0 Z1.000
G0 Z1.000
G0 X59.781 Y27.673
G0 Y25.772
G0 Y25.772 Z0.500
G1 X59.781 Y25.772 Z-0.200 F100.000
G1 X58.930 Y25.772 Z-0.200 F200.000
G1 X58.930 Y25.022 Z-0.200 F200.000
G1 X59.781 Y25.022 Z-0.200 F200.000
G1 X59.781 Y25.772 Z-0.200 F200.000
G1 X59.781 Y25.772 Z-0.300 F100.000
G1 X58.930 Y25.772 Z-0.300 F200.000
G1 X58.930 Y25.022 Z-0.300 F200.000
G1 X59.781 Y25.022 Z-0.300 F200.000
G1 X59.781 Y25.772 Z-0.300 F200.000
G0 Z1.000
G0 Z1.000
G0 X59.781 Y25.772
G0 X59.730 Y23.823
G0 X59.730 Y23.823 Z0.500
G1 X59.730 Y23.823 Z-0.200 F100.000
G1 X58.980 Y23.823 Z-0.200 F200.000
G1 X58.980 Y23.472 Z-0.200 F200.000
G1 X59.730 Y23.472 Z-0.200 F200.000
G1 X59.730 Y23.823 Z-0.200 F200.000
G1 X59.730 Y23.823 Z-0.300 F100.000
G1 X58.980 Y23.823 Z-0.300 F200.000
G1 X58.980 Y23.472 Z-0.300 F200.000
G1 X59.730 Y23.472 Z-0.300 F200.000
G1 X59.730 Y23.823 Z-0.300 F200.000
G0 Z1.000
G0 Z1.000
G0 X59.730 Y23.823
G0 Y22.322
G0 Y22.322 Z0.500
G1 X59.730 Y22.322 Z-0.200 F100.000
G1 X58.980 Y22.322 Z-0.200 F200.000
G1 X58.980 Y21.972 Z-0.200 F200.000
G1 X59.730 Y21.972 Z-0.200 F200.000
G1 X59.730 Y22.322 Z-0.200 F200.000
G1 X59.730 Y22.322 Z-0.300 F100.000
G1 X58.980 Y22.322 Z-0.300 F200.000
G1 X58.980 Y21.972 Z-0.300 F200.000
G1 X59.730 Y21.972 Z-0.300 F200.000
G1 X59.730 Y22.322 Z-0.300 F200.000
G0 Z1.000
G0 Z1.000
G0 X59.730 Y22.322
G0 X60.970 Y22.103
G0 X60.970 Y22.103 Z0.500
G1 X60.970 Y22.103 Z-0.200 F100.000
G1 X60.970 Y21.353 Z-0.200 F200.000
G1 X61.320 Y21.353 Z-0.200 F200.000
G1 X61.320 Y22.103 Z-0.200 F200.000
G1 X60.970 Y22.103 Z-0.200 F200.000
G1 X60.970 Y22.103 Z-0.300 F100.000
G1 X60.970 Y21.353 Z-0.300 F200.000
G1 X61.320 Y21.353 Z-0.300 F200.000
G1 X61.320 Y22.103 Z-0.300 F200.000
G1 X60.970 Y22.103 Z-0.300 F200.000
G0 Z1.000
G0 Z1.000
G0 X60.970 Y22.103
G0 Y23.167
G0 Y23.167 Z0.500
G1 X60.970 Y23.167 Z-0.200 F100.000
G1 X61.470 Y23.167 Z-0.200 F200.000
G1 X61.470 Y23.867 Z-0.200 F200.000
G1 X60.819 Y23.867 Z-0.200 F200.000
G1 X60.819 Y23.167 Z-0.200 F200.000
G1 X60.970 Y23.167 Z-0.200 F200.000
G1 X60.970 Y23.167 Z-0.300 F100.000
G1 X61.470 Y23.167 Z-0.300 F200.000
G1 X61.470 Y23.867 Z-0.300 F200.000
G1 X60.819 Y23.867 Z-0.300 F200.000
G1 X60.819 Y23.167 Z-0.300 F200.000
G1 X60.970 Y23.167 Z-0.300 F200.000
G0 Z1.000
G0 Z1.000
G0 X60.970 Y23.167
G0 X62.319 Y23.168
G0 X62.319 Y23.168 Z0.500
G1 X62.319 Y23.168 Z-0.200 F100.000
G1 X62.969 Y23.168 Z-0.200 F200.000
G1 X62.969 Y23.868 Z-0.200 F200.000
G1 X62.319 Y23.868 Z-0.200 F200.000
G1 X62.319 Y23.168 Z-0.200 F200.000
G1 X62.319 Y23.168 Z-0.300 F100.000
G1 X62.969 Y23.168 Z-0.300 F200.000
G1 X62.969 Y23.868 Z-0.300 F200.000
G1 X62.319 Y23.868 Z-0.300 F200.000
G1 X62.319 Y23.168 Z-0.300 F200.000
G0 Z1.000
G0 Z1.000
G0 X62.319 Y23.168
G0 X62.469 Y22.103
G0 X62.469 Y22.103 Z0.500
G1 X62.469 Y22.103 Z-0.200 F100.000
G1 X62.469 Y21.353 Z-0.200 F200.000
G1 X62.819 Y21.353 Z-0.200 F200.000
G1 X62.819 Y22.103 Z-0.200 F200.000
G1 X62.469 Y22.103 Z-0.200 F200.000
G1 X62.469 Y22.103 Z-0.300 F100.000
G1 X62.469 Y21.353 Z-0.300 F200.000
G1 X62.819 Y21.353 Z-0.300 F200.000
G1 X62.819 Y22.103 Z-0.300 F200.000
G1 X62.469 Y22.103 Z-0.300 F200.000
G0 Z1.000
G0 Z1.000
G0 X62.469 Y22.103
G0 X64.110
G0 X64.110 Z0.500
G1 X64.110 Y22.103 Z-0.200 F100.000
G1 X64.110 Y21.252 Z-0.200 F200.000
G1 X65.360 Y21.252 Z-0.200 F200.000
G1 X65.360 Y22.202 Z-0.200 F200.000
G1 X64.110 Y22.202 Z-0.200 F200.000
G1 X64.110 Y22.103 Z-0.200 F200.000
G1 X64.110 Y22.103 Z-0.300 F100.000
G1 X64.110 Y21.252 Z-0.300 F200.000
G1 X65.360 Y21.252 Z-0.300 F200.000
G1 X65.360 Y22.202 Z-0.300 F200.000
G1 X64.110 Y22.202 Z-0.300 F200.000
G1 X64.110 Y22.103 Z-0.300 F200.000
G0 Z1.000
G0 Z1.000
G0 X64.110 Y22.103
G0 X64.109 Y23.052
G0 X64.109 Y23.052 Z0.500
G1 X64.109 Y23.052 Z-0.200 F100.000
G1 X65.359 Y23.052 Z-0.200 F200.000
G1 X65.359 Y24.001 Z-0.200 F200.000
G1 X64.109 Y24.001 Z-0.200 F200.000
G1 X64.109 Y23.052 Z-0.200 F200.000
G1 X64.109 Y23.052 Z-0.300 F100.000
G1 X65.359 Y23.052 Z-0.300 F200.000
G1 X65.359 Y24.001 Z-0.300 F200.000
G1 X64.109 Y24.001 Z-0.300 F200.000
G1 X64.109 Y23.052 Z-0.300 F200.000
G0 Z1.000
G0 Z1.000
G0 X64.109 Y23.052
G0 X66.490 Y23.342
G0 X66.490 Y23.342 Z0.500
G1 X66.490 Y23.342 Z-0.200 F100.000
G1 X67.240 Y23.342 Z-0.200 F200.000
G1 X67.240 Y23.692 Z-0.200 F200.000
G1 X66.490 Y23.692 Z-0.200 F200.000
G1 X66.490 Y23.342 Z-0.200 F200.000
G1 X66.490 Y23.342 Z-0.300 F100.000
G1 X67.240 Y23.342 Z-0.300 F200.000
G1 X67.240 Y23.692 Z-0.300 F200.000
G1 X66.490 Y23.692 Z-0.300 F200.000
G1 X66.490 Y23.342 Z-0.300 F200.000
G0 Z1.000
G0 Z1.000
G0 X66.490 Y23.342
G0 Y22.192
G0 Y22.192 Z0.500
G1 X66.490 Y22.192 Z-0.200 F100.000
G1 X66.490 Y21.842 Z-0.200 F200.000
G1 X67.240 Y21.842 Z-0.200 F200.000
G1 X67.240 Y22.192 Z-0.200 F200.000
G1 X66.490 Y22.192 Z-0.200 F200.000
G1 X66.490 Y22.192 Z-0.300 F100.000
G1 X66.490 Y21.842 Z-0.300 F200.000
G1 X67.240 Y21.842 Z-0.300 F200.000
G1 X67.240 Y22.192 Z-0.300 F200.000
G1 X66.490 Y22.192 Z-0.300 F200.000
G0 Z1.000
G0 Z1.000
G0 X66.490 Y22.192
G0 X61.980 Y25.972
G0 X61.980 Y25.972 Z0.500
G1 X61.980 Y25.972 Z-0.200 F100.000
G1 X61.980 Y26.722 Z-0.200 F200.000
G1 X61.129 Y26.722 Z-0.200 F200.000
G1 X61.129 Y25.972 Z-0.200 F200.000
G1 X61.980 Y25.972 Z-0.200 F200.000
G1 X61.980 Y25.972 Z-0.300 F100.000
G1 X61.980 Y26.722 Z-0.300 F200.000
G1 X61.129 Y26.722 Z-0.300 F200.000
G1 X61.129 Y25.972 Z-0.300 F200.000
G1 X61.980 Y25.972 Z-0.300 F200.000
G0 Z1.000
G0 Z1.000
G0 X61.980 Y25.972
G0 X56.985 Y30.882
G0 X56.985 Y30.882 Z0.500
G1 X56.985 Y30.882 Z-0.200 F100.000
G1 X56.985 Y32.332 Z-0.200 F200.000
G1 X54.184 Y32.332 Z-0.200 F200.000
G1 X54.184 Y30.882 Z-0.200 F200.000
G1 X56.985 Y30.882 Z-0.200 F200.000
G1 X56.985 Y30.882 Z-0.300 F100.000
G1 X56.985 Y32.332 Z-0.300 F200.000
G1 X54.184 Y32.332 Z-0.300 F200.000
G1 X54.184 Y30.882 Z-0.300 F200.000
G1 X56.985 Y30.882 Z-0.300 F200.000
G0 Z1.000
G0 Z1.000
G0 X56.985 Y30.882
G0 X51.785
G0 X51.785 Z0.500
G1 X51.785 Y30.882 Z-0.200 F100.000
G1 X51.785 Y32.332 Z-0.200 F200.000
G1 X48.985 Y32.332 Z-0.200 F200.000
G1 X48.985 Y30.882 Z-0.200 F200.000
G1 X51.785 Y30.882 Z-0.200 F200.000
G1 X51.785 Y30.882 Z-0.300 F100.000
G1 X51.785 Y32.332 Z-0.300 F200.000
G1 X48.985 Y32.332 Z-0.300 F200.000
G1 X48.985 Y30.882 Z-0.300 F200.000
G1 X51.785 Y30.882 Z-0.300 F200.000
G0 Z1.000
G0 Z1.000
G0 X51.785 Y30.882
G0 X49.784 Y44.727
G0 X49.784 Y44.727 Z0.500
G1 X49.784 Y44.727 Z-0.200 F100.000
G1 X49.784 Y47.227 Z-0.200 F200.000
G1 X48.184 Y47.227 Z-0.200 F200.000
G1 X48.184 Y44.727 Z-0.200 F200.000
G1 X49.784 Y44.727 Z-0.200 F200.000
G1 X49.784 Y44.727 Z-0.300 F100.000
G1 X49.784 Y47.227 Z-0.300 F200.000
G1 X48.184 Y47.227 Z-0.300 F200.000
G1 X48.184 Y44.727 Z-0.300 F200.000
G1 X49.784 Y44.727 Z-0.300 F200.000
G0 Z1.000
G0 Z1.000
G0 X49.784 Y44.727
G0 Y49.027
G0 Y49.027 Z0.500
G1 X49.784 Y49.027 Z-0.200 F100.000
G1 X49.784 Y51.527 Z-0.200 F200.000
G1 X48.184 Y51.527 Z-0.200 F200.000
G1 X48.184 Y49.027 Z-0.200 F200.000
G1 X49.784 Y49.027 Z-0.200 F200.000
G1 X49.784 Y49.027 Z-0.300 F100.000
G1 X49.784 Y51.527 Z-0.300 F200.000
G1 X48.184 Y51.527 Z-0.300 F200.000
G1 X48.184 Y49.027 Z-0.300 F200.000
G1 X49.784 Y49.027 Z-0.300 F200.000
G0 Z1.000
G0 Z1.000
G0 X49.784 Y49.027
G0 X43.870 Y49.863
G0 X43.870 Y49.863 Z0.500
G1 X43.870 Y49.863 Z-0.200 F100.000
G1 X43.870 Y51.513 Z-0.200 F200.000
G1 X43.420 Y51.513 Z-0.200 F200.000
G1 X43.420 Y49.863 Z-0.200 F200.000
G1 X43.870 Y49.863 Z-0.200 F200.000
G1 X43.870 Y49.863 Z-0.300 F100.000
G1 X43.870 Y51.513 Z-0.300 F200.000
G1 X43.420 Y51.513 Z-0.300 F200.000
G1 X43.420 Y49.863 Z-0.300 F200.000
G1 X43.870 Y49.863 Z-0.300 F200.000
G0 Z1.000
G0 Z1.000
G0 X43.870 Y49.863
G0 X41.370
G0 X41.370 Z0.500
G1 X41.370 Y49.863 Z-0.200 F100.000
G1 X41.370 Y51.513 Z-0.200 F200.000
G1 X40.921 Y51.513 Z-0.200 F200.000
G1 X40.921 Y49.863 Z-0.200 F200.000
G1 X41.370 Y49.863 Z-0.200 F200.000
G1 X41.370 Y49.863 Z-0.300 F100.000
G1 X41.370 Y51.513 Z-0.300 F200.000
G1 X40.921 Y51.513 Z-0.300 F200.000
G1 X40.921 Y49.863 Z-0.300 F200.000
G1 X41.370 Y49.863 Z-0.300 F200.000
G0 Z1.000
G0 Z1.000
G0 X41.370 Y49.863
G0 X28.720 Y25.188
G0 X28.720 Y25.188 Z0.500
G1 X28.720 Y25.188 Z-0.200 F100.000
G1 X27.270 Y25.188 Z-0.200 F200.000
G1 X27.270 Y22.388 Z-0.200 F200.000
G1 X28.720 Y22.388 Z-0.200 F200.000
G1 X28.720 Y25.188 Z-0.200 F200.000
G1 X28.720 Y25.188 Z-0.300 F100.000
G1 X27.270 Y25.188 Z-0.300 F200.000
G1 X27.270 Y22.388 Z-0.300 F200.000
G1 X28.720 Y22.388 Z-0.300 F200.000
G1 X28.720 Y25.188 Z-0.300 F200.000
G0 Z1.000
G0 Z1.000
G0 X28.720 Y25.188
G0 X33.909 Y16.558
G0 X33.909 Y16.558 Z0.500
G1 X33.909 Y16.558 Z-0.200 F100.000
G1 X33.909 Y15.857 Z-0.200 F200.000
G1 X34.560 Y15.857 Z-0.200 F200.000
G1 X34.560 Y16.558 Z-0.200 F200.000
G1 X33.909 Y16.558 Z-0.200 F200.000
G1 X33.909 Y16.558 Z-0.300 F100.000
G1 X33.909 Y15.857 Z-0.300 F200.000
G1 X34.560 Y15.857 Z-0.300 F200.000
G1 X34.560 Y16.558 Z-0.300 F200.000
G1 X33.909 Y16.558 Z-0.300 F200.000
G0 Z1.000
G0 Z1.000
G0 X33.909 Y16.558
G0 X34.200 Y14.802
G0 X34.200 Y14.802 Z0.500
G1 X34.200 Y14.802 Z-0.200 F100.000
G1 X34.200 Y14.052 Z-0.200 F200.000
G1 X34.550 Y14.052 Z-0.200 F200.000
G1 X34.550 Y14.802 Z-0.200 F200.000
G1 X34.200 Y14.802 Z-0.200 F200.000
G1 X34.200 Y14.802 Z-0.300 F100.000
G1 X34.200 Y14.052 Z-0.300 F200.000
G1 X34.550 Y14.052 Z-0.300 F200.000
G1 X34.550 Y14.802 Z-0.300 F200.000
G1 X34.200 Y14.802 Z-0.300 F200.000
G0 Z1.000
G0 Z1.000
G0 X34.200 Y14.802
G0 X35.699
G0 X35.699 Z0.500
G1 X35.699 Y14.802 Z-0.200 F100.000
G1 X35.699 Y14.052 Z-0.200 F200.000
G1 X36.049 Y14.052 Z-0.200 F200.000
G1 X36.049 Y14.802 Z-0.200 F200.000
G1 X35.699 Y14.802 Z-0.200 F200.000
G1 X35.699 Y14.802 Z-0.300 F100.000
G1 X35.699 Y14.052 Z-0.300 F200.000
G1 X36.049 Y14.052 Z-0.300 F200.000
G1 X36.049 Y14.802 Z-0.300 F200.000
G1 X35.699 Y14.802 Z-0.300 F200.000
G0 Z1.000
G0 Z1.000
G0 X35.699 Y14.802
G0 Y15.857
G0 Y15.857 Z0.500
G1 X35.699 Y15.857 Z-0.200 F100.000
G1 X36.059 Y15.857 Z-0.200 F200.000
G1 X36.059 Y16.558 Z-0.200 F200.000
G1 X35.408 Y16.558 Z-0.200 F200.000
G1 X35.408 Y15.857 Z-0.200 F200.000
G1 X35.699 Y15.857 Z-0.200 F200.000
G1 X35.699 Y15.857 Z-0.300 F100.000
G1 X36.059 Y15.857 Z-0.300 F200.000
G1 X36.059 Y16.558 Z-0.300 F200.000
G1 X35.408 Y16.558 Z-0.300 F200.000
G1 X35.408 Y15.857 Z-0.300 F200.000
G1 X35.699 Y15.857 Z-0.300 F200.000
G0 Z1.000
G0 Z1.000
G0 X35.699 Y15.857
G0 X37.449 Y15.149
G0 X37.449 Y15.149 Z0.500
G1 X37.449 Y15.149 Z-0.200 F100.000
G1 X37.449 Y13.705 Z-0.200 F200.000
G1 X40.040 Y13.705 Z-0.200 F200.000
G1 X40.040 Y15.149 Z-0.200 F200.000
G1 X37.449 Y15.149 Z-0.200 F200.000
G1 X37.449 Y15.149 Z-0.300 F100.000
G1 X37.449 Y13.705 Z-0.300 F200.000
G1 X40.040 Y13.705 Z-0.300 F200.000
G1 X40.040 Y15.149 Z-0.300 F200.000
G1 X37.449 Y15.149 Z-0.300 F200.000
G0 Z1.000
G0 Z1.000
G0 X37.449 Y15.149
G0 X42.350
G0 X42.350 Z0.500
G1 X42.350 Y15.149 Z-0.200 F100.000
G1 X42.350 Y13.705 Z-0.200 F200.000
G1 X44.941 Y13.705 Z-0.200 F200.000
G1 X44.941 Y15.149 Z-0.200 F200.000
G1 X42.350 Y15.149 Z-0.200 F200.000
G1 X42.350 Y15.149 Z-0.300 F100.000
G1 X42.350 Y13.705 Z-0.300 F200.000
G1 X44.941 Y13.705 Z-0.300 F200.000
G1 X44.941 Y15.149 Z-0.300 F200.000
G1 X42.350 Y15.149 Z-0.300 F200.000
G0 Z1.000
G0 Z1.000
G0 X42.350 Y15.149
G0 X43.670 Y10.012
G0 X43.670 Y10.012 Z0.500
G1 X43.670 Y10.012 Z-0.200 F100.000
G1 X43.670 Y7.662 Z-0.200 F200.000
G1 X45.120 Y7.662 Z-0.200 F200.000
G1 X45.120 Y10.012 Z-0.200 F200.000
G1 X43.670 Y10.012 Z-0.200 F200.000
G1 X43.670 Y10.012 Z-0.300 F100.000
G1 X43.670 Y7.662 Z-0.300 F200.000
G1 X45.120 Y7.662 Z-0.300 F200.000
G1 X45.120 Y10.012 Z-0.300 F200.000
G1 X43.670 Y10.012 Z-0.300 F200.000
G0 Z1.000
G0 Z1.000
G0 X43.670 Y10.012
G0 Y6.711
G0 Y6.711 Z0.500
G1 X43.670 Y6.711 Z-0.200 F100.000
G1 X43.670 Y4.362 Z-0.200 F200.000
G1 X45.120 Y4.362 Z-0.200 F200.000
G1 X45.120 Y6.711 Z-0.200 F200.000
G1 X43.670 Y6.711 Z-0.200 F200.000
G1 X43.670 Y6.711 Z-0.300 F100.000
G1 X43.670 Y4.362 Z-0.300 F200.000
G1 X45.120 Y4.362 Z-0.300 F200.000
G1 X45.120 Y6.711 Z-0.300 F200.000
G1 X43.670 Y6.711 Z-0.300 F200.000
G0 Z1.000
G0 Z1.000
G0 X43.670 Y6.711
G0 X47.834 Y6.711
G0 X47.834 Y6.711 Z0.500
G1 X47.834 Y6.711 Z-0.200 F100.000
G1 X48.535 Y6.711 Z-0.200 F200.000
G1 X48.535 Y7.362 Z-0.200 F200.000
G1 X47.834 Y7.362 Z-0.200 F200.000
G1 X47.834 Y6.711 Z-0.200 F200.000
G1 X47.834 Y6.711 Z-0.300 F100.000
G1 X48.535 Y6.711 Z-0.300 F200.000
G1 X48.535 Y7.362 Z-0.300 F200.000
G1 X47.834 Y7.362 Z-0.300 F200.000
G1 X47.834 Y6.711 Z-0.300 F200.000
G0 Z1.000
G0 Z1.000
G0 X47.834 Y6.711
G0 Y5.862
G0 Y5.862 Z0.500
G1 X47.834 Y5.862 Z-0.200 F100.000
G1 X47.834 Y5.212 Z-0.200 F200.000
G1 X48.535 Y5.212 Z-0.200 F200.000
G1 X48.535 Y5.862 Z-0.200 F200.000
G1 X47.834 Y5.862 Z-0.200 F200.000
G1 X47.834 Y5.862 Z-0.300 F100.000
G1 X47.834 Y5.212 Z-0.300 F200.000
G1 X48.535 Y5.212 Z-0.300 F200.000
G1 X48.535 Y5.862 Z-0.300 F200.000
G1 X47.834 Y5.862 Z-0.300 F200.000
G0 Z1.000
G0 Z1.000
G0 X47.834 Y5.862
G0 X49.689
G0 X49.689 Z0.500
G1 X49.689 Y5.862 Z-0.200 F100.000
G1 X49.689 Y5.113 Z-0.200 F200.000
G1 X50.439 Y5.113 Z-0.200 F200.000
G1 X50.439 Y5.963 Z-0.200 F200.000
G1 X49.689 Y5.963 Z-0.200 F200.000
G1 X49.689 Y5.862 Z-0.200 F200.000
G1 X49.689 Y5.862 Z-0.300 F100.000
G1 X49.689 Y5.113 Z-0.300 F200.000
G1 X50.439 Y5.113 Z-0.300 F200.000
G1 X50.439 Y5.963 Z-0.300 F200.000
G1 X49.689 Y5.963 Z-0.300 F200.000
G1 X49.689 Y5.862 Z-0.300 F200.000
G0 Z1.000
G0 Z1.000
G0 X49.689 Y5.862
G0 X51.589
G0 X51.589 Z0.500
G1 X51.589 Y5.862 Z-0.200 F100.000
G1 X51.589 Y5.113 Z-0.200 F200.000
G1 X52.339 Y5.113 Z-0.200 F200.000
G1 X52.339 Y5.963 Z-0.200 F200.000
G1 X51.589 Y5.963 Z-0.200 F200.000
G1 X51.589 Y5.862 Z-0.200 F200.000
G1 X51.589 Y5.862 Z-0.300 F100.000
G1 X51.589 Y5.113 Z-0.300 F200.000
G1 X52.339 Y5.113 Z-0.300 F200.000
G1 X52.339 Y5.963 Z-0.300 F200.000
G1 X51.589 Y5.963 Z-0.300 F200.000
G1 X51.589 Y5.862 Z-0.300 F200.000
G0 Z1.000
G0 Z1.000
G0 X51.589 Y5.862
G0 X51.390 Y7.312
G0 X51.390 Y7.312 Z0.500
G1 X51.390 Y7.312 Z-0.200 F100.000
G1 X51.390 Y8.162 Z-0.200 F200.000
G1 X50.640 Y8.162 Z-0.200 F200.000
G1 X50.640 Y7.312 Z-0.200 F200.000
G1 X51.390 Y7.312 Z-0.200 F200.000
G1 X51.390 Y7.312 Z-0.300 F100.000
G1 X51.390 Y8.162 Z-0.300 F200.000
G1 X50.640 Y8.162 Z-0.300 F200.000
G1 X50.640 Y7.312 Z-0.300 F200.000
G1 X51.390 Y7.312 Z-0.300 F200.000
G0 Z1.000
G0 Z1.000
G0 X51.390 Y7.312
G0 X53.505
G0 X53.505 Z0.500
G1 X53.505 Y7.312 Z-0.200 F100.000
G1 X53.505 Y6.711 Z-0.200 F200.000
G1 X54.205 Y6.711 Z-0.200 F200.000
G1 X54.205 Y7.362 Z-0.200 F200.000
G1 X53.505 Y7.362 Z-0.200 F200.000
G1 X53.505 Y7.312 Z-0.200 F200.000
G1 X53.505 Y7.312 Z-0.300 F100.000
G1 X53.505 Y6.711 Z-0.300 F200.000
G1 X54.205 Y6.711 Z-0.300 F200.000
G1 X54.205 Y7.362 Z-0.300 F200.000
G1 X53.505 Y7.362 Z-0.300 F200.000
G1 X53.505 Y7.312 Z-0.300 F200.000
G0 Z1.000
G0 Z1.000
G0 X53.505 Y7.312
G0 Y5.862
G0 Y5.862 Z0.500
G1 X53.505 Y5.862 Z-0.200 F100.000
G1 X53.505 Y5.212 Z-0.200 F200.000
G1 X54.205 Y5.212 Z-0.200 F200.000
G1 X54.205 Y5.862 Z-0.200 F200.000
G1 X53.505 Y5.862 Z-0.200 F200.000
G1 X53.505 Y5.862 Z-0.300 F100.000
G1 X53.505 Y5.212 Z-0.300 F200.000
G1 X54.205 Y5.212 Z-0.300 F200.000
G1 X54.205 Y5.862 Z-0.300 F200.000
G1 X53.505 Y5.862 Z-0.300 F200.000
G0 Z1.000
G0 Z1.000
G0 X53.505 Y5.862
G0 X55.559 Y6.713
G0 X55.559 Y6.713 Z0.500
G1 X55.559 Y6.713 Z-0.200 F100.000
G1 X57.909 Y6.713 Z-0.200 F200.000
G1 X57.909 Y8.162 Z-0.200 F200.000
G1 X55.559 Y8.162 Z-0.200 F200.000
G1 X55.559 Y6.713 Z-0.200 F200.000
G1 X55.559 Y6.713 Z-0.300 F100.000
G1 X57.909 Y6.713 Z-0.300 F200.000
G1 X57.909 Y8.162 Z-0.300 F200.000
G1 X55.559 Y8.162 Z-0.300 F200.000
G1 X55.559 Y6.713 Z-0.300 F200.000
G0 Z1.000
G0 Z1.000
G0 X55.559 Y6.713
G0 X58.860
G0 X58.860 Z0.500
G1 X58.860 Y6.713 Z-0.200 F100.000
G1 X61.210 Y6.713 Z-0.200 F200.000
G1 X61.210 Y8.162 Z-0.200 F200.000
G1 X58.860 Y8.162 Z-0.200 F200.000
G1 X58.860 Y6.713 Z-0.200 F200.000
G1 X58.860 Y6.713 Z-0.300 F100.000
G1 X61.210 Y6.713 Z-0.300 F200.000
G1 X61.210 Y8.162 Z-0.300 F200.000
G1 X58.860 Y8.162 Z-0.300 F200.000
G1 X58.860 Y6.713 Z-0.300 F200.000
G0 Z1.000
G0 Z1.000
G0 X58.860 Y6.713
G0 X49.870 Y2.763
G0 X49.870 Y2.763 Z0.500
G1 X49.870 Y2.763 Z-0.200 F100.000
G1 X48.920 Y2.763 Z-0.200 F200.000
G1 X48.920 Y1.213 Z-0.200 F200.000
G1 X49.870 Y1.213 Z-0.200 F200.000
G1 X49.870 Y2.763 Z-0.200 F200.000
G1 X49.870 Y2.763 Z-0.300 F100.000
G1 X48.920 Y2.763 Z-0.300 F200.000
G1 X48.920 Y1.213 Z-0.300 F200.000
G1 X49.870 Y1.213 Z-0.300 F200.000
G1 X49.870 Y2.763 Z-0.300 F200.000
G0 Z1.000
G0 Z1.000
G0 X49.870 Y2.763
G0 X46.669 Y2.762
G0 X46.669 Y2.762 Z0.500
G1 X46.669 Y2.762 Z-0.200 F100.000
G1 X45.719 Y2.762 Z-0.200 F200.000
G1 X45.719 Y1.211 Z-0.200 F200.000
G1 X46.669 Y1.211 Z-0.200 F200.000
G1 X46.669 Y2.762 Z-0.200 F200.000
G1 X46.669 Y2.762 Z-0.300 F100.000
G1 X45.719 Y2.762 Z-0.300 F200.000
G1 X45.719 Y1.211 Z-0.300 F200.000
G1 X46.669 Y1.211 Z-0.300 F200.000
G1 X46.669 Y2.762 Z-0.300 F200.000
G0 Z1.000
G0 Z1.000
G0 X46.669 Y2.762
G0 X37.575 Y5.212
G0 X37.575 Y5.212 Z0.500
G1 X37.575 Y5.212 Z-0.200 F100.000
G1 X37.575 Y5.862 Z-0.200 F200.000
G1 X36.875 Y5.862 Z-0.200 F200.000
G1 X36.875 Y5.212 Z-0.200 F200.000
G1 X37.575 Y5.212 Z-0.200 F200.000
G1 X37.575 Y5.212 Z-0.300 F100.000
G1 X37.575 Y5.862 Z-0.300 F200.000
G1 X36.875 Y5.862 Z-0.300 F200.000
G1 X36.875 Y5.212 Z-0.300 F200.000
G1 X37.575 Y5.212 Z-0.300 F200.000
G0 Z1.000
G0 Z1.000
G0 X37.575 Y5.212
G0 Y6.711
G0 Y6.711 Z0.500
G1 X37.575 Y6.711 Z-0.200 F100.000
G1 X37.575 Y7.362 Z-0.200 F200.000
G1 X36.875 Y7.362 Z-0.200 F200.000
G1 X36.875 Y6.711 Z-0.200 F200.000
G1 X37.575 Y6.711 Z-0.200 F200.000
G1 X37.575 Y6.711 Z-0.300 F100.000
G1 X37.575 Y7.362 Z-0.300 F200.000
G1 X36.875 Y7.362 Z-0.300 F200.000
G1 X36.875 Y6.711 Z-0.300 F200.000
G1 X37.575 Y6.711 Z-0.300 F200.000
G0 Z1.000
G0 Z1.000
G0 X37.575 Y6.711
G0 X35.469
G0 X35.469 Z0.500
G1 X35.469 Y6.711 Z-0.200 F100.000
G1 X35.469 Y7.737 Z-0.200 F200.000
G1 X35.020 Y7.737 Z-0.200 F200.000
G1 X35.020 Y6.336 Z-0.200 F200.000
G1 X35.469 Y6.336 Z-0.200 F200.000
G1 X35.469 Y6.711 Z-0.200 F200.000
G1 X35.469 Y6.711 Z-0.300 F100.000
G1 X35.469 Y7.737 Z-0.300 F200.000
G1 X35.020 Y7.737 Z-0.300 F200.000
G1 X35.020 Y6.336 Z-0.300 F200.000
G1 X35.469 Y6.336 Z-0.300 F200.000
G1 X35.469 Y6.711 Z-0.300 F200.000
G0 Z1.000
G0 Z1.000
G0 X35.469 Y6.711
G0 X34.200
G0 X34.200 Z0.500
G1 X34.200 Y6.711 Z-0.200 F100.000
G1 X34.200 Y7.737 Z-0.200 F200.000
G1 X33.751 Y7.737 Z-0.200 F200.000
G1 X33.751 Y6.336 Z-0.200 F200.000
G1 X34.200 Y6.336 Z-0.200 F200.000
G1 X34.200 Y6.711 Z-0.200 F200.000
G1 X34.200 Y6.711 Z-0.300 F100.000
G1 X34.200 Y7.737 Z-0.300 F200.000
G1 X33.751 Y7.737 Z-0.300 F200.000
G1 X33.751 Y6.336 Z-0.300 F200.000
G1 X34.200 Y6.336 Z-0.300 F200.000
G1 X34.200 Y6.711 Z-0.300 F200.000
G0 Z1.000
G0 Z1.000
G0 X34.200 Y6.711
G0 X32.920
G0 X32.920 Z0.500
G1 X32.920 Y6.711 Z-0.200 F100.000
G1 X32.920 Y7.737 Z-0.200 F200.000
G1 X32.470 Y7.737 Z-0.200 F200.000
G1 X32.470 Y6.336 Z-0.200 F200.000
G1 X32.920 Y6.336 Z-0.200 F200.000
G1 X32.920 Y6.711 Z-0.200 F200.000
G1 X32.920 Y6.711 Z-0.300 F100.000
G1 X32.920 Y7.737 Z-0.300 F200.000
G1 X32.470 Y7.737 Z-0.300 F200.000
G1 X32.470 Y6.336 Z-0.300 F200.000
G1 X32.920 Y6.336 Z-0.300 F200.000
G1 X32.920 Y6.711 Z-0.300 F200.000
G0 Z1.000
G0 Z1.000
G0 X32.920 Y6.711
G0 X31.649
G0 X31.649 Z0.500
G1 X31.649 Y6.711 Z-0.200 F100.000
G1 X31.649 Y7.737 Z-0.200 F200.000
G1 X31.200 Y7.737 Z-0.200 F200.000
G1 X31.200 Y6.336 Z-0.200 F200.000
G1 X31.649 Y6.336 Z-0.200 F200.000
G1 X31.649 Y6.711 Z-0.200 F200.000
G1 X31.649 Y6.711 Z-0.300 F100.000
G1 X31.649 Y7.737 Z-0.300 F200.000
G1 X31.200 Y7.737 Z-0.300 F200.000
G1 X31.200 Y6.336 Z-0.300 F200.000
G1 X31.649 Y6.336 Z-0.300 F200.000
G1 X31.649 Y6.711 Z-0.300 F200.000
G0 Z1.000
G0 Z1.000
G0 X31.649 Y6.711
G0 X29.779 Y7.422
G0 X29.779 Y7.422 Z0.500
G1 X29.779 Y7.422 Z-0.200 F100.000
G1 X29.779 Y7.773 Z-0.200 F200.000
G1 X29.030 Y7.773 Z-0.200 F200.000
G1 X29.030 Y7.422 Z-0.200 F200.000
G1 X29.779 Y7.422 Z-0.200 F200.000
G1 X29.779 Y7.422 Z-0.300 F100.000
G1 X29.779 Y7.773 Z-0.300 F200.000
G1 X29.030 Y7.773 Z-0.300 F200.000
G1 X29.030 Y7.422 Z-0.300 F200.000
G1 X29.779 Y7.422 Z-0.300 F200.000
G0 Z1.000
G0 Z1.000
G0 X29.779 Y7.422
G0 Y6.272
G0 Y6.272 Z0.500
G1 X29.779 Y6.272 Z-0.200 F100.000
G1 X29.030 Y6.272 Z-0.200 F200.000
G1 X29.030 Y5.922 Z-0.200 F200.000
G1 X29.779 Y5.922 Z-0.200 F200.000
G1 X29.779 Y6.272 Z-0.200 F200.000
G1 X29.779 Y6.272 Z-0.300 F100.000
G1 X29.030 Y6.272 Z-0.300 F200.000
G1 X29.030 Y5.922 Z-0.300 F200.000
G1 X29.779 Y5.922 Z-0.300 F200.000
G1 X29.779 Y6.272 Z-0.300 F200.000
G0 Z1.000
G0 Z1.000
G0 X29.779 Y6.272
G0 X29.789 Y9.003
G0 X29.789 Y9.003 Z0.500
G1 X29.789 Y9.003 Z-0.200 F100.000
G1 X29.789 Y9.753 Z-0.200 F200.000
G1 X29.239 Y9.753 Z-0.200 F200.000
G1 X29.239 Y9.003 Z-0.200 F200.000
G1 X29.789 Y9.003 Z-0.200 F200.000
G1 X29.789 Y9.003 Z-0.300 F100.000
G1 X29.789 Y9.753 Z-0.300 F200.000
G1 X29.239 Y9.753 Z-0.300 F200.000
G1 X29.239 Y9.003 Z-0.300 F200.000
G1 X29.789 Y9.003 Z-0.300 F200.000
G0 Z1.000
G0 Z1.000
G0 X29.789 Y9.003
G0 X30.540
G0 X30.540 Z0.500
G1 X30.540 Y9.003 Z-0.200 F100.000
G1 X31.090 Y9.003 Z-0.200 F200.000
G1 X31.090 Y9.753 Z-0.200 F200.000
G1 X30.540 Y9.753 Z-0.200 F200.000
G1 X30.540 Y9.003 Z-0.200 F200.000
G1 X30.540 Y9.003 Z-0.300 F100.000
G1 X31.090 Y9.003 Z-0.300 F200.000
G1 X31.090 Y9.753 Z-0.300 F200.000
G1 X30.540 Y9.753 Z-0.300 F200.000
G1 X30.540 Y9.003 Z-0.300 F200.000
G0 Z1.000
G0 Z1.000
G0 X30.540 Y9.003
G0 X30.439 Y10.902
G0 X30.439 Y10.902 Z0.500
G1 X30.439 Y10.902 Z-0.200 F100.000
G1 X30.439 Y11.652 Z-0.200 F200.000
G1 X29.889 Y11.652 Z-0.200 F200.000
G1 X29.889 Y10.902 Z-0.200 F200.000
G1 X30.439 Y10.902 Z-0.200 F200.000
G1 X30.439 Y10.902 Z-0.300 F100.000
G1 X30.439 Y11.652 Z-0.300 F200.000
G1 X29.889 Y11.652 Z-0.300 F200.000
G1 X29.889 Y10.902 Z-0.300 F200.000
G1 X30.439 Y10.902 Z-0.300 F200.000
G0 Z1.000
G0 Z1.000
G0 X30.439 Y10.902
G0 X32.320 Y10.752
G0 X32.320 Y10.752 Z0.500
G1 X32.320 Y10.752 Z-0.200 F100.000
G1 X32.320 Y10.402 Z-0.200 F200.000
G1 X33.070 Y10.402 Z-0.200 F200.000
G1 X33.070 Y10.752 Z-0.200 F200.000
G1 X32.320 Y10.752 Z-0.200 F200.000
G1 X32.320 Y10.752 Z-0.300 F100.000
G1 X32.320 Y10.402 Z-0.300 F200.000
G1 X33.070 Y10.402 Z-0.300 F200.000
G1 X33.070 Y10.752 Z-0.300 F200.000
G1 X32.320 Y10.752 Z-0.300 F200.000
G0 Z1.000
G0 Z1.000
G0 X32.320 Y10.752
G0 Y9.253
G0 Y9.253 Z0.500
G1 X32.320 Y9.253 Z-0.200 F100.000
G1 X32.320 Y8.902 Z-0.200 F200.000
G1 X33.070 Y8.902 Z-0.200 F200.000
G1 X33.070 Y9.253 Z-0.200 F200.000
G1 X32.320 Y9.253 Z-0.200 F200.000
G1 X32.320 Y9.253 Z-0.300 F100.000
G1 X32.320 Y8.902 Z-0.300 F200.000
G1 X33.070 Y8.902 Z-0.300 F200.000
G1 X33.070 Y9.253 Z-0.300 F200.000
G1 X32.320 Y9.253 Z-0.300 F200.000
G0 Z1.000
G0 Z1.000
G0 X32.320 Y9.253
G0 X32.469 Y2.398
G0 X32.469 Y2.398 Z0.500
G1 X32.469 Y2.398 Z-0.200 F100.000
G1 X32.469 Y0.998 Z-0.200 F200.000
G1 X32.918 Y0.998 Z-0.200 F200.000
G1 X32.918 Y2.398 Z-0.200 F200.000
G1 X32.469 Y2.398 Z-0.200 F200.000
G1 X32.469 Y2.398 Z-0.300 F100.000
G1 X32.469 Y0.998 Z-0.300 F200.000
G1 X32.918 Y0.998 Z-0.300 F200.000
G1 X32.918 Y2.398 Z-0.300 F200.000
G1 X32.469 Y2.398 Z-0.300 F200.000
G0 Z1.000
G0 Z1.000
G0 X32.469 Y2.398
G0 X31.649
G0 X31.649 Z0.500
G1 X31.649 Y2.398 Z-0.200 F100.000
G1 X31.200 Y2.398 Z-0.200 F200.000
G1 X31.200 Y0.998 Z-0.200 F200.000
G1 X31.649 Y0.998 Z-0.200 F200.000
G1 X31.649 Y2.398 Z-0.200 F200.000
G1 X31.649 Y2.398 Z-0.300 F100.000
G1 X31.200 Y2.398 Z-0.300 F200.000
G1 X31.200 Y0.998 Z-0.300 F200.000
G1 X31.649 Y0.998 Z-0.300 F200.000
G1 X31.649 Y2.398 Z-0.300 F200.000
G0 Z1.000
G0 Z1.000
G0 X31.649 Y2.398
G0 X33.749
G0 X33.749 Z0.500
G1 X33.749 Y2.398 Z-0.200 F100.000
G1 X33.749 Y0.998 Z-0.200 F200.000
G1 X34.199 Y0.998 Z-0.200 F200.000
G1 X34.199 Y2.398 Z-0.200 F200.000
G1 X33.749 Y2.398 Z-0.200 F200.000
G1 X33.749 Y2.398 Z-0.300 F100.000
G1 X33.749 Y0.998 Z-0.300 F200.000
G1 X34.199 Y0.998 Z-0.300 F200.000
G1 X34.199 Y2.398 Z-0.300 F200.000
G1 X33.749 Y2.398 Z-0.300 F200.000
G0 Z1.000
G0 Z1.000
G0 X33.749 Y2.398
G0 X35.020
G0 X35.020 Z0.500
G1 X35.020 Y2.398 Z-0.200 F100.000
G1 X35.020 Y0.998 Z-0.200 F200.000
G1 X35.469 Y0.998 Z-0.200 F200.000
G1 X35.469 Y2.398 Z-0.200 F200.000
G1 X35.020 Y2.398 Z-0.200 F200.000
G1 X35.020 Y2.398 Z-0.300 F100.000
G1 X35.020 Y0.998 Z-0.300 F200.000
G1 X35.469 Y0.998 Z-0.300 F200.000
G1 X35.469 Y2.398 Z-0.300 F200.000
G1 X35.020 Y2.398 Z-0.300 F200.000
G0 Z1.000
G0 Z1.000
G0 X35.020 Y2.398
G0 X77.721 Y-0.013
G0 X77.721 Y-0.013 Z0.500
G1 X77.721 Y-0.013 Z-0.200 F100.000
G1 X77.894 Y-0.883 Z-0.200 F200.000
G1 X78.387 Y-1.621 Z-0.200 F200.000
G1 X79.125 Y-2.113 Z-0.200 F200.000
G1 X79.994 Y-2.286 Z-0.200 F200.000
G1 X80.865 Y-2.113 Z-0.200 F200.000
G1 X81.602 Y-1.621 Z-0.200 F200.000
G1 X82.095 Y-0.883 Z-0.200 F200.000
G1 X82.269 Y-0.013 Z-0.200 F200.000
G1 X82.095 Y0.858 Z-0.200 F200.000
G1 X81.602 Y1.595 Z-0.200 F200.000
G1 X80.865 Y2.088 Z-0.200 F200.000
G1 X79.994 Y2.260 Z-0.200 F200.000
G1 X79.125 Y2.088 Z-0.200 F200.000
G1 X78.387 Y1.595 Z-0.200 F200.000
G1 X77.894 Y0.858 Z-0.200 F200.000
G1 X77.721 Y-0.013 Z-0.200 F200.000
G1 X77.721 Y-0.013 Z-0.300 F100.000
G1 X77.894 Y-0.883 Z-0.300 F200.000
G1 X78.387 Y-1.621 Z-0.300 F200.000
G1 X79.125 Y-2.113 Z-0.300 F200.000
G1 X79.994 Y-2.286 Z-0.300 F200.000
G1 X80.865 Y-2.113 Z-0.300 F200.000
G1 X81.602 Y-1.621 Z-0.300 F200.000
G1 X82.095 Y-0.883 Z-0.300 F200.000
G1 X82.269 Y-0.013 Z-0.300 F200.000
G1 X82.095 Y0.858 Z-0.300 F200.000
G1 X81.602 Y1.595 Z-0.300 F200.000
G1 X80.865 Y2.088 Z-0.300 F200.000
G1 X79.994 Y2.260 Z-0.300 F200.000
G1 X79.125 Y2.088 Z-0.300 F200.000
G1 X78.387 Y1.595 Z-0.300 F200.000
G1 X77.894 Y0.858 Z-0.300 F200.000
G1 X77.721 Y-0.013 Z-0.300 F200.000
G0 Z1.000
G0 Z1.000
G0 X77.721 Y-0.013
G0 X79.994 Y55.714
G0 X79.994 Y55.714 Z0.500
G1 X79.994 Y55.714 Z-0.200 F100.000
G1 X80.865 Y55.886 Z-0.200 F200.000
G1 X81.602 Y56.380 Z-0.200 F200.000
G1 X82.095 Y57.117 Z-0.200 F200.000
G1 X82.269 Y57.987 Z-0.200 F200.000
G1 X82.095 Y58.857 Z-0.200 F200.000
G1 X81.602 Y59.595 Z-0.200 F200.000
G1 X80.865 Y60.087 Z-0.200 F200.000
G1 X79.994 Y60.261 Z-0.200 F200.000
G1 X79.125 Y60.087 Z-0.200 F200.000
G1 X78.387 Y59.595 Z-0.200 F200.000
G1 X77.894 Y58.857 Z-0.200 F200.000
G1 X77.721 Y57.987 Z-0.200 F200.000
G1 X77.894 Y57.117 Z-0.200 F200.000
G1 X78.387 Y56.380 Z-0.200 F200.000
G1 X79.125 Y55.886 Z-0.200 F200.000
G1 X79.994 Y55.714 Z-0.200 F200.000
G1 X79.994 Y55.714 Z-0.300 F100.000
G1 X80.865 Y55.886 Z-0.300 F200.000
G1 X81.602 Y56.380 Z-0.300 F200.000
G1 X82.095 Y57.117 Z-0.300 F200.000
G1 X82.269 Y57.987 Z-0.300 F200.000
G1 X82.095 Y58.857 Z-0.300 F200.000
G1 X81.602 Y59.595 Z-0.300 F200.000
G1 X80.865 Y60.087 Z-0.300 F200.000
G1 X79.994 Y60.261 Z-0.300 F200.000
G1 X79.125 Y60.087 Z-0.300 F200.000
G1 X78.387 Y59.595 Z-0.300 F200.000
G1 X77.894 Y58.857 Z-0.300 F200.000
G1 X77.721 Y57.987 Z-0.300 F200.000
G1 X77.894 Y57.117 Z-0.300 F200.000
G1 X78.387 Y56.380 Z-0.300 F200.000
G1 X79.125 Y55.886 Z-0.300 F200.000
G1 X79.994 Y55.714 Z-0.300 F200.000
G0 Z1.000
G0 Z1.000
G0 X79.994 Y55.714
G0 X2.268 Y57.987
G0 X2.268 Y57.987 Z0.500
G1 X2.268 Y57.987 Z-0.200 F100.000
G1 X2.095 Y58.857 Z-0.200 F200.000
G1 X1.603 Y59.595 Z-0.200 F200.000
G1 X0.864 Y60.087 Z-0.200 F200.000
G1 X-0.005 Y60.261 Z-0.200 F200.000
G1 X-0.876 Y60.087 Z-0.200 F200.000
G1 X-1.613 Y59.595 Z-0.200 F200.000
G1 X-2.106 Y58.857 Z-0.200 F200.000
G1 X-2.279 Y57.987 Z-0.200 F200.000
G1 X-2.106 Y57.117 Z-0.200 F200.000
G1 X-1.613 Y56.380 Z-0.200 F200.000
G1 X-0.876 Y55.886 Z-0.200 F200.000
G1 X-0.005 Y55.714 Z-0.200 F200.000
G1 X0.864 Y55.886 Z-0.200 F200.000
G1 X1.603 Y56.380 Z-0.200 F200.000
G1 X2.095 Y57.117 Z-0.200 F200.000
G1 X2.268 Y57.987 Z-0.200 F200.000
G1 X2.268 Y57.987 Z-0.300 F100.000
G1 X2.095 Y58.857 Z-0.300 F200.000
G1 X1.603 Y59.595 Z-0.300 F200.000
G1 X0.864 Y60.087 Z-0.300 F200.000
G1 X-0.005 Y60.261 Z-0.300 F200.000
G1 X-0.876 Y60.087 Z-0.300 F200.000
G1 X-1.613 Y59.595 Z-0.300 F200.000
G1 X-2.106 Y58.857 Z-0.300 F200.000
G1 X-2.279 Y57.987 Z-0.300 F200.000
G1 X-2.106 Y57.117 Z-0.300 F200.000
G1 X-1.613 Y56.380 Z-0.300 F200.000
G1 X-0.876 Y55.886 Z-0.300 F200.000
G1 X-0.005 Y55.714 Z-0.300 F200.000
G1 X0.864 Y55.886 Z-0.300 F200.000
G1 X1.603 Y56.380 Z-0.300 F200.000
G1 X2.095 Y57.117 Z-0.300 F200.000
G1 X2.268 Y57.987 Z-0.300 F200.000
G0 Z1.000
G0 Z1.000
(Finish operation: Profile)
(Begin postamble)
M5
G17 G90
M2
