(Exported by FreeCAD)
(Post Processor: grbl_post)
(Output Time:2023-02-19 14:38:04.319820)
(Begin preamble)
G17 G90
G21
(Begin operation: G54)
(Path: G54)
G54
G0 Z5.100
(Finish operation: G54)
(Begin operation: ballend-015mm001)
(Path: ballend-015mm001)
(ballend-015mm001)
(Begin toolchange)
( M6 T2 )
M3 S10000
(Finish operation: ballend-015mm001)
(Begin operation: Profile)
(Path: Profile)
(Profile)
(Compensated Tool Path. Diameter: 0.15)
G0 Z1.000
G0 X1.048 Y1.037
G0 Z0.500
G1 X1.048 Y1.037 Z-0.200 F100.000
G1 X0.570 Y1.355 Z-0.200 F150.000
G1 X0.006 Y1.468 Z-0.200 F150.000
G1 X-0.558 Y1.355 Z-0.200 F150.000
G1 X-1.036 Y1.037 Z-0.200 F150.000
G1 X-1.356 Y0.559 Z-0.200 F150.000
G1 X-1.467 Y-0.006 Z-0.200 F150.000
G1 X-1.356 Y-0.569 Z-0.200 F150.000
G1 X-1.036 Y-1.047 Z-0.200 F150.000
G1 X-0.558 Y-1.367 Z-0.200 F150.000
G1 X0.006 Y-1.478 Z-0.200 F150.000
G1 X0.570 Y-1.367 Z-0.200 F150.000
G1 X1.048 Y-1.047 Z-0.200 F150.000
G1 X1.368 Y-0.569 Z-0.200 F150.000
G1 X1.479 Y-0.006 Z-0.200 F150.000
G1 X1.368 Y0.559 Z-0.200 F150.000
G1 X1.048 Y1.037 Z-0.200 F150.000
G1 X1.048 Y1.037 Z-0.350 F100.000
G1 X0.570 Y1.355 Z-0.350 F150.000
G1 X0.006 Y1.468 Z-0.350 F150.000
G1 X-0.558 Y1.355 Z-0.350 F150.000
G1 X-1.036 Y1.037 Z-0.350 F150.000
G1 X-1.356 Y0.559 Z-0.350 F150.000
G1 X-1.467 Y-0.006 Z-0.350 F150.000
G1 X-1.356 Y-0.569 Z-0.350 F150.000
G1 X-1.036 Y-1.047 Z-0.350 F150.000
G1 X-0.558 Y-1.367 Z-0.350 F150.000
G1 X0.006 Y-1.478 Z-0.350 F150.000
G1 X0.570 Y-1.367 Z-0.350 F150.000
G1 X1.048 Y-1.047 Z-0.350 F150.000
G1 X1.368 Y-0.569 Z-0.350 F150.000
G1 X1.479 Y-0.006 Z-0.350 F150.000
G1 X1.368 Y0.559 Z-0.350 F150.000
G1 X1.048 Y1.037 Z-0.350 F150.000
G0 Z1.000
G0 Z1.000
G0 X1.048 Y1.037
G0 X14.171 Y-28.991
G0 X14.171 Y-28.991 Z0.500
G1 X14.171 Y-28.991 Z-0.200 F100.000
G1 X14.171 Y-29.341 Z-0.200 F150.000
G1 X14.921 Y-29.341 Z-0.200 F150.000
G1 X14.921 Y-28.991 Z-0.200 F150.000
G1 X14.171 Y-28.991 Z-0.200 F150.000
G1 X14.171 Y-28.991 Z-0.350 F100.000
G1 X14.171 Y-29.341 Z-0.350 F150.000
G1 X14.921 Y-29.341 Z-0.350 F150.000
G1 X14.921 Y-28.991 Z-0.350 F150.000
G1 X14.171 Y-28.991 Z-0.350 F150.000
G0 Z1.000
G0 Z1.000
G0 X14.171 Y-28.991
G0 Y-30.490
G0 Y-30.490 Z0.500
G1 X14.171 Y-30.490 Z-0.200 F100.000
G1 X14.171 Y-30.840 Z-0.200 F150.000
G1 X14.921 Y-30.840 Z-0.200 F150.000
G1 X14.921 Y-30.490 Z-0.200 F150.000
G1 X14.171 Y-30.490 Z-0.200 F150.000
G1 X14.171 Y-30.490 Z-0.350 F100.000
G1 X14.171 Y-30.840 Z-0.350 F150.000
G1 X14.921 Y-30.840 Z-0.350 F150.000
G1 X14.921 Y-30.490 Z-0.350 F150.000
G1 X14.171 Y-30.490 Z-0.350 F150.000
G0 Z1.000
G0 Z1.000
G0 X14.171 Y-30.490
G0 X16.051 Y-30.491
G0 X16.051 Y-30.491 Z0.500
G1 X16.051 Y-30.491 Z-0.200 F100.000
G1 X16.051 Y-31.441 Z-0.200 F150.000
G1 X17.301 Y-31.441 Z-0.200 F150.000
G1 X17.301 Y-30.491 Z-0.200 F150.000
G1 X16.051 Y-30.491 Z-0.200 F150.000
G1 X16.051 Y-30.491 Z-0.350 F100.000
G1 X16.051 Y-31.441 Z-0.350 F150.000
G1 X17.301 Y-31.441 Z-0.350 F150.000
G1 X17.301 Y-30.491 Z-0.350 F150.000
G1 X16.051 Y-30.491 Z-0.350 F150.000
G0 Z1.000
G0 Z1.000
G0 X16.051 Y-30.491
G0 Y-29.640
G0 Y-29.640 Z0.500
G1 X16.051 Y-29.640 Z-0.200 F100.000
G1 X17.301 Y-29.640 Z-0.200 F150.000
G1 X17.301 Y-28.690 Z-0.200 F150.000
G1 X16.051 Y-28.690 Z-0.200 F150.000
G1 X16.051 Y-29.640 Z-0.200 F150.000
G1 X16.051 Y-29.640 Z-0.350 F100.000
G1 X17.301 Y-29.640 Z-0.350 F150.000
G1 X17.301 Y-28.690 Z-0.350 F150.000
G1 X16.051 Y-28.690 Z-0.350 F150.000
G1 X16.051 Y-29.640 Z-0.350 F150.000
G0 Z1.000
G0 Z1.000
G0 X16.051 Y-29.640
G0 X18.416
G0 X18.416 Z0.500
G1 X18.416 Y-29.640 Z-0.200 F100.000
G1 X18.416 Y-29.971 Z-0.200 F150.000
G1 X19.116 Y-29.971 Z-0.200 F150.000
G1 X19.116 Y-29.320 Z-0.200 F150.000
G1 X18.416 Y-29.320 Z-0.200 F150.000
G1 X18.416 Y-29.640 Z-0.200 F150.000
G1 X18.416 Y-29.640 Z-0.350 F100.000
G1 X18.416 Y-29.971 Z-0.350 F150.000
G1 X19.116 Y-29.971 Z-0.350 F150.000
G1 X19.116 Y-29.320 Z-0.350 F150.000
G1 X18.416 Y-29.320 Z-0.350 F150.000
G1 X18.416 Y-29.640 Z-0.350 F150.000
G0 Z1.000
G0 Z1.000
G0 X18.416 Y-29.640
G0 X18.417 Y-30.820
G0 X18.417 Y-30.820 Z0.500
G1 X18.417 Y-30.820 Z-0.200 F100.000
G1 X18.417 Y-31.470 Z-0.200 F150.000
G1 X19.117 Y-31.470 Z-0.200 F150.000
G1 X19.117 Y-30.820 Z-0.200 F150.000
G1 X18.417 Y-30.820 Z-0.200 F150.000
G1 X18.417 Y-30.820 Z-0.350 F100.000
G1 X18.417 Y-31.470 Z-0.350 F150.000
G1 X19.117 Y-31.470 Z-0.350 F150.000
G1 X19.117 Y-30.820 Z-0.350 F150.000
G1 X18.417 Y-30.820 Z-0.350 F150.000
G0 Z1.000
G0 Z1.000
G0 X18.417 Y-30.820
G0 X18.591 Y-32.561
G0 X18.591 Y-32.561 Z0.500
G1 X18.591 Y-32.561 Z-0.200 F100.000
G1 X18.591 Y-33.311 Z-0.200 F150.000
G1 X18.941 Y-33.311 Z-0.200 F150.000
G1 X18.941 Y-32.561 Z-0.200 F150.000
G1 X18.591 Y-32.561 Z-0.200 F150.000
G1 X18.591 Y-32.561 Z-0.350 F100.000
G1 X18.591 Y-33.311 Z-0.350 F150.000
G1 X18.941 Y-33.311 Z-0.350 F150.000
G1 X18.941 Y-32.561 Z-0.350 F150.000
G1 X18.591 Y-32.561 Z-0.350 F150.000
G0 Z1.000
G0 Z1.000
G0 X18.591 Y-32.561
G0 X17.441 Y-32.560
G0 X17.441 Y-32.560 Z0.500
G1 X17.441 Y-32.560 Z-0.200 F100.000
G1 X17.091 Y-32.560 Z-0.200 F150.000
G1 X17.091 Y-33.310 Z-0.200 F150.000
G1 X17.441 Y-33.310 Z-0.200 F150.000
G1 X17.441 Y-32.560 Z-0.200 F150.000
G1 X17.441 Y-32.560 Z-0.350 F100.000
G1 X17.091 Y-32.560 Z-0.350 F150.000
G1 X17.091 Y-33.310 Z-0.350 F150.000
G1 X17.441 Y-33.310 Z-0.350 F150.000
G1 X17.441 Y-32.560 Z-0.350 F150.000
G0 Z1.000
G0 Z1.000
G0 X17.441 Y-32.560
G0 Y-34.390
G0 Y-34.390 Z0.500
G1 X17.441 Y-34.390 Z-0.200 F100.000
G1 X17.091 Y-34.390 Z-0.200 F150.000
G1 X17.091 Y-35.140 Z-0.200 F150.000
G1 X17.441 Y-35.140 Z-0.200 F150.000
G1 X17.441 Y-34.390 Z-0.200 F150.000
G1 X17.441 Y-34.390 Z-0.350 F100.000
G1 X17.091 Y-34.390 Z-0.350 F150.000
G1 X17.091 Y-35.140 Z-0.350 F150.000
G1 X17.441 Y-35.140 Z-0.350 F150.000
G1 X17.441 Y-34.390 Z-0.350 F150.000
G0 Z1.000
G0 Z1.000
G0 X17.441 Y-34.390
G0 X18.591
G0 X18.591 Z0.500
G1 X18.591 Y-34.390 Z-0.200 F100.000
G1 X18.591 Y-35.140 Z-0.200 F150.000
G1 X18.941 Y-35.140 Z-0.200 F150.000
G1 X18.941 Y-34.390 Z-0.200 F150.000
G1 X18.591 Y-34.390 Z-0.200 F150.000
G1 X18.591 Y-34.390 Z-0.350 F100.000
G1 X18.591 Y-35.140 Z-0.350 F150.000
G1 X18.941 Y-35.140 Z-0.350 F150.000
G1 X18.941 Y-34.390 Z-0.350 F150.000
G1 X18.591 Y-34.390 Z-0.350 F150.000
G0 Z1.000
G0 Z1.000
G0 X18.591 Y-34.390
G0 Y-36.509
G0 Y-36.509 Z0.500
G1 X18.591 Y-36.509 Z-0.200 F100.000
G1 X17.784 Y-36.509 Z-0.200 F150.000
G1 X17.784 Y-39.100 Z-0.200 F150.000
G1 X19.229 Y-39.100 Z-0.200 F150.000
G1 X19.229 Y-36.509 Z-0.200 F150.000
G1 X18.591 Y-36.509 Z-0.200 F150.000
G1 X18.591 Y-36.509 Z-0.350 F100.000
G1 X17.784 Y-36.509 Z-0.350 F150.000
G1 X17.784 Y-39.100 Z-0.350 F150.000
G1 X19.229 Y-39.100 Z-0.350 F150.000
G1 X19.229 Y-36.509 Z-0.350 F150.000
G1 X18.591 Y-36.509 Z-0.350 F150.000
G0 Z1.000
G0 Z1.000
G0 X18.591 Y-36.509
G0 Y-41.410
G0 Y-41.410 Z0.500
G1 X18.591 Y-41.410 Z-0.200 F100.000
G1 X17.784 Y-41.410 Z-0.200 F150.000
G1 X17.784 Y-44.001 Z-0.200 F150.000
G1 X19.229 Y-44.001 Z-0.200 F150.000
G1 X19.229 Y-41.410 Z-0.200 F150.000
G1 X18.591 Y-41.410 Z-0.200 F150.000
G1 X18.591 Y-41.410 Z-0.350 F100.000
G1 X17.784 Y-41.410 Z-0.350 F150.000
G1 X17.784 Y-44.001 Z-0.350 F150.000
G1 X19.229 Y-44.001 Z-0.350 F150.000
G1 X19.229 Y-41.410 Z-0.350 F150.000
G1 X18.591 Y-41.410 Z-0.350 F150.000
G0 Z1.000
G0 Z1.000
G0 X18.591 Y-41.410
G0 Y-45.680
G0 Y-45.680 Z0.500
G1 X18.591 Y-45.680 Z-0.200 F100.000
G1 X17.782 Y-45.680 Z-0.200 F150.000
G1 X17.782 Y-48.030 Z-0.200 F150.000
G1 X19.231 Y-48.030 Z-0.200 F150.000
G1 X19.231 Y-45.680 Z-0.200 F150.000
G1 X18.591 Y-45.680 Z-0.200 F150.000
G1 X18.591 Y-45.680 Z-0.350 F100.000
G1 X17.782 Y-45.680 Z-0.350 F150.000
G1 X17.782 Y-48.030 Z-0.350 F150.000
G1 X19.231 Y-48.030 Z-0.350 F150.000
G1 X19.231 Y-45.680 Z-0.350 F150.000
G1 X18.591 Y-45.680 Z-0.350 F150.000
G0 Z1.000
G0 Z1.000
G0 X18.591 Y-45.680
G0 Y-48.981
G0 Y-48.981 Z0.500
G1 X18.591 Y-48.981 Z-0.200 F100.000
G1 X17.782 Y-48.981 Z-0.200 F150.000
G1 X17.782 Y-51.330 Z-0.200 F150.000
G1 X19.231 Y-51.330 Z-0.200 F150.000
G1 X19.231 Y-48.981 Z-0.200 F150.000
G1 X18.591 Y-48.981 Z-0.200 F150.000
G1 X18.591 Y-48.981 Z-0.350 F100.000
G1 X17.782 Y-48.981 Z-0.350 F150.000
G1 X17.782 Y-51.330 Z-0.350 F150.000
G1 X19.231 Y-51.330 Z-0.350 F150.000
G1 X19.231 Y-48.981 Z-0.350 F150.000
G1 X18.591 Y-48.981 Z-0.350 F150.000
G0 Z1.000
G0 Z1.000
G0 X18.591 Y-48.981
G0 X22.481 Y-42.880
G0 X22.481 Y-42.880 Z0.500
G1 X22.481 Y-42.880 Z-0.200 F100.000
G1 X23.231 Y-42.880 Z-0.200 F150.000
G1 X23.231 Y-42.530 Z-0.200 F150.000
G1 X22.481 Y-42.530 Z-0.200 F150.000
G1 X22.481 Y-42.880 Z-0.200 F150.000
G1 X22.481 Y-42.880 Z-0.350 F100.000
G1 X23.231 Y-42.880 Z-0.350 F150.000
G1 X23.231 Y-42.530 Z-0.350 F150.000
G1 X22.481 Y-42.530 Z-0.350 F150.000
G1 X22.481 Y-42.880 Z-0.350 F150.000
G0 Z1.000
G0 Z1.000
G0 X22.481 Y-42.880
G0 X22.482 Y-41.381
G0 X22.482 Y-41.381 Z0.500
G1 X22.482 Y-41.381 Z-0.200 F100.000
G1 X23.232 Y-41.381 Z-0.200 F150.000
G1 X23.232 Y-41.031 Z-0.200 F150.000
G1 X22.482 Y-41.031 Z-0.200 F150.000
G1 X22.482 Y-41.381 Z-0.200 F150.000
G1 X22.482 Y-41.381 Z-0.350 F100.000
G1 X23.232 Y-41.381 Z-0.350 F150.000
G1 X23.232 Y-41.031 Z-0.350 F150.000
G1 X22.482 Y-41.031 Z-0.350 F150.000
G1 X22.482 Y-41.381 Z-0.350 F150.000
G0 Z1.000
G0 Z1.000
G0 X22.482 Y-41.381
G0 X24.312
G0 X24.312 Z0.500
G1 X24.312 Y-41.381 Z-0.200 F100.000
G1 X25.062 Y-41.381 Z-0.200 F150.000
G1 X25.062 Y-41.031 Z-0.200 F150.000
G1 X24.312 Y-41.031 Z-0.200 F150.000
G1 X24.312 Y-41.381 Z-0.200 F150.000
G1 X24.312 Y-41.381 Z-0.350 F100.000
G1 X25.062 Y-41.381 Z-0.350 F150.000
G1 X25.062 Y-41.031 Z-0.350 F150.000
G1 X24.312 Y-41.031 Z-0.350 F150.000
G1 X24.312 Y-41.381 Z-0.350 F150.000
G0 Z1.000
G0 Z1.000
G0 X24.312 Y-41.381
G0 X24.310 Y-42.530
G0 X24.310 Y-42.530 Z0.500
G1 X24.310 Y-42.530 Z-0.200 F100.000
G1 X24.310 Y-42.880 Z-0.200 F150.000
G1 X25.060 Y-42.880 Z-0.200 F150.000
G1 X25.060 Y-42.530 Z-0.200 F150.000
G1 X24.310 Y-42.530 Z-0.200 F150.000
G1 X24.310 Y-42.530 Z-0.350 F100.000
G1 X24.310 Y-42.880 Z-0.350 F150.000
G1 X25.060 Y-42.880 Z-0.350 F150.000
G1 X25.060 Y-42.530 Z-0.350 F150.000
G1 X24.310 Y-42.530 Z-0.350 F150.000
G0 Z1.000
G0 Z1.000
G0 X24.310 Y-42.530
G0 X29.281 Y-44.805
G0 X29.281 Y-44.805 Z0.500
G1 X29.281 Y-44.805 Z-0.200 F100.000
G1 X29.281 Y-47.605 Z-0.200 F150.000
G1 X30.731 Y-47.605 Z-0.200 F150.000
G1 X30.731 Y-44.805 Z-0.200 F150.000
G1 X29.281 Y-44.805 Z-0.200 F150.000
G1 X29.281 Y-44.805 Z-0.350 F100.000
G1 X29.281 Y-47.605 Z-0.350 F150.000
G1 X30.731 Y-47.605 Z-0.350 F150.000
G1 X30.731 Y-44.805 Z-0.350 F150.000
G1 X29.281 Y-44.805 Z-0.350 F150.000
G0 Z1.000
G0 Z1.000
G0 X29.281 Y-44.805
G0 Y-42.406
G0 Y-42.406 Z0.500
G1 X29.281 Y-42.406 Z-0.200 F100.000
G1 X30.731 Y-42.406 Z-0.200 F150.000
G1 X30.731 Y-39.606 Z-0.200 F150.000
G1 X29.281 Y-39.606 Z-0.200 F150.000
G1 X29.281 Y-42.406 Z-0.200 F150.000
G1 X29.281 Y-42.406 Z-0.350 F100.000
G1 X30.731 Y-42.406 Z-0.350 F150.000
G1 X30.731 Y-39.606 Z-0.350 F150.000
G1 X29.281 Y-39.606 Z-0.350 F150.000
G1 X29.281 Y-42.406 Z-0.350 F150.000
G0 Z1.000
G0 Z1.000
G0 X29.281 Y-42.406
G0 X29.251 Y-38.450
G0 X29.251 Y-38.450 Z0.500
G1 X29.251 Y-38.450 Z-0.200 F100.000
G1 X29.251 Y-37.500 Z-0.200 F150.000
G1 X27.701 Y-37.500 Z-0.200 F150.000
G1 X27.701 Y-38.450 Z-0.200 F150.000
G1 X29.251 Y-38.450 Z-0.200 F150.000
G1 X29.251 Y-38.450 Z-0.350 F100.000
G1 X29.251 Y-37.500 Z-0.350 F150.000
G1 X27.701 Y-37.500 Z-0.350 F150.000
G1 X27.701 Y-38.450 Z-0.350 F150.000
G1 X29.251 Y-38.450 Z-0.350 F150.000
G0 Z1.000
G0 Z1.000
G0 X29.251 Y-38.450
G0 Y-35.250
G0 Y-35.250 Z0.500
G1 X29.251 Y-35.250 Z-0.200 F100.000
G1 X29.251 Y-34.300 Z-0.200 F150.000
G1 X27.701 Y-34.300 Z-0.200 F150.000
G1 X27.701 Y-35.250 Z-0.200 F150.000
G1 X29.251 Y-35.250 Z-0.200 F150.000
G1 X29.251 Y-35.250 Z-0.350 F100.000
G1 X29.251 Y-34.300 Z-0.350 F150.000
G1 X27.701 Y-34.300 Z-0.350 F150.000
G1 X27.701 Y-35.250 Z-0.350 F150.000
G1 X29.251 Y-35.250 Z-0.350 F150.000
G0 Z1.000
G0 Z1.000
G0 X29.251 Y-35.250
G0 X26.976 Y-32.640
G0 X26.976 Y-32.640 Z0.500
G1 X26.976 Y-32.640 Z-0.200 F100.000
G1 X26.976 Y-32.190 Z-0.200 F150.000
G1 X25.576 Y-32.190 Z-0.200 F150.000
G1 X25.576 Y-32.640 Z-0.200 F150.000
G1 X26.976 Y-32.640 Z-0.200 F150.000
G1 X26.976 Y-32.640 Z-0.350 F100.000
G1 X26.976 Y-32.190 Z-0.350 F150.000
G1 X25.576 Y-32.190 Z-0.350 F150.000
G1 X25.576 Y-32.640 Z-0.350 F150.000
G1 X26.976 Y-32.640 Z-0.350 F150.000
G0 Z1.000
G0 Z1.000
G0 X26.976 Y-32.640
G0 Y-31.371
G0 Y-31.371 Z0.500
G1 X26.976 Y-31.371 Z-0.200 F100.000
G1 X26.976 Y-30.922 Z-0.200 F150.000
G1 X25.576 Y-30.922 Z-0.200 F150.000
G1 X25.576 Y-31.371 Z-0.200 F150.000
G1 X26.976 Y-31.371 Z-0.200 F150.000
G1 X26.976 Y-31.371 Z-0.350 F100.000
G1 X26.976 Y-30.922 Z-0.350 F150.000
G1 X25.576 Y-30.922 Z-0.350 F150.000
G1 X25.576 Y-31.371 Z-0.350 F150.000
G1 X26.976 Y-31.371 Z-0.350 F150.000
G0 Z1.000
G0 Z1.000
G0 X26.976 Y-31.371
G0 Y-30.091
G0 Y-30.091 Z0.500
G1 X26.976 Y-30.091 Z-0.200 F100.000
G1 X26.976 Y-29.641 Z-0.200 F150.000
G1 X25.576 Y-29.641 Z-0.200 F150.000
G1 X25.576 Y-30.091 Z-0.200 F150.000
G1 X26.976 Y-30.091 Z-0.200 F150.000
G1 X26.976 Y-30.091 Z-0.350 F100.000
G1 X26.976 Y-29.641 Z-0.350 F150.000
G1 X25.576 Y-29.641 Z-0.350 F150.000
G1 X25.576 Y-30.091 Z-0.350 F150.000
G1 X26.976 Y-30.091 Z-0.350 F150.000
G0 Z1.000
G0 Z1.000
G0 X26.976 Y-30.091
G0 Y-28.820
G0 Y-28.820 Z0.500
G1 X26.976 Y-28.820 Z-0.200 F100.000
G1 X26.976 Y-28.371 Z-0.200 F150.000
G1 X25.576 Y-28.371 Z-0.200 F150.000
G1 X25.576 Y-28.820 Z-0.200 F150.000
G1 X26.976 Y-28.820 Z-0.200 F150.000
G1 X26.976 Y-28.820 Z-0.350 F100.000
G1 X26.976 Y-28.371 Z-0.350 F150.000
G1 X25.576 Y-28.371 Z-0.350 F150.000
G1 X25.576 Y-28.820 Z-0.350 F150.000
G1 X26.976 Y-28.820 Z-0.350 F150.000
G0 Z1.000
G0 Z1.000
G0 X26.976 Y-28.820
G0 X28.096 Y-29.541
G0 X28.096 Y-29.541 Z0.500
G1 X28.096 Y-29.541 Z-0.200 F100.000
G1 X28.096 Y-30.192 Z-0.200 F150.000
G1 X28.796 Y-30.192 Z-0.200 F150.000
G1 X28.796 Y-29.541 Z-0.200 F150.000
G1 X28.096 Y-29.541 Z-0.200 F150.000
G1 X28.096 Y-29.541 Z-0.350 F100.000
G1 X28.096 Y-30.192 Z-0.350 F150.000
G1 X28.796 Y-30.192 Z-0.350 F150.000
G1 X28.796 Y-29.541 Z-0.350 F150.000
G1 X28.096 Y-29.541 Z-0.350 F150.000
G0 Z1.000
G0 Z1.000
G0 X28.096 Y-29.541
G0 Y-31.040
G0 Y-31.040 Z0.500
G1 X28.096 Y-31.040 Z-0.200 F100.000
G1 X28.096 Y-31.691 Z-0.200 F150.000
G1 X28.796 Y-31.691 Z-0.200 F150.000
G1 X28.796 Y-31.040 Z-0.200 F150.000
G1 X28.096 Y-31.040 Z-0.200 F150.000
G1 X28.096 Y-31.040 Z-0.350 F100.000
G1 X28.096 Y-31.691 Z-0.350 F150.000
G1 X28.796 Y-31.691 Z-0.350 F150.000
G1 X28.796 Y-31.040 Z-0.350 F150.000
G1 X28.096 Y-31.040 Z-0.350 F150.000
G0 Z1.000
G0 Z1.000
G0 X28.096 Y-31.040
G0 X24.682 Y-34.036
G0 X24.682 Y-34.036 Z0.500
G1 X24.682 Y-34.036 Z-0.200 F100.000
G1 X24.031 Y-34.036 Z-0.200 F150.000
G1 X24.031 Y-34.736 Z-0.200 F150.000
G1 X24.682 Y-34.736 Z-0.200 F150.000
G1 X24.682 Y-34.036 Z-0.200 F150.000
G1 X24.682 Y-34.036 Z-0.350 F100.000
G1 X24.031 Y-34.036 Z-0.350 F150.000
G1 X24.031 Y-34.736 Z-0.350 F150.000
G1 X24.682 Y-34.736 Z-0.350 F150.000
G1 X24.682 Y-34.036 Z-0.350 F150.000
G0 Z1.000
G0 Z1.000
G0 X24.682 Y-34.036
G0 X23.182
G0 X23.182 Z0.500
G1 X23.182 Y-34.036 Z-0.200 F100.000
G1 X22.531 Y-34.036 Z-0.200 F150.000
G1 X22.531 Y-34.736 Z-0.200 F150.000
G1 X23.182 Y-34.736 Z-0.200 F150.000
G1 X23.182 Y-34.036 Z-0.200 F150.000
G1 X23.182 Y-34.036 Z-0.350 F100.000
G1 X22.531 Y-34.036 Z-0.350 F150.000
G1 X22.531 Y-34.736 Z-0.350 F150.000
G1 X23.182 Y-34.736 Z-0.350 F150.000
G1 X23.182 Y-34.036 Z-0.350 F150.000
G0 Z1.000
G0 Z1.000
G0 X23.182 Y-34.036
G0 X21.636 Y-32.640
G0 X21.636 Y-32.640 Z0.500
G1 X21.636 Y-32.640 Z-0.200 F100.000
G1 X21.636 Y-32.190 Z-0.200 F150.000
G1 X20.236 Y-32.190 Z-0.200 F150.000
G1 X20.236 Y-32.640 Z-0.200 F150.000
G1 X21.636 Y-32.640 Z-0.200 F150.000
G1 X21.636 Y-32.640 Z-0.350 F100.000
G1 X21.636 Y-32.190 Z-0.350 F150.000
G1 X20.236 Y-32.190 Z-0.350 F150.000
G1 X20.236 Y-32.640 Z-0.350 F150.000
G1 X21.636 Y-32.640 Z-0.350 F150.000
G0 Z1.000
G0 Z1.000
G0 X21.636 Y-32.640
G0 Y-31.369
G0 Y-31.369 Z0.500
G1 X21.636 Y-31.369 Z-0.200 F100.000
G1 X21.636 Y-30.920 Z-0.200 F150.000
G1 X20.236 Y-30.920 Z-0.200 F150.000
G1 X20.236 Y-31.369 Z-0.200 F150.000
G1 X21.636 Y-31.369 Z-0.200 F150.000
G1 X21.636 Y-31.369 Z-0.350 F100.000
G1 X21.636 Y-30.920 Z-0.350 F150.000
G1 X20.236 Y-30.920 Z-0.350 F150.000
G1 X20.236 Y-31.369 Z-0.350 F150.000
G1 X21.636 Y-31.369 Z-0.350 F150.000
G0 Z1.000
G0 Z1.000
G0 X21.636 Y-31.369
G0 Y-30.089
G0 Y-30.089 Z0.500
G1 X21.636 Y-30.089 Z-0.200 F100.000
G1 X21.636 Y-29.640 Z-0.200 F150.000
G1 X20.236 Y-29.640 Z-0.200 F150.000
G1 X20.236 Y-30.089 Z-0.200 F150.000
G1 X21.636 Y-30.089 Z-0.200 F150.000
G1 X21.636 Y-30.089 Z-0.350 F100.000
G1 X21.636 Y-29.640 Z-0.350 F150.000
G1 X20.236 Y-29.640 Z-0.350 F150.000
G1 X20.236 Y-30.089 Z-0.350 F150.000
G1 X21.636 Y-30.089 Z-0.350 F150.000
G0 Z1.000
G0 Z1.000
G0 X21.636 Y-30.089
G0 Y-28.820
G0 Y-28.820 Z0.500
G1 X21.636 Y-28.820 Z-0.200 F100.000
G1 X21.636 Y-28.371 Z-0.200 F150.000
G1 X20.236 Y-28.371 Z-0.200 F150.000
G1 X20.236 Y-28.820 Z-0.200 F150.000
G1 X21.636 Y-28.820 Z-0.200 F150.000
G1 X21.636 Y-28.820 Z-0.350 F100.000
G1 X21.636 Y-28.371 Z-0.350 F150.000
G1 X20.236 Y-28.371 Z-0.350 F150.000
G1 X20.236 Y-28.820 Z-0.350 F150.000
G1 X21.636 Y-28.820 Z-0.350 F150.000
G0 Z1.000
G0 Z1.000
G0 X21.636 Y-28.820
G0 X22.531 Y-26.976
G0 X22.531 Y-26.976 Z0.500
G1 X22.531 Y-26.976 Z-0.200 F100.000
G1 X23.182 Y-26.976 Z-0.200 F150.000
G1 X23.182 Y-26.276 Z-0.200 F150.000
G1 X22.531 Y-26.276 Z-0.200 F150.000
G1 X22.531 Y-26.976 Z-0.200 F150.000
G1 X22.531 Y-26.976 Z-0.350 F100.000
G1 X23.182 Y-26.976 Z-0.350 F150.000
G1 X23.182 Y-26.276 Z-0.350 F150.000
G1 X22.531 Y-26.276 Z-0.350 F150.000
G1 X22.531 Y-26.976 Z-0.350 F150.000
G0 Z1.000
G0 Z1.000
G0 X22.531 Y-26.976
G0 X24.031 Y-26.975
G0 X24.031 Y-26.975 Z0.500
G1 X24.031 Y-26.975 Z-0.200 F100.000
G1 X24.682 Y-26.975 Z-0.200 F150.000
G1 X24.682 Y-26.275 Z-0.200 F150.000
G1 X24.031 Y-26.275 Z-0.200 F150.000
G1 X24.031 Y-26.975 Z-0.200 F150.000
G1 X24.031 Y-26.975 Z-0.350 F100.000
G1 X24.682 Y-26.975 Z-0.350 F150.000
G1 X24.682 Y-26.275 Z-0.350 F150.000
G1 X24.031 Y-26.275 Z-0.350 F150.000
G1 X24.031 Y-26.975 Z-0.350 F150.000
G0 Z1.000
G0 Z1.000
G0 X24.031 Y-26.975
G0 X32.961 Y-25.591
G0 X32.961 Y-25.591 Z0.500
G1 X32.961 Y-25.591 Z-0.200 F100.000
G1 X34.302 Y-25.591 Z-0.200 F150.000
G1 X34.302 Y-25.040 Z-0.200 F150.000
G1 X32.961 Y-25.040 Z-0.200 F150.000
G1 X32.961 Y-25.591 Z-0.200 F150.000
G1 X32.961 Y-25.591 Z-0.350 F100.000
G1 X34.302 Y-25.591 Z-0.350 F150.000
G1 X34.302 Y-25.040 Z-0.350 F150.000
G1 X32.961 Y-25.040 Z-0.350 F150.000
G1 X32.961 Y-25.591 Z-0.350 F150.000
G0 Z1.000
G0 Z1.000
G0 X32.961 Y-25.591
G0 Y-23.052
G0 Y-23.052 Z0.500
G1 X32.961 Y-23.052 Z-0.200 F100.000
G1 X34.302 Y-23.052 Z-0.200 F150.000
G1 X34.302 Y-22.500 Z-0.200 F150.000
G1 X32.961 Y-22.500 Z-0.200 F150.000
G1 X32.961 Y-23.052 Z-0.200 F150.000
G1 X32.961 Y-23.052 Z-0.350 F100.000
G1 X34.302 Y-23.052 Z-0.350 F150.000
G1 X34.302 Y-22.500 Z-0.350 F150.000
G1 X32.961 Y-22.500 Z-0.350 F150.000
G1 X32.961 Y-23.052 Z-0.350 F150.000
G0 Z1.000
G0 Z1.000
G0 X32.961 Y-23.052
G0 Y-20.510
G0 Y-20.510 Z0.500
G1 X32.961 Y-20.510 Z-0.200 F100.000
G1 X34.302 Y-20.510 Z-0.200 F150.000
G1 X34.302 Y-19.959 Z-0.200 F150.000
G1 X32.961 Y-19.959 Z-0.200 F150.000
G1 X32.961 Y-20.510 Z-0.200 F150.000
G1 X32.961 Y-20.510 Z-0.350 F100.000
G1 X34.302 Y-20.510 Z-0.350 F150.000
G1 X34.302 Y-19.959 Z-0.350 F150.000
G1 X32.961 Y-19.959 Z-0.350 F150.000
G1 X32.961 Y-20.510 Z-0.350 F150.000
G0 Z1.000
G0 Z1.000
G0 X32.961 Y-20.510
G0 Y-17.971
G0 Y-17.971 Z0.500
G1 X32.961 Y-17.971 Z-0.200 F100.000
G1 X34.302 Y-17.971 Z-0.200 F150.000
G1 X34.302 Y-17.419 Z-0.200 F150.000
G1 X32.961 Y-17.419 Z-0.200 F150.000
G1 X32.961 Y-17.971 Z-0.200 F150.000
G1 X32.961 Y-17.971 Z-0.350 F100.000
G1 X34.302 Y-17.971 Z-0.350 F150.000
G1 X34.302 Y-17.419 Z-0.350 F150.000
G1 X32.961 Y-17.419 Z-0.350 F150.000
G1 X32.961 Y-17.971 Z-0.350 F150.000
G0 Z1.000
G0 Z1.000
G0 X32.961 Y-17.971
G0 X40.111
G0 X40.111 Z0.500
G1 X40.111 Y-17.971 Z-0.200 F100.000
G1 X41.453 Y-17.971 Z-0.200 F150.000
G1 X41.453 Y-17.419 Z-0.200 F150.000
G1 X40.111 Y-17.419 Z-0.200 F150.000
G1 X40.111 Y-17.971 Z-0.200 F150.000
G1 X40.111 Y-17.971 Z-0.350 F100.000
G1 X41.453 Y-17.971 Z-0.350 F150.000
G1 X41.453 Y-17.419 Z-0.350 F150.000
G1 X40.111 Y-17.419 Z-0.350 F150.000
G1 X40.111 Y-17.971 Z-0.350 F150.000
G0 Z1.000
G0 Z1.000
G0 X40.111 Y-17.971
G0 Y-19.959
G0 Y-19.959 Z0.500
G1 X40.111 Y-19.959 Z-0.200 F100.000
G1 X40.111 Y-20.510 Z-0.200 F150.000
G1 X41.453 Y-20.510 Z-0.200 F150.000
G1 X41.453 Y-19.959 Z-0.200 F150.000
G1 X40.111 Y-19.959 Z-0.200 F150.000
G1 X40.111 Y-19.959 Z-0.350 F100.000
G1 X40.111 Y-20.510 Z-0.350 F150.000
G1 X41.453 Y-20.510 Z-0.350 F150.000
G1 X41.453 Y-19.959 Z-0.350 F150.000
G1 X40.111 Y-19.959 Z-0.350 F150.000
G0 Z1.000
G0 Z1.000
G0 X40.111 Y-19.959
G0 Y-22.500
G0 Y-22.500 Z0.500
G1 X40.111 Y-22.500 Z-0.200 F100.000
G1 X40.111 Y-23.052 Z-0.200 F150.000
G1 X41.453 Y-23.052 Z-0.200 F150.000
G1 X41.453 Y-22.500 Z-0.200 F150.000
G1 X40.111 Y-22.500 Z-0.200 F150.000
G1 X40.111 Y-22.500 Z-0.350 F100.000
G1 X40.111 Y-23.052 Z-0.350 F150.000
G1 X41.453 Y-23.052 Z-0.350 F150.000
G1 X41.453 Y-22.500 Z-0.350 F150.000
G1 X40.111 Y-22.500 Z-0.350 F150.000
G0 Z1.000
G0 Z1.000
G0 X40.111 Y-22.500
G0 Y-25.040
G0 Y-25.040 Z0.500
G1 X40.111 Y-25.040 Z-0.200 F100.000
G1 X40.111 Y-25.591 Z-0.200 F150.000
G1 X41.453 Y-25.591 Z-0.200 F150.000
G1 X41.453 Y-25.040 Z-0.200 F150.000
G1 X40.111 Y-25.040 Z-0.200 F150.000
G1 X40.111 Y-25.040 Z-0.350 F100.000
G1 X40.111 Y-25.591 Z-0.350 F150.000
G1 X41.453 Y-25.591 Z-0.350 F150.000
G1 X41.453 Y-25.040 Z-0.350 F150.000
G1 X40.111 Y-25.040 Z-0.350 F150.000
G0 Z1.000
G0 Z1.000
G0 X40.111 Y-25.040
G0 X42.931
G0 X42.931 Z0.500
G1 X42.931 Y-25.040 Z-0.200 F100.000
G1 X42.931 Y-26.431 Z-0.200 F150.000
G1 X43.380 Y-26.431 Z-0.200 F150.000
G1 X43.380 Y-24.781 Z-0.200 F150.000
G1 X42.931 Y-24.781 Z-0.200 F150.000
G1 X42.931 Y-25.040 Z-0.200 F150.000
G1 X42.931 Y-25.040 Z-0.350 F100.000
G1 X42.931 Y-26.431 Z-0.350 F150.000
G1 X43.380 Y-26.431 Z-0.350 F150.000
G1 X43.380 Y-24.781 Z-0.350 F150.000
G1 X42.931 Y-24.781 Z-0.350 F150.000
G1 X42.931 Y-25.040 Z-0.350 F150.000
G0 Z1.000
G0 Z1.000
G0 X42.931 Y-25.040
G0 X45.432
G0 X45.432 Z0.500
G1 X45.432 Y-25.040 Z-0.200 F100.000
G1 X45.432 Y-26.431 Z-0.200 F150.000
G1 X45.881 Y-26.431 Z-0.200 F150.000
G1 X45.881 Y-24.781 Z-0.200 F150.000
G1 X45.432 Y-24.781 Z-0.200 F150.000
G1 X45.432 Y-25.040 Z-0.200 F150.000
G1 X45.432 Y-25.040 Z-0.350 F100.000
G1 X45.432 Y-26.431 Z-0.350 F150.000
G1 X45.881 Y-26.431 Z-0.350 F150.000
G1 X45.881 Y-24.781 Z-0.350 F150.000
G1 X45.432 Y-24.781 Z-0.350 F150.000
G1 X45.432 Y-25.040 Z-0.350 F150.000
G0 Z1.000
G0 Z1.000
G0 X45.432 Y-25.040
G0 X43.996 Y-27.630
G0 X43.996 Y-27.630 Z0.500
G1 X43.996 Y-27.630 Z-0.200 F100.000
G1 X43.246 Y-27.630 Z-0.200 F150.000
G1 X43.246 Y-28.481 Z-0.200 F150.000
G1 X43.996 Y-28.481 Z-0.200 F150.000
G1 X43.996 Y-27.630 Z-0.200 F150.000
G1 X43.996 Y-27.630 Z-0.350 F100.000
G1 X43.246 Y-27.630 Z-0.350 F150.000
G1 X43.246 Y-28.481 Z-0.350 F150.000
G1 X43.996 Y-28.481 Z-0.350 F150.000
G1 X43.996 Y-27.630 Z-0.350 F150.000
G0 Z1.000
G0 Z1.000
G0 X43.996 Y-27.630
G0 X43.047 Y-29.830
G0 X43.047 Y-29.830 Z0.500
G1 X43.047 Y-29.830 Z-0.200 F100.000
G1 X42.297 Y-29.830 Z-0.200 F150.000
G1 X42.297 Y-30.680 Z-0.200 F150.000
G1 X43.047 Y-30.680 Z-0.200 F150.000
G1 X43.047 Y-29.830 Z-0.200 F150.000
G1 X43.047 Y-29.830 Z-0.350 F100.000
G1 X42.297 Y-29.830 Z-0.350 F150.000
G1 X42.297 Y-30.680 Z-0.350 F150.000
G1 X43.047 Y-30.680 Z-0.350 F150.000
G1 X43.047 Y-29.830 Z-0.350 F150.000
G0 Z1.000
G0 Z1.000
G0 X43.047 Y-29.830
G0 X41.107 Y-29.906
G0 X41.107 Y-29.906 Z0.500
G1 X41.107 Y-29.906 Z-0.200 F100.000
G1 X40.456 Y-29.906 Z-0.200 F150.000
G1 X40.456 Y-30.606 Z-0.200 F150.000
G1 X41.107 Y-30.606 Z-0.200 F150.000
G1 X41.107 Y-29.906 Z-0.200 F150.000
G1 X41.107 Y-29.906 Z-0.350 F100.000
G1 X40.456 Y-29.906 Z-0.350 F150.000
G1 X40.456 Y-30.606 Z-0.350 F150.000
G1 X41.107 Y-30.606 Z-0.350 F150.000
G1 X41.107 Y-29.906 Z-0.350 F150.000
G0 Z1.000
G0 Z1.000
G0 X41.107 Y-29.906
G0 X39.607
G0 X39.607 Z0.500
G1 X39.607 Y-29.906 Z-0.200 F100.000
G1 X38.956 Y-29.906 Z-0.200 F150.000
G1 X38.956 Y-30.606 Z-0.200 F150.000
G1 X39.607 Y-30.606 Z-0.200 F150.000
G1 X39.607 Y-29.906 Z-0.200 F150.000
G1 X39.607 Y-29.906 Z-0.350 F100.000
G1 X38.956 Y-29.906 Z-0.350 F150.000
G1 X38.956 Y-30.606 Z-0.350 F150.000
G1 X39.607 Y-30.606 Z-0.350 F150.000
G1 X39.607 Y-29.906 Z-0.350 F150.000
G0 Z1.000
G0 Z1.000
G0 X39.607 Y-29.906
G0 X38.957 Y-28.210
G0 X38.957 Y-28.210 Z0.500
G1 X38.957 Y-28.210 Z-0.200 F100.000
G1 X38.957 Y-27.960 Z-0.200 F150.000
G1 X38.207 Y-27.960 Z-0.200 F150.000
G1 X38.207 Y-28.210 Z-0.200 F150.000
G1 X38.957 Y-28.210 Z-0.200 F150.000
G1 X38.957 Y-28.210 Z-0.350 F100.000
G1 X38.957 Y-27.960 Z-0.350 F150.000
G1 X38.207 Y-27.960 Z-0.350 F150.000
G1 X38.207 Y-28.210 Z-0.350 F150.000
G1 X38.957 Y-28.210 Z-0.350 F150.000
G0 Z1.000
G0 Z1.000
G0 X38.957 Y-28.210
G0 X40.406 Y-28.211
G0 X40.406 Y-28.211 Z0.500
G1 X40.406 Y-28.211 Z-0.200 F100.000
G1 X41.156 Y-28.211 Z-0.200 F150.000
G1 X41.156 Y-27.961 Z-0.200 F150.000
G1 X40.406 Y-27.961 Z-0.200 F150.000
G1 X40.406 Y-28.211 Z-0.200 F150.000
G1 X40.406 Y-28.211 Z-0.350 F100.000
G1 X41.156 Y-28.211 Z-0.350 F150.000
G1 X41.156 Y-27.961 Z-0.350 F150.000
G1 X40.406 Y-27.961 Z-0.350 F150.000
G1 X40.406 Y-28.211 Z-0.350 F150.000
G0 Z1.000
G0 Z1.000
G0 X40.406 Y-28.211
G0 X44.196 Y-29.830
G0 X44.196 Y-29.830 Z0.500
G1 X44.196 Y-29.830 Z-0.200 F100.000
G1 X44.196 Y-30.680 Z-0.200 F150.000
G1 X44.946 Y-30.680 Z-0.200 F150.000
G1 X44.946 Y-29.830 Z-0.200 F150.000
G1 X44.196 Y-29.830 Z-0.200 F150.000
G1 X44.196 Y-29.830 Z-0.350 F100.000
G1 X44.196 Y-30.680 Z-0.350 F150.000
G1 X44.946 Y-30.680 Z-0.350 F150.000
G1 X44.946 Y-29.830 Z-0.350 F150.000
G1 X44.196 Y-29.830 Z-0.350 F150.000
G0 Z1.000
G0 Z1.000
G0 X44.196 Y-29.830
G0 X46.111 Y-29.929
G0 X46.111 Y-29.929 Z0.500
G1 X46.111 Y-29.929 Z-0.200 F100.000
G1 X46.111 Y-30.580 Z-0.200 F150.000
G1 X46.811 Y-30.580 Z-0.200 F150.000
G1 X46.811 Y-29.929 Z-0.200 F150.000
G1 X46.111 Y-29.929 Z-0.200 F150.000
G1 X46.111 Y-29.929 Z-0.350 F100.000
G1 X46.111 Y-30.580 Z-0.350 F150.000
G1 X46.811 Y-30.580 Z-0.350 F150.000
G1 X46.811 Y-29.929 Z-0.350 F150.000
G1 X46.111 Y-29.929 Z-0.350 F150.000
G0 Z1.000
G0 Z1.000
G0 X46.111 Y-29.929
G0 Y-29.081
G0 Y-29.081 Z0.500
G1 X46.111 Y-29.081 Z-0.200 F100.000
G1 X46.811 Y-29.081 Z-0.200 F150.000
G1 X46.811 Y-28.430 Z-0.200 F150.000
G1 X46.111 Y-28.430 Z-0.200 F150.000
G1 X46.111 Y-29.081 Z-0.200 F150.000
G1 X46.111 Y-29.081 Z-0.350 F100.000
G1 X46.811 Y-29.081 Z-0.350 F150.000
G1 X46.811 Y-28.430 Z-0.350 F150.000
G1 X46.111 Y-28.430 Z-0.350 F150.000
G1 X46.111 Y-29.081 Z-0.350 F150.000
G0 Z1.000
G0 Z1.000
G0 X46.111 Y-29.081
G0 X47.970 Y-29.780
G0 X47.970 Y-29.780 Z0.500
G1 X47.970 Y-29.780 Z-0.200 F100.000
G1 X47.970 Y-30.730 Z-0.200 F150.000
G1 X49.521 Y-30.730 Z-0.200 F150.000
G1 X49.521 Y-29.780 Z-0.200 F150.000
G1 X47.970 Y-29.780 Z-0.200 F150.000
G1 X47.970 Y-29.780 Z-0.350 F100.000
G1 X47.970 Y-30.730 Z-0.350 F150.000
G1 X49.521 Y-30.730 Z-0.350 F150.000
G1 X49.521 Y-29.780 Z-0.350 F150.000
G1 X47.970 Y-29.780 Z-0.350 F150.000
G0 Z1.000
G0 Z1.000
G0 X47.970 Y-29.780
G0 X47.972 Y-32.980
G0 X47.972 Y-32.980 Z0.500
G1 X47.972 Y-32.980 Z-0.200 F100.000
G1 X47.972 Y-33.930 Z-0.200 F150.000
G1 X49.522 Y-33.930 Z-0.200 F150.000
G1 X49.522 Y-32.980 Z-0.200 F150.000
G1 X47.972 Y-32.980 Z-0.200 F150.000
G1 X47.972 Y-32.980 Z-0.350 F100.000
G1 X47.972 Y-33.930 Z-0.350 F150.000
G1 X49.522 Y-33.930 Z-0.350 F150.000
G1 X49.522 Y-32.980 Z-0.350 F150.000
G1 X47.972 Y-32.980 Z-0.350 F150.000
G0 Z1.000
G0 Z1.000
G0 X47.972 Y-32.980
G0 X50.996 Y-30.981
G0 X50.996 Y-30.981 Z0.500
G1 X50.996 Y-30.981 Z-0.200 F100.000
G1 X53.797 Y-30.981 Z-0.200 F150.000
G1 X53.797 Y-29.531 Z-0.200 F150.000
G1 X50.996 Y-29.531 Z-0.200 F150.000
G1 X50.996 Y-30.981 Z-0.200 F150.000
G1 X50.996 Y-30.981 Z-0.350 F100.000
G1 X53.797 Y-30.981 Z-0.350 F150.000
G1 X53.797 Y-29.531 Z-0.350 F150.000
G1 X50.996 Y-29.531 Z-0.350 F150.000
G1 X50.996 Y-30.981 Z-0.350 F150.000
G0 Z1.000
G0 Z1.000
G0 X50.996 Y-30.981
G0 X56.196
G0 X56.196 Z0.500
G1 X56.196 Y-30.981 Z-0.200 F100.000
G1 X58.996 Y-30.981 Z-0.200 F150.000
G1 X58.996 Y-29.531 Z-0.200 F150.000
G1 X56.196 Y-29.531 Z-0.200 F150.000
G1 X56.196 Y-30.981 Z-0.200 F150.000
G1 X56.196 Y-30.981 Z-0.350 F100.000
G1 X58.996 Y-30.981 Z-0.350 F150.000
G1 X58.996 Y-29.531 Z-0.350 F150.000
G1 X56.196 Y-29.531 Z-0.350 F150.000
G1 X56.196 Y-30.981 Z-0.350 F150.000
G0 Z1.000
G0 Z1.000
G0 X56.196 Y-30.981
G0 X62.521 Y-35.160
G0 X62.521 Y-35.160 Z0.500
G1 X62.521 Y-35.160 Z-0.200 F100.000
G1 X62.521 Y-37.510 Z-0.200 F150.000
G1 X63.971 Y-37.510 Z-0.200 F150.000
G1 X63.971 Y-35.160 Z-0.200 F150.000
G1 X62.521 Y-35.160 Z-0.200 F150.000
G1 X62.521 Y-35.160 Z-0.350 F100.000
G1 X62.521 Y-37.510 Z-0.350 F150.000
G1 X63.971 Y-37.510 Z-0.350 F150.000
G1 X63.971 Y-35.160 Z-0.350 F150.000
G1 X62.521 Y-35.160 Z-0.350 F150.000
G0 Z1.000
G0 Z1.000
G0 X62.521 Y-35.160
G0 Y-38.461
G0 Y-38.461 Z0.500
G1 X62.521 Y-38.461 Z-0.200 F100.000
G1 X62.521 Y-40.811 Z-0.200 F150.000
G1 X63.971 Y-40.811 Z-0.200 F150.000
G1 X63.971 Y-38.461 Z-0.200 F150.000
G1 X62.521 Y-38.461 Z-0.200 F150.000
G1 X62.521 Y-38.461 Z-0.350 F100.000
G1 X62.521 Y-40.811 Z-0.350 F150.000
G1 X63.971 Y-40.811 Z-0.350 F150.000
G1 X63.971 Y-38.461 Z-0.350 F150.000
G1 X62.521 Y-38.461 Z-0.350 F150.000
G0 Z1.000
G0 Z1.000
G0 X62.521 Y-38.461
G0 X61.792 Y-42.320
G0 X61.792 Y-42.320 Z0.500
G1 X61.792 Y-42.320 Z-0.200 F100.000
G1 X60.942 Y-42.320 Z-0.200 F150.000
G1 X60.942 Y-43.070 Z-0.200 F150.000
G1 X61.792 Y-43.070 Z-0.200 F150.000
G1 X61.792 Y-42.320 Z-0.200 F150.000
G1 X61.792 Y-42.320 Z-0.350 F100.000
G1 X60.942 Y-42.320 Z-0.350 F150.000
G1 X60.942 Y-43.070 Z-0.350 F150.000
G1 X61.792 Y-43.070 Z-0.350 F150.000
G1 X61.792 Y-42.320 Z-0.350 F150.000
G0 Z1.000
G0 Z1.000
G0 X61.792 Y-42.320
G0 Y-44.221
G0 Y-44.221 Z0.500
G1 X61.792 Y-44.221 Z-0.200 F100.000
G1 X60.942 Y-44.221 Z-0.200 F150.000
G1 X60.942 Y-44.971 Z-0.200 F150.000
G1 X61.792 Y-44.971 Z-0.200 F150.000
G1 X61.792 Y-44.221 Z-0.200 F150.000
G1 X61.792 Y-44.221 Z-0.350 F100.000
G1 X60.942 Y-44.221 Z-0.350 F150.000
G1 X60.942 Y-44.971 Z-0.350 F150.000
G1 X61.792 Y-44.971 Z-0.350 F150.000
G1 X61.792 Y-44.221 Z-0.350 F150.000
G0 Z1.000
G0 Z1.000
G0 X61.792 Y-44.221
G0 X61.741 Y-46.171
G0 X61.741 Y-46.171 Z0.500
G1 X61.741 Y-46.171 Z-0.200 F100.000
G1 X60.991 Y-46.171 Z-0.200 F150.000
G1 X60.991 Y-46.521 Z-0.200 F150.000
G1 X61.741 Y-46.521 Z-0.200 F150.000
G1 X61.741 Y-46.171 Z-0.200 F150.000
G1 X61.741 Y-46.171 Z-0.350 F100.000
G1 X60.991 Y-46.171 Z-0.350 F150.000
G1 X60.991 Y-46.521 Z-0.350 F150.000
G1 X61.741 Y-46.521 Z-0.350 F150.000
G1 X61.741 Y-46.171 Z-0.350 F150.000
G0 Z1.000
G0 Z1.000
G0 X61.741 Y-46.171
G0 Y-47.670
G0 Y-47.670 Z0.500
G1 X61.741 Y-47.670 Z-0.200 F100.000
G1 X60.991 Y-47.670 Z-0.200 F150.000
G1 X60.991 Y-48.020 Z-0.200 F150.000
G1 X61.741 Y-48.020 Z-0.200 F150.000
G1 X61.741 Y-47.670 Z-0.200 F150.000
G1 X61.741 Y-47.670 Z-0.350 F100.000
G1 X60.991 Y-47.670 Z-0.350 F150.000
G1 X60.991 Y-48.020 Z-0.350 F150.000
G1 X61.741 Y-48.020 Z-0.350 F150.000
G1 X61.741 Y-47.670 Z-0.350 F150.000
G0 Z1.000
G0 Z1.000
G0 X61.741 Y-47.670
G0 X62.981 Y-47.890
G0 X62.981 Y-47.890 Z0.500
G1 X62.981 Y-47.890 Z-0.200 F100.000
G1 X62.981 Y-48.640 Z-0.200 F150.000
G1 X63.331 Y-48.640 Z-0.200 F150.000
G1 X63.331 Y-47.890 Z-0.200 F150.000
G1 X62.981 Y-47.890 Z-0.200 F150.000
G1 X62.981 Y-47.890 Z-0.350 F100.000
G1 X62.981 Y-48.640 Z-0.350 F150.000
G1 X63.331 Y-48.640 Z-0.350 F150.000
G1 X63.331 Y-47.890 Z-0.350 F150.000
G1 X62.981 Y-47.890 Z-0.350 F150.000
G0 Z1.000
G0 Z1.000
G0 X62.981 Y-47.890
G0 Y-46.825
G0 Y-46.825 Z0.500
G1 X62.981 Y-46.825 Z-0.200 F100.000
G1 X63.482 Y-46.825 Z-0.200 F150.000
G1 X63.482 Y-46.125 Z-0.200 F150.000
G1 X62.831 Y-46.125 Z-0.200 F150.000
G1 X62.831 Y-46.825 Z-0.200 F150.000
G1 X62.981 Y-46.825 Z-0.200 F150.000
G1 X62.981 Y-46.825 Z-0.350 F100.000
G1 X63.482 Y-46.825 Z-0.350 F150.000
G1 X63.482 Y-46.125 Z-0.350 F150.000
G1 X62.831 Y-46.125 Z-0.350 F150.000
G1 X62.831 Y-46.825 Z-0.350 F150.000
G1 X62.981 Y-46.825 Z-0.350 F150.000
G0 Z1.000
G0 Z1.000
G0 X62.981 Y-46.825
G0 X64.330
G0 X64.330 Z0.500
G1 X64.330 Y-46.825 Z-0.200 F100.000
G1 X64.981 Y-46.825 Z-0.200 F150.000
G1 X64.981 Y-46.125 Z-0.200 F150.000
G1 X64.330 Y-46.125 Z-0.200 F150.000
G1 X64.330 Y-46.825 Z-0.200 F150.000
G1 X64.330 Y-46.825 Z-0.350 F100.000
G1 X64.981 Y-46.825 Z-0.350 F150.000
G1 X64.981 Y-46.125 Z-0.350 F150.000
G1 X64.330 Y-46.125 Z-0.350 F150.000
G1 X64.330 Y-46.825 Z-0.350 F150.000
G0 Z1.000
G0 Z1.000
G0 X64.330 Y-46.825
G0 X64.481 Y-47.890
G0 X64.481 Y-47.890 Z0.500
G1 X64.481 Y-47.890 Z-0.200 F100.000
G1 X64.481 Y-48.640 Z-0.200 F150.000
G1 X64.831 Y-48.640 Z-0.200 F150.000
G1 X64.831 Y-47.890 Z-0.200 F150.000
G1 X64.481 Y-47.890 Z-0.200 F150.000
G1 X64.481 Y-47.890 Z-0.350 F100.000
G1 X64.481 Y-48.640 Z-0.350 F150.000
G1 X64.831 Y-48.640 Z-0.350 F150.000
G1 X64.831 Y-47.890 Z-0.350 F150.000
G1 X64.481 Y-47.890 Z-0.350 F150.000
G0 Z1.000
G0 Z1.000
G0 X64.481 Y-47.890
G0 X66.122
G0 X66.122 Z0.500
G1 X66.122 Y-47.890 Z-0.200 F100.000
G1 X66.122 Y-48.741 Z-0.200 F150.000
G1 X67.372 Y-48.741 Z-0.200 F150.000
G1 X67.372 Y-47.791 Z-0.200 F150.000
G1 X66.122 Y-47.791 Z-0.200 F150.000
G1 X66.122 Y-47.890 Z-0.200 F150.000
G1 X66.122 Y-47.890 Z-0.350 F100.000
G1 X66.122 Y-48.741 Z-0.350 F150.000
G1 X67.372 Y-48.741 Z-0.350 F150.000
G1 X67.372 Y-47.791 Z-0.350 F150.000
G1 X66.122 Y-47.791 Z-0.350 F150.000
G1 X66.122 Y-47.890 Z-0.350 F150.000
G0 Z1.000
G0 Z1.000
G0 X66.122 Y-47.890
G0 Y-46.940
G0 Y-46.940 Z0.500
G1 X66.122 Y-46.940 Z-0.200 F100.000
G1 X67.372 Y-46.940 Z-0.200 F150.000
G1 X67.372 Y-45.990 Z-0.200 F150.000
G1 X66.122 Y-45.990 Z-0.200 F150.000
G1 X66.122 Y-46.940 Z-0.200 F150.000
G1 X66.122 Y-46.940 Z-0.350 F100.000
G1 X67.372 Y-46.940 Z-0.350 F150.000
G1 X67.372 Y-45.990 Z-0.350 F150.000
G1 X66.122 Y-45.990 Z-0.350 F150.000
G1 X66.122 Y-46.940 Z-0.350 F150.000
G0 Z1.000
G0 Z1.000
G0 X66.122 Y-46.940
G0 X68.502 Y-46.650
G0 X68.502 Y-46.650 Z0.500
G1 X68.502 Y-46.650 Z-0.200 F100.000
G1 X69.251 Y-46.650 Z-0.200 F150.000
G1 X69.251 Y-46.300 Z-0.200 F150.000
G1 X68.502 Y-46.300 Z-0.200 F150.000
G1 X68.502 Y-46.650 Z-0.200 F150.000
G1 X68.502 Y-46.650 Z-0.350 F100.000
G1 X69.251 Y-46.650 Z-0.350 F150.000
G1 X69.251 Y-46.300 Z-0.350 F150.000
G1 X68.502 Y-46.300 Z-0.350 F150.000
G1 X68.502 Y-46.650 Z-0.350 F150.000
G0 Z1.000
G0 Z1.000
G0 X68.502 Y-46.650
G0 Y-47.799
G0 Y-47.799 Z0.500
G1 X68.502 Y-47.799 Z-0.200 F100.000
G1 X68.502 Y-48.150 Z-0.200 F150.000
G1 X69.251 Y-48.150 Z-0.200 F150.000
G1 X69.251 Y-47.799 Z-0.200 F150.000
G1 X68.502 Y-47.799 Z-0.200 F150.000
G1 X68.502 Y-47.799 Z-0.350 F100.000
G1 X68.502 Y-48.150 Z-0.350 F150.000
G1 X69.251 Y-48.150 Z-0.350 F150.000
G1 X69.251 Y-47.799 Z-0.350 F150.000
G1 X68.502 Y-47.799 Z-0.350 F150.000
G0 Z1.000
G0 Z1.000
G0 X68.502 Y-47.799
G0 X63.992 Y-44.020
G0 X63.992 Y-44.020 Z0.500
G1 X63.992 Y-44.020 Z-0.200 F100.000
G1 X63.992 Y-43.270 Z-0.200 F150.000
G1 X63.141 Y-43.270 Z-0.200 F150.000
G1 X63.141 Y-44.020 Z-0.200 F150.000
G1 X63.992 Y-44.020 Z-0.200 F150.000
G1 X63.992 Y-44.020 Z-0.350 F100.000
G1 X63.992 Y-43.270 Z-0.350 F150.000
G1 X63.141 Y-43.270 Z-0.350 F150.000
G1 X63.141 Y-44.020 Z-0.350 F150.000
G1 X63.992 Y-44.020 Z-0.350 F150.000
G0 Z1.000
G0 Z1.000
G0 X63.992 Y-44.020
G0 X58.996 Y-39.110
G0 X58.996 Y-39.110 Z0.500
G1 X58.996 Y-39.110 Z-0.200 F100.000
G1 X58.996 Y-37.660 Z-0.200 F150.000
G1 X56.196 Y-37.660 Z-0.200 F150.000
G1 X56.196 Y-39.110 Z-0.200 F150.000
G1 X58.996 Y-39.110 Z-0.200 F150.000
G1 X58.996 Y-39.110 Z-0.350 F100.000
G1 X58.996 Y-37.660 Z-0.350 F150.000
G1 X56.196 Y-37.660 Z-0.350 F150.000
G1 X56.196 Y-39.110 Z-0.350 F150.000
G1 X58.996 Y-39.110 Z-0.350 F150.000
G0 Z1.000
G0 Z1.000
G0 X58.996 Y-39.110
G0 X53.797
G0 X53.797 Z0.500
G1 X53.797 Y-39.110 Z-0.200 F100.000
G1 X53.797 Y-37.660 Z-0.200 F150.000
G1 X50.996 Y-37.660 Z-0.200 F150.000
G1 X50.996 Y-39.110 Z-0.200 F150.000
G1 X53.797 Y-39.110 Z-0.200 F150.000
G1 X53.797 Y-39.110 Z-0.350 F100.000
G1 X53.797 Y-37.660 Z-0.350 F150.000
G1 X50.996 Y-37.660 Z-0.350 F150.000
G1 X50.996 Y-39.110 Z-0.350 F150.000
G1 X53.797 Y-39.110 Z-0.350 F150.000
G0 Z1.000
G0 Z1.000
G0 X53.797 Y-39.110
G0 X51.796 Y-25.266
G0 X51.796 Y-25.266 Z0.500
G1 X51.796 Y-25.266 Z-0.200 F100.000
G1 X51.796 Y-22.766 Z-0.200 F150.000
G1 X50.196 Y-22.766 Z-0.200 F150.000
G1 X50.196 Y-25.266 Z-0.200 F150.000
G1 X51.796 Y-25.266 Z-0.200 F150.000
G1 X51.796 Y-25.266 Z-0.350 F100.000
G1 X51.796 Y-22.766 Z-0.350 F150.000
G1 X50.196 Y-22.766 Z-0.350 F150.000
G1 X50.196 Y-25.266 Z-0.350 F150.000
G1 X51.796 Y-25.266 Z-0.350 F150.000
G0 Z1.000
G0 Z1.000
G0 X51.796 Y-25.266
G0 Y-20.965
G0 Y-20.965 Z0.500
G1 X51.796 Y-20.965 Z-0.200 F100.000
G1 X51.796 Y-18.465 Z-0.200 F150.000
G1 X50.196 Y-18.465 Z-0.200 F150.000
G1 X50.196 Y-20.965 Z-0.200 F150.000
G1 X51.796 Y-20.965 Z-0.200 F150.000
G1 X51.796 Y-20.965 Z-0.350 F100.000
G1 X51.796 Y-18.465 Z-0.350 F150.000
G1 X50.196 Y-18.465 Z-0.350 F150.000
G1 X50.196 Y-20.965 Z-0.350 F150.000
G1 X51.796 Y-20.965 Z-0.350 F150.000
G0 Z1.000
G0 Z1.000
G0 X51.796 Y-20.965
G0 X45.881 Y-20.130
G0 X45.881 Y-20.130 Z0.500
G1 X45.881 Y-20.130 Z-0.200 F100.000
G1 X45.881 Y-18.480 Z-0.200 F150.000
G1 X45.432 Y-18.480 Z-0.200 F150.000
G1 X45.432 Y-20.130 Z-0.200 F150.000
G1 X45.881 Y-20.130 Z-0.200 F150.000
G1 X45.881 Y-20.130 Z-0.350 F100.000
G1 X45.881 Y-18.480 Z-0.350 F150.000
G1 X45.432 Y-18.480 Z-0.350 F150.000
G1 X45.432 Y-20.130 Z-0.350 F150.000
G1 X45.881 Y-20.130 Z-0.350 F150.000
G0 Z1.000
G0 Z1.000
G0 X45.881 Y-20.130
G0 X43.382
G0 X43.382 Z0.500
G1 X43.382 Y-20.130 Z-0.200 F100.000
G1 X43.382 Y-18.480 Z-0.200 F150.000
G1 X42.932 Y-18.480 Z-0.200 F150.000
G1 X42.932 Y-20.130 Z-0.200 F150.000
G1 X43.382 Y-20.130 Z-0.200 F150.000
G1 X43.382 Y-20.130 Z-0.350 F100.000
G1 X43.382 Y-18.480 Z-0.350 F150.000
G1 X42.932 Y-18.480 Z-0.350 F150.000
G1 X42.932 Y-20.130 Z-0.350 F150.000
G1 X43.382 Y-20.130 Z-0.350 F150.000
G0 Z1.000
G0 Z1.000
G0 X43.382 Y-20.130
G0 X32.081 Y-34.300
G0 X32.081 Y-34.300 Z0.500
G1 X32.081 Y-34.300 Z-0.200 F100.000
G1 X30.531 Y-34.300 Z-0.200 F150.000
G1 X30.531 Y-35.250 Z-0.200 F150.000
G1 X32.081 Y-35.250 Z-0.200 F150.000
G1 X32.081 Y-34.300 Z-0.200 F150.000
G1 X32.081 Y-34.300 Z-0.350 F100.000
G1 X30.531 Y-34.300 Z-0.350 F150.000
G1 X30.531 Y-35.250 Z-0.350 F150.000
G1 X32.081 Y-35.250 Z-0.350 F150.000
G1 X32.081 Y-34.300 Z-0.350 F150.000
G0 Z1.000
G0 Z1.000
G0 X32.081 Y-34.300
G0 Y-37.500
G0 Y-37.500 Z0.500
G1 X32.081 Y-37.500 Z-0.200 F100.000
G1 X30.531 Y-37.500 Z-0.200 F150.000
G1 X30.531 Y-38.450 Z-0.200 F150.000
G1 X32.081 Y-38.450 Z-0.200 F150.000
G1 X32.081 Y-37.500 Z-0.200 F150.000
G1 X32.081 Y-37.500 Z-0.350 F100.000
G1 X30.531 Y-37.500 Z-0.350 F150.000
G1 X30.531 Y-38.450 Z-0.350 F150.000
G1 X32.081 Y-38.450 Z-0.350 F150.000
G1 X32.081 Y-37.500 Z-0.350 F150.000
G0 Z1.000
G0 Z1.000
G0 X32.081 Y-37.500
G0 X35.921 Y-53.436
G0 X35.921 Y-53.436 Z0.500
G1 X35.921 Y-53.436 Z-0.200 F100.000
G1 X35.921 Y-54.136 Z-0.200 F150.000
G1 X36.572 Y-54.136 Z-0.200 F150.000
G1 X36.572 Y-53.436 Z-0.200 F150.000
G1 X35.921 Y-53.436 Z-0.200 F150.000
G1 X35.921 Y-53.436 Z-0.350 F100.000
G1 X35.921 Y-54.136 Z-0.350 F150.000
G1 X36.572 Y-54.136 Z-0.350 F150.000
G1 X36.572 Y-53.436 Z-0.350 F150.000
G1 X35.921 Y-53.436 Z-0.350 F150.000
G0 Z1.000
G0 Z1.000
G0 X35.921 Y-53.436
G0 X36.211 Y-55.190
G0 X36.211 Y-55.190 Z0.500
G1 X36.211 Y-55.190 Z-0.200 F100.000
G1 X36.211 Y-55.940 Z-0.200 F150.000
G1 X36.562 Y-55.940 Z-0.200 F150.000
G1 X36.562 Y-55.190 Z-0.200 F150.000
G1 X36.211 Y-55.190 Z-0.200 F150.000
G1 X36.211 Y-55.190 Z-0.350 F100.000
G1 X36.211 Y-55.940 Z-0.350 F150.000
G1 X36.562 Y-55.940 Z-0.350 F150.000
G1 X36.562 Y-55.190 Z-0.350 F150.000
G1 X36.211 Y-55.190 Z-0.350 F150.000
G0 Z1.000
G0 Z1.000
G0 X36.211 Y-55.190
G0 X37.711
G0 X37.711 Z0.500
G1 X37.711 Y-55.190 Z-0.200 F100.000
G1 X37.711 Y-55.940 Z-0.200 F150.000
G1 X38.061 Y-55.940 Z-0.200 F150.000
G1 X38.061 Y-55.190 Z-0.200 F150.000
G1 X37.711 Y-55.190 Z-0.200 F150.000
G1 X37.711 Y-55.190 Z-0.350 F100.000
G1 X37.711 Y-55.940 Z-0.350 F150.000
G1 X38.061 Y-55.940 Z-0.350 F150.000
G1 X38.061 Y-55.190 Z-0.350 F150.000
G1 X37.711 Y-55.190 Z-0.350 F150.000
G0 Z1.000
G0 Z1.000
G0 X37.711 Y-55.190
G0 Y-54.136
G0 Y-54.136 Z0.500
G1 X37.711 Y-54.136 Z-0.200 F100.000
G1 X38.071 Y-54.136 Z-0.200 F150.000
G1 X38.071 Y-53.436 Z-0.200 F150.000
G1 X37.420 Y-53.436 Z-0.200 F150.000
G1 X37.420 Y-54.136 Z-0.200 F150.000
G1 X37.711 Y-54.136 Z-0.200 F150.000
G1 X37.711 Y-54.136 Z-0.350 F100.000
G1 X38.071 Y-54.136 Z-0.350 F150.000
G1 X38.071 Y-53.436 Z-0.350 F150.000
G1 X37.420 Y-53.436 Z-0.350 F150.000
G1 X37.420 Y-54.136 Z-0.350 F150.000
G1 X37.711 Y-54.136 Z-0.350 F150.000
G0 Z1.000
G0 Z1.000
G0 X37.711 Y-54.136
G0 X39.461 Y-54.843
G0 X39.461 Y-54.843 Z0.500
G1 X39.461 Y-54.843 Z-0.200 F100.000
G1 X39.461 Y-56.287 Z-0.200 F150.000
G1 X42.052 Y-56.287 Z-0.200 F150.000
G1 X42.052 Y-54.843 Z-0.200 F150.000
G1 X39.461 Y-54.843 Z-0.200 F150.000
G1 X39.461 Y-54.843 Z-0.350 F100.000
G1 X39.461 Y-56.287 Z-0.350 F150.000
G1 X42.052 Y-56.287 Z-0.350 F150.000
G1 X42.052 Y-54.843 Z-0.350 F150.000
G1 X39.461 Y-54.843 Z-0.350 F150.000
G0 Z1.000
G0 Z1.000
G0 X39.461 Y-54.843
G0 X44.361 Y-54.844
G0 X44.361 Y-54.844 Z0.500
G1 X44.361 Y-54.844 Z-0.200 F100.000
G1 X44.361 Y-56.289 Z-0.200 F150.000
G1 X46.952 Y-56.289 Z-0.200 F150.000
G1 X46.952 Y-54.844 Z-0.200 F150.000
G1 X44.361 Y-54.844 Z-0.200 F150.000
G1 X44.361 Y-54.844 Z-0.350 F100.000
G1 X44.361 Y-56.289 Z-0.350 F150.000
G1 X46.952 Y-56.289 Z-0.350 F150.000
G1 X46.952 Y-54.844 Z-0.350 F150.000
G1 X44.361 Y-54.844 Z-0.350 F150.000
G0 Z1.000
G0 Z1.000
G0 X44.361 Y-54.844
G0 X45.681 Y-59.980
G0 X45.681 Y-59.980 Z0.500
G1 X45.681 Y-59.980 Z-0.200 F100.000
G1 X45.681 Y-62.330 Z-0.200 F150.000
G1 X47.131 Y-62.330 Z-0.200 F150.000
G1 X47.131 Y-59.980 Z-0.200 F150.000
G1 X45.681 Y-59.980 Z-0.200 F150.000
G1 X45.681 Y-59.980 Z-0.350 F100.000
G1 X45.681 Y-62.330 Z-0.350 F150.000
G1 X47.131 Y-62.330 Z-0.350 F150.000
G1 X47.131 Y-59.980 Z-0.350 F150.000
G1 X45.681 Y-59.980 Z-0.350 F150.000
G0 Z1.000
G0 Z1.000
G0 X45.681 Y-59.980
G0 Y-63.280
G0 Y-63.280 Z0.500
G1 X45.681 Y-63.280 Z-0.200 F100.000
G1 X45.681 Y-65.630 Z-0.200 F150.000
G1 X47.131 Y-65.630 Z-0.200 F150.000
G1 X47.131 Y-63.280 Z-0.200 F150.000
G1 X45.681 Y-63.280 Z-0.200 F150.000
G1 X45.681 Y-63.280 Z-0.350 F100.000
G1 X45.681 Y-65.630 Z-0.350 F150.000
G1 X47.131 Y-65.630 Z-0.350 F150.000
G1 X47.131 Y-63.280 Z-0.350 F150.000
G1 X45.681 Y-63.280 Z-0.350 F150.000
G0 Z1.000
G0 Z1.000
G0 X45.681 Y-63.280
G0 X49.846 Y-63.281
G0 X49.846 Y-63.281 Z0.500
G1 X49.846 Y-63.281 Z-0.200 F100.000
G1 X50.546 Y-63.281 Z-0.200 F150.000
G1 X50.546 Y-62.630 Z-0.200 F150.000
G1 X49.846 Y-62.630 Z-0.200 F150.000
G1 X49.846 Y-63.281 Z-0.200 F150.000
G1 X49.846 Y-63.281 Z-0.350 F100.000
G1 X50.546 Y-63.281 Z-0.350 F150.000
G1 X50.546 Y-62.630 Z-0.350 F150.000
G1 X49.846 Y-62.630 Z-0.350 F150.000
G1 X49.846 Y-63.281 Z-0.350 F150.000
G0 Z1.000
G0 Z1.000
G0 X49.846 Y-63.281
G0 Y-64.129
G0 Y-64.129 Z0.500
G1 X49.846 Y-64.129 Z-0.200 F100.000
G1 X49.846 Y-64.780 Z-0.200 F150.000
G1 X50.546 Y-64.780 Z-0.200 F150.000
G1 X50.546 Y-64.129 Z-0.200 F150.000
G1 X49.846 Y-64.129 Z-0.200 F150.000
G1 X49.846 Y-64.129 Z-0.350 F100.000
G1 X49.846 Y-64.780 Z-0.350 F150.000
G1 X50.546 Y-64.780 Z-0.350 F150.000
G1 X50.546 Y-64.129 Z-0.350 F150.000
G1 X49.846 Y-64.129 Z-0.350 F150.000
G0 Z1.000
G0 Z1.000
G0 X49.846 Y-64.129
G0 X51.700
G0 X51.700 Z0.500
G1 X51.700 Y-64.129 Z-0.200 F100.000
G1 X51.700 Y-64.881 Z-0.200 F150.000
G1 X52.450 Y-64.881 Z-0.200 F150.000
G1 X52.450 Y-64.030 Z-0.200 F150.000
G1 X51.700 Y-64.030 Z-0.200 F150.000
G1 X51.700 Y-64.129 Z-0.200 F150.000
G1 X51.700 Y-64.129 Z-0.350 F100.000
G1 X51.700 Y-64.881 Z-0.350 F150.000
G1 X52.450 Y-64.881 Z-0.350 F150.000
G1 X52.450 Y-64.030 Z-0.350 F150.000
G1 X51.700 Y-64.030 Z-0.350 F150.000
G1 X51.700 Y-64.129 Z-0.350 F150.000
G0 Z1.000
G0 Z1.000
G0 X51.700 Y-64.129
G0 X53.601
G0 X53.601 Z0.500
G1 X53.601 Y-64.129 Z-0.200 F100.000
G1 X53.601 Y-64.881 Z-0.200 F150.000
G1 X54.351 Y-64.881 Z-0.200 F150.000
G1 X54.351 Y-64.030 Z-0.200 F150.000
G1 X53.601 Y-64.030 Z-0.200 F150.000
G1 X53.601 Y-64.129 Z-0.200 F150.000
G1 X53.601 Y-64.129 Z-0.350 F100.000
G1 X53.601 Y-64.881 Z-0.350 F150.000
G1 X54.351 Y-64.881 Z-0.350 F150.000
G1 X54.351 Y-64.030 Z-0.350 F150.000
G1 X53.601 Y-64.030 Z-0.350 F150.000
G1 X53.601 Y-64.129 Z-0.350 F150.000
G0 Z1.000
G0 Z1.000
G0 X53.601 Y-64.129
G0 X53.401 Y-62.681
G0 X53.401 Y-62.681 Z0.500
G1 X53.401 Y-62.681 Z-0.200 F100.000
G1 X53.401 Y-61.831 Z-0.200 F150.000
G1 X52.651 Y-61.831 Z-0.200 F150.000
G1 X52.651 Y-62.681 Z-0.200 F150.000
G1 X53.401 Y-62.681 Z-0.200 F150.000
G1 X53.401 Y-62.681 Z-0.350 F100.000
G1 X53.401 Y-61.831 Z-0.350 F150.000
G1 X52.651 Y-61.831 Z-0.350 F150.000
G1 X52.651 Y-62.681 Z-0.350 F150.000
G1 X53.401 Y-62.681 Z-0.350 F150.000
G0 Z1.000
G0 Z1.000
G0 X53.401 Y-62.681
G0 X55.516
G0 X55.516 Z0.500
G1 X55.516 Y-62.681 Z-0.200 F100.000
G1 X55.516 Y-63.281 Z-0.200 F150.000
G1 X56.216 Y-63.281 Z-0.200 F150.000
G1 X56.216 Y-62.630 Z-0.200 F150.000
G1 X55.516 Y-62.630 Z-0.200 F150.000
G1 X55.516 Y-62.681 Z-0.200 F150.000
G1 X55.516 Y-62.681 Z-0.350 F100.000
G1 X55.516 Y-63.281 Z-0.350 F150.000
G1 X56.216 Y-63.281 Z-0.350 F150.000
G1 X56.216 Y-62.630 Z-0.350 F150.000
G1 X55.516 Y-62.630 Z-0.350 F150.000
G1 X55.516 Y-62.681 Z-0.350 F150.000
G0 Z1.000
G0 Z1.000
G0 X55.516 Y-62.681
G0 Y-64.129
G0 Y-64.129 Z0.500
G1 X55.516 Y-64.129 Z-0.200 F100.000
G1 X55.516 Y-64.780 Z-0.200 F150.000
G1 X56.216 Y-64.780 Z-0.200 F150.000
G1 X56.216 Y-64.129 Z-0.200 F150.000
G1 X55.516 Y-64.129 Z-0.200 F150.000
G1 X55.516 Y-64.129 Z-0.350 F100.000
G1 X55.516 Y-64.780 Z-0.350 F150.000
G1 X56.216 Y-64.780 Z-0.350 F150.000
G1 X56.216 Y-64.129 Z-0.350 F150.000
G1 X55.516 Y-64.129 Z-0.350 F150.000
G0 Z1.000
G0 Z1.000
G0 X55.516 Y-64.129
G0 X57.571 Y-63.281
G0 X57.571 Y-63.281 Z0.500
G1 X57.571 Y-63.281 Z-0.200 F100.000
G1 X59.921 Y-63.281 Z-0.200 F150.000
G1 X59.921 Y-61.831 Z-0.200 F150.000
G1 X57.571 Y-61.831 Z-0.200 F150.000
G1 X57.571 Y-63.281 Z-0.200 F150.000
G1 X57.571 Y-63.281 Z-0.350 F100.000
G1 X59.921 Y-63.281 Z-0.350 F150.000
G1 X59.921 Y-61.831 Z-0.350 F150.000
G1 X57.571 Y-61.831 Z-0.350 F150.000
G1 X57.571 Y-63.281 Z-0.350 F150.000
G0 Z1.000
G0 Z1.000
G0 X57.571 Y-63.281
G0 X60.871
G0 X60.871 Z0.500
G1 X60.871 Y-63.281 Z-0.200 F100.000
G1 X63.221 Y-63.281 Z-0.200 F150.000
G1 X63.221 Y-61.831 Z-0.200 F150.000
G1 X60.871 Y-61.831 Z-0.200 F150.000
G1 X60.871 Y-63.281 Z-0.200 F150.000
G1 X60.871 Y-63.281 Z-0.350 F100.000
G1 X63.221 Y-63.281 Z-0.350 F150.000
G1 X63.221 Y-61.831 Z-0.350 F150.000
G1 X60.871 Y-61.831 Z-0.350 F150.000
G1 X60.871 Y-63.281 Z-0.350 F150.000
G0 Z1.000
G0 Z1.000
G0 X60.871 Y-63.281
G0 X51.881 Y-67.230
G0 X51.881 Y-67.230 Z0.500
G1 X51.881 Y-67.230 Z-0.200 F100.000
G1 X50.931 Y-67.230 Z-0.200 F150.000
G1 X50.931 Y-68.780 Z-0.200 F150.000
G1 X51.881 Y-68.780 Z-0.200 F150.000
G1 X51.881 Y-67.230 Z-0.200 F150.000
G1 X51.881 Y-67.230 Z-0.350 F100.000
G1 X50.931 Y-67.230 Z-0.350 F150.000
G1 X50.931 Y-68.780 Z-0.350 F150.000
G1 X51.881 Y-68.780 Z-0.350 F150.000
G1 X51.881 Y-67.230 Z-0.350 F150.000
G0 Z1.000
G0 Z1.000
G0 X51.881 Y-67.230
G0 X48.681
G0 X48.681 Z0.500
G1 X48.681 Y-67.230 Z-0.200 F100.000
G1 X47.732 Y-67.230 Z-0.200 F150.000
G1 X47.732 Y-68.780 Z-0.200 F150.000
G1 X48.681 Y-68.780 Z-0.200 F150.000
G1 X48.681 Y-67.230 Z-0.200 F150.000
G1 X48.681 Y-67.230 Z-0.350 F100.000
G1 X47.732 Y-67.230 Z-0.350 F150.000
G1 X47.732 Y-68.780 Z-0.350 F150.000
G1 X48.681 Y-68.780 Z-0.350 F150.000
G1 X48.681 Y-67.230 Z-0.350 F150.000
G0 Z1.000
G0 Z1.000
G0 X48.681 Y-67.230
G0 X39.586 Y-64.780
G0 X39.586 Y-64.780 Z0.500
G1 X39.586 Y-64.780 Z-0.200 F100.000
G1 X39.586 Y-64.129 Z-0.200 F150.000
G1 X38.886 Y-64.129 Z-0.200 F150.000
G1 X38.886 Y-64.780 Z-0.200 F150.000
G1 X39.586 Y-64.780 Z-0.200 F150.000
G1 X39.586 Y-64.780 Z-0.350 F100.000
G1 X39.586 Y-64.129 Z-0.350 F150.000
G1 X38.886 Y-64.129 Z-0.350 F150.000
G1 X38.886 Y-64.780 Z-0.350 F150.000
G1 X39.586 Y-64.780 Z-0.350 F150.000
G0 Z1.000
G0 Z1.000
G0 X39.586 Y-64.780
G0 Y-63.281
G0 Y-63.281 Z0.500
G1 X39.586 Y-63.281 Z-0.200 F100.000
G1 X39.586 Y-62.630 Z-0.200 F150.000
G1 X38.886 Y-62.630 Z-0.200 F150.000
G1 X38.886 Y-63.281 Z-0.200 F150.000
G1 X39.586 Y-63.281 Z-0.200 F150.000
G1 X39.586 Y-63.281 Z-0.350 F100.000
G1 X39.586 Y-62.630 Z-0.350 F150.000
G1 X38.886 Y-62.630 Z-0.350 F150.000
G1 X38.886 Y-63.281 Z-0.350 F150.000
G1 X39.586 Y-63.281 Z-0.350 F150.000
G0 Z1.000
G0 Z1.000
G0 X39.586 Y-63.281
G0 X37.481
G0 X37.481 Z0.500
G1 X37.481 Y-63.281 Z-0.200 F100.000
G1 X37.481 Y-62.255 Z-0.200 F150.000
G1 X37.031 Y-62.255 Z-0.200 F150.000
G1 X37.031 Y-63.656 Z-0.200 F150.000
G1 X37.481 Y-63.656 Z-0.200 F150.000
G1 X37.481 Y-63.281 Z-0.200 F150.000
G1 X37.481 Y-63.281 Z-0.350 F100.000
G1 X37.481 Y-62.255 Z-0.350 F150.000
G1 X37.031 Y-62.255 Z-0.350 F150.000
G1 X37.031 Y-63.656 Z-0.350 F150.000
G1 X37.481 Y-63.656 Z-0.350 F150.000
G1 X37.481 Y-63.281 Z-0.350 F150.000
G0 Z1.000
G0 Z1.000
G0 X37.481 Y-63.281
G0 X36.211
G0 X36.211 Z0.500
G1 X36.211 Y-63.281 Z-0.200 F100.000
G1 X36.211 Y-62.255 Z-0.200 F150.000
G1 X35.762 Y-62.255 Z-0.200 F150.000
G1 X35.762 Y-63.656 Z-0.200 F150.000
G1 X36.211 Y-63.656 Z-0.200 F150.000
G1 X36.211 Y-63.281 Z-0.200 F150.000
G1 X36.211 Y-63.281 Z-0.350 F100.000
G1 X36.211 Y-62.255 Z-0.350 F150.000
G1 X35.762 Y-62.255 Z-0.350 F150.000
G1 X35.762 Y-63.656 Z-0.350 F150.000
G1 X36.211 Y-63.656 Z-0.350 F150.000
G1 X36.211 Y-63.281 Z-0.350 F150.000
G0 Z1.000
G0 Z1.000
G0 X36.211 Y-63.281
G0 X34.931
G0 X34.931 Z0.500
G1 X34.931 Y-63.281 Z-0.200 F100.000
G1 X34.931 Y-62.255 Z-0.200 F150.000
G1 X34.482 Y-62.255 Z-0.200 F150.000
G1 X34.482 Y-63.656 Z-0.200 F150.000
G1 X34.931 Y-63.656 Z-0.200 F150.000
G1 X34.931 Y-63.281 Z-0.200 F150.000
G1 X34.931 Y-63.281 Z-0.350 F100.000
G1 X34.931 Y-62.255 Z-0.350 F150.000
G1 X34.482 Y-62.255 Z-0.350 F150.000
G1 X34.482 Y-63.656 Z-0.350 F150.000
G1 X34.931 Y-63.656 Z-0.350 F150.000
G1 X34.931 Y-63.281 Z-0.350 F150.000
G0 Z1.000
G0 Z1.000
G0 X34.931 Y-63.281
G0 X33.661
G0 X33.661 Z0.500
G1 X33.661 Y-63.281 Z-0.200 F100.000
G1 X33.661 Y-62.255 Z-0.200 F150.000
G1 X33.211 Y-62.255 Z-0.200 F150.000
G1 X33.211 Y-63.656 Z-0.200 F150.000
G1 X33.661 Y-63.656 Z-0.200 F150.000
G1 X33.661 Y-63.281 Z-0.200 F150.000
G1 X33.661 Y-63.281 Z-0.350 F100.000
G1 X33.661 Y-62.255 Z-0.350 F150.000
G1 X33.211 Y-62.255 Z-0.350 F150.000
G1 X33.211 Y-63.656 Z-0.350 F150.000
G1 X33.661 Y-63.656 Z-0.350 F150.000
G1 X33.661 Y-63.281 Z-0.350 F150.000
G0 Z1.000
G0 Z1.000
G0 X33.661 Y-63.281
G0 X31.791 Y-62.571
G0 X31.791 Y-62.571 Z0.500
G1 X31.791 Y-62.571 Z-0.200 F100.000
G1 X31.791 Y-62.221 Z-0.200 F150.000
G1 X31.041 Y-62.221 Z-0.200 F150.000
G1 X31.041 Y-62.571 Z-0.200 F150.000
G1 X31.791 Y-62.571 Z-0.200 F150.000
G1 X31.791 Y-62.571 Z-0.350 F100.000
G1 X31.791 Y-62.221 Z-0.350 F150.000
G1 X31.041 Y-62.221 Z-0.350 F150.000
G1 X31.041 Y-62.571 Z-0.350 F150.000
G1 X31.791 Y-62.571 Z-0.350 F150.000
G0 Z1.000
G0 Z1.000
G0 X31.791 Y-62.571
G0 Y-63.720
G0 Y-63.720 Z0.500
G1 X31.791 Y-63.720 Z-0.200 F100.000
G1 X31.041 Y-63.720 Z-0.200 F150.000
G1 X31.041 Y-64.070 Z-0.200 F150.000
G1 X31.791 Y-64.070 Z-0.200 F150.000
G1 X31.791 Y-63.720 Z-0.200 F150.000
G1 X31.791 Y-63.720 Z-0.350 F100.000
G1 X31.041 Y-63.720 Z-0.350 F150.000
G1 X31.041 Y-64.070 Z-0.350 F150.000
G1 X31.791 Y-64.070 Z-0.350 F150.000
G1 X31.791 Y-63.720 Z-0.350 F150.000
G0 Z1.000
G0 Z1.000
G0 X31.791 Y-63.720
G0 Y-60.990
G0 Y-60.990 Z0.500
G1 X31.791 Y-60.990 Z-0.200 F100.000
G1 X31.802 Y-60.990 Z-0.200 F150.000
G1 X31.802 Y-60.241 Z-0.200 F150.000
G1 X31.252 Y-60.241 Z-0.200 F150.000
G1 X31.252 Y-60.990 Z-0.200 F150.000
G1 X31.791 Y-60.990 Z-0.200 F150.000
G1 X31.791 Y-60.990 Z-0.350 F100.000
G1 X31.802 Y-60.990 Z-0.350 F150.000
G1 X31.802 Y-60.241 Z-0.350 F150.000
G1 X31.252 Y-60.241 Z-0.350 F150.000
G1 X31.252 Y-60.990 Z-0.350 F150.000
G1 X31.791 Y-60.990 Z-0.350 F150.000
G0 Z1.000
G0 Z1.000
G0 X31.791 Y-60.990
G0 X32.551
G0 X32.551 Z0.500
G1 X32.551 Y-60.990 Z-0.200 F100.000
G1 X33.101 Y-60.990 Z-0.200 F150.000
G1 X33.101 Y-60.241 Z-0.200 F150.000
G1 X32.551 Y-60.241 Z-0.200 F150.000
G1 X32.551 Y-60.990 Z-0.200 F150.000
G1 X32.551 Y-60.990 Z-0.350 F100.000
G1 X33.101 Y-60.990 Z-0.350 F150.000
G1 X33.101 Y-60.241 Z-0.350 F150.000
G1 X32.551 Y-60.241 Z-0.350 F150.000
G1 X32.551 Y-60.990 Z-0.350 F150.000
G0 Z1.000
G0 Z1.000
G0 X32.551 Y-60.990
G0 X32.451 Y-59.090
G0 X32.451 Y-59.090 Z0.500
G1 X32.451 Y-59.090 Z-0.200 F100.000
G1 X32.451 Y-58.340 Z-0.200 F150.000
G1 X31.901 Y-58.340 Z-0.200 F150.000
G1 X31.901 Y-59.090 Z-0.200 F150.000
G1 X32.451 Y-59.090 Z-0.200 F150.000
G1 X32.451 Y-59.090 Z-0.350 F100.000
G1 X32.451 Y-58.340 Z-0.350 F150.000
G1 X31.901 Y-58.340 Z-0.350 F150.000
G1 X31.901 Y-59.090 Z-0.350 F150.000
G1 X32.451 Y-59.090 Z-0.350 F150.000
G0 Z1.000
G0 Z1.000
G0 X32.451 Y-59.090
G0 X34.332 Y-59.240
G0 X34.332 Y-59.240 Z0.500
G1 X34.332 Y-59.240 Z-0.200 F100.000
G1 X34.332 Y-59.590 Z-0.200 F150.000
G1 X35.082 Y-59.590 Z-0.200 F150.000
G1 X35.082 Y-59.240 Z-0.200 F150.000
G1 X34.332 Y-59.240 Z-0.200 F150.000
G1 X34.332 Y-59.240 Z-0.350 F100.000
G1 X34.332 Y-59.590 Z-0.350 F150.000
G1 X35.082 Y-59.590 Z-0.350 F150.000
G1 X35.082 Y-59.240 Z-0.350 F150.000
G1 X34.332 Y-59.240 Z-0.350 F150.000
G0 Z1.000
G0 Z1.000
G0 X34.332 Y-59.240
G0 Y-60.741
G0 Y-60.741 Z0.500
G1 X34.332 Y-60.741 Z-0.200 F100.000
G1 X34.332 Y-61.091 Z-0.200 F150.000
G1 X35.082 Y-61.091 Z-0.200 F150.000
G1 X35.082 Y-60.741 Z-0.200 F150.000
G1 X34.332 Y-60.741 Z-0.200 F150.000
G1 X34.332 Y-60.741 Z-0.350 F100.000
G1 X34.332 Y-61.091 Z-0.350 F150.000
G1 X35.082 Y-61.091 Z-0.350 F150.000
G1 X35.082 Y-60.741 Z-0.350 F150.000
G1 X34.332 Y-60.741 Z-0.350 F150.000
G0 Z1.000
G0 Z1.000
G0 X34.332 Y-60.741
G0 X34.481 Y-67.595
G0 X34.481 Y-67.595 Z0.500
G1 X34.481 Y-67.595 Z-0.200 F100.000
G1 X34.481 Y-68.996 Z-0.200 F150.000
G1 X34.930 Y-68.996 Z-0.200 F150.000
G1 X34.930 Y-67.595 Z-0.200 F150.000
G1 X34.481 Y-67.595 Z-0.200 F150.000
G1 X34.481 Y-67.595 Z-0.350 F100.000
G1 X34.481 Y-68.996 Z-0.350 F150.000
G1 X34.930 Y-68.996 Z-0.350 F150.000
G1 X34.930 Y-67.595 Z-0.350 F150.000
G1 X34.481 Y-67.595 Z-0.350 F150.000
G0 Z1.000
G0 Z1.000
G0 X34.481 Y-67.595
G0 X33.661
G0 X33.661 Z0.500
G1 X33.661 Y-67.595 Z-0.200 F100.000
G1 X33.211 Y-67.595 Z-0.200 F150.000
G1 X33.211 Y-68.996 Z-0.200 F150.000
G1 X33.661 Y-68.996 Z-0.200 F150.000
G1 X33.661 Y-67.595 Z-0.200 F150.000
G1 X33.661 Y-67.595 Z-0.350 F100.000
G1 X33.211 Y-67.595 Z-0.350 F150.000
G1 X33.211 Y-68.996 Z-0.350 F150.000
G1 X33.661 Y-68.996 Z-0.350 F150.000
G1 X33.661 Y-67.595 Z-0.350 F150.000
G0 Z1.000
G0 Z1.000
G0 X33.661 Y-67.595
G0 X35.761
G0 X35.761 Z0.500
G1 X35.761 Y-67.595 Z-0.200 F100.000
G1 X35.761 Y-68.996 Z-0.200 F150.000
G1 X36.210 Y-68.996 Z-0.200 F150.000
G1 X36.210 Y-67.595 Z-0.200 F150.000
G1 X35.761 Y-67.595 Z-0.200 F150.000
G1 X35.761 Y-67.595 Z-0.350 F100.000
G1 X35.761 Y-68.996 Z-0.350 F150.000
G1 X36.210 Y-68.996 Z-0.350 F150.000
G1 X36.210 Y-67.595 Z-0.350 F150.000
G1 X35.761 Y-67.595 Z-0.350 F150.000
G0 Z1.000
G0 Z1.000
G0 X35.761 Y-67.595
G0 X37.031
G0 X37.031 Z0.500
G1 X37.031 Y-67.595 Z-0.200 F100.000
G1 X37.031 Y-68.996 Z-0.200 F150.000
G1 X37.481 Y-68.996 Z-0.200 F150.000
G1 X37.481 Y-67.595 Z-0.200 F150.000
G1 X37.031 Y-67.595 Z-0.200 F150.000
G1 X37.031 Y-67.595 Z-0.350 F100.000
G1 X37.031 Y-68.996 Z-0.350 F150.000
G1 X37.481 Y-68.996 Z-0.350 F150.000
G1 X37.481 Y-67.595 Z-0.350 F150.000
G1 X37.031 Y-67.595 Z-0.350 F150.000
G0 Z1.000
G0 Z1.000
G0 X37.031 Y-67.595
G0 X1.479 Y-70.006
G0 X1.479 Y-70.006 Z0.500
G1 X1.479 Y-70.006 Z-0.200 F100.000
G1 X1.368 Y-69.441 Z-0.200 F150.000
G1 X1.048 Y-68.963 Z-0.200 F150.000
G1 X0.570 Y-68.644 Z-0.200 F150.000
G1 X0.006 Y-68.532 Z-0.200 F150.000
G1 X-0.558 Y-68.644 Z-0.200 F150.000
G1 X-1.036 Y-68.963 Z-0.200 F150.000
G1 X-1.356 Y-69.441 Z-0.200 F150.000
G1 X-1.467 Y-70.006 Z-0.200 F150.000
G1 X-1.356 Y-70.569 Z-0.200 F150.000
G1 X-1.036 Y-71.048 Z-0.200 F150.000
G1 X-0.558 Y-71.367 Z-0.200 F150.000
G1 X0.006 Y-71.479 Z-0.200 F150.000
G1 X0.570 Y-71.367 Z-0.200 F150.000
G1 X1.048 Y-71.048 Z-0.200 F150.000
G1 X1.368 Y-70.569 Z-0.200 F150.000
G1 X1.479 Y-70.006 Z-0.200 F150.000
G1 X1.479 Y-70.006 Z-0.350 F100.000
G1 X1.368 Y-69.441 Z-0.350 F150.000
G1 X1.048 Y-68.963 Z-0.350 F150.000
G1 X0.570 Y-68.644 Z-0.350 F150.000
G1 X0.006 Y-68.532 Z-0.350 F150.000
G1 X-0.558 Y-68.644 Z-0.350 F150.000
G1 X-1.036 Y-68.963 Z-0.350 F150.000
G1 X-1.356 Y-69.441 Z-0.350 F150.000
G1 X-1.467 Y-70.006 Z-0.350 F150.000
G1 X-1.356 Y-70.569 Z-0.350 F150.000
G1 X-1.036 Y-71.048 Z-0.350 F150.000
G1 X-0.558 Y-71.367 Z-0.350 F150.000
G1 X0.006 Y-71.479 Z-0.350 F150.000
G1 X0.570 Y-71.367 Z-0.350 F150.000
G1 X1.048 Y-71.048 Z-0.350 F150.000
G1 X1.368 Y-70.569 Z-0.350 F150.000
G1 X1.479 Y-70.006 Z-0.350 F150.000
G0 Z1.000
G0 Z1.000
G0 X1.479 Y-70.006
G0 X82.533
G0 X82.533 Z0.500
G1 X82.533 Y-70.006 Z-0.200 F100.000
G1 X82.644 Y-70.569 Z-0.200 F150.000
G1 X82.964 Y-71.048 Z-0.200 F150.000
G1 X83.442 Y-71.367 Z-0.200 F150.000
G1 X84.007 Y-71.479 Z-0.200 F150.000
G1 X84.570 Y-71.367 Z-0.200 F150.000
G1 X85.048 Y-71.048 Z-0.200 F150.000
G1 X85.368 Y-70.569 Z-0.200 F150.000
G1 X85.479 Y-70.006 Z-0.200 F150.000
G1 X85.368 Y-69.441 Z-0.200 F150.000
G1 X85.048 Y-68.963 Z-0.200 F150.000
G1 X84.570 Y-68.644 Z-0.200 F150.000
G1 X84.007 Y-68.532 Z-0.200 F150.000
G1 X83.442 Y-68.644 Z-0.200 F150.000
G1 X82.964 Y-68.963 Z-0.200 F150.000
G1 X82.644 Y-69.441 Z-0.200 F150.000
G1 X82.533 Y-70.006 Z-0.200 F150.000
G1 X82.533 Y-70.006 Z-0.350 F100.000
G1 X82.644 Y-70.569 Z-0.350 F150.000
G1 X82.964 Y-71.048 Z-0.350 F150.000
G1 X83.442 Y-71.367 Z-0.350 F150.000
G1 X84.007 Y-71.479 Z-0.350 F150.000
G1 X84.570 Y-71.367 Z-0.350 F150.000
G1 X85.048 Y-71.048 Z-0.350 F150.000
G1 X85.368 Y-70.569 Z-0.350 F150.000
G1 X85.479 Y-70.006 Z-0.350 F150.000
G1 X85.368 Y-69.441 Z-0.350 F150.000
G1 X85.048 Y-68.963 Z-0.350 F150.000
G1 X84.570 Y-68.644 Z-0.350 F150.000
G1 X84.007 Y-68.532 Z-0.350 F150.000
G1 X83.442 Y-68.644 Z-0.350 F150.000
G1 X82.964 Y-68.963 Z-0.350 F150.000
G1 X82.644 Y-69.441 Z-0.350 F150.000
G1 X82.533 Y-70.006 Z-0.350 F150.000
G0 Z1.000
G0 Z1.000
G0 X82.533 Y-70.006
G0 X84.007 Y-1.478
G0 X84.007 Y-1.478 Z0.500
G1 X84.007 Y-1.478 Z-0.200 F100.000
G1 X84.570 Y-1.367 Z-0.200 F150.000
G1 X85.048 Y-1.047 Z-0.200 F150.000
G1 X85.368 Y-0.569 Z-0.200 F150.000
G1 X85.479 Y-0.006 Z-0.200 F150.000
G1 X85.368 Y0.559 Z-0.200 F150.000
G1 X85.048 Y1.037 Z-0.200 F150.000
G1 X84.570 Y1.355 Z-0.200 F150.000
G1 X84.007 Y1.468 Z-0.200 F150.000
G1 X83.442 Y1.355 Z-0.200 F150.000
G1 X82.964 Y1.037 Z-0.200 F150.000
G1 X82.644 Y0.559 Z-0.200 F150.000
G1 X82.533 Y-0.006 Z-0.200 F150.000
G1 X82.644 Y-0.569 Z-0.200 F150.000
G1 X82.964 Y-1.047 Z-0.200 F150.000
G1 X83.442 Y-1.367 Z-0.200 F150.000
G1 X84.007 Y-1.478 Z-0.200 F150.000
G1 X84.007 Y-1.478 Z-0.350 F100.000
G1 X84.570 Y-1.367 Z-0.350 F150.000
G1 X85.048 Y-1.047 Z-0.350 F150.000
G1 X85.368 Y-0.569 Z-0.350 F150.000
G1 X85.479 Y-0.006 Z-0.350 F150.000
G1 X85.368 Y0.559 Z-0.350 F150.000
G1 X85.048 Y1.037 Z-0.350 F150.000
G1 X84.570 Y1.355 Z-0.350 F150.000
G1 X84.007 Y1.468 Z-0.350 F150.000
G1 X83.442 Y1.355 Z-0.350 F150.000
G1 X82.964 Y1.037 Z-0.350 F150.000
G1 X82.644 Y0.559 Z-0.350 F150.000
G1 X82.533 Y-0.006 Z-0.350 F150.000
G1 X82.644 Y-0.569 Z-0.350 F150.000
G1 X82.964 Y-1.047 Z-0.350 F150.000
G1 X83.442 Y-1.367 Z-0.350 F150.000
G1 X84.007 Y-1.478 Z-0.350 F150.000
G0 Z1.000
G0 Z1.000
(Finish operation: Profile)
(Begin postamble)
M5
G17 G90
M2
