(Exported by FreeCAD)
(Post Processor: grbl_post)
(Output Time:2023-02-07 22:58:34.790576)
(Begin preamble)
G17 G90
G21
(Begin operation: G54)
(Path: G54)
G54
G0 Z5.000
(Finish operation: G54)
(Begin operation: ballend-015mm001)
(Path: ballend-015mm001)
(ballend-015mm001)
(Begin toolchange)
( M6 T2 )
M3 S10000
(Finish operation: ballend-015mm001)
(Begin operation: Profile)
(Path: Profile)
(Profile)
(Compensated Tool Path. Diameter: 0.15)
G0 Z1.000
G0 X15.768 Y-14.231
G0 Z0.500
G1 X15.768 Y-14.231 Z-0.150 F100.000
G3 X14.232 Y-14.231 Z-0.150 I-0.768 J-0.768 K0.000 F100.000
G3 X14.232 Y-15.767 Z-0.150 I0.768 J-0.768 K0.000 F100.000
G3 X15.768 Y-14.231 Z-0.150 I0.768 J0.768 K0.000 F100.000
G0 Z1.000
G0 Z1.000
G0 X15.768 Y-14.231
G0 X25.642 Y-36.757
G0 X25.642 Y-36.757 Z0.500
G1 X25.642 Y-36.757 Z-0.150 F100.000
G1 X25.642 Y-36.982 Z-0.150 F100.000
G1 X26.167 Y-36.982 Z-0.150 F100.000
G1 X26.167 Y-36.757 Z-0.150 F100.000
G1 X25.642 Y-36.757 Z-0.150 F100.000
G0 Z1.000
G0 Z1.000
G0 X25.642 Y-36.757
G0 Y-37.882
G0 Y-37.882 Z0.500
G1 X25.642 Y-37.882 Z-0.150 F100.000
G1 X25.642 Y-38.107 Z-0.150 F100.000
G1 X26.167 Y-38.107 Z-0.150 F100.000
G1 X26.167 Y-37.882 Z-0.150 F100.000
G1 X25.642 Y-37.882 Z-0.150 F100.000
G0 Z1.000
G0 Z1.000
G0 X25.642 Y-37.882
G0 X27.052 Y-37.883
G0 X27.052 Y-37.883 Z0.500
G1 X27.052 Y-37.883 Z-0.150 F100.000
G1 X27.052 Y-38.557 Z-0.150 F100.000
G1 X27.952 Y-38.557 Z-0.150 F100.000
G1 X27.952 Y-37.883 Z-0.150 F100.000
G1 X27.052 Y-37.883 Z-0.150 F100.000
G0 Z1.000
G0 Z1.000
G0 X27.052 Y-37.883
G0 Y-37.207
G0 Y-37.207 Z0.500
G1 X27.052 Y-37.207 Z-0.150 F100.000
G1 X27.952 Y-37.207 Z-0.150 F100.000
G1 X27.952 Y-36.532 Z-0.150 F100.000
G1 X27.052 Y-36.532 Z-0.150 F100.000
G1 X27.052 Y-37.207 Z-0.150 F100.000
G0 Z1.000
G0 Z1.000
G0 X27.052 Y-37.207
G0 X28.826
G0 X28.826 Z0.500
G1 X28.826 Y-37.207 Z-0.150 F100.000
G1 X28.826 Y-37.455 Z-0.150 F100.000
G1 X29.313 Y-37.455 Z-0.150 F100.000
G1 X29.313 Y-37.004 Z-0.150 F100.000
G1 X28.826 Y-37.004 Z-0.150 F100.000
G1 X28.826 Y-37.207 Z-0.150 F100.000
G0 Z1.000
G0 Z1.000
G0 X28.826 Y-37.207
G0 X28.827 Y-38.129
G0 X28.827 Y-38.129 Z0.500
G1 X28.827 Y-38.129 Z-0.150 F100.000
G1 X28.827 Y-38.579 Z-0.150 F100.000
G1 X29.314 Y-38.579 Z-0.150 F100.000
G1 X29.314 Y-38.129 Z-0.150 F100.000
G1 X28.827 Y-38.129 Z-0.150 F100.000
G0 Z1.000
G0 Z1.000
G0 X28.827 Y-38.129
G0 X28.957 Y-39.435
G0 X28.957 Y-39.435 Z0.500
G1 X28.957 Y-39.435 Z-0.150 F100.000
G1 X28.957 Y-39.960 Z-0.150 F100.000
G1 X29.182 Y-39.960 Z-0.150 F100.000
G1 X29.182 Y-39.435 Z-0.150 F100.000
G1 X28.957 Y-39.435 Z-0.150 F100.000
G0 Z1.000
G0 Z1.000
G0 X28.957 Y-39.435
G0 X28.058 Y-39.434
G0 X28.058 Y-39.434 Z0.500
G1 X28.058 Y-39.434 Z-0.150 F100.000
G1 X27.833 Y-39.434 Z-0.150 F100.000
G1 X27.833 Y-39.959 Z-0.150 F100.000
G1 X28.058 Y-39.959 Z-0.150 F100.000
G1 X28.058 Y-39.434 Z-0.150 F100.000
G0 Z1.000
G0 Z1.000
G0 X28.058 Y-39.434
G0 Y-40.807
G0 Y-40.807 Z0.500
G1 X28.058 Y-40.807 Z-0.150 F100.000
G1 X27.833 Y-40.807 Z-0.150 F100.000
G1 X27.833 Y-41.331 Z-0.150 F100.000
G1 X28.058 Y-41.331 Z-0.150 F100.000
G1 X28.058 Y-40.807 Z-0.150 F100.000
G0 Z1.000
G0 Z1.000
G0 X28.058 Y-40.807
G0 X28.957
G0 X28.957 Z0.500
G1 X28.957 Y-40.807 Z-0.150 F100.000
G1 X28.957 Y-41.331 Z-0.150 F100.000
G1 X29.182 Y-41.331 Z-0.150 F100.000
G1 X29.182 Y-40.807 Z-0.150 F100.000
G1 X28.957 Y-40.807 Z-0.150 F100.000
G0 Z1.000
G0 Z1.000
G0 X28.957 Y-40.807
G0 Y-42.396
G0 Y-42.396 Z0.500
G1 X28.957 Y-42.396 Z-0.150 F100.000
G1 X28.352 Y-42.396 Z-0.150 F100.000
G1 X28.352 Y-44.302 Z-0.150 F100.000
G1 X29.398 Y-44.302 Z-0.150 F100.000
G1 X29.398 Y-42.396 Z-0.150 F100.000
G1 X28.957 Y-42.396 Z-0.150 F100.000
G0 Z1.000
G0 Z1.000
G0 X28.957 Y-42.396
G0 Y-46.071
G0 Y-46.071 Z0.500
G1 X28.957 Y-46.071 Z-0.150 F100.000
G1 X28.352 Y-46.071 Z-0.150 F100.000
G1 X28.352 Y-47.977 Z-0.150 F100.000
G1 X29.398 Y-47.977 Z-0.150 F100.000
G1 X29.398 Y-46.071 Z-0.150 F100.000
G1 X28.957 Y-46.071 Z-0.150 F100.000
G0 Z1.000
G0 Z1.000
G0 X28.957 Y-46.071
G0 Y-49.274
G0 Y-49.274 Z0.500
G1 X28.957 Y-49.274 Z-0.150 F100.000
G1 X28.350 Y-49.274 Z-0.150 F100.000
G1 X28.350 Y-50.999 Z-0.150 F100.000
G1 X29.400 Y-50.999 Z-0.150 F100.000
G1 X29.400 Y-49.274 Z-0.150 F100.000
G1 X28.957 Y-49.274 Z-0.150 F100.000
G0 Z1.000
G0 Z1.000
G0 X28.957 Y-49.274
G0 Y-51.750
G0 Y-51.750 Z0.500
G1 X28.957 Y-51.750 Z-0.150 F100.000
G1 X28.350 Y-51.750 Z-0.150 F100.000
G1 X28.350 Y-53.474 Z-0.150 F100.000
G1 X29.400 Y-53.474 Z-0.150 F100.000
G1 X29.400 Y-51.750 Z-0.150 F100.000
G1 X28.957 Y-51.750 Z-0.150 F100.000
G0 Z1.000
G0 Z1.000
G0 X28.957 Y-51.750
G0 X31.875 Y-47.137
G0 X31.875 Y-47.137 Z0.500
G1 X31.875 Y-47.137 Z-0.150 F100.000
G1 X32.400 Y-47.137 Z-0.150 F100.000
G1 X32.400 Y-46.912 Z-0.150 F100.000
G1 X31.875 Y-46.912 Z-0.150 F100.000
G1 X31.875 Y-47.137 Z-0.150 F100.000
G0 Z1.000
G0 Z1.000
G0 X31.875 Y-47.137
G0 X31.876 Y-46.012
G0 X31.876 Y-46.012 Z0.500
G1 X31.876 Y-46.012 Z-0.150 F100.000
G1 X32.401 Y-46.012 Z-0.150 F100.000
G1 X32.401 Y-45.787 Z-0.150 F100.000
G1 X31.876 Y-45.787 Z-0.150 F100.000
G1 X31.876 Y-46.012 Z-0.150 F100.000
G0 Z1.000
G0 Z1.000
G0 X31.876 Y-46.012
G0 X33.248
G0 X33.248 Z0.500
G1 X33.248 Y-46.012 Z-0.150 F100.000
G1 X33.773 Y-46.012 Z-0.150 F100.000
G1 X33.773 Y-45.787 Z-0.150 F100.000
G1 X33.248 Y-45.787 Z-0.150 F100.000
G1 X33.248 Y-46.012 Z-0.150 F100.000
G0 Z1.000
G0 Z1.000
G0 X33.248 Y-46.012
G0 X33.247 Y-46.912
G0 X33.247 Y-46.912 Z0.500
G1 X33.247 Y-46.912 Z-0.150 F100.000
G1 X33.247 Y-47.137 Z-0.150 F100.000
G1 X33.772 Y-47.137 Z-0.150 F100.000
G1 X33.772 Y-46.912 Z-0.150 F100.000
G1 X33.247 Y-46.912 Z-0.150 F100.000
G0 Z1.000
G0 Z1.000
G0 X33.247 Y-46.912
G0 X36.975 Y-48.618
G0 X36.975 Y-48.618 Z0.500
G1 X36.975 Y-48.618 Z-0.150 F100.000
G1 X36.975 Y-50.681 Z-0.150 F100.000
G1 X38.025 Y-50.681 Z-0.150 F100.000
G1 X38.025 Y-48.618 Z-0.150 F100.000
G1 X36.975 Y-48.618 Z-0.150 F100.000
G0 Z1.000
G0 Z1.000
G0 X36.975 Y-48.618
G0 Y-46.781
G0 Y-46.781 Z0.500
G1 X36.975 Y-46.781 Z-0.150 F100.000
G1 X38.025 Y-46.781 Z-0.150 F100.000
G1 X38.025 Y-44.718 Z-0.150 F100.000
G1 X36.975 Y-44.718 Z-0.150 F100.000
G1 X36.975 Y-46.781 Z-0.150 F100.000
G0 Z1.000
G0 Z1.000
G0 X36.975 Y-46.781
G0 X36.915 Y-43.814
G0 X36.915 Y-43.814 Z0.500
G1 X36.915 Y-43.814 Z-0.150 F100.000
G1 X36.915 Y-43.139 Z-0.150 F100.000
G1 X35.790 Y-43.139 Z-0.150 F100.000
G1 X35.790 Y-43.814 Z-0.150 F100.000
G1 X36.915 Y-43.814 Z-0.150 F100.000
G0 Z1.000
G0 Z1.000
G0 X36.915 Y-43.814
G0 Y-41.414
G0 Y-41.414 Z0.500
G1 X36.915 Y-41.414 Z-0.150 F100.000
G1 X36.915 Y-40.739 Z-0.150 F100.000
G1 X35.790 Y-40.739 Z-0.150 F100.000
G1 X35.790 Y-41.414 Z-0.150 F100.000
G1 X36.915 Y-41.414 Z-0.150 F100.000
G0 Z1.000
G0 Z1.000
G0 X36.915 Y-41.414
G0 X35.209 Y-39.457
G0 X35.209 Y-39.457 Z0.500
G1 X35.209 Y-39.457 Z-0.150 F100.000
G1 X35.209 Y-39.157 Z-0.150 F100.000
G1 X34.196 Y-39.157 Z-0.150 F100.000
G1 X34.196 Y-39.457 Z-0.150 F100.000
G1 X35.209 Y-39.457 Z-0.150 F100.000
G0 Z1.000
G0 Z1.000
G0 X35.209 Y-39.457
G0 Y-38.505
G0 Y-38.505 Z0.500
G1 X35.209 Y-38.505 Z-0.150 F100.000
G1 X35.209 Y-38.205 Z-0.150 F100.000
G1 X34.196 Y-38.205 Z-0.150 F100.000
G1 X34.196 Y-38.505 Z-0.150 F100.000
G1 X35.209 Y-38.505 Z-0.150 F100.000
G0 Z1.000
G0 Z1.000
G0 X35.209 Y-38.505
G0 Y-37.545
G0 Y-37.545 Z0.500
G1 X35.209 Y-37.545 Z-0.150 F100.000
G1 X35.209 Y-37.245 Z-0.150 F100.000
G1 X34.196 Y-37.245 Z-0.150 F100.000
G1 X34.196 Y-37.545 Z-0.150 F100.000
G1 X35.209 Y-37.545 Z-0.150 F100.000
G0 Z1.000
G0 Z1.000
G0 X35.209 Y-37.545
G0 Y-36.592
G0 Y-36.592 Z0.500
G1 X35.209 Y-36.592 Z-0.150 F100.000
G1 X35.209 Y-36.292 Z-0.150 F100.000
G1 X34.196 Y-36.292 Z-0.150 F100.000
G1 X34.196 Y-36.592 Z-0.150 F100.000
G1 X35.209 Y-36.592 Z-0.150 F100.000
G0 Z1.000
G0 Z1.000
G0 X35.209 Y-36.592
G0 X33.488 Y-35.208
G0 X33.488 Y-35.208 Z0.500
G1 X33.488 Y-35.208 Z-0.150 F100.000
G1 X33.488 Y-34.720 Z-0.150 F100.000
G1 X33.037 Y-34.720 Z-0.150 F100.000
G1 X33.037 Y-35.208 Z-0.150 F100.000
G1 X33.488 Y-35.208 Z-0.150 F100.000
G0 Z1.000
G0 Z1.000
G0 X33.488 Y-35.208
G0 X32.363 Y-35.209
G0 X32.363 Y-35.209 Z0.500
G1 X32.363 Y-35.209 Z-0.150 F100.000
G1 X32.363 Y-34.721 Z-0.150 F100.000
G1 X31.913 Y-34.721 Z-0.150 F100.000
G1 X31.913 Y-35.209 Z-0.150 F100.000
G1 X32.363 Y-35.209 Z-0.150 F100.000
G0 Z1.000
G0 Z1.000
G0 X32.363 Y-35.209
G0 X31.204 Y-36.292
G0 X31.204 Y-36.292 Z0.500
G1 X31.204 Y-36.292 Z-0.150 F100.000
G1 X30.191 Y-36.292 Z-0.150 F100.000
G1 X30.191 Y-36.592 Z-0.150 F100.000
G1 X31.204 Y-36.592 Z-0.150 F100.000
G1 X31.204 Y-36.292 Z-0.150 F100.000
G0 Z1.000
G0 Z1.000
G0 X31.204 Y-36.292
G0 Y-37.244
G0 Y-37.244 Z0.500
G1 X31.204 Y-37.244 Z-0.150 F100.000
G1 X30.191 Y-37.244 Z-0.150 F100.000
G1 X30.191 Y-37.544 Z-0.150 F100.000
G1 X31.204 Y-37.544 Z-0.150 F100.000
G1 X31.204 Y-37.244 Z-0.150 F100.000
G0 Z1.000
G0 Z1.000
G0 X31.204 Y-37.244
G0 Y-38.204
G0 Y-38.204 Z0.500
G1 X31.204 Y-38.204 Z-0.150 F100.000
G1 X30.191 Y-38.204 Z-0.150 F100.000
G1 X30.191 Y-38.504 Z-0.150 F100.000
G1 X31.204 Y-38.504 Z-0.150 F100.000
G1 X31.204 Y-38.204 Z-0.150 F100.000
G0 Z1.000
G0 Z1.000
G0 X31.204 Y-38.204
G0 Y-39.157
G0 Y-39.157 Z0.500
G1 X31.204 Y-39.157 Z-0.150 F100.000
G1 X30.191 Y-39.157 Z-0.150 F100.000
G1 X30.191 Y-39.457 Z-0.150 F100.000
G1 X31.204 Y-39.457 Z-0.150 F100.000
G1 X31.204 Y-39.157 Z-0.150 F100.000
G0 Z1.000
G0 Z1.000
G0 X31.204 Y-39.157
G0 X31.913 Y-40.541
G0 X31.913 Y-40.541 Z0.500
G1 X31.913 Y-40.541 Z-0.150 F100.000
G1 X31.913 Y-41.029 Z-0.150 F100.000
G1 X32.363 Y-41.029 Z-0.150 F100.000
G1 X32.363 Y-40.541 Z-0.150 F100.000
G1 X31.913 Y-40.541 Z-0.150 F100.000
G0 Z1.000
G0 Z1.000
G0 X31.913 Y-40.541
G0 X33.037
G0 X33.037 Z0.500
G1 X33.037 Y-40.541 Z-0.150 F100.000
G1 X33.037 Y-41.029 Z-0.150 F100.000
G1 X33.488 Y-41.029 Z-0.150 F100.000
G1 X33.488 Y-40.541 Z-0.150 F100.000
G1 X33.037 Y-40.541 Z-0.150 F100.000
G0 Z1.000
G0 Z1.000
G0 X33.037 Y-40.541
G0 X36.086 Y-38.744
G0 X36.086 Y-38.744 Z0.500
G1 X36.086 Y-38.744 Z-0.150 F100.000
G1 X36.574 Y-38.744 Z-0.150 F100.000
G1 X36.574 Y-38.294 Z-0.150 F100.000
G1 X36.086 Y-38.294 Z-0.150 F100.000
G1 X36.086 Y-38.744 Z-0.150 F100.000
G0 Z1.000
G0 Z1.000
G0 X36.086 Y-38.744
G0 Y-37.620
G0 Y-37.620 Z0.500
G1 X36.086 Y-37.620 Z-0.150 F100.000
G1 X36.574 Y-37.620 Z-0.150 F100.000
G1 X36.574 Y-37.170 Z-0.150 F100.000
G1 X36.086 Y-37.170 Z-0.150 F100.000
G1 X36.086 Y-37.620 Z-0.150 F100.000
G0 Z1.000
G0 Z1.000
G0 X36.086 Y-37.620
G0 X37.913 Y-40.739
G0 X37.913 Y-40.739 Z0.500
G1 X37.913 Y-40.739 Z-0.150 F100.000
G1 X37.913 Y-41.414 Z-0.150 F100.000
G1 X39.038 Y-41.414 Z-0.150 F100.000
G1 X39.038 Y-40.739 Z-0.150 F100.000
G1 X37.913 Y-40.739 Z-0.150 F100.000
G0 Z1.000
G0 Z1.000
G0 X37.913 Y-40.739
G0 Y-43.139
G0 Y-43.139 Z0.500
G1 X37.913 Y-43.139 Z-0.150 F100.000
G1 X37.913 Y-43.814 Z-0.150 F100.000
G1 X39.038 Y-43.814 Z-0.150 F100.000
G1 X39.038 Y-43.139 Z-0.150 F100.000
G1 X37.913 Y-43.139 Z-0.150 F100.000
G0 Z1.000
G0 Z1.000
G0 X37.913 Y-43.139
G0 X44.232 Y-37.931
G0 X44.232 Y-37.931 Z0.500
G1 X44.232 Y-37.931 Z-0.150 F100.000
G1 X44.682 Y-37.931 Z-0.150 F100.000
G1 X44.682 Y-37.443 Z-0.150 F100.000
G1 X44.232 Y-37.443 Z-0.150 F100.000
G1 X44.232 Y-37.931 Z-0.150 F100.000
G0 Z1.000
G0 Z1.000
G0 X44.232 Y-37.931
G0 X44.194 Y-36.134
G0 X44.194 Y-36.134 Z0.500
G1 X44.194 Y-36.134 Z-0.150 F100.000
G1 X44.194 Y-35.984 Z-0.150 F100.000
G1 X43.669 Y-35.984 Z-0.150 F100.000
G1 X43.669 Y-36.134 Z-0.150 F100.000
G1 X44.194 Y-36.134 Z-0.150 F100.000
G0 Z1.000
G0 Z1.000
G0 X44.194 Y-36.134
G0 X45.319 Y-36.135
G0 X45.319 Y-36.135 Z0.500
G1 X45.319 Y-36.135 Z-0.150 F100.000
G1 X45.844 Y-36.135 Z-0.150 F100.000
G1 X45.844 Y-35.985 Z-0.150 F100.000
G1 X45.319 Y-35.985 Z-0.150 F100.000
G1 X45.319 Y-36.135 Z-0.150 F100.000
G0 Z1.000
G0 Z1.000
G0 X45.319 Y-36.135
G0 X45.356 Y-37.443
G0 X45.356 Y-37.443 Z0.500
G1 X45.356 Y-37.443 Z-0.150 F100.000
G1 X45.356 Y-37.931 Z-0.150 F100.000
G1 X45.807 Y-37.931 Z-0.150 F100.000
G1 X45.807 Y-37.443 Z-0.150 F100.000
G1 X45.356 Y-37.443 Z-0.150 F100.000
G0 Z1.000
G0 Z1.000
G0 X45.356 Y-37.443
G0 X46.737
G0 X46.737 Z0.500
G1 X46.737 Y-37.443 Z-0.150 F100.000
G1 X46.737 Y-37.987 Z-0.150 F100.000
G1 X47.262 Y-37.987 Z-0.150 F100.000
G1 X47.262 Y-37.387 Z-0.150 F100.000
G1 X46.737 Y-37.387 Z-0.150 F100.000
G1 X46.737 Y-37.443 Z-0.150 F100.000
G0 Z1.000
G0 Z1.000
G0 X46.737 Y-37.443
G0 X48.161
G0 X48.161 Z0.500
G1 X48.161 Y-37.443 Z-0.150 F100.000
G1 X48.161 Y-37.987 Z-0.150 F100.000
G1 X48.686 Y-37.987 Z-0.150 F100.000
G1 X48.686 Y-37.387 Z-0.150 F100.000
G1 X48.161 Y-37.387 Z-0.150 F100.000
G1 X48.161 Y-37.443 Z-0.150 F100.000
G0 Z1.000
G0 Z1.000
G0 X48.161 Y-37.443
G0 X47.974 Y-36.337
G0 X47.974 Y-36.337 Z0.500
G1 X47.974 Y-36.337 Z-0.150 F100.000
G1 X47.974 Y-35.737 Z-0.150 F100.000
G1 X47.449 Y-35.737 Z-0.150 F100.000
G1 X47.449 Y-36.337 Z-0.150 F100.000
G1 X47.974 Y-36.337 Z-0.150 F100.000
G0 Z1.000
G0 Z1.000
G0 X47.974 Y-36.337
G0 X47.512 Y-34.799
G0 X47.512 Y-34.799 Z0.500
G1 X47.512 Y-34.799 Z-0.150 F100.000
G1 X47.512 Y-33.600 Z-0.150 F100.000
G1 X47.212 Y-33.600 Z-0.150 F100.000
G1 X47.212 Y-34.799 Z-0.150 F100.000
G1 X47.512 Y-34.799 Z-0.150 F100.000
G0 Z1.000
G0 Z1.000
G0 X47.512 Y-34.799
G0 X46.066 Y-34.170
G0 X46.066 Y-34.170 Z0.500
G1 X46.066 Y-34.170 Z-0.150 F100.000
G1 X46.066 Y-33.794 Z-0.150 F100.000
G1 X45.098 Y-33.794 Z-0.150 F100.000
G1 X45.098 Y-34.170 Z-0.150 F100.000
G1 X46.066 Y-34.170 Z-0.150 F100.000
G0 Z1.000
G0 Z1.000
G0 X46.066 Y-34.170
G0 Y-32.265
G0 Y-32.265 Z0.500
G1 X46.066 Y-32.265 Z-0.150 F100.000
G1 X46.066 Y-31.889 Z-0.150 F100.000
G1 X45.098 Y-31.889 Z-0.150 F100.000
G1 X45.098 Y-32.265 Z-0.150 F100.000
G1 X46.066 Y-32.265 Z-0.150 F100.000
G0 Z1.000
G0 Z1.000
G0 X46.066 Y-32.265
G0 Y-30.359
G0 Y-30.359 Z0.500
G1 X46.066 Y-30.359 Z-0.150 F100.000
G1 X46.066 Y-29.983 Z-0.150 F100.000
G1 X45.098 Y-29.983 Z-0.150 F100.000
G1 X45.098 Y-30.359 Z-0.150 F100.000
G1 X46.066 Y-30.359 Z-0.150 F100.000
G0 Z1.000
G0 Z1.000
G0 X46.066 Y-30.359
G0 Y-28.455
G0 Y-28.455 Z0.500
G1 X46.066 Y-28.455 Z-0.150 F100.000
G1 X46.066 Y-28.079 Z-0.150 F100.000
G1 X45.098 Y-28.079 Z-0.150 F100.000
G1 X45.098 Y-28.455 Z-0.150 F100.000
G1 X46.066 Y-28.455 Z-0.150 F100.000
G0 Z1.000
G0 Z1.000
G0 X46.066 Y-28.455
G0 X47.213 Y-28.874
G0 X47.213 Y-28.874 Z0.500
G1 X47.213 Y-28.874 Z-0.150 F100.000
G1 X47.213 Y-30.074 Z-0.150 F100.000
G1 X47.513 Y-30.074 Z-0.150 F100.000
G1 X47.513 Y-28.874 Z-0.150 F100.000
G1 X47.213 Y-28.874 Z-0.150 F100.000
G0 Z1.000
G0 Z1.000
G0 X47.213 Y-28.874
G0 X49.088
G0 X49.088 Z0.500
G1 X49.088 Y-28.874 Z-0.150 F100.000
G1 X49.088 Y-30.074 Z-0.150 F100.000
G1 X49.388 Y-30.074 Z-0.150 F100.000
G1 X49.388 Y-28.874 Z-0.150 F100.000
G1 X49.088 Y-28.874 Z-0.150 F100.000
G0 Z1.000
G0 Z1.000
G0 X49.088 Y-28.874
G0 Y-33.600
G0 Y-33.600 Z0.500
G1 X49.088 Y-33.600 Z-0.150 F100.000
G1 X49.088 Y-34.799 Z-0.150 F100.000
G1 X49.388 Y-34.799 Z-0.150 F100.000
G1 X49.388 Y-33.600 Z-0.150 F100.000
G1 X49.088 Y-33.600 Z-0.150 F100.000
G0 Z1.000
G0 Z1.000
G0 X49.088 Y-33.600
G0 X49.598 Y-36.336
G0 X49.598 Y-36.336 Z0.500
G1 X49.598 Y-36.336 Z-0.150 F100.000
G1 X49.598 Y-36.787 Z-0.150 F100.000
G1 X50.085 Y-36.787 Z-0.150 F100.000
G1 X50.085 Y-36.336 Z-0.150 F100.000
G1 X49.598 Y-36.336 Z-0.150 F100.000
G0 Z1.000
G0 Z1.000
G0 X49.598 Y-36.336
G0 Y-37.461
G0 Y-37.461 Z0.500
G1 X49.598 Y-37.461 Z-0.150 F100.000
G1 X49.598 Y-37.911 Z-0.150 F100.000
G1 X50.085 Y-37.911 Z-0.150 F100.000
G1 X50.085 Y-37.461 Z-0.150 F100.000
G1 X49.598 Y-37.461 Z-0.150 F100.000
G0 Z1.000
G0 Z1.000
G0 X49.598 Y-37.461
G0 X50.992
G0 X50.992 Z0.500
G1 X50.992 Y-37.461 Z-0.150 F100.000
G1 X50.992 Y-38.024 Z-0.150 F100.000
G1 X52.117 Y-38.024 Z-0.150 F100.000
G1 X52.117 Y-37.349 Z-0.150 F100.000
G1 X50.992 Y-37.349 Z-0.150 F100.000
G1 X50.992 Y-37.461 Z-0.150 F100.000
G0 Z1.000
G0 Z1.000
G0 X50.992 Y-37.461
G0 X50.993 Y-39.749
G0 X50.993 Y-39.749 Z0.500
G1 X50.993 Y-39.749 Z-0.150 F100.000
G1 X50.993 Y-40.424 Z-0.150 F100.000
G1 X52.118 Y-40.424 Z-0.150 F100.000
G1 X52.118 Y-39.749 Z-0.150 F100.000
G1 X50.993 Y-39.749 Z-0.150 F100.000
G0 Z1.000
G0 Z1.000
G0 X50.993 Y-39.749
G0 X53.261 Y-38.212
G0 X53.261 Y-38.212 Z0.500
G1 X53.261 Y-38.212 Z-0.150 F100.000
G1 X55.324 Y-38.212 Z-0.150 F100.000
G1 X55.324 Y-37.162 Z-0.150 F100.000
G1 X53.261 Y-37.162 Z-0.150 F100.000
G1 X53.261 Y-38.212 Z-0.150 F100.000
G0 Z1.000
G0 Z1.000
G0 X53.261 Y-38.212
G0 X57.161
G0 X57.161 Z0.500
G1 X57.161 Y-38.212 Z-0.150 F100.000
G1 X59.224 Y-38.212 Z-0.150 F100.000
G1 X59.224 Y-37.162 Z-0.150 F100.000
G1 X57.161 Y-37.162 Z-0.150 F100.000
G1 X57.161 Y-38.212 Z-0.150 F100.000
G0 Z1.000
G0 Z1.000
G0 X57.161 Y-38.212
G0 X61.905 Y-41.384
G0 X61.905 Y-41.384 Z0.500
G1 X61.905 Y-41.384 Z-0.150 F100.000
G1 X61.905 Y-43.109 Z-0.150 F100.000
G1 X62.955 Y-43.109 Z-0.150 F100.000
G1 X62.955 Y-41.384 Z-0.150 F100.000
G1 X61.905 Y-41.384 Z-0.150 F100.000
G0 Z1.000
G0 Z1.000
G0 X61.905 Y-41.384
G0 Y-43.860
G0 Y-43.860 Z0.500
G1 X61.905 Y-43.860 Z-0.150 F100.000
G1 X61.905 Y-45.584 Z-0.150 F100.000
G1 X62.955 Y-45.584 Z-0.150 F100.000
G1 X62.955 Y-43.860 Z-0.150 F100.000
G1 X61.905 Y-43.860 Z-0.150 F100.000
G0 Z1.000
G0 Z1.000
G0 X61.905 Y-43.860
G0 X61.321 Y-46.754
G0 X61.321 Y-46.754 Z0.500
G1 X61.321 Y-46.754 Z-0.150 F100.000
G1 X60.720 Y-46.754 Z-0.150 F100.000
G1 X60.720 Y-47.279 Z-0.150 F100.000
G1 X61.321 Y-47.279 Z-0.150 F100.000
G1 X61.321 Y-46.754 Z-0.150 F100.000
G0 Z1.000
G0 Z1.000
G0 X61.321 Y-46.754
G0 Y-48.180
G0 Y-48.180 Z0.500
G1 X61.321 Y-48.180 Z-0.150 F100.000
G1 X60.720 Y-48.180 Z-0.150 F100.000
G1 X60.720 Y-48.705 Z-0.150 F100.000
G1 X61.321 Y-48.705 Z-0.150 F100.000
G1 X61.321 Y-48.180 Z-0.150 F100.000
G0 Z1.000
G0 Z1.000
G0 X61.321 Y-48.180
G0 X61.283 Y-49.642
G0 X61.283 Y-49.642 Z0.500
G1 X61.283 Y-49.642 Z-0.150 F100.000
G1 X60.758 Y-49.642 Z-0.150 F100.000
G1 X60.758 Y-49.867 Z-0.150 F100.000
G1 X61.283 Y-49.867 Z-0.150 F100.000
G1 X61.283 Y-49.642 Z-0.150 F100.000
G0 Z1.000
G0 Z1.000
G0 X61.283 Y-49.642
G0 Y-50.767
G0 Y-50.767 Z0.500
G1 X61.283 Y-50.767 Z-0.150 F100.000
G1 X60.758 Y-50.767 Z-0.150 F100.000
G1 X60.758 Y-50.992 Z-0.150 F100.000
G1 X61.283 Y-50.992 Z-0.150 F100.000
G1 X61.283 Y-50.767 Z-0.150 F100.000
G0 Z1.000
G0 Z1.000
G0 X61.283 Y-50.767
G0 X62.250 Y-50.932
G0 X62.250 Y-50.932 Z0.500
G1 X62.250 Y-50.932 Z-0.150 F100.000
G1 X62.250 Y-51.457 Z-0.150 F100.000
G1 X62.475 Y-51.457 Z-0.150 F100.000
G1 X62.475 Y-50.932 Z-0.150 F100.000
G1 X62.250 Y-50.932 Z-0.150 F100.000
G0 Z1.000
G0 Z1.000
G0 X62.250 Y-50.932
G0 Y-50.096
G0 Y-50.096 Z0.500
G1 X62.250 Y-50.096 Z-0.150 F100.000
G1 X62.588 Y-50.096 Z-0.150 F100.000
G1 X62.588 Y-49.608 Z-0.150 F100.000
G1 X62.137 Y-49.608 Z-0.150 F100.000
G1 X62.137 Y-50.096 Z-0.150 F100.000
G1 X62.250 Y-50.096 Z-0.150 F100.000
G0 Z1.000
G0 Z1.000
G0 X62.250 Y-50.096
G0 X63.262
G0 X63.262 Z0.500
G1 X63.262 Y-50.096 Z-0.150 F100.000
G1 X63.712 Y-50.096 Z-0.150 F100.000
G1 X63.712 Y-49.608 Z-0.150 F100.000
G1 X63.262 Y-49.608 Z-0.150 F100.000
G1 X63.262 Y-50.096 Z-0.150 F100.000
G0 Z1.000
G0 Z1.000
G0 X63.262 Y-50.096
G0 X63.375 Y-50.932
G0 X63.375 Y-50.932 Z0.500
G1 X63.375 Y-50.932 Z-0.150 F100.000
G1 X63.375 Y-51.457 Z-0.150 F100.000
G1 X63.600 Y-51.457 Z-0.150 F100.000
G1 X63.600 Y-50.932 Z-0.150 F100.000
G1 X63.375 Y-50.932 Z-0.150 F100.000
G0 Z1.000
G0 Z1.000
G0 X63.375 Y-50.932
G0 X64.605
G0 X64.605 Z0.500
G1 X64.605 Y-50.932 Z-0.150 F100.000
G1 X64.605 Y-51.532 Z-0.150 F100.000
G1 X65.506 Y-51.532 Z-0.150 F100.000
G1 X65.506 Y-50.858 Z-0.150 F100.000
G1 X64.605 Y-50.858 Z-0.150 F100.000
G1 X64.605 Y-50.932 Z-0.150 F100.000
G0 Z1.000
G0 Z1.000
G0 X64.605 Y-50.932
G0 Y-50.182
G0 Y-50.182 Z0.500
G1 X64.605 Y-50.182 Z-0.150 F100.000
G1 X65.506 Y-50.182 Z-0.150 F100.000
G1 X65.506 Y-49.507 Z-0.150 F100.000
G1 X64.605 Y-49.507 Z-0.150 F100.000
G1 X64.605 Y-50.182 Z-0.150 F100.000
G0 Z1.000
G0 Z1.000
G0 X64.605 Y-50.182
G0 X66.390 Y-49.964
G0 X66.390 Y-49.964 Z0.500
G1 X66.390 Y-49.964 Z-0.150 F100.000
G1 X66.915 Y-49.964 Z-0.150 F100.000
G1 X66.915 Y-49.739 Z-0.150 F100.000
G1 X66.390 Y-49.739 Z-0.150 F100.000
G1 X66.390 Y-49.964 Z-0.150 F100.000
G0 Z1.000
G0 Z1.000
G0 X66.390 Y-49.964
G0 Y-50.864
G0 Y-50.864 Z0.500
G1 X66.390 Y-50.864 Z-0.150 F100.000
G1 X66.390 Y-51.089 Z-0.150 F100.000
G1 X66.915 Y-51.089 Z-0.150 F100.000
G1 X66.915 Y-50.864 Z-0.150 F100.000
G1 X66.390 Y-50.864 Z-0.150 F100.000
G0 Z1.000
G0 Z1.000
G0 X66.390 Y-50.864
G0 X62.970 Y-47.991
G0 X62.970 Y-47.991 Z0.500
G1 X62.970 Y-47.991 Z-0.150 F100.000
G1 X62.970 Y-47.467 Z-0.150 F100.000
G1 X62.370 Y-47.467 Z-0.150 F100.000
G1 X62.370 Y-47.991 Z-0.150 F100.000
G1 X62.970 Y-47.991 Z-0.150 F100.000
G0 Z1.000
G0 Z1.000
G0 X62.970 Y-47.991
G0 X59.224 Y-44.309
G0 X59.224 Y-44.309 Z0.500
G1 X59.224 Y-44.309 Z-0.150 F100.000
G1 X59.224 Y-43.259 Z-0.150 F100.000
G1 X57.161 Y-43.259 Z-0.150 F100.000
G1 X57.161 Y-44.309 Z-0.150 F100.000
G1 X59.224 Y-44.309 Z-0.150 F100.000
G0 Z1.000
G0 Z1.000
G0 X59.224 Y-44.309
G0 X55.324
G0 X55.324 Z0.500
G1 X55.324 Y-44.309 Z-0.150 F100.000
G1 X55.324 Y-43.259 Z-0.150 F100.000
G1 X53.261 Y-43.259 Z-0.150 F100.000
G1 X53.261 Y-44.309 Z-0.150 F100.000
G1 X55.324 Y-44.309 Z-0.150 F100.000
G0 Z1.000
G0 Z1.000
G0 X55.324 Y-44.309
G0 X53.824 Y-33.926
G0 X53.824 Y-33.926 Z0.500
G1 X53.824 Y-33.926 Z-0.150 F100.000
G1 X53.824 Y-32.089 Z-0.150 F100.000
G1 X52.661 Y-32.089 Z-0.150 F100.000
G1 X52.661 Y-33.926 Z-0.150 F100.000
G1 X53.824 Y-33.926 Z-0.150 F100.000
G0 Z1.000
G0 Z1.000
G0 X53.824 Y-33.926
G0 Y-30.701
G0 Y-30.701 Z0.500
G1 X53.824 Y-30.701 Z-0.150 F100.000
G1 X53.824 Y-28.863 Z-0.150 F100.000
G1 X52.661 Y-28.863 Z-0.150 F100.000
G1 X52.661 Y-30.701 Z-0.150 F100.000
G1 X53.824 Y-30.701 Z-0.150 F100.000
G0 Z1.000
G0 Z1.000
G0 X53.824 Y-30.701
G0 X40.703 Y-28.455
G0 X40.703 Y-28.455 Z0.500
G1 X40.703 Y-28.455 Z-0.150 F100.000
G1 X40.703 Y-28.079 Z-0.150 F100.000
G1 X39.735 Y-28.079 Z-0.150 F100.000
G1 X39.735 Y-28.455 Z-0.150 F100.000
G1 X40.703 Y-28.455 Z-0.150 F100.000
G0 Z1.000
G0 Z1.000
G0 X40.703 Y-28.455
G0 Y-29.983
G0 Y-29.983 Z0.500
G1 X40.703 Y-29.983 Z-0.150 F100.000
G1 X39.735 Y-29.983 Z-0.150 F100.000
G1 X39.735 Y-30.359 Z-0.150 F100.000
G1 X40.703 Y-30.359 Z-0.150 F100.000
G1 X40.703 Y-29.983 Z-0.150 F100.000
G0 Z1.000
G0 Z1.000
G0 X40.703 Y-29.983
G0 Y-31.889
G0 Y-31.889 Z0.500
G1 X40.703 Y-31.889 Z-0.150 F100.000
G1 X39.735 Y-31.889 Z-0.150 F100.000
G1 X39.735 Y-32.265 Z-0.150 F100.000
G1 X40.703 Y-32.265 Z-0.150 F100.000
G1 X40.703 Y-31.889 Z-0.150 F100.000
G0 Z1.000
G0 Z1.000
G0 X40.703 Y-31.889
G0 Y-33.794
G0 Y-33.794 Z0.500
G1 X40.703 Y-33.794 Z-0.150 F100.000
G1 X39.735 Y-33.794 Z-0.150 F100.000
G1 X39.735 Y-34.170 Z-0.150 F100.000
G1 X40.703 Y-34.170 Z-0.150 F100.000
G1 X40.703 Y-33.794 Z-0.150 F100.000
G0 Z1.000
G0 Z1.000
G0 X40.703 Y-33.794
G0 X41.955 Y-55.091
G0 X41.955 Y-55.091 Z0.500
G1 X41.955 Y-55.091 Z-0.150 F100.000
G1 X41.955 Y-55.579 Z-0.150 F100.000
G1 X42.405 Y-55.579 Z-0.150 F100.000
G1 X42.405 Y-55.091 Z-0.150 F100.000
G1 X41.955 Y-55.091 Z-0.150 F100.000
G0 Z1.000
G0 Z1.000
G0 X41.955 Y-55.091
G0 X42.173 Y-56.407
G0 X42.173 Y-56.407 Z0.500
G1 X42.173 Y-56.407 Z-0.150 F100.000
G1 X42.173 Y-56.931 Z-0.150 F100.000
G1 X42.398 Y-56.931 Z-0.150 F100.000
G1 X42.398 Y-56.407 Z-0.150 F100.000
G1 X42.173 Y-56.407 Z-0.150 F100.000
G0 Z1.000
G0 Z1.000
G0 X42.173 Y-56.407
G0 X43.297
G0 X43.297 Z0.500
G1 X43.297 Y-56.407 Z-0.150 F100.000
G1 X43.297 Y-56.931 Z-0.150 F100.000
G1 X43.522 Y-56.931 Z-0.150 F100.000
G1 X43.522 Y-56.407 Z-0.150 F100.000
G1 X43.297 Y-56.407 Z-0.150 F100.000
G0 Z1.000
G0 Z1.000
G0 X43.297 Y-56.407
G0 Y-55.579
G0 Y-55.579 Z0.500
G1 X43.297 Y-55.579 Z-0.150 F100.000
G1 X43.530 Y-55.579 Z-0.150 F100.000
G1 X43.530 Y-55.091 Z-0.150 F100.000
G1 X43.079 Y-55.091 Z-0.150 F100.000
G1 X43.079 Y-55.579 Z-0.150 F100.000
G1 X43.297 Y-55.579 Z-0.150 F100.000
G0 Z1.000
G0 Z1.000
G0 X43.297 Y-55.579
G0 X44.610 Y-56.146
G0 X44.610 Y-56.146 Z0.500
G1 X44.610 Y-56.146 Z-0.150 F100.000
G1 X44.610 Y-57.192 Z-0.150 F100.000
G1 X46.516 Y-57.192 Z-0.150 F100.000
G1 X46.516 Y-56.146 Z-0.150 F100.000
G1 X44.610 Y-56.146 Z-0.150 F100.000
G0 Z1.000
G0 Z1.000
G0 X44.610 Y-56.146
G0 X48.285 Y-56.147
G0 X48.285 Y-56.147 Z0.500
G1 X48.285 Y-56.147 Z-0.150 F100.000
G1 X48.285 Y-57.193 Z-0.150 F100.000
G1 X50.191 Y-57.193 Z-0.150 F100.000
G1 X50.191 Y-56.147 Z-0.150 F100.000
G1 X48.285 Y-56.147 Z-0.150 F100.000
G0 Z1.000
G0 Z1.000
G0 X48.285 Y-56.147
G0 X49.275 Y-59.999
G0 X49.275 Y-59.999 Z0.500
G1 X49.275 Y-59.999 Z-0.150 F100.000
G1 X49.275 Y-61.724 Z-0.150 F100.000
G1 X50.325 Y-61.724 Z-0.150 F100.000
G1 X50.325 Y-59.999 Z-0.150 F100.000
G1 X49.275 Y-59.999 Z-0.150 F100.000
G0 Z1.000
G0 Z1.000
G0 X49.275 Y-59.999
G0 Y-62.474
G0 Y-62.474 Z0.500
G1 X49.275 Y-62.474 Z-0.150 F100.000
G1 X49.275 Y-64.199 Z-0.150 F100.000
G1 X50.325 Y-64.199 Z-0.150 F100.000
G1 X50.325 Y-62.474 Z-0.150 F100.000
G1 X49.275 Y-62.474 Z-0.150 F100.000
G0 Z1.000
G0 Z1.000
G0 X49.275 Y-62.474
G0 X52.398 Y-62.437
G0 X52.398 Y-62.437 Z0.500
G1 X52.398 Y-62.437 Z-0.150 F100.000
G1 X52.886 Y-62.437 Z-0.150 F100.000
G1 X52.886 Y-61.987 Z-0.150 F100.000
G1 X52.398 Y-61.987 Z-0.150 F100.000
G1 X52.398 Y-62.437 Z-0.150 F100.000
G0 Z1.000
G0 Z1.000
G0 X52.398 Y-62.437
G0 Y-63.111
G0 Y-63.111 Z0.500
G1 X52.398 Y-63.111 Z-0.150 F100.000
G1 X52.398 Y-63.562 Z-0.150 F100.000
G1 X52.886 Y-63.562 Z-0.150 F100.000
G1 X52.886 Y-63.111 Z-0.150 F100.000
G1 X52.398 Y-63.111 Z-0.150 F100.000
G0 Z1.000
G0 Z1.000
G0 X52.398 Y-63.111
G0 X53.790
G0 X53.790 Z0.500
G1 X53.790 Y-63.111 Z-0.150 F100.000
G1 X53.790 Y-63.637 Z-0.150 F100.000
G1 X54.315 Y-63.637 Z-0.150 F100.000
G1 X54.315 Y-63.037 Z-0.150 F100.000
G1 X53.790 Y-63.037 Z-0.150 F100.000
G1 X53.790 Y-63.111 Z-0.150 F100.000
G0 Z1.000
G0 Z1.000
G0 X53.790 Y-63.111
G0 X55.215
G0 X55.215 Z0.500
G1 X55.215 Y-63.111 Z-0.150 F100.000
G1 X55.215 Y-63.637 Z-0.150 F100.000
G1 X55.740 Y-63.637 Z-0.150 F100.000
G1 X55.740 Y-63.037 Z-0.150 F100.000
G1 X55.215 Y-63.037 Z-0.150 F100.000
G1 X55.215 Y-63.111 Z-0.150 F100.000
G0 Z1.000
G0 Z1.000
G0 X55.215 Y-63.111
G0 X55.028 Y-61.988
G0 X55.028 Y-61.988 Z0.500
G1 X55.028 Y-61.988 Z-0.150 F100.000
G1 X55.028 Y-61.387 Z-0.150 F100.000
G1 X54.503 Y-61.387 Z-0.150 F100.000
G1 X54.503 Y-61.988 Z-0.150 F100.000
G1 X55.028 Y-61.988 Z-0.150 F100.000
G0 Z1.000
G0 Z1.000
G0 X55.028 Y-61.988
G0 X56.651 Y-61.987
G0 X56.651 Y-61.987 Z0.500
G1 X56.651 Y-61.987 Z-0.150 F100.000
G1 X56.651 Y-62.437 Z-0.150 F100.000
G1 X57.139 Y-62.437 Z-0.150 F100.000
G1 X57.139 Y-61.987 Z-0.150 F100.000
G1 X56.651 Y-61.987 Z-0.150 F100.000
G0 Z1.000
G0 Z1.000
G0 X56.651 Y-61.987
G0 Y-63.111
G0 Y-63.111 Z0.500
G1 X56.651 Y-63.111 Z-0.150 F100.000
G1 X56.651 Y-63.562 Z-0.150 F100.000
G1 X57.139 Y-63.562 Z-0.150 F100.000
G1 X57.139 Y-63.111 Z-0.150 F100.000
G1 X56.651 Y-63.111 Z-0.150 F100.000
G0 Z1.000
G0 Z1.000
G0 X56.651 Y-63.111
G0 X53.888 Y-65.437
G0 X53.888 Y-65.437 Z0.500
G1 X53.888 Y-65.437 Z-0.150 F100.000
G1 X53.213 Y-65.437 Z-0.150 F100.000
G1 X53.213 Y-66.562 Z-0.150 F100.000
G1 X53.888 Y-66.562 Z-0.150 F100.000
G1 X53.888 Y-65.437 Z-0.150 F100.000
G0 Z1.000
G0 Z1.000
G0 X53.888 Y-65.437
G0 X51.488
G0 X51.488 Z0.500
G1 X51.488 Y-65.437 Z-0.150 F100.000
G1 X50.813 Y-65.437 Z-0.150 F100.000
G1 X50.813 Y-66.562 Z-0.150 F100.000
G1 X51.488 Y-66.562 Z-0.150 F100.000
G1 X51.488 Y-65.437 Z-0.150 F100.000
G0 Z1.000
G0 Z1.000
G0 X51.488 Y-65.437
G0 X44.667 Y-63.562
G0 X44.667 Y-63.562 Z0.500
G1 X44.667 Y-63.562 Z-0.150 F100.000
G1 X44.667 Y-63.111 Z-0.150 F100.000
G1 X44.179 Y-63.111 Z-0.150 F100.000
G1 X44.179 Y-63.562 Z-0.150 F100.000
G1 X44.667 Y-63.562 Z-0.150 F100.000
G0 Z1.000
G0 Z1.000
G0 X44.667 Y-63.562
G0 Y-62.437
G0 Y-62.437 Z0.500
G1 X44.667 Y-62.437 Z-0.150 F100.000
G1 X44.667 Y-61.987 Z-0.150 F100.000
G1 X44.179 Y-61.987 Z-0.150 F100.000
G1 X44.179 Y-62.437 Z-0.150 F100.000
G1 X44.667 Y-62.437 Z-0.150 F100.000
G0 Z1.000
G0 Z1.000
G0 X44.667 Y-62.437
G0 X43.087
G0 X43.087 Z0.500
G1 X43.087 Y-62.437 Z-0.150 F100.000
G1 X43.087 Y-61.705 Z-0.150 F100.000
G1 X42.788 Y-61.705 Z-0.150 F100.000
G1 X42.788 Y-62.718 Z-0.150 F100.000
G1 X43.087 Y-62.718 Z-0.150 F100.000
G1 X43.087 Y-62.437 Z-0.150 F100.000
G0 Z1.000
G0 Z1.000
G0 X43.087 Y-62.437
G0 X42.135
G0 X42.135 Z0.500
G1 X42.135 Y-62.437 Z-0.150 F100.000
G1 X42.135 Y-61.705 Z-0.150 F100.000
G1 X41.836 Y-61.705 Z-0.150 F100.000
G1 X41.836 Y-62.718 Z-0.150 F100.000
G1 X42.135 Y-62.718 Z-0.150 F100.000
G1 X42.135 Y-62.437 Z-0.150 F100.000
G0 Z1.000
G0 Z1.000
G0 X42.135 Y-62.437
G0 X41.175
G0 X41.175 Z0.500
G1 X41.175 Y-62.437 Z-0.150 F100.000
G1 X41.175 Y-61.705 Z-0.150 F100.000
G1 X40.876 Y-61.705 Z-0.150 F100.000
G1 X40.876 Y-62.718 Z-0.150 F100.000
G1 X41.175 Y-62.718 Z-0.150 F100.000
G1 X41.175 Y-62.437 Z-0.150 F100.000
G0 Z1.000
G0 Z1.000
G0 X41.175 Y-62.437
G0 X40.222
G0 X40.222 Z0.500
G1 X40.222 Y-62.437 Z-0.150 F100.000
G1 X40.222 Y-61.705 Z-0.150 F100.000
G1 X39.923 Y-61.705 Z-0.150 F100.000
G1 X39.923 Y-62.718 Z-0.150 F100.000
G1 X40.222 Y-62.718 Z-0.150 F100.000
G1 X40.222 Y-62.437 Z-0.150 F100.000
G0 Z1.000
G0 Z1.000
G0 X40.222 Y-62.437
G0 X38.820 Y-61.905
G0 X38.820 Y-61.905 Z0.500
G1 X38.820 Y-61.905 Z-0.150 F100.000
G1 X38.820 Y-61.680 Z-0.150 F100.000
G1 X38.295 Y-61.680 Z-0.150 F100.000
G1 X38.295 Y-61.905 Z-0.150 F100.000
G1 X38.820 Y-61.905 Z-0.150 F100.000
G0 Z1.000
G0 Z1.000
G0 X38.820 Y-61.905
G0 Y-62.804
G0 Y-62.804 Z0.500
G1 X38.820 Y-62.804 Z-0.150 F100.000
G1 X38.295 Y-62.804 Z-0.150 F100.000
G1 X38.295 Y-63.029 Z-0.150 F100.000
G1 X38.820 Y-63.029 Z-0.150 F100.000
G1 X38.820 Y-62.804 Z-0.150 F100.000
G0 Z1.000
G0 Z1.000
G0 X38.820 Y-62.804
G0 X38.828 Y-60.719
G0 X38.828 Y-60.719 Z0.500
G1 X38.828 Y-60.719 Z-0.150 F100.000
G1 X38.828 Y-60.194 Z-0.150 F100.000
G1 X38.453 Y-60.194 Z-0.150 F100.000
G1 X38.453 Y-60.719 Z-0.150 F100.000
G1 X38.828 Y-60.719 Z-0.150 F100.000
G0 Z1.000
G0 Z1.000
G0 X38.828 Y-60.719
G0 X39.428
G0 X39.428 Z0.500
G1 X39.428 Y-60.719 Z-0.150 F100.000
G1 X39.803 Y-60.719 Z-0.150 F100.000
G1 X39.803 Y-60.194 Z-0.150 F100.000
G1 X39.428 Y-60.194 Z-0.150 F100.000
G1 X39.428 Y-60.719 Z-0.150 F100.000
G0 Z1.000
G0 Z1.000
G0 X39.428 Y-60.719
G0 X39.315 Y-59.294
G0 X39.315 Y-59.294 Z0.500
G1 X39.315 Y-59.294 Z-0.150 F100.000
G1 X39.315 Y-58.769 Z-0.150 F100.000
G1 X38.940 Y-58.769 Z-0.150 F100.000
G1 X38.940 Y-59.294 Z-0.150 F100.000
G1 X39.315 Y-59.294 Z-0.150 F100.000
G0 Z1.000
G0 Z1.000
G0 X39.315 Y-59.294
G0 X40.763 Y-59.444
G0 X40.763 Y-59.444 Z0.500
G1 X40.763 Y-59.444 Z-0.150 F100.000
G1 X40.763 Y-59.669 Z-0.150 F100.000
G1 X41.288 Y-59.669 Z-0.150 F100.000
G1 X41.288 Y-59.444 Z-0.150 F100.000
G1 X40.763 Y-59.444 Z-0.150 F100.000
G0 Z1.000
G0 Z1.000
G0 X40.763 Y-59.444
G0 Y-60.570
G0 Y-60.570 Z0.500
G1 X40.763 Y-60.570 Z-0.150 F100.000
G1 X40.763 Y-60.795 Z-0.150 F100.000
G1 X41.288 Y-60.795 Z-0.150 F100.000
G1 X41.288 Y-60.570 Z-0.150 F100.000
G1 X40.763 Y-60.570 Z-0.150 F100.000
G0 Z1.000
G0 Z1.000
G0 X40.763 Y-60.570
G0 X40.875 Y-65.710
G0 X40.875 Y-65.710 Z0.500
G1 X40.875 Y-65.710 Z-0.150 F100.000
G1 X40.875 Y-66.723 Z-0.150 F100.000
G1 X41.174 Y-66.723 Z-0.150 F100.000
G1 X41.174 Y-65.710 Z-0.150 F100.000
G1 X40.875 Y-65.710 Z-0.150 F100.000
G0 Z1.000
G0 Z1.000
G0 X40.875 Y-65.710
G0 X40.222
G0 X40.222 Z0.500
G1 X40.222 Y-65.710 Z-0.150 F100.000
G1 X39.923 Y-65.710 Z-0.150 F100.000
G1 X39.923 Y-66.723 Z-0.150 F100.000
G1 X40.222 Y-66.723 Z-0.150 F100.000
G1 X40.222 Y-65.710 Z-0.150 F100.000
G0 Z1.000
G0 Z1.000
G0 X40.222 Y-65.710
G0 X41.835
G0 X41.835 Z0.500
G1 X41.835 Y-65.710 Z-0.150 F100.000
G1 X41.835 Y-66.723 Z-0.150 F100.000
G1 X42.134 Y-66.723 Z-0.150 F100.000
G1 X42.134 Y-65.710 Z-0.150 F100.000
G1 X41.835 Y-65.710 Z-0.150 F100.000
G0 Z1.000
G0 Z1.000
G0 X41.835 Y-65.710
G0 X42.788
G0 X42.788 Z0.500
G1 X42.788 Y-65.710 Z-0.150 F100.000
G1 X42.788 Y-66.723 Z-0.150 F100.000
G1 X43.087 Y-66.723 Z-0.150 F100.000
G1 X43.087 Y-65.710 Z-0.150 F100.000
G1 X42.788 Y-65.710 Z-0.150 F100.000
G0 Z1.000
G0 Z1.000
G0 X42.788 Y-65.710
G0 X58.192 Y-62.437
G0 X58.192 Y-62.437 Z0.500
G1 X58.192 Y-62.437 Z-0.150 F100.000
G1 X59.917 Y-62.437 Z-0.150 F100.000
G1 X59.917 Y-61.387 Z-0.150 F100.000
G1 X58.192 Y-61.387 Z-0.150 F100.000
G1 X58.192 Y-62.437 Z-0.150 F100.000
G0 Z1.000
G0 Z1.000
G0 X58.192 Y-62.437
G0 X60.668
G0 X60.668 Z0.500
G1 X60.668 Y-62.437 Z-0.150 F100.000
G1 X62.393 Y-62.437 Z-0.150 F100.000
G1 X62.393 Y-61.387 Z-0.150 F100.000
G1 X60.668 Y-61.387 Z-0.150 F100.000
G1 X60.668 Y-62.437 Z-0.150 F100.000
G0 Z1.000
G0 Z1.000
G0 X60.668 Y-62.437
G0 X76.957 Y-67.195
G0 X76.957 Y-67.195 Z0.500
G1 X76.957 Y-67.195 Z-0.150 F100.000
G3 X78.768 Y-68.267 Z-0.150 I1.043 J-0.305 K0.000 F100.000
G3 X77.232 Y-66.731 Z-0.150 I-0.768 J0.768 K0.000 F100.000
G3 X76.957 Y-67.195 Z-0.150 I0.768 J-0.768 K0.000 F100.000
G0 Z1.000
G0 Z1.000
G0 X76.957 Y-67.195
G0 X77.978 Y-16.085
G0 X77.978 Y-16.085 Z0.500
G1 X77.978 Y-16.085 Z-0.150 F100.000
G3 X78.768 Y-15.767 Z-0.150 I0.022 J1.086 K0.000 F100.000
G3 X78.768 Y-14.231 Z-0.150 I-0.768 J0.768 K0.000 F100.000
G3 X77.232 Y-14.231 Z-0.150 I-0.768 J-0.768 K0.000 F100.000
G3 X77.978 Y-16.085 Z-0.150 I0.768 J-0.768 K0.000 F100.000
G0 Z1.000
G0 Z1.000
G0 X77.978 Y-16.085
G0 X15.842 Y-66.812
G0 X15.842 Y-66.812 Z0.500
G1 X15.842 Y-66.812 Z-0.150 F100.000
G3 X15.768 Y-66.731 Z-0.150 I-0.841 J-0.687 K0.000 F100.000
G3 X14.232 Y-68.267 Z-0.150 I-0.768 J-0.768 K0.000 F100.000
G3 X15.842 Y-66.812 Z-0.150 I0.768 J0.768 K0.000 F100.000
G0 Z1.000
G0 Z1.000
(Finish operation: Profile)
(Begin operation: Profile001)
(Path: Profile001)
(Profile001)
(Compensated Tool Path. Diameter: 0.15)
G0 Z1.000
G0 X93.053 Y0.054
G0 Z0.500
G1 X93.053 Y0.054 Z-0.150 F100.000
G2 X93.075 Y0.001 Z-0.150 I-0.053 J-0.053 K0.000 F100.000
G1 X93.075 Y-82.499 Z-0.150 F100.000
G2 X93.000 Y-82.574 Z-0.150 I-0.075 J0.000 K0.000 F100.000
G1 X0.000 Y-82.574 Z-0.150 F100.000
G2 X-0.075 Y-82.499 Z-0.150 I0.000 J0.075 K0.000 F100.000
G1 X-0.075 Y0.001 Z-0.150 F100.000
G2 X0.000 Y0.076 Z-0.150 I0.075 J-0.000 K0.000 F100.000
G1 X93.000 Y0.076 Z-0.150 F100.000
G2 X93.053 Y0.054 Z-0.150 I-0.000 J-0.075 K0.000 F100.000
G0 Z1.000
G0 Z1.000
(Finish operation: Profile001)
(Begin postamble)
M5
G17 G90
M2
