(Exported by FreeCAD)
(Post Processor: grbl_post)
(Output Time:2023-02-04 15:35:55.476706)
(Begin preamble)
G17 G90
G21
(Begin operation: G54)
(Path: G54)
G54
G0 Z5.000
(Finish operation: G54)
(Begin operation: ballend-015mm001)
(Path: ballend-015mm001)
(ballend-015mm001)
(Begin toolchange)
( M6 T2 )
M3 S10000
(Finish operation: ballend-015mm001)
(Begin operation: Profile)
(Path: Profile)
(Profile)
(Compensated Tool Path. Diameter: 0.15)
G0 Z1.000
G0 X15.767 Y-14.235
G0 Z0.500
G1 X15.767 Y-14.235 Z-0.150 F100.000
G3 X14.231 Y-14.235 Z-0.150 I-0.768 J-0.768 K0.000 F100.000
G3 X15.767 Y-15.771 Z-0.150 I0.768 J-0.768 K0.000 F100.000
G3 X15.767 Y-14.235 Z-0.150 I-0.768 J0.768 K0.000 F100.000
G0 Z1.000
G0 Z1.000
G0 X15.767 Y-14.235
G0 X26.668 Y-40.983
G0 X26.668 Y-40.983 Z0.500
G1 X26.668 Y-40.983 Z-0.150 F100.000
G1 X26.668 Y-42.708 Z-0.150 F100.000
G1 X27.718 Y-42.708 Z-0.150 F100.000
G1 X27.718 Y-40.983 Z-0.150 F100.000
G1 X26.668 Y-40.983 Z-0.150 F100.000
G0 Z1.000
G0 Z1.000
G0 X26.668 Y-40.983
G0 Y-43.458
G0 Y-43.458 Z0.500
G1 X26.668 Y-43.458 Z-0.150 F100.000
G1 X26.668 Y-45.183 Z-0.150 F100.000
G1 X27.718 Y-45.183 Z-0.150 F100.000
G1 X27.718 Y-43.458 Z-0.150 F100.000
G1 X26.668 Y-43.458 Z-0.150 F100.000
G0 Z1.000
G0 Z1.000
G0 X26.668 Y-43.458
G0 X26.984 Y-46.270
G0 X26.984 Y-46.270 Z0.500
G1 X26.984 Y-46.270 Z-0.150 F100.000
G1 X26.984 Y-46.795 Z-0.150 F100.000
G1 X27.209 Y-46.795 Z-0.150 F100.000
G1 X27.209 Y-46.270 Z-0.150 F100.000
G1 X26.984 Y-46.270 Z-0.150 F100.000
G0 Z1.000
G0 Z1.000
G0 X26.984 Y-46.270
G0 X28.108
G0 X28.108 Z0.500
G1 X28.108 Y-46.270 Z-0.150 F100.000
G1 X28.108 Y-46.795 Z-0.150 F100.000
G1 X28.333 Y-46.795 Z-0.150 F100.000
G1 X28.333 Y-46.270 Z-0.150 F100.000
G1 X28.108 Y-46.270 Z-0.150 F100.000
G0 Z1.000
G0 Z1.000
G0 X28.108 Y-46.270
G0 X29.234
G0 X29.234 Z0.500
G1 X29.234 Y-46.270 Z-0.150 F100.000
G1 X29.234 Y-46.795 Z-0.150 F100.000
G1 X29.459 Y-46.795 Z-0.150 F100.000
G1 X29.459 Y-46.270 Z-0.150 F100.000
G1 X29.234 Y-46.270 Z-0.150 F100.000
G0 Z1.000
G0 Z1.000
G0 X29.234 Y-46.270
G0 Y-47.696
G0 Y-47.696 Z0.500
G1 X29.234 Y-47.696 Z-0.150 F100.000
G1 X28.146 Y-47.696 Z-0.150 F100.000
G1 X28.146 Y-48.446 Z-0.150 F100.000
G1 X29.346 Y-48.446 Z-0.150 F100.000
G1 X29.346 Y-47.696 Z-0.150 F100.000
G1 X29.234 Y-47.696 Z-0.150 F100.000
G0 Z1.000
G0 Z1.000
G0 X29.234 Y-47.696
G0 X27.209 Y-47.958
G0 X27.209 Y-47.958 Z0.500
G1 X27.209 Y-47.958 Z-0.150 F100.000
G1 X26.684 Y-47.958 Z-0.150 F100.000
G1 X26.684 Y-48.183 Z-0.150 F100.000
G1 X27.209 Y-48.183 Z-0.150 F100.000
G1 X27.209 Y-47.958 Z-0.150 F100.000
G0 Z1.000
G0 Z1.000
G0 X27.209 Y-47.958
G0 Y-49.083
G0 Y-49.083 Z0.500
G1 X27.209 Y-49.083 Z-0.150 F100.000
G1 X26.684 Y-49.083 Z-0.150 F100.000
G1 X26.684 Y-49.308 Z-0.150 F100.000
G1 X27.209 Y-49.308 Z-0.150 F100.000
G1 X27.209 Y-49.083 Z-0.150 F100.000
G0 Z1.000
G0 Z1.000
G0 X27.209 Y-49.083
G0 X28.146 Y-49.870
G0 X28.146 Y-49.870 Z0.500
G1 X28.146 Y-49.870 Z-0.150 F100.000
G1 X28.146 Y-50.620 Z-0.150 F100.000
G1 X29.346 Y-50.620 Z-0.150 F100.000
G1 X29.346 Y-49.870 Z-0.150 F100.000
G1 X28.146 Y-49.870 Z-0.150 F100.000
G0 Z1.000
G0 Z1.000
G0 X28.146 Y-49.870
G0 X28.634 Y-51.521
G0 X28.634 Y-51.521 Z0.500
G1 X28.634 Y-51.521 Z-0.150 F100.000
G1 X28.634 Y-52.046 Z-0.150 F100.000
G1 X28.859 Y-52.046 Z-0.150 F100.000
G1 X28.859 Y-51.521 Z-0.150 F100.000
G1 X28.634 Y-51.521 Z-0.150 F100.000
G0 Z1.000
G0 Z1.000
G0 X28.634 Y-51.521
G0 Y-52.946
G0 Y-52.946 Z0.500
G1 X28.634 Y-52.946 Z-0.150 F100.000
G1 X28.634 Y-53.471 Z-0.150 F100.000
G1 X28.859 Y-53.471 Z-0.150 F100.000
G1 X28.859 Y-52.946 Z-0.150 F100.000
G1 X28.634 Y-52.946 Z-0.150 F100.000
G0 Z1.000
G0 Z1.000
G0 X28.634 Y-52.946
G0 X29.759
G0 X29.759 Z0.500
G1 X29.759 Y-52.946 Z-0.150 F100.000
G1 X29.759 Y-53.471 Z-0.150 F100.000
G1 X29.984 Y-53.471 Z-0.150 F100.000
G1 X29.984 Y-52.946 Z-0.150 F100.000
G1 X29.759 Y-52.946 Z-0.150 F100.000
G0 Z1.000
G0 Z1.000
G0 X29.759 Y-52.946
G0 Y-52.046
G0 Y-52.046 Z0.500
G1 X29.759 Y-52.046 Z-0.150 F100.000
G1 X29.984 Y-52.046 Z-0.150 F100.000
G1 X29.984 Y-51.521 Z-0.150 F100.000
G1 X29.759 Y-51.521 Z-0.150 F100.000
G1 X29.759 Y-52.046 Z-0.150 F100.000
G0 Z1.000
G0 Z1.000
G0 X29.759 Y-52.046
G0 X31.090 Y-51.482
G0 X31.090 Y-51.482 Z0.500
G1 X31.090 Y-51.482 Z-0.150 F100.000
G1 X32.103 Y-51.482 Z-0.150 F100.000
G1 X32.103 Y-51.183 Z-0.150 F100.000
G1 X31.090 Y-51.183 Z-0.150 F100.000
G1 X31.090 Y-51.482 Z-0.150 F100.000
G0 Z1.000
G0 Z1.000
G0 X31.090 Y-51.482
G0 Y-52.136
G0 Y-52.136 Z0.500
G1 X31.090 Y-52.136 Z-0.150 F100.000
G1 X31.090 Y-52.435 Z-0.150 F100.000
G1 X32.103 Y-52.435 Z-0.150 F100.000
G1 X32.103 Y-52.136 Z-0.150 F100.000
G1 X31.090 Y-52.136 Z-0.150 F100.000
G0 Z1.000
G0 Z1.000
G0 X31.090 Y-52.136
G0 X31.371 Y-53.534
G0 X31.371 Y-53.534 Z0.500
G1 X31.371 Y-53.534 Z-0.150 F100.000
G1 X31.371 Y-54.022 Z-0.150 F100.000
G1 X31.822 Y-54.022 Z-0.150 F100.000
G1 X31.822 Y-53.534 Z-0.150 F100.000
G1 X31.371 Y-53.534 Z-0.150 F100.000
G0 Z1.000
G0 Z1.000
G0 X31.371 Y-53.534
G0 X32.496
G0 X32.496 Z0.500
G1 X32.496 Y-53.534 Z-0.150 F100.000
G1 X32.496 Y-54.022 Z-0.150 F100.000
G1 X32.946 Y-54.022 Z-0.150 F100.000
G1 X32.946 Y-53.534 Z-0.150 F100.000
G1 X32.496 Y-53.534 Z-0.150 F100.000
G0 Z1.000
G0 Z1.000
G0 X32.496 Y-53.534
G0 X32.103 Y-50.523
G0 X32.103 Y-50.523 Z0.500
G1 X32.103 Y-50.523 Z-0.150 F100.000
G1 X32.103 Y-50.224 Z-0.150 F100.000
G1 X31.090 Y-50.224 Z-0.150 F100.000
G1 X31.090 Y-50.523 Z-0.150 F100.000
G1 X32.103 Y-50.523 Z-0.150 F100.000
G0 Z1.000
G0 Z1.000
G0 X32.103 Y-50.523
G0 Y-49.570
G0 Y-49.570 Z0.500
G1 X32.103 Y-49.570 Z-0.150 F100.000
G1 X32.103 Y-49.271 Z-0.150 F100.000
G1 X31.090 Y-49.271 Z-0.150 F100.000
G1 X31.090 Y-49.570 Z-0.150 F100.000
G1 X32.103 Y-49.570 Z-0.150 F100.000
G0 Z1.000
G0 Z1.000
G0 X32.103 Y-49.570
G0 X31.822 Y-48.126
G0 X31.822 Y-48.126 Z0.500
G1 X31.822 Y-48.126 Z-0.150 F100.000
G1 X31.822 Y-47.639 Z-0.150 F100.000
G1 X31.371 Y-47.639 Z-0.150 F100.000
G1 X31.371 Y-48.126 Z-0.150 F100.000
G1 X31.822 Y-48.126 Z-0.150 F100.000
G0 Z1.000
G0 Z1.000
G0 X31.822 Y-48.126
G0 X30.697 Y-48.128
G0 X30.697 Y-48.128 Z0.500
G1 X30.697 Y-48.128 Z-0.150 F100.000
G1 X30.697 Y-47.640 Z-0.150 F100.000
G1 X30.247 Y-47.640 Z-0.150 F100.000
G1 X30.247 Y-48.128 Z-0.150 F100.000
G1 X30.697 Y-48.128 Z-0.150 F100.000
G0 Z1.000
G0 Z1.000
G0 X30.697 Y-48.128
G0 X30.583 Y-46.795
G0 X30.583 Y-46.795 Z0.500
G1 X30.583 Y-46.795 Z-0.150 F100.000
G1 X30.583 Y-46.270 Z-0.150 F100.000
G1 X30.358 Y-46.270 Z-0.150 F100.000
G1 X30.358 Y-46.795 Z-0.150 F100.000
G1 X30.583 Y-46.795 Z-0.150 F100.000
G0 Z1.000
G0 Z1.000
G0 X30.583 Y-46.795
G0 X32.863 Y-47.576
G0 X32.863 Y-47.576 Z0.500
G1 X32.863 Y-47.576 Z-0.150 F100.000
G1 X32.863 Y-48.101 Z-0.150 F100.000
G1 X33.089 Y-48.101 Z-0.150 F100.000
G1 X33.089 Y-47.576 Z-0.150 F100.000
G1 X32.863 Y-47.576 Z-0.150 F100.000
G0 Z1.000
G0 Z1.000
G0 X32.863 Y-47.576
G0 X33.989
G0 X33.989 Z0.500
G1 X33.989 Y-47.576 Z-0.150 F100.000
G1 X33.989 Y-48.101 Z-0.150 F100.000
G1 X34.214 Y-48.101 Z-0.150 F100.000
G1 X34.214 Y-47.576 Z-0.150 F100.000
G1 X33.989 Y-47.576 Z-0.150 F100.000
G0 Z1.000
G0 Z1.000
G0 X33.989 Y-47.576
G0 X35.564
G0 X35.564 Z0.500
G1 X35.564 Y-47.576 Z-0.150 F100.000
G1 X35.564 Y-48.101 Z-0.150 F100.000
G1 X35.789 Y-48.101 Z-0.150 F100.000
G1 X35.789 Y-47.576 Z-0.150 F100.000
G1 X35.564 Y-47.576 Z-0.150 F100.000
G0 Z1.000
G0 Z1.000
G0 X35.564 Y-47.576
G0 X36.689
G0 X36.689 Z0.500
G1 X36.689 Y-47.576 Z-0.150 F100.000
G1 X36.689 Y-48.101 Z-0.150 F100.000
G1 X36.914 Y-48.101 Z-0.150 F100.000
G1 X36.914 Y-47.576 Z-0.150 F100.000
G1 X36.689 Y-47.576 Z-0.150 F100.000
G0 Z1.000
G0 Z1.000
G0 X36.689 Y-47.576
G0 Y-46.653
G0 Y-46.653 Z0.500
G1 X36.689 Y-46.653 Z-0.150 F100.000
G1 X36.936 Y-46.653 Z-0.150 F100.000
G1 X36.936 Y-46.427 Z-0.150 F100.000
G1 X36.412 Y-46.427 Z-0.150 F100.000
G1 X36.412 Y-46.653 Z-0.150 F100.000
G1 X36.689 Y-46.653 Z-0.150 F100.000
G0 Z1.000
G0 Z1.000
G0 X36.689 Y-46.653
G0 Y-45.528
G0 Y-45.528 Z0.500
G1 X36.689 Y-45.528 Z-0.150 F100.000
G1 X36.936 Y-45.528 Z-0.150 F100.000
G1 X36.936 Y-45.303 Z-0.150 F100.000
G1 X36.412 Y-45.303 Z-0.150 F100.000
G1 X36.412 Y-45.528 Z-0.150 F100.000
G1 X36.689 Y-45.528 Z-0.150 F100.000
G0 Z1.000
G0 Z1.000
G0 X36.689 Y-45.528
G0 X35.527
G0 X35.527 Z0.500
G1 X35.527 Y-45.528 Z-0.150 F100.000
G1 X35.527 Y-45.438 Z-0.150 F100.000
G1 X34.777 Y-45.438 Z-0.150 F100.000
G1 X34.777 Y-46.638 Z-0.150 F100.000
G1 X35.527 Y-46.638 Z-0.150 F100.000
G1 X35.527 Y-45.528 Z-0.150 F100.000
G0 Z1.000
G0 Z1.000
G0 X35.527 Y-45.528
G0 X33.351
G0 X33.351 Z0.500
G1 X33.351 Y-45.528 Z-0.150 F100.000
G1 X33.351 Y-45.438 Z-0.150 F100.000
G1 X32.601 Y-45.438 Z-0.150 F100.000
G1 X32.601 Y-46.638 Z-0.150 F100.000
G1 X33.351 Y-46.638 Z-0.150 F100.000
G1 X33.351 Y-45.528 Z-0.150 F100.000
G0 Z1.000
G0 Z1.000
G0 X33.351 Y-45.528
G0 X35.095 Y-49.271
G0 X35.095 Y-49.271 Z0.500
G1 X35.095 Y-49.271 Z-0.150 F100.000
G1 X35.095 Y-49.570 Z-0.150 F100.000
G1 X36.108 Y-49.570 Z-0.150 F100.000
G1 X36.108 Y-49.271 Z-0.150 F100.000
G1 X35.095 Y-49.271 Z-0.150 F100.000
G0 Z1.000
G0 Z1.000
G0 X35.095 Y-49.271
G0 Y-50.224
G0 Y-50.224 Z0.500
G1 X35.095 Y-50.224 Z-0.150 F100.000
G1 X35.095 Y-50.523 Z-0.150 F100.000
G1 X36.108 Y-50.523 Z-0.150 F100.000
G1 X36.108 Y-50.224 Z-0.150 F100.000
G1 X35.095 Y-50.224 Z-0.150 F100.000
G0 Z1.000
G0 Z1.000
G0 X35.095 Y-50.224
G0 Y-51.184
G0 Y-51.184 Z0.500
G1 X35.095 Y-51.184 Z-0.150 F100.000
G1 X35.095 Y-51.483 Z-0.150 F100.000
G1 X36.108 Y-51.483 Z-0.150 F100.000
G1 X36.108 Y-51.184 Z-0.150 F100.000
G1 X35.095 Y-51.184 Z-0.150 F100.000
G0 Z1.000
G0 Z1.000
G0 X35.095 Y-51.184
G0 Y-52.136
G0 Y-52.136 Z0.500
G1 X35.095 Y-52.136 Z-0.150 F100.000
G1 X35.095 Y-52.435 Z-0.150 F100.000
G1 X36.108 Y-52.435 Z-0.150 F100.000
G1 X36.108 Y-52.136 Z-0.150 F100.000
G1 X35.095 Y-52.136 Z-0.150 F100.000
G0 Z1.000
G0 Z1.000
G0 X35.095 Y-52.136
G0 X36.992 Y-50.770
G0 X36.992 Y-50.770 Z0.500
G1 X36.992 Y-50.770 Z-0.150 F100.000
G1 X37.480 Y-50.770 Z-0.150 F100.000
G1 X37.480 Y-50.320 Z-0.150 F100.000
G1 X36.992 Y-50.320 Z-0.150 F100.000
G1 X36.992 Y-50.770 Z-0.150 F100.000
G0 Z1.000
G0 Z1.000
G0 X36.992 Y-50.770
G0 Y-49.646
G0 Y-49.646 Z0.500
G1 X36.992 Y-49.646 Z-0.150 F100.000
G1 X37.480 Y-49.646 Z-0.150 F100.000
G1 X37.480 Y-49.195 Z-0.150 F100.000
G1 X36.992 Y-49.195 Z-0.150 F100.000
G1 X36.992 Y-49.646 Z-0.150 F100.000
G0 Z1.000
G0 Z1.000
G0 X36.992 Y-49.646
G0 X39.398 Y-47.876
G0 X39.398 Y-47.876 Z0.500
G1 X39.398 Y-47.876 Z-0.150 F100.000
G1 X40.444 Y-47.876 Z-0.150 F100.000
G1 X40.444 Y-45.971 Z-0.150 F100.000
G1 X39.398 Y-45.971 Z-0.150 F100.000
G1 X39.398 Y-47.876 Z-0.150 F100.000
G0 Z1.000
G0 Z1.000
G0 X39.398 Y-47.876
G0 Y-44.201
G0 Y-44.201 Z0.500
G1 X39.398 Y-44.201 Z-0.150 F100.000
G1 X40.444 Y-44.201 Z-0.150 F100.000
G1 X40.444 Y-42.295 Z-0.150 F100.000
G1 X39.398 Y-42.295 Z-0.150 F100.000
G1 X39.398 Y-44.201 Z-0.150 F100.000
G0 Z1.000
G0 Z1.000
G0 X39.398 Y-44.201
G0 X39.809 Y-41.185
G0 X39.809 Y-41.185 Z0.500
G1 X39.809 Y-41.185 Z-0.150 F100.000
G1 X40.034 Y-41.185 Z-0.150 F100.000
G1 X40.034 Y-40.660 Z-0.150 F100.000
G1 X39.809 Y-40.660 Z-0.150 F100.000
G1 X39.809 Y-41.185 Z-0.150 F100.000
G0 Z1.000
G0 Z1.000
G0 X39.809 Y-41.185
G0 X40.933
G0 X40.933 Z0.500
G1 X40.933 Y-41.185 Z-0.150 F100.000
G1 X41.158 Y-41.185 Z-0.150 F100.000
G1 X41.158 Y-40.660 Z-0.150 F100.000
G1 X40.933 Y-40.660 Z-0.150 F100.000
G1 X40.933 Y-41.185 Z-0.150 F100.000
G0 Z1.000
G0 Z1.000
G0 X40.933 Y-41.185
G0 X40.851 Y-37.699
G0 X40.851 Y-37.699 Z0.500
G1 X40.851 Y-37.699 Z-0.150 F100.000
G1 X40.851 Y-37.323 Z-0.150 F100.000
G1 X39.883 Y-37.323 Z-0.150 F100.000
G1 X39.883 Y-37.699 Z-0.150 F100.000
G1 X40.851 Y-37.699 Z-0.150 F100.000
G0 Z1.000
G0 Z1.000
G0 X40.851 Y-37.699
G0 Y-35.793
G0 Y-35.793 Z0.500
G1 X40.851 Y-35.793 Z-0.150 F100.000
G1 X40.851 Y-35.417 Z-0.150 F100.000
G1 X39.883 Y-35.417 Z-0.150 F100.000
G1 X39.883 Y-35.793 Z-0.150 F100.000
G1 X40.851 Y-35.793 Z-0.150 F100.000
G0 Z1.000
G0 Z1.000
G0 X40.851 Y-35.793
G0 Y-33.889
G0 Y-33.889 Z0.500
G1 X40.851 Y-33.889 Z-0.150 F100.000
G1 X40.851 Y-33.513 Z-0.150 F100.000
G1 X39.883 Y-33.513 Z-0.150 F100.000
G1 X39.883 Y-33.889 Z-0.150 F100.000
G1 X40.851 Y-33.889 Z-0.150 F100.000
G0 Z1.000
G0 Z1.000
G0 X40.851 Y-33.889
G0 Y-31.984
G0 Y-31.984 Z0.500
G1 X40.851 Y-31.984 Z-0.150 F100.000
G1 X40.851 Y-31.608 Z-0.150 F100.000
G1 X39.883 Y-31.608 Z-0.150 F100.000
G1 X39.883 Y-31.984 Z-0.150 F100.000
G1 X40.851 Y-31.984 Z-0.150 F100.000
G0 Z1.000
G0 Z1.000
G0 X40.851 Y-31.984
G0 X45.246
G0 X45.246 Z0.500
G1 X45.246 Y-31.984 Z-0.150 F100.000
G1 X46.214 Y-31.984 Z-0.150 F100.000
G1 X46.214 Y-31.608 Z-0.150 F100.000
G1 X45.246 Y-31.608 Z-0.150 F100.000
G1 X45.246 Y-31.984 Z-0.150 F100.000
G0 Z1.000
G0 Z1.000
G0 X45.246 Y-31.984
G0 Y-33.513
G0 Y-33.513 Z0.500
G1 X45.246 Y-33.513 Z-0.150 F100.000
G1 X45.246 Y-33.889 Z-0.150 F100.000
G1 X46.214 Y-33.889 Z-0.150 F100.000
G1 X46.214 Y-33.513 Z-0.150 F100.000
G1 X45.246 Y-33.513 Z-0.150 F100.000
G0 Z1.000
G0 Z1.000
G0 X45.246 Y-33.513
G0 Y-35.417
G0 Y-35.417 Z0.500
G1 X45.246 Y-35.417 Z-0.150 F100.000
G1 X45.246 Y-35.793 Z-0.150 F100.000
G1 X46.214 Y-35.793 Z-0.150 F100.000
G1 X46.214 Y-35.417 Z-0.150 F100.000
G1 X45.246 Y-35.417 Z-0.150 F100.000
G0 Z1.000
G0 Z1.000
G0 X45.246 Y-35.417
G0 Y-37.323
G0 Y-37.323 Z0.500
G1 X45.246 Y-37.323 Z-0.150 F100.000
G1 X45.246 Y-37.699 Z-0.150 F100.000
G1 X46.214 Y-37.699 Z-0.150 F100.000
G1 X46.214 Y-37.323 Z-0.150 F100.000
G1 X45.246 Y-37.323 Z-0.150 F100.000
G0 Z1.000
G0 Z1.000
G0 X45.246 Y-37.323
G0 X47.376
G0 X47.376 Z0.500
G1 X47.376 Y-37.323 Z-0.150 F100.000
G1 X47.376 Y-38.329 Z-0.150 F100.000
G1 X47.676 Y-38.329 Z-0.150 F100.000
G1 X47.676 Y-37.129 Z-0.150 F100.000
G1 X47.376 Y-37.129 Z-0.150 F100.000
G1 X47.376 Y-37.323 Z-0.150 F100.000
G0 Z1.000
G0 Z1.000
G0 X47.376 Y-37.323
G0 X47.609 Y-39.281
G0 X47.609 Y-39.281 Z0.500
G1 X47.609 Y-39.281 Z-0.150 F100.000
G1 X47.609 Y-39.881 Z-0.150 F100.000
G1 X48.134 Y-39.881 Z-0.150 F100.000
G1 X48.134 Y-39.281 Z-0.150 F100.000
G1 X47.609 Y-39.281 Z-0.150 F100.000
G0 Z1.000
G0 Z1.000
G0 X47.609 Y-39.281
G0 X45.992 Y-39.529
G0 X45.992 Y-39.529 Z0.500
G1 X45.992 Y-39.529 Z-0.150 F100.000
G1 X45.467 Y-39.529 Z-0.150 F100.000
G1 X45.467 Y-39.678 Z-0.150 F100.000
G1 X45.992 Y-39.678 Z-0.150 F100.000
G1 X45.992 Y-39.529 Z-0.150 F100.000
G0 Z1.000
G0 Z1.000
G0 X45.992 Y-39.529
G0 X44.343 Y-39.528
G0 X44.343 Y-39.528 Z0.500
G1 X44.343 Y-39.528 Z-0.150 F100.000
G1 X43.818 Y-39.528 Z-0.150 F100.000
G1 X43.818 Y-39.677 Z-0.150 F100.000
G1 X44.343 Y-39.677 Z-0.150 F100.000
G1 X44.343 Y-39.528 Z-0.150 F100.000
G0 Z1.000
G0 Z1.000
G0 X44.343 Y-39.528
G0 X44.380 Y-40.987
G0 X44.380 Y-40.987 Z0.500
G1 X44.380 Y-40.987 Z-0.150 F100.000
G1 X44.380 Y-41.475 Z-0.150 F100.000
G1 X44.831 Y-41.475 Z-0.150 F100.000
G1 X44.831 Y-40.987 Z-0.150 F100.000
G1 X44.380 Y-40.987 Z-0.150 F100.000
G0 Z1.000
G0 Z1.000
G0 X44.380 Y-40.987
G0 X45.505
G0 X45.505 Z0.500
G1 X45.505 Y-40.987 Z-0.150 F100.000
G1 X45.505 Y-41.475 Z-0.150 F100.000
G1 X45.955 Y-41.475 Z-0.150 F100.000
G1 X45.955 Y-40.987 Z-0.150 F100.000
G1 X45.505 Y-40.987 Z-0.150 F100.000
G0 Z1.000
G0 Z1.000
G0 X45.505 Y-40.987
G0 X46.897
G0 X46.897 Z0.500
G1 X46.897 Y-40.987 Z-0.150 F100.000
G1 X46.897 Y-41.530 Z-0.150 F100.000
G1 X47.422 Y-41.530 Z-0.150 F100.000
G1 X47.422 Y-40.930 Z-0.150 F100.000
G1 X46.897 Y-40.930 Z-0.150 F100.000
G1 X46.897 Y-40.987 Z-0.150 F100.000
G0 Z1.000
G0 Z1.000
G0 X46.897 Y-40.987
G0 X48.321
G0 X48.321 Z0.500
G1 X48.321 Y-40.987 Z-0.150 F100.000
G1 X48.321 Y-41.530 Z-0.150 F100.000
G1 X48.846 Y-41.530 Z-0.150 F100.000
G1 X48.846 Y-40.930 Z-0.150 F100.000
G1 X48.321 Y-40.930 Z-0.150 F100.000
G1 X48.321 Y-40.987 Z-0.150 F100.000
G0 Z1.000
G0 Z1.000
G0 X48.321 Y-40.987
G0 X49.765 Y-41.006
G0 X49.765 Y-41.006 Z0.500
G1 X49.765 Y-41.006 Z-0.150 F100.000
G1 X49.765 Y-41.456 Z-0.150 F100.000
G1 X50.252 Y-41.456 Z-0.150 F100.000
G1 X50.252 Y-41.006 Z-0.150 F100.000
G1 X49.765 Y-41.006 Z-0.150 F100.000
G0 Z1.000
G0 Z1.000
G0 X49.765 Y-41.006
G0 Y-40.332
G0 Y-40.332 Z0.500
G1 X49.765 Y-40.332 Z-0.150 F100.000
G1 X50.252 Y-40.332 Z-0.150 F100.000
G1 X50.252 Y-39.881 Z-0.150 F100.000
G1 X49.765 Y-39.881 Z-0.150 F100.000
G1 X49.765 Y-40.332 Z-0.150 F100.000
G0 Z1.000
G0 Z1.000
G0 X49.765 Y-40.332
G0 X49.551 Y-38.329
G0 X49.551 Y-38.329 Z0.500
G1 X49.551 Y-38.329 Z-0.150 F100.000
G1 X49.551 Y-37.129 Z-0.150 F100.000
G1 X49.251 Y-37.129 Z-0.150 F100.000
G1 X49.251 Y-38.329 Z-0.150 F100.000
G1 X49.551 Y-38.329 Z-0.150 F100.000
G0 Z1.000
G0 Z1.000
G0 X49.551 Y-38.329
G0 X49.552 Y-33.603
G0 X49.552 Y-33.603 Z0.500
G1 X49.552 Y-33.603 Z-0.150 F100.000
G1 X49.552 Y-32.404 Z-0.150 F100.000
G1 X49.252 Y-32.404 Z-0.150 F100.000
G1 X49.252 Y-33.603 Z-0.150 F100.000
G1 X49.552 Y-33.603 Z-0.150 F100.000
G0 Z1.000
G0 Z1.000
G0 X49.552 Y-33.603
G0 X47.676
G0 X47.676 Z0.500
G1 X47.676 Y-33.603 Z-0.150 F100.000
G1 X47.676 Y-32.404 Z-0.150 F100.000
G1 X47.376 Y-32.404 Z-0.150 F100.000
G1 X47.376 Y-33.603 Z-0.150 F100.000
G1 X47.676 Y-33.603 Z-0.150 F100.000
G0 Z1.000
G0 Z1.000
G0 X47.676 Y-33.603
G0 X53.140 Y-33.772
G0 X53.140 Y-33.772 Z0.500
G1 X53.140 Y-33.772 Z-0.150 F100.000
G1 X53.140 Y-35.609 Z-0.150 F100.000
G1 X54.303 Y-35.609 Z-0.150 F100.000
G1 X54.303 Y-33.772 Z-0.150 F100.000
G1 X53.140 Y-33.772 Z-0.150 F100.000
G0 Z1.000
G0 Z1.000
G0 X53.140 Y-33.772
G0 Y-36.997
G0 Y-36.997 Z0.500
G1 X53.140 Y-36.997 Z-0.150 F100.000
G1 X53.140 Y-38.834 Z-0.150 F100.000
G1 X54.303 Y-38.834 Z-0.150 F100.000
G1 X54.303 Y-36.997 Z-0.150 F100.000
G1 X53.140 Y-36.997 Z-0.150 F100.000
G0 Z1.000
G0 Z1.000
G0 X53.140 Y-36.997
G0 X53.196 Y-40.199
G0 X53.196 Y-40.199 Z0.500
G1 X53.196 Y-40.199 Z-0.150 F100.000
G1 X53.196 Y-42.262 Z-0.150 F100.000
G1 X54.246 Y-42.262 Z-0.150 F100.000
G1 X54.246 Y-40.199 Z-0.150 F100.000
G1 X53.196 Y-40.199 Z-0.150 F100.000
G0 Z1.000
G0 Z1.000
G0 X53.196 Y-40.199
G0 Y-44.099
G0 Y-44.099 Z0.500
G1 X53.196 Y-44.099 Z-0.150 F100.000
G1 X53.196 Y-46.162 Z-0.150 F100.000
G1 X54.246 Y-46.162 Z-0.150 F100.000
G1 X54.246 Y-44.099 Z-0.150 F100.000
G1 X53.196 Y-44.099 Z-0.150 F100.000
G0 Z1.000
G0 Z1.000
G0 X53.196 Y-44.099
G0 X52.682 Y-47.546
G0 X52.682 Y-47.546 Z0.500
G1 X52.682 Y-47.546 Z-0.150 F100.000
G1 X51.670 Y-47.546 Z-0.150 F100.000
G1 X51.670 Y-47.845 Z-0.150 F100.000
G1 X52.682 Y-47.845 Z-0.150 F100.000
G1 X52.682 Y-47.546 Z-0.150 F100.000
G0 Z1.000
G0 Z1.000
G0 X52.682 Y-47.546
G0 Y-48.499
G0 Y-48.499 Z0.500
G1 X52.682 Y-48.499 Z-0.150 F100.000
G1 X51.670 Y-48.499 Z-0.150 F100.000
G1 X51.670 Y-48.798 Z-0.150 F100.000
G1 X52.682 Y-48.798 Z-0.150 F100.000
G1 X52.682 Y-48.499 Z-0.150 F100.000
G0 Z1.000
G0 Z1.000
G0 X52.682 Y-48.499
G0 Y-49.459
G0 Y-49.459 Z0.500
G1 X52.682 Y-49.459 Z-0.150 F100.000
G1 X51.670 Y-49.459 Z-0.150 F100.000
G1 X51.670 Y-49.758 Z-0.150 F100.000
G1 X52.682 Y-49.758 Z-0.150 F100.000
G1 X52.682 Y-49.459 Z-0.150 F100.000
G0 Z1.000
G0 Z1.000
G0 X52.682 Y-49.459
G0 Y-50.411
G0 Y-50.411 Z0.500
G1 X52.682 Y-50.411 Z-0.150 F100.000
G1 X51.670 Y-50.411 Z-0.150 F100.000
G1 X51.670 Y-50.710 Z-0.150 F100.000
G1 X52.682 Y-50.710 Z-0.150 F100.000
G1 X52.682 Y-50.411 Z-0.150 F100.000
G0 Z1.000
G0 Z1.000
G0 X52.682 Y-50.411
G0 Y-51.983
G0 Y-51.983 Z0.500
G1 X52.682 Y-51.983 Z-0.150 F100.000
G1 X52.049 Y-51.983 Z-0.150 F100.000
G1 X52.049 Y-52.837 Z-0.150 F100.000
G1 X53.249 Y-52.837 Z-0.150 F100.000
G1 X53.249 Y-51.983 Z-0.150 F100.000
G1 X52.682 Y-51.983 Z-0.150 F100.000
G0 Z1.000
G0 Z1.000
G0 X52.682 Y-51.983
G0 X50.984
G0 X50.984 Z0.500
G1 X50.984 Y-51.983 Z-0.150 F100.000
G1 X49.784 Y-51.983 Z-0.150 F100.000
G1 X49.784 Y-52.837 Z-0.150 F100.000
G1 X50.984 Y-52.837 Z-0.150 F100.000
G1 X50.984 Y-51.983 Z-0.150 F100.000
G0 Z1.000
G0 Z1.000
G0 X50.984 Y-51.983
G0 X48.779 Y-52.009
G0 X48.779 Y-52.009 Z0.500
G1 X48.779 Y-52.009 Z-0.150 F100.000
G1 X47.579 Y-52.009 Z-0.150 F100.000
G1 X47.579 Y-52.759 Z-0.150 F100.000
G1 X48.779 Y-52.759 Z-0.150 F100.000
G1 X48.779 Y-52.009 Z-0.150 F100.000
G0 Z1.000
G0 Z1.000
G0 X48.779 Y-52.009
G0 X46.641 Y-52.008
G0 X46.641 Y-52.008 Z0.500
G1 X46.641 Y-52.008 Z-0.150 F100.000
G1 X45.441 Y-52.008 Z-0.150 F100.000
G1 X45.441 Y-52.758 Z-0.150 F100.000
G1 X46.641 Y-52.758 Z-0.150 F100.000
G1 X46.641 Y-52.008 Z-0.150 F100.000
G0 Z1.000
G0 Z1.000
G0 X46.641 Y-52.008
G0 X44.466
G0 X44.466 Z0.500
G1 X44.466 Y-52.008 Z-0.150 F100.000
G1 X44.466 Y-51.944 Z-0.150 F100.000
G1 X43.266 Y-51.944 Z-0.150 F100.000
G1 X43.266 Y-52.799 Z-0.150 F100.000
G1 X44.466 Y-52.799 Z-0.150 F100.000
G1 X44.466 Y-52.008 Z-0.150 F100.000
G0 Z1.000
G0 Z1.000
G0 X44.466 Y-52.008
G0 X44.391 Y-53.939
G0 X44.391 Y-53.939 Z0.500
G1 X44.391 Y-53.939 Z-0.150 F100.000
G1 X43.341 Y-53.939 Z-0.150 F100.000
G1 X43.341 Y-56.002 Z-0.150 F100.000
G1 X44.391 Y-56.002 Z-0.150 F100.000
G1 X44.391 Y-53.939 Z-0.150 F100.000
G0 Z1.000
G0 Z1.000
G0 X44.391 Y-53.939
G0 Y-57.839
G0 Y-57.839 Z0.500
G1 X44.391 Y-57.839 Z-0.150 F100.000
G1 X43.341 Y-57.839 Z-0.150 F100.000
G1 X43.341 Y-59.901 Z-0.150 F100.000
G1 X44.391 Y-59.901 Z-0.150 F100.000
G1 X44.391 Y-57.839 Z-0.150 F100.000
G0 Z1.000
G0 Z1.000
G0 X44.391 Y-57.839
G0 X41.031 Y-60.281
G0 X41.031 Y-60.281 Z0.500
G1 X41.031 Y-60.281 Z-0.150 F100.000
G1 X40.506 Y-60.281 Z-0.150 F100.000
G1 X40.506 Y-60.506 Z-0.150 F100.000
G1 X41.031 Y-60.506 Z-0.150 F100.000
G1 X41.031 Y-60.281 Z-0.150 F100.000
G0 Z1.000
G0 Z1.000
G0 X41.031 Y-60.281
G0 Y-61.405
G0 Y-61.405 Z0.500
G1 X41.031 Y-61.405 Z-0.150 F100.000
G1 X40.506 Y-61.405 Z-0.150 F100.000
G1 X40.506 Y-61.631 Z-0.150 F100.000
G1 X41.031 Y-61.631 Z-0.150 F100.000
G1 X41.031 Y-61.405 Z-0.150 F100.000
G0 Z1.000
G0 Z1.000
G0 X41.031 Y-61.405
G0 X39.553
G0 X39.553 Z0.500
G1 X39.553 Y-61.405 Z-0.150 F100.000
G1 X39.553 Y-61.031 Z-0.150 F100.000
G1 X39.178 Y-61.031 Z-0.150 F100.000
G1 X39.178 Y-61.556 Z-0.150 F100.000
G1 X39.553 Y-61.556 Z-0.150 F100.000
G1 X39.553 Y-61.405 Z-0.150 F100.000
G0 Z1.000
G0 Z1.000
G0 X39.553 Y-61.405
G0 X38.579
G0 X38.579 Z0.500
G1 X38.579 Y-61.405 Z-0.150 F100.000
G1 X38.579 Y-61.031 Z-0.150 F100.000
G1 X38.204 Y-61.031 Z-0.150 F100.000
G1 X38.204 Y-61.556 Z-0.150 F100.000
G1 X38.579 Y-61.556 Z-0.150 F100.000
G1 X38.579 Y-61.405 Z-0.150 F100.000
G0 Z1.000
G0 Z1.000
G0 X38.579 Y-61.405
G0 X38.571 Y-62.508
G0 X38.571 Y-62.508 Z0.500
G1 X38.571 Y-62.508 Z-0.150 F100.000
G1 X38.047 Y-62.508 Z-0.150 F100.000
G1 X38.047 Y-62.733 Z-0.150 F100.000
G1 X38.571 Y-62.733 Z-0.150 F100.000
G1 X38.571 Y-62.508 Z-0.150 F100.000
G0 Z1.000
G0 Z1.000
G0 X38.571 Y-62.508
G0 Y-63.633
G0 Y-63.633 Z0.500
G1 X38.571 Y-63.633 Z-0.150 F100.000
G1 X38.047 Y-63.633 Z-0.150 F100.000
G1 X38.047 Y-63.858 Z-0.150 F100.000
G1 X38.571 Y-63.858 Z-0.150 F100.000
G1 X38.571 Y-63.633 Z-0.150 F100.000
G0 Z1.000
G0 Z1.000
G0 X38.571 Y-63.633
G0 X39.667 Y-63.547
G0 X39.667 Y-63.547 Z0.500
G1 X39.667 Y-63.547 Z-0.150 F100.000
G1 X39.967 Y-63.547 Z-0.150 F100.000
G1 X39.967 Y-62.534 Z-0.150 F100.000
G1 X39.667 Y-62.534 Z-0.150 F100.000
G1 X39.667 Y-63.547 Z-0.150 F100.000
G0 Z1.000
G0 Z1.000
G0 X39.667 Y-63.547
G0 X40.619
G0 X40.619 Z0.500
G1 X40.619 Y-63.547 Z-0.150 F100.000
G1 X40.919 Y-63.547 Z-0.150 F100.000
G1 X40.919 Y-62.534 Z-0.150 F100.000
G1 X40.619 Y-62.534 Z-0.150 F100.000
G1 X40.619 Y-63.547 Z-0.150 F100.000
G0 Z1.000
G0 Z1.000
G0 X40.619 Y-63.547
G0 X41.579
G0 X41.579 Z0.500
G1 X41.579 Y-63.547 Z-0.150 F100.000
G1 X41.879 Y-63.547 Z-0.150 F100.000
G1 X41.879 Y-62.534 Z-0.150 F100.000
G1 X41.579 Y-62.534 Z-0.150 F100.000
G1 X41.579 Y-63.547 Z-0.150 F100.000
G0 Z1.000
G0 Z1.000
G0 X41.579 Y-63.547
G0 X42.532
G0 X42.532 Z0.500
G1 X42.532 Y-63.547 Z-0.150 F100.000
G1 X42.832 Y-63.547 Z-0.150 F100.000
G1 X42.832 Y-62.534 Z-0.150 F100.000
G1 X42.532 Y-62.534 Z-0.150 F100.000
G1 X42.532 Y-63.547 Z-0.150 F100.000
G0 Z1.000
G0 Z1.000
G0 X42.532 Y-63.547
G0 X43.915 Y-63.267
G0 X43.915 Y-63.267 Z0.500
G1 X43.915 Y-63.267 Z-0.150 F100.000
G1 X44.403 Y-63.267 Z-0.150 F100.000
G1 X44.403 Y-62.816 Z-0.150 F100.000
G1 X43.915 Y-62.816 Z-0.150 F100.000
G1 X43.915 Y-63.267 Z-0.150 F100.000
G0 Z1.000
G0 Z1.000
G0 X43.915 Y-63.267
G0 Y-63.941
G0 Y-63.941 Z0.500
G1 X43.915 Y-63.941 Z-0.150 F100.000
G1 X43.915 Y-64.391 Z-0.150 F100.000
G1 X44.403 Y-64.391 Z-0.150 F100.000
G1 X44.403 Y-63.941 Z-0.150 F100.000
G1 X43.915 Y-63.941 Z-0.150 F100.000
G0 Z1.000
G0 Z1.000
G0 X43.915 Y-63.941
G0 X42.831 Y-66.539
G0 X42.831 Y-66.539 Z0.500
G1 X42.831 Y-66.539 Z-0.150 F100.000
G1 X42.531 Y-66.539 Z-0.150 F100.000
G1 X42.531 Y-67.552 Z-0.150 F100.000
G1 X42.831 Y-67.552 Z-0.150 F100.000
G1 X42.831 Y-66.539 Z-0.150 F100.000
G0 Z1.000
G0 Z1.000
G0 X42.831 Y-66.539
G0 X41.879
G0 X41.879 Z0.500
G1 X41.879 Y-66.539 Z-0.150 F100.000
G1 X41.579 Y-66.539 Z-0.150 F100.000
G1 X41.579 Y-67.552 Z-0.150 F100.000
G1 X41.879 Y-67.552 Z-0.150 F100.000
G1 X41.879 Y-66.539 Z-0.150 F100.000
G0 Z1.000
G0 Z1.000
G0 X41.879 Y-66.539
G0 X40.919
G0 X40.919 Z0.500
G1 X40.919 Y-66.539 Z-0.150 F100.000
G1 X40.619 Y-66.539 Z-0.150 F100.000
G1 X40.619 Y-67.552 Z-0.150 F100.000
G1 X40.919 Y-67.552 Z-0.150 F100.000
G1 X40.919 Y-66.539 Z-0.150 F100.000
G0 Z1.000
G0 Z1.000
G0 X40.919 Y-66.539
G0 X39.966
G0 X39.966 Z0.500
G1 X39.966 Y-66.539 Z-0.150 F100.000
G1 X39.666 Y-66.539 Z-0.150 F100.000
G1 X39.666 Y-67.552 Z-0.150 F100.000
G1 X39.966 Y-67.552 Z-0.150 F100.000
G1 X39.966 Y-66.539 Z-0.150 F100.000
G0 Z1.000
G0 Z1.000
G0 X39.966 Y-66.539
G0 X39.067 Y-60.131
G0 X39.067 Y-60.131 Z0.500
G1 X39.067 Y-60.131 Z-0.150 F100.000
G1 X39.067 Y-59.606 Z-0.150 F100.000
G1 X38.692 Y-59.606 Z-0.150 F100.000
G1 X38.692 Y-60.131 Z-0.150 F100.000
G1 X39.067 Y-60.131 Z-0.150 F100.000
G0 Z1.000
G0 Z1.000
G0 X39.067 Y-60.131
G0 X47.061 Y-65.290
G0 X47.061 Y-65.290 Z0.500
G1 X47.061 Y-65.290 Z-0.150 F100.000
G1 X47.061 Y-66.416 Z-0.150 F100.000
G1 X47.736 Y-66.416 Z-0.150 F100.000
G1 X47.736 Y-65.290 Z-0.150 F100.000
G1 X47.061 Y-65.290 Z-0.150 F100.000
G0 Z1.000
G0 Z1.000
G0 X47.061 Y-65.290
G0 X49.462
G0 X49.462 Z0.500
G1 X49.462 Y-65.290 Z-0.150 F100.000
G1 X49.462 Y-66.416 Z-0.150 F100.000
G1 X50.137 Y-66.416 Z-0.150 F100.000
G1 X50.137 Y-65.290 Z-0.150 F100.000
G1 X49.462 Y-65.290 Z-0.150 F100.000
G0 Z1.000
G0 Z1.000
G0 X49.462 Y-65.290
G0 Y-63.903
G0 Y-63.903 Z0.500
G1 X49.462 Y-63.903 Z-0.150 F100.000
G1 X50.204 Y-63.903 Z-0.150 F100.000
G1 X50.204 Y-62.178 Z-0.150 F100.000
G1 X49.154 Y-62.178 Z-0.150 F100.000
G1 X49.154 Y-63.903 Z-0.150 F100.000
G1 X49.462 Y-63.903 Z-0.150 F100.000
G0 Z1.000
G0 Z1.000
G0 X49.462 Y-63.903
G0 Y-61.428
G0 Y-61.428 Z0.500
G1 X49.462 Y-61.428 Z-0.150 F100.000
G1 X50.204 Y-61.428 Z-0.150 F100.000
G1 X50.204 Y-59.703 Z-0.150 F100.000
G1 X49.154 Y-59.703 Z-0.150 F100.000
G1 X49.154 Y-61.428 Z-0.150 F100.000
G1 X49.462 Y-61.428 Z-0.150 F100.000
G0 Z1.000
G0 Z1.000
G0 X49.462 Y-61.428
G0 X52.293 Y-61.691
G0 X52.293 Y-61.691 Z0.500
G1 X52.293 Y-61.691 Z-0.150 F100.000
G1 X52.293 Y-62.141 Z-0.150 F100.000
G1 X52.780 Y-62.141 Z-0.150 F100.000
G1 X52.780 Y-61.691 Z-0.150 F100.000
G1 X52.293 Y-61.691 Z-0.150 F100.000
G0 Z1.000
G0 Z1.000
G0 X52.293 Y-61.691
G0 Y-62.815
G0 Y-62.815 Z0.500
G1 X52.293 Y-62.815 Z-0.150 F100.000
G1 X52.293 Y-63.266 Z-0.150 F100.000
G1 X52.780 Y-63.266 Z-0.150 F100.000
G1 X52.780 Y-62.815 Z-0.150 F100.000
G1 X52.293 Y-62.815 Z-0.150 F100.000
G0 Z1.000
G0 Z1.000
G0 X52.293 Y-62.815
G0 X53.691
G0 X53.691 Z0.500
G1 X53.691 Y-62.815 Z-0.150 F100.000
G1 X53.691 Y-63.341 Z-0.150 F100.000
G1 X54.216 Y-63.341 Z-0.150 F100.000
G1 X54.216 Y-62.741 Z-0.150 F100.000
G1 X53.691 Y-62.741 Z-0.150 F100.000
G1 X53.691 Y-62.815 Z-0.150 F100.000
G0 Z1.000
G0 Z1.000
G0 X53.691 Y-62.815
G0 X55.116
G0 X55.116 Z0.500
G1 X55.116 Y-62.815 Z-0.150 F100.000
G1 X55.116 Y-63.341 Z-0.150 F100.000
G1 X55.641 Y-63.341 Z-0.150 F100.000
G1 X55.641 Y-62.741 Z-0.150 F100.000
G1 X55.116 Y-62.741 Z-0.150 F100.000
G1 X55.116 Y-62.815 Z-0.150 F100.000
G0 Z1.000
G0 Z1.000
G0 X55.116 Y-62.815
G0 X54.929 Y-61.691
G0 X54.929 Y-61.691 Z0.500
G1 X54.929 Y-61.691 Z-0.150 F100.000
G1 X54.929 Y-61.090 Z-0.150 F100.000
G1 X54.404 Y-61.090 Z-0.150 F100.000
G1 X54.404 Y-61.691 Z-0.150 F100.000
G1 X54.929 Y-61.691 Z-0.150 F100.000
G0 Z1.000
G0 Z1.000
G0 X54.929 Y-61.691
G0 X56.567 Y-61.691
G0 X56.567 Y-61.691 Z0.500
G1 X56.567 Y-61.691 Z-0.150 F100.000
G1 X56.567 Y-62.141 Z-0.150 F100.000
G1 X57.055 Y-62.141 Z-0.150 F100.000
G1 X57.055 Y-61.691 Z-0.150 F100.000
G1 X56.567 Y-61.691 Z-0.150 F100.000
G0 Z1.000
G0 Z1.000
G0 X56.567 Y-61.691
G0 Y-62.815
G0 Y-62.815 Z0.500
G1 X56.567 Y-62.815 Z-0.150 F100.000
G1 X56.567 Y-63.266 Z-0.150 F100.000
G1 X57.055 Y-63.266 Z-0.150 F100.000
G1 X57.055 Y-62.815 Z-0.150 F100.000
G1 X56.567 Y-62.815 Z-0.150 F100.000
G0 Z1.000
G0 Z1.000
G0 X56.567 Y-62.815
G0 X58.124 Y-62.253
G0 X58.124 Y-62.253 Z0.500
G1 X58.124 Y-62.253 Z-0.150 F100.000
G1 X59.849 Y-62.253 Z-0.150 F100.000
G1 X59.849 Y-61.203 Z-0.150 F100.000
G1 X58.124 Y-61.203 Z-0.150 F100.000
G1 X58.124 Y-62.253 Z-0.150 F100.000
G0 Z1.000
G0 Z1.000
G0 X58.124 Y-62.253
G0 X60.599
G0 X60.599 Z0.500
G1 X60.599 Y-62.253 Z-0.150 F100.000
G1 X62.324 Y-62.253 Z-0.150 F100.000
G1 X62.324 Y-61.203 Z-0.150 F100.000
G1 X60.599 Y-61.203 Z-0.150 F100.000
G1 X60.599 Y-62.253 Z-0.150 F100.000
G0 Z1.000
G0 Z1.000
G0 X60.599 Y-62.253
G0 X57.373 Y-59.557
G0 X57.373 Y-59.557 Z0.500
G1 X57.373 Y-59.557 Z-0.150 F100.000
G1 X57.373 Y-57.495 Z-0.150 F100.000
G1 X56.324 Y-57.495 Z-0.150 F100.000
G1 X56.324 Y-59.557 Z-0.150 F100.000
G1 X57.373 Y-59.557 Z-0.150 F100.000
G0 Z1.000
G0 Z1.000
G0 X57.373 Y-59.557
G0 X53.249 Y-58.956
G0 X53.249 Y-58.956 Z0.500
G1 X53.249 Y-58.956 Z-0.150 F100.000
G1 X53.249 Y-58.101 Z-0.150 F100.000
G1 X52.049 Y-58.101 Z-0.150 F100.000
G1 X52.049 Y-58.956 Z-0.150 F100.000
G1 X53.249 Y-58.956 Z-0.150 F100.000
G0 Z1.000
G0 Z1.000
G0 X53.249 Y-58.956
G0 Y-56.805
G0 Y-56.805 Z0.500
G1 X53.249 Y-56.805 Z-0.150 F100.000
G1 X53.249 Y-55.950 Z-0.150 F100.000
G1 X52.049 Y-55.950 Z-0.150 F100.000
G1 X52.049 Y-56.805 Z-0.150 F100.000
G1 X53.249 Y-56.805 Z-0.150 F100.000
G0 Z1.000
G0 Z1.000
G0 X53.249 Y-56.805
G0 Y-54.988
G0 Y-54.988 Z0.500
G1 X53.249 Y-54.988 Z-0.150 F100.000
G1 X53.249 Y-54.133 Z-0.150 F100.000
G1 X52.049 Y-54.133 Z-0.150 F100.000
G1 X52.049 Y-54.988 Z-0.150 F100.000
G1 X53.249 Y-54.988 Z-0.150 F100.000
G0 Z1.000
G0 Z1.000
G0 X53.249 Y-54.988
G0 X50.983
G0 X50.983 Z0.500
G1 X50.983 Y-54.988 Z-0.150 F100.000
G1 X50.983 Y-54.133 Z-0.150 F100.000
G1 X49.783 Y-54.133 Z-0.150 F100.000
G1 X49.783 Y-54.988 Z-0.150 F100.000
G1 X50.983 Y-54.988 Z-0.150 F100.000
G0 Z1.000
G0 Z1.000
G0 X50.983 Y-54.988
G0 X48.779 Y-54.933
G0 X48.779 Y-54.933 Z0.500
G1 X48.779 Y-54.933 Z-0.150 F100.000
G1 X48.779 Y-54.183 Z-0.150 F100.000
G1 X47.579 Y-54.183 Z-0.150 F100.000
G1 X47.579 Y-54.933 Z-0.150 F100.000
G1 X48.779 Y-54.933 Z-0.150 F100.000
G0 Z1.000
G0 Z1.000
G0 X48.779 Y-54.933
G0 X48.677 Y-50.710
G0 X48.677 Y-50.710 Z0.500
G1 X48.677 Y-50.710 Z-0.150 F100.000
G1 X48.677 Y-50.411 Z-0.150 F100.000
G1 X47.665 Y-50.411 Z-0.150 F100.000
G1 X47.665 Y-50.710 Z-0.150 F100.000
G1 X48.677 Y-50.710 Z-0.150 F100.000
G0 Z1.000
G0 Z1.000
G0 X48.677 Y-50.710
G0 Y-49.757
G0 Y-49.757 Z0.500
G1 X48.677 Y-49.757 Z-0.150 F100.000
G1 X48.677 Y-49.458 Z-0.150 F100.000
G1 X47.665 Y-49.458 Z-0.150 F100.000
G1 X47.665 Y-49.757 Z-0.150 F100.000
G1 X48.677 Y-49.757 Z-0.150 F100.000
G0 Z1.000
G0 Z1.000
G0 X48.677 Y-49.757
G0 Y-48.797
G0 Y-48.797 Z0.500
G1 X48.677 Y-48.797 Z-0.150 F100.000
G1 X48.677 Y-48.498 Z-0.150 F100.000
G1 X47.665 Y-48.498 Z-0.150 F100.000
G1 X47.665 Y-48.797 Z-0.150 F100.000
G1 X48.677 Y-48.797 Z-0.150 F100.000
G0 Z1.000
G0 Z1.000
G0 X48.677 Y-48.797
G0 Y-47.845
G0 Y-47.845 Z0.500
G1 X48.677 Y-47.845 Z-0.150 F100.000
G1 X48.677 Y-47.546 Z-0.150 F100.000
G1 X47.665 Y-47.546 Z-0.150 F100.000
G1 X47.665 Y-47.845 Z-0.150 F100.000
G1 X48.677 Y-47.845 Z-0.150 F100.000
G0 Z1.000
G0 Z1.000
G0 X48.677 Y-47.845
G0 X46.416
G0 X46.416 Z0.500
G1 X46.416 Y-47.845 Z-0.150 F100.000
G1 X46.416 Y-47.628 Z-0.150 F100.000
G1 X45.666 Y-47.628 Z-0.150 F100.000
G1 X45.666 Y-48.828 Z-0.150 F100.000
G1 X46.416 Y-48.828 Z-0.150 F100.000
G1 X46.416 Y-47.845 Z-0.150 F100.000
G0 Z1.000
G0 Z1.000
G0 X46.416 Y-47.845
G0 X44.241
G0 X44.241 Z0.500
G1 X44.241 Y-47.845 Z-0.150 F100.000
G1 X44.241 Y-47.628 Z-0.150 F100.000
G1 X43.491 Y-47.628 Z-0.150 F100.000
G1 X43.491 Y-48.828 Z-0.150 F100.000
G1 X44.241 Y-48.828 Z-0.150 F100.000
G1 X44.241 Y-47.845 Z-0.150 F100.000
G0 Z1.000
G0 Z1.000
G0 X44.241 Y-47.845
G0 Y-46.653
G0 Y-46.653 Z0.500
G1 X44.241 Y-46.653 Z-0.150 F100.000
G1 X44.298 Y-46.653 Z-0.150 F100.000
G1 X44.298 Y-45.453 Z-0.150 F100.000
G1 X43.444 Y-45.453 Z-0.150 F100.000
G1 X43.444 Y-46.653 Z-0.150 F100.000
G1 X44.241 Y-46.653 Z-0.150 F100.000
G0 Z1.000
G0 Z1.000
G0 X44.241 Y-46.653
G0 X45.594
G0 X45.594 Z0.500
G1 X45.594 Y-46.653 Z-0.150 F100.000
G1 X46.449 Y-46.653 Z-0.150 F100.000
G1 X46.449 Y-45.453 Z-0.150 F100.000
G1 X45.594 Y-45.453 Z-0.150 F100.000
G1 X45.594 Y-46.653 Z-0.150 F100.000
G0 Z1.000
G0 Z1.000
G0 X45.594 Y-46.653
G0 Y-49.833
G0 Y-49.833 Z0.500
G1 X45.594 Y-49.833 Z-0.150 F100.000
G1 X45.441 Y-49.833 Z-0.150 F100.000
G1 X45.441 Y-50.583 Z-0.150 F100.000
G1 X46.641 Y-50.583 Z-0.150 F100.000
G1 X46.641 Y-49.833 Z-0.150 F100.000
G1 X45.594 Y-49.833 Z-0.150 F100.000
G0 Z1.000
G0 Z1.000
G0 X45.594 Y-49.833
G0 X44.467
G0 X44.467 Z0.500
G1 X44.467 Y-49.833 Z-0.150 F100.000
G1 X44.467 Y-49.793 Z-0.150 F100.000
G1 X43.267 Y-49.793 Z-0.150 F100.000
G1 X43.267 Y-50.647 Z-0.150 F100.000
G1 X44.467 Y-50.647 Z-0.150 F100.000
G1 X44.467 Y-49.833 Z-0.150 F100.000
G0 Z1.000
G0 Z1.000
G0 X44.467 Y-49.833
G0 X53.624 Y-50.185
G0 X53.624 Y-50.185 Z0.500
G1 X53.624 Y-50.185 Z-0.150 F100.000
G1 X53.624 Y-50.936 Z-0.150 F100.000
G1 X54.824 Y-50.936 Z-0.150 F100.000
G1 X54.824 Y-50.185 Z-0.150 F100.000
G1 X53.624 Y-50.185 Z-0.150 F100.000
G0 Z1.000
G0 Z1.000
G0 X53.624 Y-50.185
G0 Y-48.761
G0 Y-48.761 Z0.500
G1 X53.624 Y-48.761 Z-0.150 F100.000
G1 X54.824 Y-48.761 Z-0.150 F100.000
G1 X54.824 Y-48.011 Z-0.150 F100.000
G1 X53.624 Y-48.011 Z-0.150 F100.000
G1 X53.624 Y-48.761 Z-0.150 F100.000
G0 Z1.000
G0 Z1.000
G0 X53.624 Y-48.761
G0 X56.324 Y-53.594
G0 X56.324 Y-53.594 Z0.500
G1 X56.324 Y-53.594 Z-0.150 F100.000
G1 X56.324 Y-55.657 Z-0.150 F100.000
G1 X57.373 Y-55.657 Z-0.150 F100.000
G1 X57.373 Y-53.594 Z-0.150 F100.000
G1 X56.324 Y-53.594 Z-0.150 F100.000
G0 Z1.000
G0 Z1.000
G0 X56.324 Y-53.594
G0 X60.655 Y-51.026
G0 X60.655 Y-51.026 Z0.500
G1 X60.655 Y-51.026 Z-0.150 F100.000
G1 X61.143 Y-51.026 Z-0.150 F100.000
G1 X61.143 Y-50.575 Z-0.150 F100.000
G1 X60.655 Y-50.575 Z-0.150 F100.000
G1 X60.655 Y-51.026 Z-0.150 F100.000
G0 Z1.000
G0 Z1.000
G0 X60.655 Y-51.026
G0 Y-49.901
G0 Y-49.901 Z0.500
G1 X60.655 Y-49.901 Z-0.150 F100.000
G1 X61.143 Y-49.901 Z-0.150 F100.000
G1 X61.143 Y-49.451 Z-0.150 F100.000
G1 X60.655 Y-49.451 Z-0.150 F100.000
G1 X60.655 Y-49.901 Z-0.150 F100.000
G0 Z1.000
G0 Z1.000
G0 X60.655 Y-49.901
G0 X62.241
G0 X62.241 Z0.500
G1 X62.241 Y-49.901 Z-0.150 F100.000
G1 X62.241 Y-50.182 Z-0.150 F100.000
G1 X62.541 Y-50.182 Z-0.150 F100.000
G1 X62.541 Y-49.169 Z-0.150 F100.000
G1 X62.241 Y-49.169 Z-0.150 F100.000
G1 X62.241 Y-49.901 Z-0.150 F100.000
G0 Z1.000
G0 Z1.000
G0 X62.241 Y-49.901
G0 X63.194
G0 X63.194 Z0.500
G1 X63.194 Y-49.901 Z-0.150 F100.000
G1 X63.194 Y-50.182 Z-0.150 F100.000
G1 X63.494 Y-50.182 Z-0.150 F100.000
G1 X63.494 Y-49.169 Z-0.150 F100.000
G1 X63.194 Y-49.169 Z-0.150 F100.000
G1 X63.194 Y-49.901 Z-0.150 F100.000
G0 Z1.000
G0 Z1.000
G0 X63.194 Y-49.901
G0 X64.155
G0 X64.155 Z0.500
G1 X64.155 Y-49.901 Z-0.150 F100.000
G1 X64.155 Y-50.182 Z-0.150 F100.000
G1 X64.454 Y-50.182 Z-0.150 F100.000
G1 X64.454 Y-49.169 Z-0.150 F100.000
G1 X64.155 Y-49.169 Z-0.150 F100.000
G1 X64.155 Y-49.901 Z-0.150 F100.000
G0 Z1.000
G0 Z1.000
G0 X64.155 Y-49.901
G0 X65.106
G0 X65.106 Z0.500
G1 X65.106 Y-49.901 Z-0.150 F100.000
G1 X65.106 Y-50.182 Z-0.150 F100.000
G1 X65.406 Y-50.182 Z-0.150 F100.000
G1 X65.406 Y-49.169 Z-0.150 F100.000
G1 X65.106 Y-49.169 Z-0.150 F100.000
G1 X65.106 Y-49.901 Z-0.150 F100.000
G0 Z1.000
G0 Z1.000
G0 X65.106 Y-49.901
G0 X64.499 Y-48.266
G0 X64.499 Y-48.266 Z0.500
G1 X64.499 Y-48.266 Z-0.150 F100.000
G1 X64.499 Y-47.741 Z-0.150 F100.000
G1 X64.273 Y-47.741 Z-0.150 F100.000
G1 X64.273 Y-48.266 Z-0.150 F100.000
G1 X64.499 Y-48.266 Z-0.150 F100.000
G0 Z1.000
G0 Z1.000
G0 X64.499 Y-48.266
G0 X63.374
G0 X63.374 Z0.500
G1 X63.374 Y-48.266 Z-0.150 F100.000
G1 X63.374 Y-47.741 Z-0.150 F100.000
G1 X63.149 Y-47.741 Z-0.150 F100.000
G1 X63.149 Y-48.266 Z-0.150 F100.000
G1 X63.374 Y-48.266 Z-0.150 F100.000
G0 Z1.000
G0 Z1.000
G0 X63.374 Y-48.266
G0 Y-46.864
G0 Y-46.864 Z0.500
G1 X63.374 Y-46.864 Z-0.150 F100.000
G1 X63.524 Y-46.864 Z-0.150 F100.000
G1 X63.524 Y-46.638 Z-0.150 F100.000
G1 X62.999 Y-46.638 Z-0.150 F100.000
G1 X62.999 Y-46.864 Z-0.150 F100.000
G1 X63.374 Y-46.864 Z-0.150 F100.000
G0 Z1.000
G0 Z1.000
G0 X63.374 Y-46.864
G0 Y-45.738
G0 Y-45.738 Z0.500
G1 X63.374 Y-45.738 Z-0.150 F100.000
G1 X63.524 Y-45.738 Z-0.150 F100.000
G1 X63.524 Y-45.513 Z-0.150 F100.000
G1 X62.999 Y-45.513 Z-0.150 F100.000
G1 X62.999 Y-45.738 Z-0.150 F100.000
G1 X63.374 Y-45.738 Z-0.150 F100.000
G0 Z1.000
G0 Z1.000
G0 X63.374 Y-45.738
G0 Y-44.568
G0 Y-44.568 Z0.500
G1 X63.374 Y-44.568 Z-0.150 F100.000
G1 X63.524 Y-44.568 Z-0.150 F100.000
G1 X63.524 Y-44.343 Z-0.150 F100.000
G1 X62.999 Y-44.343 Z-0.150 F100.000
G1 X62.999 Y-44.568 Z-0.150 F100.000
G1 X63.374 Y-44.568 Z-0.150 F100.000
G0 Z1.000
G0 Z1.000
G0 X63.374 Y-44.568
G0 Y-43.444
G0 Y-43.444 Z0.500
G1 X63.374 Y-43.444 Z-0.150 F100.000
G1 X63.524 Y-43.444 Z-0.150 F100.000
G1 X63.524 Y-43.218 Z-0.150 F100.000
G1 X62.999 Y-43.218 Z-0.150 F100.000
G1 X62.999 Y-43.444 Z-0.150 F100.000
G1 X63.374 Y-43.444 Z-0.150 F100.000
G0 Z1.000
G0 Z1.000
G0 X63.374 Y-43.444
G0 X64.397
G0 X64.397 Z0.500
G1 X64.397 Y-43.444 Z-0.150 F100.000
G1 X64.397 Y-43.481 Z-0.150 F100.000
G1 X64.885 Y-43.481 Z-0.150 F100.000
G1 X64.885 Y-43.030 Z-0.150 F100.000
G1 X64.397 Y-43.030 Z-0.150 F100.000
G1 X64.397 Y-43.444 Z-0.150 F100.000
G0 Z1.000
G0 Z1.000
G0 X64.397 Y-43.444
G0 Y-44.155
G0 Y-44.155 Z0.500
G1 X64.397 Y-44.155 Z-0.150 F100.000
G1 X64.397 Y-44.605 Z-0.150 F100.000
G1 X64.885 Y-44.605 Z-0.150 F100.000
G1 X64.885 Y-44.155 Z-0.150 F100.000
G1 X64.397 Y-44.155 Z-0.150 F100.000
G0 Z1.000
G0 Z1.000
G0 X64.397 Y-44.155
G0 Y-45.513
G0 Y-45.513 Z0.500
G1 X64.397 Y-45.513 Z-0.150 F100.000
G1 X64.379 Y-45.513 Z-0.150 F100.000
G1 X64.379 Y-45.738 Z-0.150 F100.000
G1 X64.904 Y-45.738 Z-0.150 F100.000
G1 X64.904 Y-45.513 Z-0.150 F100.000
G1 X64.397 Y-45.513 Z-0.150 F100.000
G0 Z1.000
G0 Z1.000
G0 X64.397 Y-45.513
G0 Y-46.638
G0 Y-46.638 Z0.500
G1 X64.397 Y-46.638 Z-0.150 F100.000
G1 X64.379 Y-46.638 Z-0.150 F100.000
G1 X64.379 Y-46.864 Z-0.150 F100.000
G1 X64.904 Y-46.864 Z-0.150 F100.000
G1 X64.904 Y-46.638 Z-0.150 F100.000
G1 X64.397 Y-46.638 Z-0.150 F100.000
G0 Z1.000
G0 Z1.000
G0 X64.397 Y-46.638
G0 X60.514
G0 X60.514 Z0.500
G1 X60.514 Y-46.638 Z-0.150 F100.000
G1 X60.514 Y-46.053 Z-0.150 F100.000
G1 X59.469 Y-46.053 Z-0.150 F100.000
G1 X59.469 Y-47.959 Z-0.150 F100.000
G1 X60.514 Y-47.959 Z-0.150 F100.000
G1 X60.514 Y-46.638 Z-0.150 F100.000
G0 Z1.000
G0 Z1.000
G0 X60.514 Y-46.638
G0 Y-44.284
G0 Y-44.284 Z0.500
G1 X60.514 Y-44.284 Z-0.150 F100.000
G1 X60.514 Y-42.378 Z-0.150 F100.000
G1 X59.469 Y-42.378 Z-0.150 F100.000
G1 X59.469 Y-44.284 Z-0.150 F100.000
G1 X60.514 Y-44.284 Z-0.150 F100.000
G0 Z1.000
G0 Z1.000
G0 X60.514 Y-44.284
G0 X60.524 Y-41.261
G0 X60.524 Y-41.261 Z0.500
G1 X60.524 Y-41.261 Z-0.150 F100.000
G1 X60.524 Y-40.736 Z-0.150 F100.000
G1 X60.298 Y-40.736 Z-0.150 F100.000
G1 X60.298 Y-41.261 Z-0.150 F100.000
G1 X60.524 Y-41.261 Z-0.150 F100.000
G0 Z1.000
G0 Z1.000
G0 X60.524 Y-41.261
G0 Y-39.753
G0 Y-39.753 Z0.500
G1 X60.524 Y-39.753 Z-0.150 F100.000
G1 X60.779 Y-39.753 Z-0.150 F100.000
G1 X60.779 Y-39.528 Z-0.150 F100.000
G1 X60.254 Y-39.528 Z-0.150 F100.000
G1 X60.254 Y-39.753 Z-0.150 F100.000
G1 X60.524 Y-39.753 Z-0.150 F100.000
G0 Z1.000
G0 Z1.000
G0 X60.524 Y-39.753
G0 X59.402
G0 X59.402 Z0.500
G1 X59.402 Y-39.753 Z-0.150 F100.000
G1 X59.402 Y-39.415 Z-0.150 F100.000
G1 X58.915 Y-39.415 Z-0.150 F100.000
G1 X58.915 Y-39.865 Z-0.150 F100.000
G1 X59.402 Y-39.865 Z-0.150 F100.000
G1 X59.402 Y-39.753 Z-0.150 F100.000
G0 Z1.000
G0 Z1.000
G0 X59.402 Y-39.753
G0 Y-38.741
G0 Y-38.741 Z0.500
G1 X59.402 Y-38.741 Z-0.150 F100.000
G1 X59.402 Y-38.291 Z-0.150 F100.000
G1 X58.915 Y-38.291 Z-0.150 F100.000
G1 X58.915 Y-38.741 Z-0.150 F100.000
G1 X59.402 Y-38.741 Z-0.150 F100.000
G0 Z1.000
G0 Z1.000
G0 X59.402 Y-38.741
G0 X60.254 Y-38.628
G0 X60.254 Y-38.628 Z0.500
G1 X60.254 Y-38.628 Z-0.150 F100.000
G1 X60.779 Y-38.628 Z-0.150 F100.000
G1 X60.779 Y-38.403 Z-0.150 F100.000
G1 X60.254 Y-38.403 Z-0.150 F100.000
G1 X60.254 Y-38.628 Z-0.150 F100.000
G0 Z1.000
G0 Z1.000
G0 X60.254 Y-38.628
G0 X61.630
G0 X61.630 Z0.500
G1 X61.630 Y-38.628 Z-0.150 F100.000
G1 X61.630 Y-38.741 Z-0.150 F100.000
G1 X62.117 Y-38.741 Z-0.150 F100.000
G1 X62.117 Y-38.291 Z-0.150 F100.000
G1 X61.630 Y-38.291 Z-0.150 F100.000
G1 X61.630 Y-38.628 Z-0.150 F100.000
G0 Z1.000
G0 Z1.000
G0 X61.630 Y-38.628
G0 Y-39.415
G0 Y-39.415 Z0.500
G1 X61.630 Y-39.415 Z-0.150 F100.000
G1 X61.630 Y-39.865 Z-0.150 F100.000
G1 X62.117 Y-39.865 Z-0.150 F100.000
G1 X62.117 Y-39.415 Z-0.150 F100.000
G1 X61.630 Y-39.415 Z-0.150 F100.000
G0 Z1.000
G0 Z1.000
G0 X61.630 Y-39.415
G0 Y-40.736
G0 Y-40.736 Z0.500
G1 X61.630 Y-40.736 Z-0.150 F100.000
G1 X61.424 Y-40.736 Z-0.150 F100.000
G1 X61.424 Y-41.261 Z-0.150 F100.000
G1 X61.649 Y-41.261 Z-0.150 F100.000
G1 X61.649 Y-40.736 Z-0.150 F100.000
G1 X61.630 Y-40.736 Z-0.150 F100.000
G0 Z1.000
G0 Z1.000
G0 X61.630 Y-40.736
G0 X62.950 Y-39.865
G0 X62.950 Y-39.865 Z0.500
G1 X62.950 Y-39.865 Z-0.150 F100.000
G1 X63.438 Y-39.865 Z-0.150 F100.000
G1 X63.438 Y-39.415 Z-0.150 F100.000
G1 X62.950 Y-39.415 Z-0.150 F100.000
G1 X62.950 Y-39.865 Z-0.150 F100.000
G0 Z1.000
G0 Z1.000
G0 X62.950 Y-39.865
G0 X62.949 Y-38.741
G0 X62.949 Y-38.741 Z0.500
G1 X62.949 Y-38.741 Z-0.150 F100.000
G1 X63.437 Y-38.741 Z-0.150 F100.000
G1 X63.437 Y-38.291 Z-0.150 F100.000
G1 X62.949 Y-38.291 Z-0.150 F100.000
G1 X62.949 Y-38.741 Z-0.150 F100.000
G0 Z1.000
G0 Z1.000
G0 X62.949 Y-38.741
G0 X62.541 Y-53.174
G0 X62.541 Y-53.174 Z0.500
G1 X62.541 Y-53.174 Z-0.150 F100.000
G1 X62.241 Y-53.174 Z-0.150 F100.000
G1 X62.241 Y-54.187 Z-0.150 F100.000
G1 X62.541 Y-54.187 Z-0.150 F100.000
G1 X62.541 Y-53.174 Z-0.150 F100.000
G0 Z1.000
G0 Z1.000
G0 X62.541 Y-53.174
G0 X63.193
G0 X63.193 Z0.500
G1 X63.193 Y-53.174 Z-0.150 F100.000
G1 X63.193 Y-54.187 Z-0.150 F100.000
G1 X63.493 Y-54.187 Z-0.150 F100.000
G1 X63.493 Y-53.174 Z-0.150 F100.000
G1 X63.193 Y-53.174 Z-0.150 F100.000
G0 Z1.000
G0 Z1.000
G0 X63.193 Y-53.174
G0 X64.154
G0 X64.154 Z0.500
G1 X64.154 Y-53.174 Z-0.150 F100.000
G1 X64.154 Y-54.187 Z-0.150 F100.000
G1 X64.453 Y-54.187 Z-0.150 F100.000
G1 X64.453 Y-53.174 Z-0.150 F100.000
G1 X64.154 Y-53.174 Z-0.150 F100.000
G0 Z1.000
G0 Z1.000
G0 X64.154 Y-53.174
G0 X65.106
G0 X65.106 Z0.500
G1 X65.106 Y-53.174 Z-0.150 F100.000
G1 X65.106 Y-54.187 Z-0.150 F100.000
G1 X65.406 Y-54.187 Z-0.150 F100.000
G1 X65.406 Y-53.174 Z-0.150 F100.000
G1 X65.106 Y-53.174 Z-0.150 F100.000
G0 Z1.000
G0 Z1.000
G0 X65.106 Y-53.174
G0 X64.357 Y-55.065
G0 X64.357 Y-55.065 Z0.500
G1 X64.357 Y-55.065 Z-0.150 F100.000
G1 X63.907 Y-55.065 Z-0.150 F100.000
G1 X63.907 Y-55.552 Z-0.150 F100.000
G1 X64.357 Y-55.552 Z-0.150 F100.000
G1 X64.357 Y-55.065 Z-0.150 F100.000
G0 Z1.000
G0 Z1.000
G0 X64.357 Y-55.065
G0 X65.031
G0 X65.031 Z0.500
G1 X65.031 Y-55.065 Z-0.150 F100.000
G1 X65.031 Y-55.552 Z-0.150 F100.000
G1 X65.481 Y-55.552 Z-0.150 F100.000
G1 X65.481 Y-55.065 Z-0.150 F100.000
G1 X65.031 Y-55.065 Z-0.150 F100.000
G0 Z1.000
G0 Z1.000
G0 X65.031 Y-55.065
G0 X77.215 Y-66.751
G0 X77.215 Y-66.751 Z0.500
G1 X77.215 Y-66.751 Z-0.150 F100.000
G3 X78.767 Y-68.271 Z-0.150 I0.784 J-0.752 K0.000 F100.000
G3 X77.230 Y-66.735 Z-0.150 I-0.768 J0.768 K0.000 F100.000
G3 X77.215 Y-66.751 Z-0.150 I0.768 J-0.768 K0.000 F100.000
G0 Z1.000
G0 Z1.000
G0 X77.215 Y-66.751
G0 X77.982 Y-16.089
G0 X77.982 Y-16.089 Z0.500
G1 X77.982 Y-16.089 Z-0.150 F100.000
G3 X78.767 Y-15.771 Z-0.150 I0.016 J1.086 K0.000 F100.000
G3 X78.767 Y-14.235 Z-0.150 I-0.768 J0.768 K0.000 F100.000
G3 X77.230 Y-14.235 Z-0.150 I-0.768 J-0.768 K0.000 F100.000
G3 X77.982 Y-16.089 Z-0.150 I0.768 J-0.768 K0.000 F100.000
G0 Z1.000
G0 Z1.000
G0 X77.982 Y-16.089
G0 X15.840 Y-66.816
G0 X15.840 Y-66.816 Z0.500
G1 X15.840 Y-66.816 Z-0.150 F100.000
G3 X14.231 Y-66.735 Z-0.150 I-0.841 J-0.687 K0.000 F100.000
G3 X14.231 Y-68.271 Z-0.150 I0.768 J-0.768 K0.000 F100.000
G3 X15.767 Y-68.271 Z-0.150 I0.768 J0.768 K0.000 F100.000
G3 X15.840 Y-66.816 Z-0.150 I-0.768 J0.768 K0.000 F100.000
G0 Z1.000
G0 Z1.000
(Finish operation: Profile)
(Begin operation: Profile001)
(Path: Profile001)
(Profile001)
(Compensated Tool Path. Diameter: 0.15)
G0 Z1.000
G0 X93.052 Y0.050
G0 Z0.500
G1 X93.052 Y0.050 Z-0.150 F100.000
G2 X93.074 Y-0.003 Z-0.150 I-0.053 J-0.053 K0.000 F100.000
G1 X93.074 Y-82.503 Z-0.150 F100.000
G2 X92.999 Y-82.578 Z-0.150 I-0.075 J0.000 K0.000 F100.000
G1 X-0.001 Y-82.578 Z-0.150 F100.000
G2 X-0.076 Y-82.503 Z-0.150 I0.000 J0.075 K0.000 F100.000
G1 X-0.076 Y-0.003 Z-0.150 F100.000
G2 X-0.001 Y0.072 Z-0.150 I0.075 J0.000 K0.000 F100.000
G1 X92.999 Y0.072 Z-0.150 F100.000
G2 X93.052 Y0.050 Z-0.150 I0.000 J-0.075 K0.000 F100.000
G0 Z1.000
G0 Z1.000
(Finish operation: Profile001)
(Begin postamble)
M5
G17 G90
M2
