(Exported by FreeCAD)
(Post Processor: grbl_post)
(Output Time:2023-02-05 22:01:55.062050)
(Begin preamble)
G17 G90
G21
(Begin operation: G54)
(Path: G54)
G54
G0 Z5.000
(Finish operation: G54)
(Begin operation: ballend-015mm001)
(Path: ballend-015mm001)
(ballend-015mm001)
(Begin toolchange)
( M6 T2 )
M3 S10000
(Finish operation: ballend-015mm001)
(Begin operation: Profile)
(Path: Profile)
(Profile)
(Compensated Tool Path. Diameter: 0.15)
G0 Z1.000
G0 X15.769 Y-14.233
G0 Z0.500
G1 X15.769 Y-14.233 Z-0.150 F100.000
G3 X14.233 Y-14.233 Z-0.150 I-0.768 J-0.768 K0.000 F100.000
G3 X15.769 Y-15.769 Z-0.150 I0.768 J-0.768 K0.000 F100.000
G3 X15.769 Y-14.233 Z-0.150 I-0.768 J0.768 K0.000 F100.000
G0 Z1.000
G0 Z1.000
G0 X15.769 Y-14.233
G0 X26.671 Y-41.131
G0 X26.671 Y-41.131 Z0.500
G1 X26.671 Y-41.131 Z-0.150 F100.000
G1 X26.671 Y-42.856 Z-0.150 F100.000
G1 X27.721 Y-42.856 Z-0.150 F100.000
G1 X27.721 Y-41.131 Z-0.150 F100.000
G1 X26.671 Y-41.131 Z-0.150 F100.000
G0 Z1.000
G0 Z1.000
G0 X26.671 Y-41.131
G0 Y-43.606
G0 Y-43.606 Z0.500
G1 X26.671 Y-43.606 Z-0.150 F100.000
G1 X26.671 Y-45.331 Z-0.150 F100.000
G1 X27.721 Y-45.331 Z-0.150 F100.000
G1 X27.721 Y-43.606 Z-0.150 F100.000
G1 X26.671 Y-43.606 Z-0.150 F100.000
G0 Z1.000
G0 Z1.000
G0 X26.671 Y-43.606
G0 X26.986 Y-46.418
G0 X26.986 Y-46.418 Z0.500
G1 X26.986 Y-46.418 Z-0.150 F100.000
G1 X26.986 Y-46.943 Z-0.150 F100.000
G1 X27.211 Y-46.943 Z-0.150 F100.000
G1 X27.211 Y-46.418 Z-0.150 F100.000
G1 X26.986 Y-46.418 Z-0.150 F100.000
G0 Z1.000
G0 Z1.000
G0 X26.986 Y-46.418
G0 X28.110
G0 X28.110 Z0.500
G1 X28.110 Y-46.418 Z-0.150 F100.000
G1 X28.110 Y-46.943 Z-0.150 F100.000
G1 X28.335 Y-46.943 Z-0.150 F100.000
G1 X28.335 Y-46.418 Z-0.150 F100.000
G1 X28.110 Y-46.418 Z-0.150 F100.000
G0 Z1.000
G0 Z1.000
G0 X28.110 Y-46.418
G0 X29.236
G0 X29.236 Z0.500
G1 X29.236 Y-46.418 Z-0.150 F100.000
G1 X29.236 Y-46.943 Z-0.150 F100.000
G1 X29.461 Y-46.943 Z-0.150 F100.000
G1 X29.461 Y-46.418 Z-0.150 F100.000
G1 X29.236 Y-46.418 Z-0.150 F100.000
G0 Z1.000
G0 Z1.000
G0 X29.236 Y-46.418
G0 Y-47.844
G0 Y-47.844 Z0.500
G1 X29.236 Y-47.844 Z-0.150 F100.000
G1 X28.149 Y-47.844 Z-0.150 F100.000
G1 X28.149 Y-48.594 Z-0.150 F100.000
G1 X29.348 Y-48.594 Z-0.150 F100.000
G1 X29.348 Y-47.844 Z-0.150 F100.000
G1 X29.236 Y-47.844 Z-0.150 F100.000
G0 Z1.000
G0 Z1.000
G0 X29.236 Y-47.844
G0 X27.211 Y-48.106
G0 X27.211 Y-48.106 Z0.500
G1 X27.211 Y-48.106 Z-0.150 F100.000
G1 X26.686 Y-48.106 Z-0.150 F100.000
G1 X26.686 Y-48.331 Z-0.150 F100.000
G1 X27.211 Y-48.331 Z-0.150 F100.000
G1 X27.211 Y-48.106 Z-0.150 F100.000
G0 Z1.000
G0 Z1.000
G0 X27.211 Y-48.106
G0 Y-49.231
G0 Y-49.231 Z0.500
G1 X27.211 Y-49.231 Z-0.150 F100.000
G1 X26.686 Y-49.231 Z-0.150 F100.000
G1 X26.686 Y-49.456 Z-0.150 F100.000
G1 X27.211 Y-49.456 Z-0.150 F100.000
G1 X27.211 Y-49.231 Z-0.150 F100.000
G0 Z1.000
G0 Z1.000
G0 X27.211 Y-49.231
G0 X28.149 Y-50.018
G0 X28.149 Y-50.018 Z0.500
G1 X28.149 Y-50.018 Z-0.150 F100.000
G1 X28.149 Y-50.768 Z-0.150 F100.000
G1 X29.348 Y-50.768 Z-0.150 F100.000
G1 X29.348 Y-50.018 Z-0.150 F100.000
G1 X28.149 Y-50.018 Z-0.150 F100.000
G0 Z1.000
G0 Z1.000
G0 X28.149 Y-50.018
G0 X28.636 Y-51.669
G0 X28.636 Y-51.669 Z0.500
G1 X28.636 Y-51.669 Z-0.150 F100.000
G1 X28.636 Y-52.194 Z-0.150 F100.000
G1 X28.862 Y-52.194 Z-0.150 F100.000
G1 X28.862 Y-51.669 Z-0.150 F100.000
G1 X28.636 Y-51.669 Z-0.150 F100.000
G0 Z1.000
G0 Z1.000
G0 X28.636 Y-51.669
G0 Y-53.094
G0 Y-53.094 Z0.500
G1 X28.636 Y-53.094 Z-0.150 F100.000
G1 X28.636 Y-53.619 Z-0.150 F100.000
G1 X28.862 Y-53.619 Z-0.150 F100.000
G1 X28.862 Y-53.094 Z-0.150 F100.000
G1 X28.636 Y-53.094 Z-0.150 F100.000
G0 Z1.000
G0 Z1.000
G0 X28.636 Y-53.094
G0 X29.761
G0 X29.761 Z0.500
G1 X29.761 Y-53.094 Z-0.150 F100.000
G1 X29.761 Y-53.619 Z-0.150 F100.000
G1 X29.986 Y-53.619 Z-0.150 F100.000
G1 X29.986 Y-53.094 Z-0.150 F100.000
G1 X29.761 Y-53.094 Z-0.150 F100.000
G0 Z1.000
G0 Z1.000
G0 X29.761 Y-53.094
G0 Y-52.194
G0 Y-52.194 Z0.500
G1 X29.761 Y-52.194 Z-0.150 F100.000
G1 X29.986 Y-52.194 Z-0.150 F100.000
G1 X29.986 Y-51.669 Z-0.150 F100.000
G1 X29.761 Y-51.669 Z-0.150 F100.000
G1 X29.761 Y-52.194 Z-0.150 F100.000
G0 Z1.000
G0 Z1.000
G0 X29.761 Y-52.194
G0 X31.092 Y-51.631
G0 X31.092 Y-51.631 Z0.500
G1 X31.092 Y-51.631 Z-0.150 F100.000
G1 X32.105 Y-51.631 Z-0.150 F100.000
G1 X32.105 Y-51.332 Z-0.150 F100.000
G1 X31.092 Y-51.332 Z-0.150 F100.000
G1 X31.092 Y-51.631 Z-0.150 F100.000
G0 Z1.000
G0 Z1.000
G0 X31.092 Y-51.631
G0 Y-52.284
G0 Y-52.284 Z0.500
G1 X31.092 Y-52.284 Z-0.150 F100.000
G1 X31.092 Y-52.583 Z-0.150 F100.000
G1 X32.105 Y-52.583 Z-0.150 F100.000
G1 X32.105 Y-52.284 Z-0.150 F100.000
G1 X31.092 Y-52.284 Z-0.150 F100.000
G0 Z1.000
G0 Z1.000
G0 X31.092 Y-52.284
G0 X31.373 Y-53.682
G0 X31.373 Y-53.682 Z0.500
G1 X31.373 Y-53.682 Z-0.150 F100.000
G1 X31.373 Y-54.170 Z-0.150 F100.000
G1 X31.824 Y-54.170 Z-0.150 F100.000
G1 X31.824 Y-53.682 Z-0.150 F100.000
G1 X31.373 Y-53.682 Z-0.150 F100.000
G0 Z1.000
G0 Z1.000
G0 X31.373 Y-53.682
G0 X32.498
G0 X32.498 Z0.500
G1 X32.498 Y-53.682 Z-0.150 F100.000
G1 X32.498 Y-54.170 Z-0.150 F100.000
G1 X32.948 Y-54.170 Z-0.150 F100.000
G1 X32.948 Y-53.682 Z-0.150 F100.000
G1 X32.498 Y-53.682 Z-0.150 F100.000
G0 Z1.000
G0 Z1.000
G0 X32.498 Y-53.682
G0 X32.105 Y-50.671
G0 X32.105 Y-50.671 Z0.500
G1 X32.105 Y-50.671 Z-0.150 F100.000
G1 X32.105 Y-50.372 Z-0.150 F100.000
G1 X31.092 Y-50.372 Z-0.150 F100.000
G1 X31.092 Y-50.671 Z-0.150 F100.000
G1 X32.105 Y-50.671 Z-0.150 F100.000
G0 Z1.000
G0 Z1.000
G0 X32.105 Y-50.671
G0 Y-49.718
G0 Y-49.718 Z0.500
G1 X32.105 Y-49.718 Z-0.150 F100.000
G1 X32.105 Y-49.419 Z-0.150 F100.000
G1 X31.092 Y-49.419 Z-0.150 F100.000
G1 X31.092 Y-49.718 Z-0.150 F100.000
G1 X32.105 Y-49.718 Z-0.150 F100.000
G0 Z1.000
G0 Z1.000
G0 X32.105 Y-49.718
G0 X31.824 Y-48.276
G0 X31.824 Y-48.276 Z0.500
G1 X31.824 Y-48.276 Z-0.150 F100.000
G1 X31.824 Y-47.788 Z-0.150 F100.000
G1 X31.373 Y-47.788 Z-0.150 F100.000
G1 X31.373 Y-48.276 Z-0.150 F100.000
G1 X31.824 Y-48.276 Z-0.150 F100.000
G0 Z1.000
G0 Z1.000
G0 X31.824 Y-48.276
G0 X30.699
G0 X30.699 Z0.500
G1 X30.699 Y-48.276 Z-0.150 F100.000
G1 X30.699 Y-47.788 Z-0.150 F100.000
G1 X30.249 Y-47.788 Z-0.150 F100.000
G1 X30.249 Y-48.276 Z-0.150 F100.000
G1 X30.699 Y-48.276 Z-0.150 F100.000
G0 Z1.000
G0 Z1.000
G0 X30.699 Y-48.276
G0 X30.585 Y-46.943
G0 X30.585 Y-46.943 Z0.500
G1 X30.585 Y-46.943 Z-0.150 F100.000
G1 X30.585 Y-46.418 Z-0.150 F100.000
G1 X30.360 Y-46.418 Z-0.150 F100.000
G1 X30.360 Y-46.943 Z-0.150 F100.000
G1 X30.585 Y-46.943 Z-0.150 F100.000
G0 Z1.000
G0 Z1.000
G0 X30.585 Y-46.943
G0 X32.866 Y-47.724
G0 X32.866 Y-47.724 Z0.500
G1 X32.866 Y-47.724 Z-0.150 F100.000
G1 X32.866 Y-48.249 Z-0.150 F100.000
G1 X33.091 Y-48.249 Z-0.150 F100.000
G1 X33.091 Y-47.724 Z-0.150 F100.000
G1 X32.866 Y-47.724 Z-0.150 F100.000
G0 Z1.000
G0 Z1.000
G0 X32.866 Y-47.724
G0 X33.991
G0 X33.991 Z0.500
G1 X33.991 Y-47.724 Z-0.150 F100.000
G1 X33.991 Y-48.249 Z-0.150 F100.000
G1 X34.216 Y-48.249 Z-0.150 F100.000
G1 X34.216 Y-47.724 Z-0.150 F100.000
G1 X33.991 Y-47.724 Z-0.150 F100.000
G0 Z1.000
G0 Z1.000
G0 X33.991 Y-47.724
G0 X35.566
G0 X35.566 Z0.500
G1 X35.566 Y-47.724 Z-0.150 F100.000
G1 X35.566 Y-48.249 Z-0.150 F100.000
G1 X35.791 Y-48.249 Z-0.150 F100.000
G1 X35.791 Y-47.724 Z-0.150 F100.000
G1 X35.566 Y-47.724 Z-0.150 F100.000
G0 Z1.000
G0 Z1.000
G0 X35.566 Y-47.724
G0 X36.691
G0 X36.691 Z0.500
G1 X36.691 Y-47.724 Z-0.150 F100.000
G1 X36.691 Y-48.249 Z-0.150 F100.000
G1 X36.916 Y-48.249 Z-0.150 F100.000
G1 X36.916 Y-47.724 Z-0.150 F100.000
G1 X36.691 Y-47.724 Z-0.150 F100.000
G0 Z1.000
G0 Z1.000
G0 X36.691 Y-47.724
G0 Y-46.802
G0 Y-46.802 Z0.500
G1 X36.691 Y-46.802 Z-0.150 F100.000
G1 X36.939 Y-46.802 Z-0.150 F100.000
G1 X36.939 Y-46.577 Z-0.150 F100.000
G1 X36.414 Y-46.577 Z-0.150 F100.000
G1 X36.414 Y-46.802 Z-0.150 F100.000
G1 X36.691 Y-46.802 Z-0.150 F100.000
G0 Z1.000
G0 Z1.000
G0 X36.691 Y-46.802
G0 Y-45.676
G0 Y-45.676 Z0.500
G1 X36.691 Y-45.676 Z-0.150 F100.000
G1 X36.939 Y-45.676 Z-0.150 F100.000
G1 X36.939 Y-45.451 Z-0.150 F100.000
G1 X36.414 Y-45.451 Z-0.150 F100.000
G1 X36.414 Y-45.676 Z-0.150 F100.000
G1 X36.691 Y-45.676 Z-0.150 F100.000
G0 Z1.000
G0 Z1.000
G0 X36.691 Y-45.676
G0 X35.529
G0 X35.529 Z0.500
G1 X35.529 Y-45.676 Z-0.150 F100.000
G1 X35.529 Y-45.587 Z-0.150 F100.000
G1 X34.779 Y-45.587 Z-0.150 F100.000
G1 X34.779 Y-46.786 Z-0.150 F100.000
G1 X35.529 Y-46.786 Z-0.150 F100.000
G1 X35.529 Y-45.676 Z-0.150 F100.000
G0 Z1.000
G0 Z1.000
G0 X35.529 Y-45.676
G0 X33.353
G0 X33.353 Z0.500
G1 X33.353 Y-45.676 Z-0.150 F100.000
G1 X33.353 Y-45.587 Z-0.150 F100.000
G1 X32.603 Y-45.587 Z-0.150 F100.000
G1 X32.603 Y-46.786 Z-0.150 F100.000
G1 X33.353 Y-46.786 Z-0.150 F100.000
G1 X33.353 Y-45.676 Z-0.150 F100.000
G0 Z1.000
G0 Z1.000
G0 X33.353 Y-45.676
G0 X35.097 Y-49.419
G0 X35.097 Y-49.419 Z0.500
G1 X35.097 Y-49.419 Z-0.150 F100.000
G1 X35.097 Y-49.718 Z-0.150 F100.000
G1 X36.110 Y-49.718 Z-0.150 F100.000
G1 X36.110 Y-49.419 Z-0.150 F100.000
G1 X35.097 Y-49.419 Z-0.150 F100.000
G0 Z1.000
G0 Z1.000
G0 X35.097 Y-49.419
G0 Y-50.372
G0 Y-50.372 Z0.500
G1 X35.097 Y-50.372 Z-0.150 F100.000
G1 X35.097 Y-50.671 Z-0.150 F100.000
G1 X36.110 Y-50.671 Z-0.150 F100.000
G1 X36.110 Y-50.372 Z-0.150 F100.000
G1 X35.097 Y-50.372 Z-0.150 F100.000
G0 Z1.000
G0 Z1.000
G0 X35.097 Y-50.372
G0 Y-51.332
G0 Y-51.332 Z0.500
G1 X35.097 Y-51.332 Z-0.150 F100.000
G1 X35.097 Y-51.631 Z-0.150 F100.000
G1 X36.110 Y-51.631 Z-0.150 F100.000
G1 X36.110 Y-51.332 Z-0.150 F100.000
G1 X35.097 Y-51.332 Z-0.150 F100.000
G0 Z1.000
G0 Z1.000
G0 X35.097 Y-51.332
G0 Y-52.285
G0 Y-52.285 Z0.500
G1 X35.097 Y-52.285 Z-0.150 F100.000
G1 X35.097 Y-52.584 Z-0.150 F100.000
G1 X36.110 Y-52.584 Z-0.150 F100.000
G1 X36.110 Y-52.285 Z-0.150 F100.000
G1 X35.097 Y-52.285 Z-0.150 F100.000
G0 Z1.000
G0 Z1.000
G0 X35.097 Y-52.285
G0 X36.995 Y-50.919
G0 X36.995 Y-50.919 Z0.500
G1 X36.995 Y-50.919 Z-0.150 F100.000
G1 X37.482 Y-50.919 Z-0.150 F100.000
G1 X37.482 Y-50.469 Z-0.150 F100.000
G1 X36.995 Y-50.469 Z-0.150 F100.000
G1 X36.995 Y-50.919 Z-0.150 F100.000
G0 Z1.000
G0 Z1.000
G0 X36.995 Y-50.919
G0 Y-49.795
G0 Y-49.795 Z0.500
G1 X36.995 Y-49.795 Z-0.150 F100.000
G1 X37.482 Y-49.795 Z-0.150 F100.000
G1 X37.482 Y-49.344 Z-0.150 F100.000
G1 X36.995 Y-49.344 Z-0.150 F100.000
G1 X36.995 Y-49.795 Z-0.150 F100.000
G0 Z1.000
G0 Z1.000
G0 X36.995 Y-49.795
G0 X39.401 Y-48.024
G0 X39.401 Y-48.024 Z0.500
G1 X39.401 Y-48.024 Z-0.150 F100.000
G1 X40.446 Y-48.024 Z-0.150 F100.000
G1 X40.446 Y-46.119 Z-0.150 F100.000
G1 X39.401 Y-46.119 Z-0.150 F100.000
G1 X39.401 Y-48.024 Z-0.150 F100.000
G0 Z1.000
G0 Z1.000
G0 X39.401 Y-48.024
G0 Y-44.349
G0 Y-44.349 Z0.500
G1 X39.401 Y-44.349 Z-0.150 F100.000
G1 X40.446 Y-44.349 Z-0.150 F100.000
G1 X40.446 Y-42.444 Z-0.150 F100.000
G1 X39.401 Y-42.444 Z-0.150 F100.000
G1 X39.401 Y-44.349 Z-0.150 F100.000
G0 Z1.000
G0 Z1.000
G0 X39.401 Y-44.349
G0 X39.811 Y-41.333
G0 X39.811 Y-41.333 Z0.500
G1 X39.811 Y-41.333 Z-0.150 F100.000
G1 X40.036 Y-41.333 Z-0.150 F100.000
G1 X40.036 Y-40.809 Z-0.150 F100.000
G1 X39.811 Y-40.809 Z-0.150 F100.000
G1 X39.811 Y-41.333 Z-0.150 F100.000
G0 Z1.000
G0 Z1.000
G0 X39.811 Y-41.333
G0 X40.935
G0 X40.935 Z0.500
G1 X40.935 Y-41.333 Z-0.150 F100.000
G1 X41.161 Y-41.333 Z-0.150 F100.000
G1 X41.161 Y-40.809 Z-0.150 F100.000
G1 X40.935 Y-40.809 Z-0.150 F100.000
G1 X40.935 Y-41.333 Z-0.150 F100.000
G0 Z1.000
G0 Z1.000
G0 X40.935 Y-41.333
G0 X40.854 Y-37.847
G0 X40.854 Y-37.847 Z0.500
G1 X40.854 Y-37.847 Z-0.150 F100.000
G1 X40.854 Y-37.471 Z-0.150 F100.000
G1 X39.885 Y-37.471 Z-0.150 F100.000
G1 X39.885 Y-37.847 Z-0.150 F100.000
G1 X40.854 Y-37.847 Z-0.150 F100.000
G0 Z1.000
G0 Z1.000
G0 X40.854 Y-37.847
G0 Y-35.941
G0 Y-35.941 Z0.500
G1 X40.854 Y-35.941 Z-0.150 F100.000
G1 X40.854 Y-35.565 Z-0.150 F100.000
G1 X39.885 Y-35.565 Z-0.150 F100.000
G1 X39.885 Y-35.941 Z-0.150 F100.000
G1 X40.854 Y-35.941 Z-0.150 F100.000
G0 Z1.000
G0 Z1.000
G0 X40.854 Y-35.941
G0 Y-34.037
G0 Y-34.037 Z0.500
G1 X40.854 Y-34.037 Z-0.150 F100.000
G1 X40.854 Y-33.661 Z-0.150 F100.000
G1 X39.885 Y-33.661 Z-0.150 F100.000
G1 X39.885 Y-34.037 Z-0.150 F100.000
G1 X40.854 Y-34.037 Z-0.150 F100.000
G0 Z1.000
G0 Z1.000
G0 X40.854 Y-34.037
G0 Y-32.132
G0 Y-32.132 Z0.500
G1 X40.854 Y-32.132 Z-0.150 F100.000
G1 X40.854 Y-31.756 Z-0.150 F100.000
G1 X39.885 Y-31.756 Z-0.150 F100.000
G1 X39.885 Y-32.132 Z-0.150 F100.000
G1 X40.854 Y-32.132 Z-0.150 F100.000
G0 Z1.000
G0 Z1.000
G0 X40.854 Y-32.132
G0 X45.248
G0 X45.248 Z0.500
G1 X45.248 Y-32.132 Z-0.150 F100.000
G1 X46.217 Y-32.132 Z-0.150 F100.000
G1 X46.217 Y-31.756 Z-0.150 F100.000
G1 X45.248 Y-31.756 Z-0.150 F100.000
G1 X45.248 Y-32.132 Z-0.150 F100.000
G0 Z1.000
G0 Z1.000
G0 X45.248 Y-32.132
G0 Y-33.661
G0 Y-33.661 Z0.500
G1 X45.248 Y-33.661 Z-0.150 F100.000
G1 X45.248 Y-34.037 Z-0.150 F100.000
G1 X46.217 Y-34.037 Z-0.150 F100.000
G1 X46.217 Y-33.661 Z-0.150 F100.000
G1 X45.248 Y-33.661 Z-0.150 F100.000
G0 Z1.000
G0 Z1.000
G0 X45.248 Y-33.661
G0 Y-35.565
G0 Y-35.565 Z0.500
G1 X45.248 Y-35.565 Z-0.150 F100.000
G1 X45.248 Y-35.941 Z-0.150 F100.000
G1 X46.217 Y-35.941 Z-0.150 F100.000
G1 X46.217 Y-35.565 Z-0.150 F100.000
G1 X45.248 Y-35.565 Z-0.150 F100.000
G0 Z1.000
G0 Z1.000
G0 X45.248 Y-35.565
G0 Y-37.471
G0 Y-37.471 Z0.500
G1 X45.248 Y-37.471 Z-0.150 F100.000
G1 X45.248 Y-37.847 Z-0.150 F100.000
G1 X46.217 Y-37.847 Z-0.150 F100.000
G1 X46.217 Y-37.471 Z-0.150 F100.000
G1 X45.248 Y-37.471 Z-0.150 F100.000
G0 Z1.000
G0 Z1.000
G0 X45.248 Y-37.471
G0 X47.378
G0 X47.378 Z0.500
G1 X47.378 Y-37.471 Z-0.150 F100.000
G1 X47.378 Y-38.477 Z-0.150 F100.000
G1 X47.678 Y-38.477 Z-0.150 F100.000
G1 X47.678 Y-37.277 Z-0.150 F100.000
G1 X47.378 Y-37.277 Z-0.150 F100.000
G1 X47.378 Y-37.471 Z-0.150 F100.000
G0 Z1.000
G0 Z1.000
G0 X47.378 Y-37.471
G0 X47.611 Y-39.429
G0 X47.611 Y-39.429 Z0.500
G1 X47.611 Y-39.429 Z-0.150 F100.000
G1 X47.611 Y-40.029 Z-0.150 F100.000
G1 X48.136 Y-40.029 Z-0.150 F100.000
G1 X48.136 Y-39.429 Z-0.150 F100.000
G1 X47.611 Y-39.429 Z-0.150 F100.000
G0 Z1.000
G0 Z1.000
G0 X47.611 Y-39.429
G0 X45.994 Y-39.677
G0 X45.994 Y-39.677 Z0.500
G1 X45.994 Y-39.677 Z-0.150 F100.000
G1 X45.469 Y-39.677 Z-0.150 F100.000
G1 X45.469 Y-39.827 Z-0.150 F100.000
G1 X45.994 Y-39.827 Z-0.150 F100.000
G1 X45.994 Y-39.677 Z-0.150 F100.000
G0 Z1.000
G0 Z1.000
G0 X45.994 Y-39.677
G0 X44.345
G0 X44.345 Z0.500
G1 X44.345 Y-39.677 Z-0.150 F100.000
G1 X43.820 Y-39.677 Z-0.150 F100.000
G1 X43.820 Y-39.827 Z-0.150 F100.000
G1 X44.345 Y-39.827 Z-0.150 F100.000
G1 X44.345 Y-39.677 Z-0.150 F100.000
G0 Z1.000
G0 Z1.000
G0 X44.345 Y-39.677
G0 X44.382 Y-41.135
G0 X44.382 Y-41.135 Z0.500
G1 X44.382 Y-41.135 Z-0.150 F100.000
G1 X44.382 Y-41.623 Z-0.150 F100.000
G1 X44.833 Y-41.623 Z-0.150 F100.000
G1 X44.833 Y-41.135 Z-0.150 F100.000
G1 X44.382 Y-41.135 Z-0.150 F100.000
G0 Z1.000
G0 Z1.000
G0 X44.382 Y-41.135
G0 X45.507
G0 X45.507 Z0.500
G1 X45.507 Y-41.135 Z-0.150 F100.000
G1 X45.507 Y-41.623 Z-0.150 F100.000
G1 X45.957 Y-41.623 Z-0.150 F100.000
G1 X45.957 Y-41.135 Z-0.150 F100.000
G1 X45.507 Y-41.135 Z-0.150 F100.000
G0 Z1.000
G0 Z1.000
G0 X45.507 Y-41.135
G0 X46.899
G0 X46.899 Z0.500
G1 X46.899 Y-41.135 Z-0.150 F100.000
G1 X46.899 Y-41.679 Z-0.150 F100.000
G1 X47.424 Y-41.679 Z-0.150 F100.000
G1 X47.424 Y-41.078 Z-0.150 F100.000
G1 X46.899 Y-41.078 Z-0.150 F100.000
G1 X46.899 Y-41.135 Z-0.150 F100.000
G0 Z1.000
G0 Z1.000
G0 X46.899 Y-41.135
G0 X48.323
G0 X48.323 Z0.500
G1 X48.323 Y-41.135 Z-0.150 F100.000
G1 X48.323 Y-41.679 Z-0.150 F100.000
G1 X48.848 Y-41.679 Z-0.150 F100.000
G1 X48.848 Y-41.078 Z-0.150 F100.000
G1 X48.323 Y-41.078 Z-0.150 F100.000
G1 X48.323 Y-41.135 Z-0.150 F100.000
G0 Z1.000
G0 Z1.000
G0 X48.323 Y-41.135
G0 X49.767 Y-41.154
G0 X49.767 Y-41.154 Z0.500
G1 X49.767 Y-41.154 Z-0.150 F100.000
G1 X49.767 Y-41.604 Z-0.150 F100.000
G1 X50.255 Y-41.604 Z-0.150 F100.000
G1 X50.255 Y-41.154 Z-0.150 F100.000
G1 X49.767 Y-41.154 Z-0.150 F100.000
G0 Z1.000
G0 Z1.000
G0 X49.767 Y-41.154
G0 Y-40.480
G0 Y-40.480 Z0.500
G1 X49.767 Y-40.480 Z-0.150 F100.000
G1 X50.255 Y-40.480 Z-0.150 F100.000
G1 X50.255 Y-40.029 Z-0.150 F100.000
G1 X49.767 Y-40.029 Z-0.150 F100.000
G1 X49.767 Y-40.480 Z-0.150 F100.000
G0 Z1.000
G0 Z1.000
G0 X49.767 Y-40.480
G0 X49.553 Y-38.477
G0 X49.553 Y-38.477 Z0.500
G1 X49.553 Y-38.477 Z-0.150 F100.000
G1 X49.553 Y-37.277 Z-0.150 F100.000
G1 X49.253 Y-37.277 Z-0.150 F100.000
G1 X49.253 Y-38.477 Z-0.150 F100.000
G1 X49.553 Y-38.477 Z-0.150 F100.000
G0 Z1.000
G0 Z1.000
G0 X49.553 Y-38.477
G0 X49.554 Y-33.751
G0 X49.554 Y-33.751 Z0.500
G1 X49.554 Y-33.751 Z-0.150 F100.000
G1 X49.554 Y-32.552 Z-0.150 F100.000
G1 X49.254 Y-32.552 Z-0.150 F100.000
G1 X49.254 Y-33.751 Z-0.150 F100.000
G1 X49.554 Y-33.751 Z-0.150 F100.000
G0 Z1.000
G0 Z1.000
G0 X49.554 Y-33.751
G0 X47.678
G0 X47.678 Z0.500
G1 X47.678 Y-33.751 Z-0.150 F100.000
G1 X47.678 Y-32.552 Z-0.150 F100.000
G1 X47.378 Y-32.552 Z-0.150 F100.000
G1 X47.378 Y-33.751 Z-0.150 F100.000
G1 X47.678 Y-33.751 Z-0.150 F100.000
G0 Z1.000
G0 Z1.000
G0 X47.678 Y-33.751
G0 X53.142 Y-33.920
G0 X53.142 Y-33.920 Z0.500
G1 X53.142 Y-33.920 Z-0.150 F100.000
G1 X53.142 Y-35.758 Z-0.150 F100.000
G1 X54.305 Y-35.758 Z-0.150 F100.000
G1 X54.305 Y-33.920 Z-0.150 F100.000
G1 X53.142 Y-33.920 Z-0.150 F100.000
G0 Z1.000
G0 Z1.000
G0 X53.142 Y-33.920
G0 Y-37.146
G0 Y-37.146 Z0.500
G1 X53.142 Y-37.146 Z-0.150 F100.000
G1 X53.142 Y-38.983 Z-0.150 F100.000
G1 X54.305 Y-38.983 Z-0.150 F100.000
G1 X54.305 Y-37.146 Z-0.150 F100.000
G1 X53.142 Y-37.146 Z-0.150 F100.000
G0 Z1.000
G0 Z1.000
G0 X53.142 Y-37.146
G0 X53.198 Y-40.348
G0 X53.198 Y-40.348 Z0.500
G1 X53.198 Y-40.348 Z-0.150 F100.000
G1 X53.198 Y-42.410 Z-0.150 F100.000
G1 X54.248 Y-42.410 Z-0.150 F100.000
G1 X54.248 Y-40.348 Z-0.150 F100.000
G1 X53.198 Y-40.348 Z-0.150 F100.000
G0 Z1.000
G0 Z1.000
G0 X53.198 Y-40.348
G0 Y-44.247
G0 Y-44.247 Z0.500
G1 X53.198 Y-44.247 Z-0.150 F100.000
G1 X53.198 Y-46.310 Z-0.150 F100.000
G1 X54.248 Y-46.310 Z-0.150 F100.000
G1 X54.248 Y-44.247 Z-0.150 F100.000
G1 X53.198 Y-44.247 Z-0.150 F100.000
G0 Z1.000
G0 Z1.000
G0 X53.198 Y-44.247
G0 X52.684 Y-47.694
G0 X52.684 Y-47.694 Z0.500
G1 X52.684 Y-47.694 Z-0.150 F100.000
G1 X51.672 Y-47.694 Z-0.150 F100.000
G1 X51.672 Y-47.993 Z-0.150 F100.000
G1 X52.684 Y-47.993 Z-0.150 F100.000
G1 X52.684 Y-47.694 Z-0.150 F100.000
G0 Z1.000
G0 Z1.000
G0 X52.684 Y-47.694
G0 Y-48.647
G0 Y-48.647 Z0.500
G1 X52.684 Y-48.647 Z-0.150 F100.000
G1 X51.672 Y-48.647 Z-0.150 F100.000
G1 X51.672 Y-48.946 Z-0.150 F100.000
G1 X52.684 Y-48.946 Z-0.150 F100.000
G1 X52.684 Y-48.647 Z-0.150 F100.000
G0 Z1.000
G0 Z1.000
G0 X52.684 Y-48.647
G0 Y-49.607
G0 Y-49.607 Z0.500
G1 X52.684 Y-49.607 Z-0.150 F100.000
G1 X51.672 Y-49.607 Z-0.150 F100.000
G1 X51.672 Y-49.907 Z-0.150 F100.000
G1 X52.684 Y-49.907 Z-0.150 F100.000
G1 X52.684 Y-49.607 Z-0.150 F100.000
G0 Z1.000
G0 Z1.000
G0 X52.684 Y-49.607
G0 Y-50.559
G0 Y-50.559 Z0.500
G1 X52.684 Y-50.559 Z-0.150 F100.000
G1 X51.672 Y-50.559 Z-0.150 F100.000
G1 X51.672 Y-50.858 Z-0.150 F100.000
G1 X52.684 Y-50.858 Z-0.150 F100.000
G1 X52.684 Y-50.559 Z-0.150 F100.000
G0 Z1.000
G0 Z1.000
G0 X52.684 Y-50.559
G0 Y-52.131
G0 Y-52.131 Z0.500
G1 X52.684 Y-52.131 Z-0.150 F100.000
G1 X52.051 Y-52.131 Z-0.150 F100.000
G1 X52.051 Y-52.985 Z-0.150 F100.000
G1 X53.251 Y-52.985 Z-0.150 F100.000
G1 X53.251 Y-52.131 Z-0.150 F100.000
G1 X52.684 Y-52.131 Z-0.150 F100.000
G0 Z1.000
G0 Z1.000
G0 X52.684 Y-52.131
G0 X50.986
G0 X50.986 Z0.500
G1 X50.986 Y-52.131 Z-0.150 F100.000
G1 X49.786 Y-52.131 Z-0.150 F100.000
G1 X49.786 Y-52.985 Z-0.150 F100.000
G1 X50.986 Y-52.985 Z-0.150 F100.000
G1 X50.986 Y-52.131 Z-0.150 F100.000
G0 Z1.000
G0 Z1.000
G0 X50.986 Y-52.131
G0 X48.781 Y-52.157
G0 X48.781 Y-52.157 Z0.500
G1 X48.781 Y-52.157 Z-0.150 F100.000
G1 X47.581 Y-52.157 Z-0.150 F100.000
G1 X47.581 Y-52.907 Z-0.150 F100.000
G1 X48.781 Y-52.907 Z-0.150 F100.000
G1 X48.781 Y-52.157 Z-0.150 F100.000
G0 Z1.000
G0 Z1.000
G0 X48.781 Y-52.157
G0 X46.643
G0 X46.643 Z0.500
G1 X46.643 Y-52.157 Z-0.150 F100.000
G1 X45.444 Y-52.157 Z-0.150 F100.000
G1 X45.444 Y-52.907 Z-0.150 F100.000
G1 X46.643 Y-52.907 Z-0.150 F100.000
G1 X46.643 Y-52.157 Z-0.150 F100.000
G0 Z1.000
G0 Z1.000
G0 X46.643 Y-52.157
G0 X44.468
G0 X44.468 Z0.500
G1 X44.468 Y-52.157 Z-0.150 F100.000
G1 X44.468 Y-52.093 Z-0.150 F100.000
G1 X43.268 Y-52.093 Z-0.150 F100.000
G1 X43.268 Y-52.947 Z-0.150 F100.000
G1 X44.468 Y-52.947 Z-0.150 F100.000
G1 X44.468 Y-52.157 Z-0.150 F100.000
G0 Z1.000
G0 Z1.000
G0 X44.468 Y-52.157
G0 X44.393 Y-54.087
G0 X44.393 Y-54.087 Z0.500
G1 X44.393 Y-54.087 Z-0.150 F100.000
G1 X43.343 Y-54.087 Z-0.150 F100.000
G1 X43.343 Y-56.150 Z-0.150 F100.000
G1 X44.393 Y-56.150 Z-0.150 F100.000
G1 X44.393 Y-54.087 Z-0.150 F100.000
G0 Z1.000
G0 Z1.000
G0 X44.393 Y-54.087
G0 Y-57.988
G0 Y-57.988 Z0.500
G1 X44.393 Y-57.988 Z-0.150 F100.000
G1 X43.343 Y-57.988 Z-0.150 F100.000
G1 X43.343 Y-60.051 Z-0.150 F100.000
G1 X44.393 Y-60.051 Z-0.150 F100.000
G1 X44.393 Y-57.988 Z-0.150 F100.000
G0 Z1.000
G0 Z1.000
G0 X44.393 Y-57.988
G0 X41.033 Y-60.429
G0 X41.033 Y-60.429 Z0.500
G1 X41.033 Y-60.429 Z-0.150 F100.000
G1 X40.509 Y-60.429 Z-0.150 F100.000
G1 X40.509 Y-60.654 Z-0.150 F100.000
G1 X41.033 Y-60.654 Z-0.150 F100.000
G1 X41.033 Y-60.429 Z-0.150 F100.000
G0 Z1.000
G0 Z1.000
G0 X41.033 Y-60.429
G0 Y-61.553
G0 Y-61.553 Z0.500
G1 X41.033 Y-61.553 Z-0.150 F100.000
G1 X40.509 Y-61.553 Z-0.150 F100.000
G1 X40.509 Y-61.779 Z-0.150 F100.000
G1 X41.033 Y-61.779 Z-0.150 F100.000
G1 X41.033 Y-61.553 Z-0.150 F100.000
G0 Z1.000
G0 Z1.000
G0 X41.033 Y-61.553
G0 X39.555
G0 X39.555 Z0.500
G1 X39.555 Y-61.553 Z-0.150 F100.000
G1 X39.555 Y-61.179 Z-0.150 F100.000
G1 X39.180 Y-61.179 Z-0.150 F100.000
G1 X39.180 Y-61.704 Z-0.150 F100.000
G1 X39.555 Y-61.704 Z-0.150 F100.000
G1 X39.555 Y-61.553 Z-0.150 F100.000
G0 Z1.000
G0 Z1.000
G0 X39.555 Y-61.553
G0 X38.581
G0 X38.581 Z0.500
G1 X38.581 Y-61.553 Z-0.150 F100.000
G1 X38.581 Y-61.179 Z-0.150 F100.000
G1 X38.206 Y-61.179 Z-0.150 F100.000
G1 X38.206 Y-61.704 Z-0.150 F100.000
G1 X38.581 Y-61.704 Z-0.150 F100.000
G1 X38.581 Y-61.553 Z-0.150 F100.000
G0 Z1.000
G0 Z1.000
G0 X38.581 Y-61.553
G0 X38.574 Y-62.656
G0 X38.574 Y-62.656 Z0.500
G1 X38.574 Y-62.656 Z-0.150 F100.000
G1 X38.049 Y-62.656 Z-0.150 F100.000
G1 X38.049 Y-62.881 Z-0.150 F100.000
G1 X38.574 Y-62.881 Z-0.150 F100.000
G1 X38.574 Y-62.656 Z-0.150 F100.000
G0 Z1.000
G0 Z1.000
G0 X38.574 Y-62.656
G0 Y-63.781
G0 Y-63.781 Z0.500
G1 X38.574 Y-63.781 Z-0.150 F100.000
G1 X38.049 Y-63.781 Z-0.150 F100.000
G1 X38.049 Y-64.006 Z-0.150 F100.000
G1 X38.574 Y-64.006 Z-0.150 F100.000
G1 X38.574 Y-63.781 Z-0.150 F100.000
G0 Z1.000
G0 Z1.000
G0 X38.574 Y-63.781
G0 X39.669 Y-63.696
G0 X39.669 Y-63.696 Z0.500
G1 X39.669 Y-63.696 Z-0.150 F100.000
G1 X39.969 Y-63.696 Z-0.150 F100.000
G1 X39.969 Y-62.683 Z-0.150 F100.000
G1 X39.669 Y-62.683 Z-0.150 F100.000
G1 X39.669 Y-63.696 Z-0.150 F100.000
G0 Z1.000
G0 Z1.000
G0 X39.669 Y-63.696
G0 X40.621
G0 X40.621 Z0.500
G1 X40.621 Y-63.696 Z-0.150 F100.000
G1 X40.921 Y-63.696 Z-0.150 F100.000
G1 X40.921 Y-62.683 Z-0.150 F100.000
G1 X40.621 Y-62.683 Z-0.150 F100.000
G1 X40.621 Y-63.696 Z-0.150 F100.000
G0 Z1.000
G0 Z1.000
G0 X40.621 Y-63.696
G0 X41.581
G0 X41.581 Z0.500
G1 X41.581 Y-63.696 Z-0.150 F100.000
G1 X41.881 Y-63.696 Z-0.150 F100.000
G1 X41.881 Y-62.683 Z-0.150 F100.000
G1 X41.581 Y-62.683 Z-0.150 F100.000
G1 X41.581 Y-63.696 Z-0.150 F100.000
G0 Z1.000
G0 Z1.000
G0 X41.581 Y-63.696
G0 X42.534
G0 X42.534 Z0.500
G1 X42.534 Y-63.696 Z-0.150 F100.000
G1 X42.834 Y-63.696 Z-0.150 F100.000
G1 X42.834 Y-62.683 Z-0.150 F100.000
G1 X42.534 Y-62.683 Z-0.150 F100.000
G1 X42.534 Y-63.696 Z-0.150 F100.000
G0 Z1.000
G0 Z1.000
G0 X42.534 Y-63.696
G0 X43.917 Y-63.415
G0 X43.917 Y-63.415 Z0.500
G1 X43.917 Y-63.415 Z-0.150 F100.000
G1 X44.405 Y-63.415 Z-0.150 F100.000
G1 X44.405 Y-62.964 Z-0.150 F100.000
G1 X43.917 Y-62.964 Z-0.150 F100.000
G1 X43.917 Y-63.415 Z-0.150 F100.000
G0 Z1.000
G0 Z1.000
G0 X43.917 Y-63.415
G0 Y-64.089
G0 Y-64.089 Z0.500
G1 X43.917 Y-64.089 Z-0.150 F100.000
G1 X43.917 Y-64.539 Z-0.150 F100.000
G1 X44.405 Y-64.539 Z-0.150 F100.000
G1 X44.405 Y-64.089 Z-0.150 F100.000
G1 X43.917 Y-64.089 Z-0.150 F100.000
G0 Z1.000
G0 Z1.000
G0 X43.917 Y-64.089
G0 X42.833 Y-66.687
G0 X42.833 Y-66.687 Z0.500
G1 X42.833 Y-66.687 Z-0.150 F100.000
G1 X42.533 Y-66.687 Z-0.150 F100.000
G1 X42.533 Y-67.700 Z-0.150 F100.000
G1 X42.833 Y-67.700 Z-0.150 F100.000
G1 X42.833 Y-66.687 Z-0.150 F100.000
G0 Z1.000
G0 Z1.000
G0 X42.833 Y-66.687
G0 X41.881
G0 X41.881 Z0.500
G1 X41.881 Y-66.687 Z-0.150 F100.000
G1 X41.581 Y-66.687 Z-0.150 F100.000
G1 X41.581 Y-67.700 Z-0.150 F100.000
G1 X41.881 Y-67.700 Z-0.150 F100.000
G1 X41.881 Y-66.687 Z-0.150 F100.000
G0 Z1.000
G0 Z1.000
G0 X41.881 Y-66.687
G0 X40.921
G0 X40.921 Z0.500
G1 X40.921 Y-66.687 Z-0.150 F100.000
G1 X40.621 Y-66.687 Z-0.150 F100.000
G1 X40.621 Y-67.700 Z-0.150 F100.000
G1 X40.921 Y-67.700 Z-0.150 F100.000
G1 X40.921 Y-66.687 Z-0.150 F100.000
G0 Z1.000
G0 Z1.000
G0 X40.921 Y-66.687
G0 X39.968
G0 X39.968 Z0.500
G1 X39.968 Y-66.687 Z-0.150 F100.000
G1 X39.668 Y-66.687 Z-0.150 F100.000
G1 X39.668 Y-67.700 Z-0.150 F100.000
G1 X39.968 Y-67.700 Z-0.150 F100.000
G1 X39.968 Y-66.687 Z-0.150 F100.000
G0 Z1.000
G0 Z1.000
G0 X39.968 Y-66.687
G0 X39.069 Y-60.279
G0 X39.069 Y-60.279 Z0.500
G1 X39.069 Y-60.279 Z-0.150 F100.000
G1 X39.069 Y-59.754 Z-0.150 F100.000
G1 X38.694 Y-59.754 Z-0.150 F100.000
G1 X38.694 Y-60.279 Z-0.150 F100.000
G1 X39.069 Y-60.279 Z-0.150 F100.000
G0 Z1.000
G0 Z1.000
G0 X39.069 Y-60.279
G0 X47.063 Y-65.439
G0 X47.063 Y-65.439 Z0.500
G1 X47.063 Y-65.439 Z-0.150 F100.000
G1 X47.063 Y-66.564 Z-0.150 F100.000
G1 X47.738 Y-66.564 Z-0.150 F100.000
G1 X47.738 Y-65.439 Z-0.150 F100.000
G1 X47.063 Y-65.439 Z-0.150 F100.000
G0 Z1.000
G0 Z1.000
G0 X47.063 Y-65.439
G0 X49.464
G0 X49.464 Z0.500
G1 X49.464 Y-65.439 Z-0.150 F100.000
G1 X49.464 Y-66.564 Z-0.150 F100.000
G1 X50.139 Y-66.564 Z-0.150 F100.000
G1 X50.139 Y-65.439 Z-0.150 F100.000
G1 X49.464 Y-65.439 Z-0.150 F100.000
G0 Z1.000
G0 Z1.000
G0 X49.464 Y-65.439
G0 Y-64.051
G0 Y-64.051 Z0.500
G1 X49.464 Y-64.051 Z-0.150 F100.000
G1 X50.206 Y-64.051 Z-0.150 F100.000
G1 X50.206 Y-62.327 Z-0.150 F100.000
G1 X49.156 Y-62.327 Z-0.150 F100.000
G1 X49.156 Y-64.051 Z-0.150 F100.000
G1 X49.464 Y-64.051 Z-0.150 F100.000
G0 Z1.000
G0 Z1.000
G0 X49.464 Y-64.051
G0 Y-61.576
G0 Y-61.576 Z0.500
G1 X49.464 Y-61.576 Z-0.150 F100.000
G1 X50.206 Y-61.576 Z-0.150 F100.000
G1 X50.206 Y-59.851 Z-0.150 F100.000
G1 X49.156 Y-59.851 Z-0.150 F100.000
G1 X49.156 Y-61.576 Z-0.150 F100.000
G1 X49.464 Y-61.576 Z-0.150 F100.000
G0 Z1.000
G0 Z1.000
G0 X49.464 Y-61.576
G0 X52.295 Y-61.839
G0 X52.295 Y-61.839 Z0.500
G1 X52.295 Y-61.839 Z-0.150 F100.000
G1 X52.295 Y-62.289 Z-0.150 F100.000
G1 X52.783 Y-62.289 Z-0.150 F100.000
G1 X52.783 Y-61.839 Z-0.150 F100.000
G1 X52.295 Y-61.839 Z-0.150 F100.000
G0 Z1.000
G0 Z1.000
G0 X52.295 Y-61.839
G0 Y-62.963
G0 Y-62.963 Z0.500
G1 X52.295 Y-62.963 Z-0.150 F100.000
G1 X52.295 Y-63.414 Z-0.150 F100.000
G1 X52.783 Y-63.414 Z-0.150 F100.000
G1 X52.783 Y-62.963 Z-0.150 F100.000
G1 X52.295 Y-62.963 Z-0.150 F100.000
G0 Z1.000
G0 Z1.000
G0 X52.295 Y-62.963
G0 X53.693
G0 X53.693 Z0.500
G1 X53.693 Y-62.963 Z-0.150 F100.000
G1 X53.693 Y-63.489 Z-0.150 F100.000
G1 X54.218 Y-63.489 Z-0.150 F100.000
G1 X54.218 Y-62.889 Z-0.150 F100.000
G1 X53.693 Y-62.889 Z-0.150 F100.000
G1 X53.693 Y-62.963 Z-0.150 F100.000
G0 Z1.000
G0 Z1.000
G0 X53.693 Y-62.963
G0 X55.118
G0 X55.118 Z0.500
G1 X55.118 Y-62.963 Z-0.150 F100.000
G1 X55.118 Y-63.489 Z-0.150 F100.000
G1 X55.643 Y-63.489 Z-0.150 F100.000
G1 X55.643 Y-62.889 Z-0.150 F100.000
G1 X55.118 Y-62.889 Z-0.150 F100.000
G1 X55.118 Y-62.963 Z-0.150 F100.000
G0 Z1.000
G0 Z1.000
G0 X55.118 Y-62.963
G0 X54.931 Y-61.840
G0 X54.931 Y-61.840 Z0.500
G1 X54.931 Y-61.840 Z-0.150 F100.000
G1 X54.931 Y-61.239 Z-0.150 F100.000
G1 X54.406 Y-61.239 Z-0.150 F100.000
G1 X54.406 Y-61.840 Z-0.150 F100.000
G1 X54.931 Y-61.840 Z-0.150 F100.000
G0 Z1.000
G0 Z1.000
G0 X54.931 Y-61.840
G0 X56.570 Y-61.839
G0 X56.570 Y-61.839 Z0.500
G1 X56.570 Y-61.839 Z-0.150 F100.000
G1 X56.570 Y-62.289 Z-0.150 F100.000
G1 X57.057 Y-62.289 Z-0.150 F100.000
G1 X57.057 Y-61.839 Z-0.150 F100.000
G1 X56.570 Y-61.839 Z-0.150 F100.000
G0 Z1.000
G0 Z1.000
G0 X56.570 Y-61.839
G0 Y-62.963
G0 Y-62.963 Z0.500
G1 X56.570 Y-62.963 Z-0.150 F100.000
G1 X56.570 Y-63.414 Z-0.150 F100.000
G1 X57.057 Y-63.414 Z-0.150 F100.000
G1 X57.057 Y-62.963 Z-0.150 F100.000
G1 X56.570 Y-62.963 Z-0.150 F100.000
G0 Z1.000
G0 Z1.000
G0 X56.570 Y-62.963
G0 X58.126 Y-62.401
G0 X58.126 Y-62.401 Z0.500
G1 X58.126 Y-62.401 Z-0.150 F100.000
G1 X59.851 Y-62.401 Z-0.150 F100.000
G1 X59.851 Y-61.351 Z-0.150 F100.000
G1 X58.126 Y-61.351 Z-0.150 F100.000
G1 X58.126 Y-62.401 Z-0.150 F100.000
G0 Z1.000
G0 Z1.000
G0 X58.126 Y-62.401
G0 X60.601 Y-62.402
G0 X60.601 Y-62.402 Z0.500
G1 X60.601 Y-62.402 Z-0.150 F100.000
G1 X62.326 Y-62.402 Z-0.150 F100.000
G1 X62.326 Y-61.352 Z-0.150 F100.000
G1 X60.601 Y-61.352 Z-0.150 F100.000
G1 X60.601 Y-62.402 Z-0.150 F100.000
G0 Z1.000
G0 Z1.000
G0 X60.601 Y-62.402
G0 X57.376 Y-59.705
G0 X57.376 Y-59.705 Z0.500
G1 X57.376 Y-59.705 Z-0.150 F100.000
G1 X57.376 Y-57.643 Z-0.150 F100.000
G1 X56.326 Y-57.643 Z-0.150 F100.000
G1 X56.326 Y-59.705 Z-0.150 F100.000
G1 X57.376 Y-59.705 Z-0.150 F100.000
G0 Z1.000
G0 Z1.000
G0 X57.376 Y-59.705
G0 X53.251 Y-59.104
G0 X53.251 Y-59.104 Z0.500
G1 X53.251 Y-59.104 Z-0.150 F100.000
G1 X53.251 Y-58.249 Z-0.150 F100.000
G1 X52.051 Y-58.249 Z-0.150 F100.000
G1 X52.051 Y-59.104 Z-0.150 F100.000
G1 X53.251 Y-59.104 Z-0.150 F100.000
G0 Z1.000
G0 Z1.000
G0 X53.251 Y-59.104
G0 Y-56.953
G0 Y-56.953 Z0.500
G1 X53.251 Y-56.953 Z-0.150 F100.000
G1 X53.251 Y-56.099 Z-0.150 F100.000
G1 X52.051 Y-56.099 Z-0.150 F100.000
G1 X52.051 Y-56.953 Z-0.150 F100.000
G1 X53.251 Y-56.953 Z-0.150 F100.000
G0 Z1.000
G0 Z1.000
G0 X53.251 Y-56.953
G0 Y-55.137
G0 Y-55.137 Z0.500
G1 X53.251 Y-55.137 Z-0.150 F100.000
G1 X53.251 Y-54.283 Z-0.150 F100.000
G1 X52.051 Y-54.283 Z-0.150 F100.000
G1 X52.051 Y-55.137 Z-0.150 F100.000
G1 X53.251 Y-55.137 Z-0.150 F100.000
G0 Z1.000
G0 Z1.000
G0 X53.251 Y-55.137
G0 X50.985
G0 X50.985 Z0.500
G1 X50.985 Y-55.137 Z-0.150 F100.000
G1 X50.985 Y-54.283 Z-0.150 F100.000
G1 X49.785 Y-54.283 Z-0.150 F100.000
G1 X49.785 Y-55.137 Z-0.150 F100.000
G1 X50.985 Y-55.137 Z-0.150 F100.000
G0 Z1.000
G0 Z1.000
G0 X50.985 Y-55.137
G0 X48.781 Y-55.081
G0 X48.781 Y-55.081 Z0.500
G1 X48.781 Y-55.081 Z-0.150 F100.000
G1 X48.781 Y-54.331 Z-0.150 F100.000
G1 X47.581 Y-54.331 Z-0.150 F100.000
G1 X47.581 Y-55.081 Z-0.150 F100.000
G1 X48.781 Y-55.081 Z-0.150 F100.000
G0 Z1.000
G0 Z1.000
G0 X48.781 Y-55.081
G0 X48.679 Y-50.858
G0 X48.679 Y-50.858 Z0.500
G1 X48.679 Y-50.858 Z-0.150 F100.000
G1 X48.679 Y-50.559 Z-0.150 F100.000
G1 X47.667 Y-50.559 Z-0.150 F100.000
G1 X47.667 Y-50.858 Z-0.150 F100.000
G1 X48.679 Y-50.858 Z-0.150 F100.000
G0 Z1.000
G0 Z1.000
G0 X48.679 Y-50.858
G0 Y-49.905
G0 Y-49.905 Z0.500
G1 X48.679 Y-49.905 Z-0.150 F100.000
G1 X48.679 Y-49.606 Z-0.150 F100.000
G1 X47.667 Y-49.606 Z-0.150 F100.000
G1 X47.667 Y-49.905 Z-0.150 F100.000
G1 X48.679 Y-49.905 Z-0.150 F100.000
G0 Z1.000
G0 Z1.000
G0 X48.679 Y-49.905
G0 Y-48.946
G0 Y-48.946 Z0.500
G1 X48.679 Y-48.946 Z-0.150 F100.000
G1 X48.679 Y-48.647 Z-0.150 F100.000
G1 X47.667 Y-48.647 Z-0.150 F100.000
G1 X47.667 Y-48.946 Z-0.150 F100.000
G1 X48.679 Y-48.946 Z-0.150 F100.000
G0 Z1.000
G0 Z1.000
G0 X48.679 Y-48.946
G0 Y-47.993
G0 Y-47.993 Z0.500
G1 X48.679 Y-47.993 Z-0.150 F100.000
G1 X48.679 Y-47.694 Z-0.150 F100.000
G1 X47.667 Y-47.694 Z-0.150 F100.000
G1 X47.667 Y-47.993 Z-0.150 F100.000
G1 X48.679 Y-47.993 Z-0.150 F100.000
G0 Z1.000
G0 Z1.000
G0 X48.679 Y-47.993
G0 X46.418
G0 X46.418 Z0.500
G1 X46.418 Y-47.993 Z-0.150 F100.000
G1 X46.418 Y-47.777 Z-0.150 F100.000
G1 X45.668 Y-47.777 Z-0.150 F100.000
G1 X45.668 Y-48.976 Z-0.150 F100.000
G1 X46.418 Y-48.976 Z-0.150 F100.000
G1 X46.418 Y-47.993 Z-0.150 F100.000
G0 Z1.000
G0 Z1.000
G0 X46.418 Y-47.993
G0 X44.244
G0 X44.244 Z0.500
G1 X44.244 Y-47.993 Z-0.150 F100.000
G1 X44.244 Y-47.777 Z-0.150 F100.000
G1 X43.493 Y-47.777 Z-0.150 F100.000
G1 X43.493 Y-48.976 Z-0.150 F100.000
G1 X44.244 Y-48.976 Z-0.150 F100.000
G1 X44.244 Y-47.993 Z-0.150 F100.000
G0 Z1.000
G0 Z1.000
G0 X44.244 Y-47.993
G0 Y-46.801
G0 Y-46.801 Z0.500
G1 X44.244 Y-46.801 Z-0.150 F100.000
G1 X44.300 Y-46.801 Z-0.150 F100.000
G1 X44.300 Y-45.601 Z-0.150 F100.000
G1 X43.446 Y-45.601 Z-0.150 F100.000
G1 X43.446 Y-46.801 Z-0.150 F100.000
G1 X44.244 Y-46.801 Z-0.150 F100.000
G0 Z1.000
G0 Z1.000
G0 X44.244 Y-46.801
G0 X45.597 Y-46.802
G0 X45.597 Y-46.802 Z0.500
G1 X45.597 Y-46.802 Z-0.150 F100.000
G1 X46.451 Y-46.802 Z-0.150 F100.000
G1 X46.451 Y-45.602 Z-0.150 F100.000
G1 X45.597 Y-45.602 Z-0.150 F100.000
G1 X45.597 Y-46.802 Z-0.150 F100.000
G0 Z1.000
G0 Z1.000
G0 X45.597 Y-46.802
G0 Y-49.981
G0 Y-49.981 Z0.500
G1 X45.597 Y-49.981 Z-0.150 F100.000
G1 X45.444 Y-49.981 Z-0.150 F100.000
G1 X45.444 Y-50.731 Z-0.150 F100.000
G1 X46.643 Y-50.731 Z-0.150 F100.000
G1 X46.643 Y-49.981 Z-0.150 F100.000
G1 X45.597 Y-49.981 Z-0.150 F100.000
G0 Z1.000
G0 Z1.000
G0 X45.597 Y-49.981
G0 X44.469
G0 X44.469 Z0.500
G1 X44.469 Y-49.981 Z-0.150 F100.000
G1 X44.469 Y-49.941 Z-0.150 F100.000
G1 X43.269 Y-49.941 Z-0.150 F100.000
G1 X43.269 Y-50.795 Z-0.150 F100.000
G1 X44.469 Y-50.795 Z-0.150 F100.000
G1 X44.469 Y-49.981 Z-0.150 F100.000
G0 Z1.000
G0 Z1.000
G0 X44.469 Y-49.981
G0 X53.626 Y-50.334
G0 X53.626 Y-50.334 Z0.500
G1 X53.626 Y-50.334 Z-0.150 F100.000
G1 X53.626 Y-51.084 Z-0.150 F100.000
G1 X54.826 Y-51.084 Z-0.150 F100.000
G1 X54.826 Y-50.334 Z-0.150 F100.000
G1 X53.626 Y-50.334 Z-0.150 F100.000
G0 Z1.000
G0 Z1.000
G0 X53.626 Y-50.334
G0 Y-48.909
G0 Y-48.909 Z0.500
G1 X53.626 Y-48.909 Z-0.150 F100.000
G1 X54.826 Y-48.909 Z-0.150 F100.000
G1 X54.826 Y-48.159 Z-0.150 F100.000
G1 X53.626 Y-48.159 Z-0.150 F100.000
G1 X53.626 Y-48.909 Z-0.150 F100.000
G0 Z1.000
G0 Z1.000
G0 X53.626 Y-48.909
G0 X56.326 Y-53.743
G0 X56.326 Y-53.743 Z0.500
G1 X56.326 Y-53.743 Z-0.150 F100.000
G1 X56.326 Y-55.806 Z-0.150 F100.000
G1 X57.376 Y-55.806 Z-0.150 F100.000
G1 X57.376 Y-53.743 Z-0.150 F100.000
G1 X56.326 Y-53.743 Z-0.150 F100.000
G0 Z1.000
G0 Z1.000
G0 X56.326 Y-53.743
G0 X60.657 Y-51.174
G0 X60.657 Y-51.174 Z0.500
G1 X60.657 Y-51.174 Z-0.150 F100.000
G1 X61.145 Y-51.174 Z-0.150 F100.000
G1 X61.145 Y-50.723 Z-0.150 F100.000
G1 X60.657 Y-50.723 Z-0.150 F100.000
G1 X60.657 Y-51.174 Z-0.150 F100.000
G0 Z1.000
G0 Z1.000
G0 X60.657 Y-51.174
G0 Y-50.049
G0 Y-50.049 Z0.500
G1 X60.657 Y-50.049 Z-0.150 F100.000
G1 X61.145 Y-50.049 Z-0.150 F100.000
G1 X61.145 Y-49.599 Z-0.150 F100.000
G1 X60.657 Y-49.599 Z-0.150 F100.000
G1 X60.657 Y-50.049 Z-0.150 F100.000
G0 Z1.000
G0 Z1.000
G0 X60.657 Y-50.049
G0 X62.244
G0 X62.244 Z0.500
G1 X62.244 Y-50.049 Z-0.150 F100.000
G1 X62.244 Y-50.330 Z-0.150 F100.000
G1 X62.543 Y-50.330 Z-0.150 F100.000
G1 X62.543 Y-49.318 Z-0.150 F100.000
G1 X62.244 Y-49.318 Z-0.150 F100.000
G1 X62.244 Y-50.049 Z-0.150 F100.000
G0 Z1.000
G0 Z1.000
G0 X62.244 Y-50.049
G0 X63.197
G0 X63.197 Z0.500
G1 X63.197 Y-50.049 Z-0.150 F100.000
G1 X63.197 Y-50.330 Z-0.150 F100.000
G1 X63.496 Y-50.330 Z-0.150 F100.000
G1 X63.496 Y-49.318 Z-0.150 F100.000
G1 X63.197 Y-49.318 Z-0.150 F100.000
G1 X63.197 Y-50.049 Z-0.150 F100.000
G0 Z1.000
G0 Z1.000
G0 X63.197 Y-50.049
G0 X64.157
G0 X64.157 Z0.500
G1 X64.157 Y-50.049 Z-0.150 F100.000
G1 X64.157 Y-50.330 Z-0.150 F100.000
G1 X64.456 Y-50.330 Z-0.150 F100.000
G1 X64.456 Y-49.318 Z-0.150 F100.000
G1 X64.157 Y-49.318 Z-0.150 F100.000
G1 X64.157 Y-50.049 Z-0.150 F100.000
G0 Z1.000
G0 Z1.000
G0 X64.157 Y-50.049
G0 X65.109
G0 X65.109 Z0.500
G1 X65.109 Y-50.049 Z-0.150 F100.000
G1 X65.109 Y-50.330 Z-0.150 F100.000
G1 X65.408 Y-50.330 Z-0.150 F100.000
G1 X65.408 Y-49.318 Z-0.150 F100.000
G1 X65.109 Y-49.318 Z-0.150 F100.000
G1 X65.109 Y-50.049 Z-0.150 F100.000
G0 Z1.000
G0 Z1.000
G0 X65.109 Y-50.049
G0 X64.501 Y-48.414
G0 X64.501 Y-48.414 Z0.500
G1 X64.501 Y-48.414 Z-0.150 F100.000
G1 X64.501 Y-47.889 Z-0.150 F100.000
G1 X64.276 Y-47.889 Z-0.150 F100.000
G1 X64.276 Y-48.414 Z-0.150 F100.000
G1 X64.501 Y-48.414 Z-0.150 F100.000
G0 Z1.000
G0 Z1.000
G0 X64.501 Y-48.414
G0 X63.376
G0 X63.376 Z0.500
G1 X63.376 Y-48.414 Z-0.150 F100.000
G1 X63.376 Y-47.889 Z-0.150 F100.000
G1 X63.151 Y-47.889 Z-0.150 F100.000
G1 X63.151 Y-48.414 Z-0.150 F100.000
G1 X63.376 Y-48.414 Z-0.150 F100.000
G0 Z1.000
G0 Z1.000
G0 X63.376 Y-48.414
G0 Y-47.012
G0 Y-47.012 Z0.500
G1 X63.376 Y-47.012 Z-0.150 F100.000
G1 X63.526 Y-47.012 Z-0.150 F100.000
G1 X63.526 Y-46.786 Z-0.150 F100.000
G1 X63.001 Y-46.786 Z-0.150 F100.000
G1 X63.001 Y-47.012 Z-0.150 F100.000
G1 X63.376 Y-47.012 Z-0.150 F100.000
G0 Z1.000
G0 Z1.000
G0 X63.376 Y-47.012
G0 Y-45.886
G0 Y-45.886 Z0.500
G1 X63.376 Y-45.886 Z-0.150 F100.000
G1 X63.526 Y-45.886 Z-0.150 F100.000
G1 X63.526 Y-45.661 Z-0.150 F100.000
G1 X63.001 Y-45.661 Z-0.150 F100.000
G1 X63.001 Y-45.886 Z-0.150 F100.000
G1 X63.376 Y-45.886 Z-0.150 F100.000
G0 Z1.000
G0 Z1.000
G0 X63.376 Y-45.886
G0 Y-44.716
G0 Y-44.716 Z0.500
G1 X63.376 Y-44.716 Z-0.150 F100.000
G1 X63.526 Y-44.716 Z-0.150 F100.000
G1 X63.526 Y-44.491 Z-0.150 F100.000
G1 X63.001 Y-44.491 Z-0.150 F100.000
G1 X63.001 Y-44.716 Z-0.150 F100.000
G1 X63.376 Y-44.716 Z-0.150 F100.000
G0 Z1.000
G0 Z1.000
G0 X63.376 Y-44.716
G0 Y-43.592
G0 Y-43.592 Z0.500
G1 X63.376 Y-43.592 Z-0.150 F100.000
G1 X63.526 Y-43.592 Z-0.150 F100.000
G1 X63.526 Y-43.366 Z-0.150 F100.000
G1 X63.001 Y-43.366 Z-0.150 F100.000
G1 X63.001 Y-43.592 Z-0.150 F100.000
G1 X63.376 Y-43.592 Z-0.150 F100.000
G0 Z1.000
G0 Z1.000
G0 X63.376 Y-43.592
G0 X64.400
G0 X64.400 Z0.500
G1 X64.400 Y-43.592 Z-0.150 F100.000
G1 X64.400 Y-43.629 Z-0.150 F100.000
G1 X64.887 Y-43.629 Z-0.150 F100.000
G1 X64.887 Y-43.178 Z-0.150 F100.000
G1 X64.400 Y-43.178 Z-0.150 F100.000
G1 X64.400 Y-43.592 Z-0.150 F100.000
G0 Z1.000
G0 Z1.000
G0 X64.400 Y-43.592
G0 Y-44.304
G0 Y-44.304 Z0.500
G1 X64.400 Y-44.304 Z-0.150 F100.000
G1 X64.400 Y-44.754 Z-0.150 F100.000
G1 X64.887 Y-44.754 Z-0.150 F100.000
G1 X64.887 Y-44.304 Z-0.150 F100.000
G1 X64.400 Y-44.304 Z-0.150 F100.000
G0 Z1.000
G0 Z1.000
G0 X64.400 Y-44.304
G0 Y-45.661
G0 Y-45.661 Z0.500
G1 X64.400 Y-45.661 Z-0.150 F100.000
G1 X64.381 Y-45.661 Z-0.150 F100.000
G1 X64.381 Y-45.886 Z-0.150 F100.000
G1 X64.906 Y-45.886 Z-0.150 F100.000
G1 X64.906 Y-45.661 Z-0.150 F100.000
G1 X64.400 Y-45.661 Z-0.150 F100.000
G0 Z1.000
G0 Z1.000
G0 X64.400 Y-45.661
G0 Y-46.786
G0 Y-46.786 Z0.500
G1 X64.400 Y-46.786 Z-0.150 F100.000
G1 X64.381 Y-46.786 Z-0.150 F100.000
G1 X64.381 Y-47.012 Z-0.150 F100.000
G1 X64.906 Y-47.012 Z-0.150 F100.000
G1 X64.906 Y-46.786 Z-0.150 F100.000
G1 X64.400 Y-46.786 Z-0.150 F100.000
G0 Z1.000
G0 Z1.000
G0 X64.400 Y-46.786
G0 X60.516
G0 X60.516 Z0.500
G1 X60.516 Y-46.786 Z-0.150 F100.000
G1 X60.516 Y-46.201 Z-0.150 F100.000
G1 X59.471 Y-46.201 Z-0.150 F100.000
G1 X59.471 Y-48.107 Z-0.150 F100.000
G1 X60.516 Y-48.107 Z-0.150 F100.000
G1 X60.516 Y-46.786 Z-0.150 F100.000
G0 Z1.000
G0 Z1.000
G0 X60.516 Y-46.786
G0 Y-44.432
G0 Y-44.432 Z0.500
G1 X60.516 Y-44.432 Z-0.150 F100.000
G1 X60.516 Y-42.526 Z-0.150 F100.000
G1 X59.471 Y-42.526 Z-0.150 F100.000
G1 X59.471 Y-44.432 Z-0.150 F100.000
G1 X60.516 Y-44.432 Z-0.150 F100.000
G0 Z1.000
G0 Z1.000
G0 X60.516 Y-44.432
G0 X60.526 Y-41.409
G0 X60.526 Y-41.409 Z0.500
G1 X60.526 Y-41.409 Z-0.150 F100.000
G1 X60.526 Y-40.884 Z-0.150 F100.000
G1 X60.301 Y-40.884 Z-0.150 F100.000
G1 X60.301 Y-41.409 Z-0.150 F100.000
G1 X60.526 Y-41.409 Z-0.150 F100.000
G0 Z1.000
G0 Z1.000
G0 X60.526 Y-41.409
G0 Y-39.901
G0 Y-39.901 Z0.500
G1 X60.526 Y-39.901 Z-0.150 F100.000
G1 X60.781 Y-39.901 Z-0.150 F100.000
G1 X60.781 Y-39.676 Z-0.150 F100.000
G1 X60.256 Y-39.676 Z-0.150 F100.000
G1 X60.256 Y-39.901 Z-0.150 F100.000
G1 X60.526 Y-39.901 Z-0.150 F100.000
G0 Z1.000
G0 Z1.000
G0 X60.526 Y-39.901
G0 X59.404
G0 X59.404 Z0.500
G1 X59.404 Y-39.901 Z-0.150 F100.000
G1 X59.404 Y-39.563 Z-0.150 F100.000
G1 X58.917 Y-39.563 Z-0.150 F100.000
G1 X58.917 Y-40.014 Z-0.150 F100.000
G1 X59.404 Y-40.014 Z-0.150 F100.000
G1 X59.404 Y-39.901 Z-0.150 F100.000
G0 Z1.000
G0 Z1.000
G0 X59.404 Y-39.901
G0 Y-38.889
G0 Y-38.889 Z0.500
G1 X59.404 Y-38.889 Z-0.150 F100.000
G1 X59.404 Y-38.439 Z-0.150 F100.000
G1 X58.917 Y-38.439 Z-0.150 F100.000
G1 X58.917 Y-38.889 Z-0.150 F100.000
G1 X59.404 Y-38.889 Z-0.150 F100.000
G0 Z1.000
G0 Z1.000
G0 X59.404 Y-38.889
G0 X60.256 Y-38.776
G0 X60.256 Y-38.776 Z0.500
G1 X60.256 Y-38.776 Z-0.150 F100.000
G1 X60.781 Y-38.776 Z-0.150 F100.000
G1 X60.781 Y-38.551 Z-0.150 F100.000
G1 X60.256 Y-38.551 Z-0.150 F100.000
G1 X60.256 Y-38.776 Z-0.150 F100.000
G0 Z1.000
G0 Z1.000
G0 X60.256 Y-38.776
G0 X61.632
G0 X61.632 Z0.500
G1 X61.632 Y-38.776 Z-0.150 F100.000
G1 X61.632 Y-38.889 Z-0.150 F100.000
G1 X62.119 Y-38.889 Z-0.150 F100.000
G1 X62.119 Y-38.439 Z-0.150 F100.000
G1 X61.632 Y-38.439 Z-0.150 F100.000
G1 X61.632 Y-38.776 Z-0.150 F100.000
G0 Z1.000
G0 Z1.000
G0 X61.632 Y-38.776
G0 Y-39.563
G0 Y-39.563 Z0.500
G1 X61.632 Y-39.563 Z-0.150 F100.000
G1 X61.632 Y-40.014 Z-0.150 F100.000
G1 X62.119 Y-40.014 Z-0.150 F100.000
G1 X62.119 Y-39.563 Z-0.150 F100.000
G1 X61.632 Y-39.563 Z-0.150 F100.000
G0 Z1.000
G0 Z1.000
G0 X61.632 Y-39.563
G0 Y-40.884
G0 Y-40.884 Z0.500
G1 X61.632 Y-40.884 Z-0.150 F100.000
G1 X61.426 Y-40.884 Z-0.150 F100.000
G1 X61.426 Y-41.409 Z-0.150 F100.000
G1 X61.651 Y-41.409 Z-0.150 F100.000
G1 X61.651 Y-40.884 Z-0.150 F100.000
G1 X61.632 Y-40.884 Z-0.150 F100.000
G0 Z1.000
G0 Z1.000
G0 X61.632 Y-40.884
G0 X62.953 Y-40.014
G0 X62.953 Y-40.014 Z0.500
G1 X62.953 Y-40.014 Z-0.150 F100.000
G1 X63.440 Y-40.014 Z-0.150 F100.000
G1 X63.440 Y-39.563 Z-0.150 F100.000
G1 X62.953 Y-39.563 Z-0.150 F100.000
G1 X62.953 Y-40.014 Z-0.150 F100.000
G0 Z1.000
G0 Z1.000
G0 X62.953 Y-40.014
G0 X62.952 Y-38.889
G0 X62.952 Y-38.889 Z0.500
G1 X62.952 Y-38.889 Z-0.150 F100.000
G1 X63.439 Y-38.889 Z-0.150 F100.000
G1 X63.439 Y-38.439 Z-0.150 F100.000
G1 X62.952 Y-38.439 Z-0.150 F100.000
G1 X62.952 Y-38.889 Z-0.150 F100.000
G0 Z1.000
G0 Z1.000
G0 X62.952 Y-38.889
G0 X62.543 Y-53.322
G0 X62.543 Y-53.322 Z0.500
G1 X62.543 Y-53.322 Z-0.150 F100.000
G1 X62.244 Y-53.322 Z-0.150 F100.000
G1 X62.244 Y-54.335 Z-0.150 F100.000
G1 X62.543 Y-54.335 Z-0.150 F100.000
G1 X62.543 Y-53.322 Z-0.150 F100.000
G0 Z1.000
G0 Z1.000
G0 X62.543 Y-53.322
G0 X63.195
G0 X63.195 Z0.500
G1 X63.195 Y-53.322 Z-0.150 F100.000
G1 X63.195 Y-54.335 Z-0.150 F100.000
G1 X63.495 Y-54.335 Z-0.150 F100.000
G1 X63.495 Y-53.322 Z-0.150 F100.000
G1 X63.195 Y-53.322 Z-0.150 F100.000
G0 Z1.000
G0 Z1.000
G0 X63.195 Y-53.322
G0 X64.156
G0 X64.156 Z0.500
G1 X64.156 Y-53.322 Z-0.150 F100.000
G1 X64.156 Y-54.335 Z-0.150 F100.000
G1 X64.455 Y-54.335 Z-0.150 F100.000
G1 X64.455 Y-53.322 Z-0.150 F100.000
G1 X64.156 Y-53.322 Z-0.150 F100.000
G0 Z1.000
G0 Z1.000
G0 X64.156 Y-53.322
G0 X65.109
G0 X65.109 Z0.500
G1 X65.109 Y-53.322 Z-0.150 F100.000
G1 X65.109 Y-54.335 Z-0.150 F100.000
G1 X65.408 Y-54.335 Z-0.150 F100.000
G1 X65.408 Y-53.322 Z-0.150 F100.000
G1 X65.109 Y-53.322 Z-0.150 F100.000
G0 Z1.000
G0 Z1.000
G0 X65.109 Y-53.322
G0 X64.359 Y-55.213
G0 X64.359 Y-55.213 Z0.500
G1 X64.359 Y-55.213 Z-0.150 F100.000
G1 X63.909 Y-55.213 Z-0.150 F100.000
G1 X63.909 Y-55.700 Z-0.150 F100.000
G1 X64.359 Y-55.700 Z-0.150 F100.000
G1 X64.359 Y-55.213 Z-0.150 F100.000
G0 Z1.000
G0 Z1.000
G0 X64.359 Y-55.213
G0 X65.033
G0 X65.033 Z0.500
G1 X65.033 Y-55.213 Z-0.150 F100.000
G1 X65.033 Y-55.700 Z-0.150 F100.000
G1 X65.484 Y-55.700 Z-0.150 F100.000
G1 X65.484 Y-55.213 Z-0.150 F100.000
G1 X65.033 Y-55.213 Z-0.150 F100.000
G0 Z1.000
G0 Z1.000
G0 X65.033 Y-55.213
G0 X77.212 Y-66.754
G0 X77.212 Y-66.754 Z0.500
G1 X77.212 Y-66.754 Z-0.150 F100.000
G3 X78.769 Y-68.269 Z-0.150 I0.788 J-0.747 K0.000 F100.000
G3 X77.233 Y-66.733 Z-0.150 I-0.768 J0.768 K0.000 F100.000
G3 X77.212 Y-66.754 Z-0.150 I0.768 J-0.768 K0.000 F100.000
G0 Z1.000
G0 Z1.000
G0 X77.212 Y-66.754
G0 X77.984 Y-16.087
G0 X77.984 Y-16.087 Z0.500
G1 X77.984 Y-16.087 Z-0.150 F100.000
G3 X78.769 Y-15.769 Z-0.150 I0.017 J1.086 K0.000 F100.000
G3 X78.769 Y-14.233 Z-0.150 I-0.768 J0.768 K0.000 F100.000
G3 X77.233 Y-14.233 Z-0.150 I-0.768 J-0.768 K0.000 F100.000
G3 X77.984 Y-16.087 Z-0.150 I0.768 J-0.768 K0.000 F100.000
G0 Z1.000
G0 Z1.000
G0 X77.984 Y-16.087
G0 X15.842 Y-66.814
G0 X15.842 Y-66.814 Z0.500
G1 X15.842 Y-66.814 Z-0.150 F100.000
G3 X14.233 Y-66.733 Z-0.150 I-0.841 J-0.687 K0.000 F100.000
G3 X14.233 Y-68.269 Z-0.150 I0.768 J-0.768 K0.000 F100.000
G3 X15.769 Y-68.269 Z-0.150 I0.768 J0.768 K0.000 F100.000
G3 X15.842 Y-66.814 Z-0.150 I-0.768 J0.768 K0.000 F100.000
G0 Z1.000
G0 Z1.000
(Finish operation: Profile)
(Begin operation: Profile001)
(Path: Profile001)
(Profile001)
(Compensated Tool Path. Diameter: 0.15)
G0 Z1.000
G0 X93.054 Y0.052
G0 Z0.500
G1 X93.054 Y0.052 Z-0.150 F100.000
G2 X93.076 Y-0.001 Z-0.150 I-0.053 J-0.053 K0.000 F100.000
G1 X93.076 Y-82.501 Z-0.150 F100.000
G2 X93.001 Y-82.576 Z-0.150 I-0.075 J0.000 K0.000 F100.000
G1 X0.001 Y-82.576 Z-0.150 F100.000
G2 X-0.074 Y-82.501 Z-0.150 I0.000 J0.075 K0.000 F100.000
G1 X-0.074 Y-0.001 Z-0.150 F100.000
G2 X0.001 Y0.074 Z-0.150 I0.075 J-0.000 K0.000 F100.000
G1 X93.001 Y0.074 Z-0.150 F100.000
G2 X93.054 Y0.052 Z-0.150 I-0.000 J-0.075 K0.000 F100.000
G0 Z1.000
G0 Z1.000
(Finish operation: Profile001)
(Begin postamble)
M5
G17 G90
M2
