(Exported by FreeCAD)
(Post Processor: grbl_post)
(Output Time:2023-02-12 18:27:33.522164)
(Begin preamble)
G17 G90
G21
(Begin operation: G54)
(Path: G54)
G54
G0 Z5.000
(Finish operation: G54)
(Begin operation: ballend-015mm001)
(Path: ballend-015mm001)
(ballend-015mm001)
(Begin toolchange)
( M6 T2 )
M3 S10000
(Finish operation: ballend-015mm001)
(Begin operation: Profile)
(Path: Profile)
(Profile)
(Compensated Tool Path. Diameter: 0.15)
G0 Z1.000
G0 X1.051 Y1.038
G0 Z0.500
G1 X1.051 Y1.038 Z-0.150 F100.000
G1 X0.573 Y1.356 Z-0.150 F100.000
G1 X0.009 Y1.468 Z-0.150 F100.000
G1 X-0.555 Y1.356 Z-0.150 F100.000
G1 X-1.033 Y1.038 Z-0.150 F100.000
G1 X-1.353 Y0.559 Z-0.150 F100.000
G1 X-1.464 Y-0.005 Z-0.150 F100.000
G1 X-1.353 Y-0.569 Z-0.150 F100.000
G1 X-1.033 Y-1.047 Z-0.150 F100.000
G1 X-0.555 Y-1.366 Z-0.150 F100.000
G1 X0.009 Y-1.478 Z-0.150 F100.000
G1 X0.573 Y-1.366 Z-0.150 F100.000
G1 X1.051 Y-1.047 Z-0.150 F100.000
G1 X1.371 Y-0.569 Z-0.150 F100.000
G1 X1.482 Y-0.005 Z-0.150 F100.000
G1 X1.371 Y0.559 Z-0.150 F100.000
G1 X1.051 Y1.038 Z-0.150 F100.000
G0 Z1.000
G0 Z1.000
G0 X1.051 Y1.038
G0 X15.544 Y-34.819
G0 X15.544 Y-34.819 Z0.500
G1 X15.544 Y-34.819 Z-0.150 F100.000
G1 X15.544 Y-37.169 Z-0.150 F100.000
G1 X16.993 Y-37.169 Z-0.150 F100.000
G1 X16.993 Y-34.819 Z-0.150 F100.000
G1 X15.544 Y-34.819 Z-0.150 F100.000
G0 Z1.000
G0 Z1.000
G0 X15.544 Y-34.819
G0 Y-38.120
G0 Y-38.120 Z0.500
G1 X15.544 Y-38.120 Z-0.150 F100.000
G1 X15.544 Y-40.470 Z-0.150 F100.000
G1 X16.993 Y-40.470 Z-0.150 F100.000
G1 X16.993 Y-38.120 Z-0.150 F100.000
G1 X15.544 Y-38.120 Z-0.150 F100.000
G0 Z1.000
G0 Z1.000
G0 X15.544 Y-38.120
G0 X15.964 Y-41.869
G0 X15.964 Y-41.869 Z0.500
G1 X15.964 Y-41.869 Z-0.150 F100.000
G1 X15.964 Y-42.619 Z-0.150 F100.000
G1 X16.314 Y-42.619 Z-0.150 F100.000
G1 X16.314 Y-41.869 Z-0.150 F100.000
G1 X15.964 Y-41.869 Z-0.150 F100.000
G0 Z1.000
G0 Z1.000
G0 X15.964 Y-41.869
G0 X17.463
G0 X17.463 Z0.500
G1 X17.463 Y-41.869 Z-0.150 F100.000
G1 X17.463 Y-42.619 Z-0.150 F100.000
G1 X17.814 Y-42.619 Z-0.150 F100.000
G1 X17.814 Y-41.869 Z-0.150 F100.000
G1 X17.463 Y-41.869 Z-0.150 F100.000
G0 Z1.000
G0 Z1.000
G0 X17.463 Y-41.869
G0 X18.964
G0 X18.964 Z0.500
G1 X18.964 Y-41.869 Z-0.150 F100.000
G1 X18.964 Y-42.619 Z-0.150 F100.000
G1 X19.314 Y-42.619 Z-0.150 F100.000
G1 X19.314 Y-41.869 Z-0.150 F100.000
G1 X18.964 Y-41.869 Z-0.150 F100.000
G0 Z1.000
G0 Z1.000
G0 X18.964 Y-41.869
G0 Y-43.770
G0 Y-43.770 Z0.500
G1 X18.964 Y-43.770 Z-0.150 F100.000
G1 X17.514 Y-43.770 Z-0.150 F100.000
G1 X17.514 Y-44.820 Z-0.150 F100.000
G1 X19.164 Y-44.820 Z-0.150 F100.000
G1 X19.164 Y-43.770 Z-0.150 F100.000
G1 X18.964 Y-43.770 Z-0.150 F100.000
G0 Z1.000
G0 Z1.000
G0 X18.964 Y-43.770
G0 X20.315
G0 X20.315 Z0.500
G1 X20.315 Y-43.770 Z-0.150 F100.000
G1 X20.315 Y-44.396 Z-0.150 F100.000
G1 X20.965 Y-44.396 Z-0.150 F100.000
G1 X20.965 Y-43.695 Z-0.150 F100.000
G1 X20.315 Y-43.695 Z-0.150 F100.000
G1 X20.315 Y-43.770 Z-0.150 F100.000
G0 Z1.000
G0 Z1.000
G0 X20.315 Y-43.770
G0 X20.463 Y-42.619
G0 X20.463 Y-42.619 Z0.500
G1 X20.463 Y-42.619 Z-0.150 F100.000
G1 X20.813 Y-42.619 Z-0.150 F100.000
G1 X20.813 Y-41.869 Z-0.150 F100.000
G1 X20.463 Y-41.869 Z-0.150 F100.000
G1 X20.463 Y-42.619 Z-0.150 F100.000
G0 Z1.000
G0 Z1.000
G0 X20.463 Y-42.619
G0 X21.814 Y-43.695
G0 X21.814 Y-43.695 Z0.500
G1 X21.814 Y-43.695 Z-0.150 F100.000
G1 X21.814 Y-44.396 Z-0.150 F100.000
G1 X22.465 Y-44.396 Z-0.150 F100.000
G1 X22.465 Y-43.695 Z-0.150 F100.000
G1 X21.814 Y-43.695 Z-0.150 F100.000
G0 Z1.000
G0 Z1.000
G0 X21.814 Y-43.695
G0 X23.804
G0 X23.804 Z0.500
G1 X23.804 Y-43.695 Z-0.150 F100.000
G1 X23.804 Y-44.360 Z-0.150 F100.000
G1 X24.154 Y-44.360 Z-0.150 F100.000
G1 X24.154 Y-43.610 Z-0.150 F100.000
G1 X23.804 Y-43.610 Z-0.150 F100.000
G1 X23.804 Y-43.695 Z-0.150 F100.000
G0 Z1.000
G0 Z1.000
G0 X23.804 Y-43.695
G0 X25.304
G0 X25.304 Z0.500
G1 X25.304 Y-43.695 Z-0.150 F100.000
G1 X25.304 Y-44.360 Z-0.150 F100.000
G1 X25.655 Y-44.360 Z-0.150 F100.000
G1 X25.655 Y-43.610 Z-0.150 F100.000
G1 X25.304 Y-43.610 Z-0.150 F100.000
G1 X25.304 Y-43.695 Z-0.150 F100.000
G0 Z1.000
G0 Z1.000
G0 X25.304 Y-43.695
G0 X27.404
G0 X27.404 Z0.500
G1 X27.404 Y-43.695 Z-0.150 F100.000
G1 X27.404 Y-44.360 Z-0.150 F100.000
G1 X27.755 Y-44.360 Z-0.150 F100.000
G1 X27.755 Y-43.610 Z-0.150 F100.000
G1 X27.404 Y-43.610 Z-0.150 F100.000
G1 X27.404 Y-43.695 Z-0.150 F100.000
G0 Z1.000
G0 Z1.000
G0 X27.404 Y-43.695
G0 X28.904
G0 X28.904 Z0.500
G1 X28.904 Y-43.695 Z-0.150 F100.000
G1 X28.904 Y-44.360 Z-0.150 F100.000
G1 X29.254 Y-44.360 Z-0.150 F100.000
G1 X29.254 Y-43.610 Z-0.150 F100.000
G1 X28.904 Y-43.610 Z-0.150 F100.000
G1 X28.904 Y-43.695 Z-0.150 F100.000
G0 Z1.000
G0 Z1.000
G0 X28.904 Y-43.695
G0 Y-42.430
G0 Y-42.430 Z0.500
G1 X28.904 Y-42.430 Z-0.150 F100.000
G1 X29.284 Y-42.430 Z-0.150 F100.000
G1 X29.284 Y-42.080 Z-0.150 F100.000
G1 X28.534 Y-42.080 Z-0.150 F100.000
G1 X28.534 Y-42.430 Z-0.150 F100.000
G1 X28.904 Y-42.430 Z-0.150 F100.000
G0 Z1.000
G0 Z1.000
G0 X28.904 Y-42.430
G0 Y-40.930
G0 Y-40.930 Z0.500
G1 X28.904 Y-40.930 Z-0.150 F100.000
G1 X29.284 Y-40.930 Z-0.150 F100.000
G1 X29.284 Y-40.580 Z-0.150 F100.000
G1 X28.534 Y-40.580 Z-0.150 F100.000
G1 X28.534 Y-40.930 Z-0.150 F100.000
G1 X28.904 Y-40.930 Z-0.150 F100.000
G0 Z1.000
G0 Z1.000
G0 X28.904 Y-40.930
G0 X27.405
G0 X27.405 Z0.500
G1 X27.405 Y-40.930 Z-0.150 F100.000
G1 X27.405 Y-40.760 Z-0.150 F100.000
G1 X26.354 Y-40.760 Z-0.150 F100.000
G1 X26.354 Y-42.410 Z-0.150 F100.000
G1 X27.405 Y-42.410 Z-0.150 F100.000
G1 X27.405 Y-40.930 Z-0.150 F100.000
G0 Z1.000
G0 Z1.000
G0 X27.405 Y-40.930
G0 X24.504
G0 X24.504 Z0.500
G1 X24.504 Y-40.930 Z-0.150 F100.000
G1 X24.504 Y-40.760 Z-0.150 F100.000
G1 X23.454 Y-40.760 Z-0.150 F100.000
G1 X23.454 Y-42.410 Z-0.150 F100.000
G1 X24.504 Y-42.410 Z-0.150 F100.000
G1 X24.504 Y-40.930 Z-0.150 F100.000
G0 Z1.000
G0 Z1.000
G0 X24.504 Y-40.930
G0 X22.839 Y-45.870
G0 X22.839 Y-45.870 Z0.500
G1 X22.839 Y-45.870 Z-0.150 F100.000
G1 X21.439 Y-45.870 Z-0.150 F100.000
G1 X21.439 Y-46.319 Z-0.150 F100.000
G1 X22.839 Y-46.319 Z-0.150 F100.000
G1 X22.839 Y-45.870 Z-0.150 F100.000
G0 Z1.000
G0 Z1.000
G0 X22.839 Y-45.870
G0 Y-47.140
G0 Y-47.140 Z0.500
G1 X22.839 Y-47.140 Z-0.150 F100.000
G1 X21.439 Y-47.140 Z-0.150 F100.000
G1 X21.439 Y-47.590 Z-0.150 F100.000
G1 X22.839 Y-47.590 Z-0.150 F100.000
G1 X22.839 Y-47.140 Z-0.150 F100.000
G0 Z1.000
G0 Z1.000
G0 X22.839 Y-47.140
G0 Y-48.421
G0 Y-48.421 Z0.500
G1 X22.839 Y-48.421 Z-0.150 F100.000
G1 X21.439 Y-48.421 Z-0.150 F100.000
G1 X21.439 Y-48.870 Z-0.150 F100.000
G1 X22.839 Y-48.870 Z-0.150 F100.000
G1 X22.839 Y-48.421 Z-0.150 F100.000
G0 Z1.000
G0 Z1.000
G0 X22.839 Y-48.421
G0 Y-49.690
G0 Y-49.690 Z0.500
G1 X22.839 Y-49.690 Z-0.150 F100.000
G1 X21.439 Y-49.690 Z-0.150 F100.000
G1 X21.439 Y-50.139 Z-0.150 F100.000
G1 X22.839 Y-50.139 Z-0.150 F100.000
G1 X22.839 Y-49.690 Z-0.150 F100.000
G0 Z1.000
G0 Z1.000
G0 X22.839 Y-49.690
G0 X22.465 Y-51.554
G0 X22.465 Y-51.554 Z0.500
G1 X22.465 Y-51.554 Z-0.150 F100.000
G1 X21.814 Y-51.554 Z-0.150 F100.000
G1 X21.814 Y-52.254 Z-0.150 F100.000
G1 X22.465 Y-52.254 Z-0.150 F100.000
G1 X22.465 Y-51.554 Z-0.150 F100.000
G0 Z1.000
G0 Z1.000
G0 X22.465 Y-51.554
G0 X23.313
G0 X23.313 Z0.500
G1 X23.313 Y-51.554 Z-0.150 F100.000
G1 X23.313 Y-52.254 Z-0.150 F100.000
G1 X23.964 Y-52.254 Z-0.150 F100.000
G1 X23.964 Y-51.554 Z-0.150 F100.000
G1 X23.313 Y-51.554 Z-0.150 F100.000
G0 Z1.000
G0 Z1.000
G0 X23.313 Y-51.554
G0 X20.014 Y-51.520
G0 X20.014 Y-51.520 Z0.500
G1 X20.014 Y-51.520 Z-0.150 F100.000
G1 X20.014 Y-50.770 Z-0.150 F100.000
G1 X19.664 Y-50.770 Z-0.150 F100.000
G1 X19.664 Y-51.520 Z-0.150 F100.000
G1 X20.014 Y-51.520 Z-0.150 F100.000
G0 Z1.000
G0 Z1.000
G0 X20.014 Y-51.520
G0 X18.515
G0 X18.515 Z0.500
G1 X18.515 Y-51.520 Z-0.150 F100.000
G1 X18.515 Y-50.770 Z-0.150 F100.000
G1 X18.165 Y-50.770 Z-0.150 F100.000
G1 X18.165 Y-51.520 Z-0.150 F100.000
G1 X18.515 Y-51.520 Z-0.150 F100.000
G0 Z1.000
G0 Z1.000
G0 X18.515 Y-51.520
G0 Y-49.620
G0 Y-49.620 Z0.500
G1 X18.515 Y-49.620 Z-0.150 F100.000
G1 X18.515 Y-48.870 Z-0.150 F100.000
G1 X18.165 Y-48.870 Z-0.150 F100.000
G1 X18.165 Y-49.620 Z-0.150 F100.000
G1 X18.515 Y-49.620 Z-0.150 F100.000
G0 Z1.000
G0 Z1.000
G0 X18.515 Y-49.620
G0 X19.664
G0 X19.664 Z0.500
G1 X19.664 Y-49.620 Z-0.150 F100.000
G1 X20.014 Y-49.620 Z-0.150 F100.000
G1 X20.014 Y-48.870 Z-0.150 F100.000
G1 X19.664 Y-48.870 Z-0.150 F100.000
G1 X19.664 Y-49.620 Z-0.150 F100.000
G0 Z1.000
G0 Z1.000
G0 X19.664 Y-49.620
G0 X19.164 Y-47.719
G0 X19.164 Y-47.719 Z0.500
G1 X19.164 Y-47.719 Z-0.150 F100.000
G1 X19.164 Y-46.669 Z-0.150 F100.000
G1 X17.514 Y-46.669 Z-0.150 F100.000
G1 X17.514 Y-47.719 Z-0.150 F100.000
G1 X19.164 Y-47.719 Z-0.150 F100.000
G0 Z1.000
G0 Z1.000
G0 X19.164 Y-47.719
G0 X16.314 Y-45.969
G0 X16.314 Y-45.969 Z0.500
G1 X16.314 Y-45.969 Z-0.150 F100.000
G1 X16.314 Y-45.619 Z-0.150 F100.000
G1 X15.564 Y-45.619 Z-0.150 F100.000
G1 X15.564 Y-45.969 Z-0.150 F100.000
G1 X16.314 Y-45.969 Z-0.150 F100.000
G0 Z1.000
G0 Z1.000
G0 X16.314 Y-45.969
G0 Y-44.470
G0 Y-44.470 Z0.500
G1 X16.314 Y-44.470 Z-0.150 F100.000
G1 X16.314 Y-44.120 Z-0.150 F100.000
G1 X15.564 Y-44.120 Z-0.150 F100.000
G1 X15.564 Y-44.470 Z-0.150 F100.000
G1 X16.314 Y-44.470 Z-0.150 F100.000
G0 Z1.000
G0 Z1.000
G0 X16.314 Y-44.470
G0 X26.779 Y-45.870
G0 X26.779 Y-45.870 Z0.500
G1 X26.779 Y-45.870 Z-0.150 F100.000
G1 X26.779 Y-46.319 Z-0.150 F100.000
G1 X28.179 Y-46.319 Z-0.150 F100.000
G1 X28.179 Y-45.870 Z-0.150 F100.000
G1 X26.779 Y-45.870 Z-0.150 F100.000
G0 Z1.000
G0 Z1.000
G0 X26.779 Y-45.870
G0 Y-47.140
G0 Y-47.140 Z0.500
G1 X26.779 Y-47.140 Z-0.150 F100.000
G1 X26.779 Y-47.590 Z-0.150 F100.000
G1 X28.179 Y-47.590 Z-0.150 F100.000
G1 X28.179 Y-47.140 Z-0.150 F100.000
G1 X26.779 Y-47.140 Z-0.150 F100.000
G0 Z1.000
G0 Z1.000
G0 X26.779 Y-47.140
G0 Y-48.421
G0 Y-48.421 Z0.500
G1 X26.779 Y-48.421 Z-0.150 F100.000
G1 X26.779 Y-48.870 Z-0.150 F100.000
G1 X28.179 Y-48.870 Z-0.150 F100.000
G1 X28.179 Y-48.421 Z-0.150 F100.000
G1 X26.779 Y-48.421 Z-0.150 F100.000
G0 Z1.000
G0 Z1.000
G0 X26.779 Y-48.421
G0 Y-49.691
G0 Y-49.691 Z0.500
G1 X26.779 Y-49.691 Z-0.150 F100.000
G1 X26.779 Y-50.141 Z-0.150 F100.000
G1 X28.179 Y-50.141 Z-0.150 F100.000
G1 X28.179 Y-49.691 Z-0.150 F100.000
G1 X26.779 Y-49.691 Z-0.150 F100.000
G0 Z1.000
G0 Z1.000
G0 X26.779 Y-49.691
G0 X29.309 Y-47.921
G0 X29.309 Y-47.921 Z0.500
G1 X29.309 Y-47.921 Z-0.150 F100.000
G1 X30.009 Y-47.921 Z-0.150 F100.000
G1 X30.009 Y-47.270 Z-0.150 F100.000
G1 X29.309 Y-47.270 Z-0.150 F100.000
G1 X29.309 Y-47.921 Z-0.150 F100.000
G0 Z1.000
G0 Z1.000
G0 X29.309 Y-47.921
G0 Y-46.421
G0 Y-46.421 Z0.500
G1 X29.309 Y-46.421 Z-0.150 F100.000
G1 X30.009 Y-46.421 Z-0.150 F100.000
G1 X30.009 Y-45.770 Z-0.150 F100.000
G1 X29.309 Y-45.770 Z-0.150 F100.000
G1 X29.309 Y-46.421 Z-0.150 F100.000
G0 Z1.000
G0 Z1.000
G0 X29.309 Y-46.421
G0 X32.517 Y-44.061
G0 X32.517 Y-44.061 Z0.500
G1 X32.517 Y-44.061 Z-0.150 F100.000
G1 X33.961 Y-44.061 Z-0.150 F100.000
G1 X33.961 Y-41.470 Z-0.150 F100.000
G1 X32.517 Y-41.470 Z-0.150 F100.000
G1 X32.517 Y-44.061 Z-0.150 F100.000
G0 Z1.000
G0 Z1.000
G0 X32.517 Y-44.061
G0 Y-39.160
G0 Y-39.160 Z0.500
G1 X32.517 Y-39.160 Z-0.150 F100.000
G1 X33.961 Y-39.160 Z-0.150 F100.000
G1 X33.961 Y-36.569 Z-0.150 F100.000
G1 X32.517 Y-36.569 Z-0.150 F100.000
G1 X32.517 Y-39.160 Z-0.150 F100.000
G0 Z1.000
G0 Z1.000
G0 X32.517 Y-39.160
G0 X33.064 Y-35.139
G0 X33.064 Y-35.139 Z0.500
G1 X33.064 Y-35.139 Z-0.150 F100.000
G1 X33.414 Y-35.139 Z-0.150 F100.000
G1 X33.414 Y-34.390 Z-0.150 F100.000
G1 X33.064 Y-34.390 Z-0.150 F100.000
G1 X33.064 Y-35.139 Z-0.150 F100.000
G0 Z1.000
G0 Z1.000
G0 X33.064 Y-35.139
G0 X34.563
G0 X34.563 Z0.500
G1 X34.563 Y-35.139 Z-0.150 F100.000
G1 X34.914 Y-35.139 Z-0.150 F100.000
G1 X34.914 Y-34.390 Z-0.150 F100.000
G1 X34.563 Y-34.390 Z-0.150 F100.000
G1 X34.563 Y-35.139 Z-0.150 F100.000
G0 Z1.000
G0 Z1.000
G0 X34.563 Y-35.139
G0 X34.504 Y-30.491
G0 X34.504 Y-30.491 Z0.500
G1 X34.504 Y-30.491 Z-0.150 F100.000
G1 X34.504 Y-29.940 Z-0.150 F100.000
G1 X33.163 Y-29.940 Z-0.150 F100.000
G1 X33.163 Y-30.491 Z-0.150 F100.000
G1 X34.504 Y-30.491 Z-0.150 F100.000
G0 Z1.000
G0 Z1.000
G0 X34.504 Y-30.491
G0 Y-27.950
G0 Y-27.950 Z0.500
G1 X34.504 Y-27.950 Z-0.150 F100.000
G1 X34.504 Y-27.399 Z-0.150 F100.000
G1 X33.163 Y-27.399 Z-0.150 F100.000
G1 X33.163 Y-27.950 Z-0.150 F100.000
G1 X34.504 Y-27.950 Z-0.150 F100.000
G0 Z1.000
G0 Z1.000
G0 X34.504 Y-27.950
G0 Y-25.410
G0 Y-25.410 Z0.500
G1 X34.504 Y-25.410 Z-0.150 F100.000
G1 X34.504 Y-24.859 Z-0.150 F100.000
G1 X33.163 Y-24.859 Z-0.150 F100.000
G1 X33.163 Y-25.410 Z-0.150 F100.000
G1 X34.504 Y-25.410 Z-0.150 F100.000
G0 Z1.000
G0 Z1.000
G0 X34.504 Y-25.410
G0 Y-22.871
G0 Y-22.871 Z0.500
G1 X34.504 Y-22.871 Z-0.150 F100.000
G1 X34.504 Y-22.319 Z-0.150 F100.000
G1 X33.163 Y-22.319 Z-0.150 F100.000
G1 X33.163 Y-22.871 Z-0.150 F100.000
G1 X34.504 Y-22.871 Z-0.150 F100.000
G0 Z1.000
G0 Z1.000
G0 X34.504 Y-22.871
G0 X40.314
G0 X40.314 Z0.500
G1 X40.314 Y-22.871 Z-0.150 F100.000
G1 X41.655 Y-22.871 Z-0.150 F100.000
G1 X41.655 Y-22.319 Z-0.150 F100.000
G1 X40.314 Y-22.319 Z-0.150 F100.000
G1 X40.314 Y-22.871 Z-0.150 F100.000
G0 Z1.000
G0 Z1.000
G0 X40.314 Y-22.871
G0 Y-24.859
G0 Y-24.859 Z0.500
G1 X40.314 Y-24.859 Z-0.150 F100.000
G1 X40.314 Y-25.410 Z-0.150 F100.000
G1 X41.655 Y-25.410 Z-0.150 F100.000
G1 X41.655 Y-24.859 Z-0.150 F100.000
G1 X40.314 Y-24.859 Z-0.150 F100.000
G0 Z1.000
G0 Z1.000
G0 X40.314 Y-24.859
G0 Y-27.399
G0 Y-27.399 Z0.500
G1 X40.314 Y-27.399 Z-0.150 F100.000
G1 X40.314 Y-27.950 Z-0.150 F100.000
G1 X41.655 Y-27.950 Z-0.150 F100.000
G1 X41.655 Y-27.399 Z-0.150 F100.000
G1 X40.314 Y-27.399 Z-0.150 F100.000
G0 Z1.000
G0 Z1.000
G0 X40.314 Y-27.399
G0 Y-29.940
G0 Y-29.940 Z0.500
G1 X40.314 Y-29.940 Z-0.150 F100.000
G1 X40.314 Y-30.491 Z-0.150 F100.000
G1 X41.655 Y-30.491 Z-0.150 F100.000
G1 X41.655 Y-29.940 Z-0.150 F100.000
G1 X40.314 Y-29.940 Z-0.150 F100.000
G0 Z1.000
G0 Z1.000
G0 X40.314 Y-29.940
G0 X43.154
G0 X43.154 Z0.500
G1 X43.154 Y-29.940 Z-0.150 F100.000
G1 X43.154 Y-31.331 Z-0.150 F100.000
G1 X43.603 Y-31.331 Z-0.150 F100.000
G1 X43.603 Y-29.681 Z-0.150 F100.000
G1 X43.154 Y-29.681 Z-0.150 F100.000
G1 X43.154 Y-29.940 Z-0.150 F100.000
G0 Z1.000
G0 Z1.000
G0 X43.154 Y-29.940
G0 X45.654
G0 X45.654 Z0.500
G1 X45.654 Y-29.940 Z-0.150 F100.000
G1 X45.654 Y-31.331 Z-0.150 F100.000
G1 X46.103 Y-31.331 Z-0.150 F100.000
G1 X46.103 Y-29.681 Z-0.150 F100.000
G1 X45.654 Y-29.681 Z-0.150 F100.000
G1 X45.654 Y-29.940 Z-0.150 F100.000
G0 Z1.000
G0 Z1.000
G0 X45.654 Y-29.940
G0 X44.214 Y-32.550
G0 X44.214 Y-32.550 Z0.500
G1 X44.214 Y-32.550 Z-0.150 F100.000
G1 X43.464 Y-32.550 Z-0.150 F100.000
G1 X43.464 Y-33.400 Z-0.150 F100.000
G1 X44.214 Y-33.400 Z-0.150 F100.000
G1 X44.214 Y-32.550 Z-0.150 F100.000
G0 Z1.000
G0 Z1.000
G0 X44.214 Y-32.550
G0 X43.264 Y-34.749
G0 X43.264 Y-34.749 Z0.500
G1 X43.264 Y-34.749 Z-0.150 F100.000
G1 X42.515 Y-34.749 Z-0.150 F100.000
G1 X42.515 Y-35.599 Z-0.150 F100.000
G1 X43.264 Y-35.599 Z-0.150 F100.000
G1 X43.264 Y-34.749 Z-0.150 F100.000
G0 Z1.000
G0 Z1.000
G0 X43.264 Y-34.749
G0 X41.309 Y-34.825
G0 X41.309 Y-34.825 Z0.500
G1 X41.309 Y-34.825 Z-0.150 F100.000
G1 X40.659 Y-34.825 Z-0.150 F100.000
G1 X40.659 Y-35.525 Z-0.150 F100.000
G1 X41.309 Y-35.525 Z-0.150 F100.000
G1 X41.309 Y-34.825 Z-0.150 F100.000
G0 Z1.000
G0 Z1.000
G0 X41.309 Y-34.825
G0 X39.810
G0 X39.810 Z0.500
G1 X39.810 Y-34.825 Z-0.150 F100.000
G1 X39.159 Y-34.825 Z-0.150 F100.000
G1 X39.159 Y-35.525 Z-0.150 F100.000
G1 X39.810 Y-35.525 Z-0.150 F100.000
G1 X39.810 Y-34.825 Z-0.150 F100.000
G0 Z1.000
G0 Z1.000
G0 X39.810 Y-34.825
G0 X39.159 Y-33.130
G0 X39.159 Y-33.130 Z0.500
G1 X39.159 Y-33.130 Z-0.150 F100.000
G1 X39.159 Y-32.880 Z-0.150 F100.000
G1 X38.409 Y-32.880 Z-0.150 F100.000
G1 X38.409 Y-33.130 Z-0.150 F100.000
G1 X39.159 Y-33.130 Z-0.150 F100.000
G0 Z1.000
G0 Z1.000
G0 X39.159 Y-33.130
G0 X40.609
G0 X40.609 Z0.500
G1 X40.609 Y-33.130 Z-0.150 F100.000
G1 X41.359 Y-33.130 Z-0.150 F100.000
G1 X41.359 Y-32.880 Z-0.150 F100.000
G1 X40.609 Y-32.880 Z-0.150 F100.000
G1 X40.609 Y-33.130 Z-0.150 F100.000
G0 Z1.000
G0 Z1.000
G0 X40.609 Y-33.130
G0 X44.414 Y-34.749
G0 X44.414 Y-34.749 Z0.500
G1 X44.414 Y-34.749 Z-0.150 F100.000
G1 X44.414 Y-35.599 Z-0.150 F100.000
G1 X45.163 Y-35.599 Z-0.150 F100.000
G1 X45.163 Y-34.749 Z-0.150 F100.000
G1 X44.414 Y-34.749 Z-0.150 F100.000
G0 Z1.000
G0 Z1.000
G0 X44.414 Y-34.749
G0 X46.339 Y-34.850
G0 X46.339 Y-34.850 Z0.500
G1 X46.339 Y-34.850 Z-0.150 F100.000
G1 X46.339 Y-35.500 Z-0.150 F100.000
G1 X47.039 Y-35.500 Z-0.150 F100.000
G1 X47.039 Y-34.850 Z-0.150 F100.000
G1 X46.339 Y-34.850 Z-0.150 F100.000
G0 Z1.000
G0 Z1.000
G0 X46.339 Y-34.850
G0 Y-34.001
G0 Y-34.001 Z0.500
G1 X46.339 Y-34.001 Z-0.150 F100.000
G1 X47.039 Y-34.001 Z-0.150 F100.000
G1 X47.039 Y-33.350 Z-0.150 F100.000
G1 X46.339 Y-33.350 Z-0.150 F100.000
G1 X46.339 Y-34.001 Z-0.150 F100.000
G0 Z1.000
G0 Z1.000
G0 X46.339 Y-34.001
G0 X50.914
G0 X50.914 Z0.500
G1 X50.914 Y-34.001 Z-0.150 F100.000
G1 X50.914 Y-36.575 Z-0.150 F100.000
G1 X52.364 Y-36.575 Z-0.150 F100.000
G1 X52.364 Y-33.775 Z-0.150 F100.000
G1 X50.914 Y-33.775 Z-0.150 F100.000
G1 X50.914 Y-34.001 Z-0.150 F100.000
G0 Z1.000
G0 Z1.000
G0 X50.914 Y-34.001
G0 Y-32.006
G0 Y-32.006 Z0.500
G1 X50.914 Y-32.006 Z-0.150 F100.000
G1 X52.440 Y-32.006 Z-0.150 F100.000
G1 X52.440 Y-29.506 Z-0.150 F100.000
G1 X50.839 Y-29.506 Z-0.150 F100.000
G1 X50.839 Y-32.006 Z-0.150 F100.000
G1 X50.914 Y-32.006 Z-0.150 F100.000
G0 Z1.000
G0 Z1.000
G0 X50.914 Y-32.006
G0 Y-27.705
G0 Y-27.705 Z0.500
G1 X50.914 Y-27.705 Z-0.150 F100.000
G1 X52.440 Y-27.705 Z-0.150 F100.000
G1 X52.440 Y-25.205 Z-0.150 F100.000
G1 X50.839 Y-25.205 Z-0.150 F100.000
G1 X50.839 Y-27.705 Z-0.150 F100.000
G1 X50.914 Y-27.705 Z-0.150 F100.000
G0 Z1.000
G0 Z1.000
G0 X50.914 Y-27.705
G0 X46.105 Y-25.030
G0 X46.105 Y-25.030 Z0.500
G1 X46.105 Y-25.030 Z-0.150 F100.000
G1 X46.105 Y-23.380 Z-0.150 F100.000
G1 X45.655 Y-23.380 Z-0.150 F100.000
G1 X45.655 Y-25.030 Z-0.150 F100.000
G1 X46.105 Y-25.030 Z-0.150 F100.000
G0 Z1.000
G0 Z1.000
G0 X46.105 Y-25.030
G0 X43.603
G0 X43.603 Z0.500
G1 X43.603 Y-25.030 Z-0.150 F100.000
G1 X43.603 Y-23.380 Z-0.150 F100.000
G1 X43.154 Y-23.380 Z-0.150 F100.000
G1 X43.154 Y-25.030 Z-0.150 F100.000
G1 X43.603 Y-25.030 Z-0.150 F100.000
G0 Z1.000
G0 Z1.000
G0 X43.603 Y-25.030
G0 X41.968 Y-40.781
G0 X41.968 Y-40.781 Z0.500
G1 X41.968 Y-40.781 Z-0.150 F100.000
G1 X40.778 Y-40.781 Z-0.150 F100.000
G1 X40.778 Y-42.431 Z-0.150 F100.000
G1 X41.968 Y-42.431 Z-0.150 F100.000
G1 X41.968 Y-40.781 Z-0.150 F100.000
G0 Z1.000
G0 Z1.000
G0 X41.968 Y-40.781
G0 X39.100 Y-40.779
G0 X39.100 Y-40.779 Z0.500
G1 X39.100 Y-40.779 Z-0.150 F100.000
G1 X37.910 Y-40.779 Z-0.150 F100.000
G1 X37.910 Y-42.429 Z-0.150 F100.000
G1 X39.100 Y-42.429 Z-0.150 F100.000
G1 X39.100 Y-40.779 Z-0.150 F100.000
G0 Z1.000
G0 Z1.000
G0 X39.100 Y-40.779
G0 X39.024 Y-43.680
G0 X39.024 Y-43.680 Z0.500
G1 X39.024 Y-43.680 Z-0.150 F100.000
G1 X37.974 Y-43.680 Z-0.150 F100.000
G1 X37.974 Y-45.330 Z-0.150 F100.000
G1 X39.024 Y-45.330 Z-0.150 F100.000
G1 X39.024 Y-43.680 Z-0.150 F100.000
G0 Z1.000
G0 Z1.000
G0 X39.024 Y-43.680
G0 Y-46.566
G0 Y-46.566 Z0.500
G1 X39.024 Y-46.566 Z-0.150 F100.000
G1 X37.675 Y-46.566 Z-0.150 F100.000
G1 X37.675 Y-47.755 Z-0.150 F100.000
G1 X39.325 Y-47.755 Z-0.150 F100.000
G1 X39.325 Y-46.566 Z-0.150 F100.000
G1 X39.024 Y-46.566 Z-0.150 F100.000
G0 Z1.000
G0 Z1.000
G0 X39.024 Y-46.566
G0 Y-49.435
G0 Y-49.435 Z0.500
G1 X39.024 Y-49.435 Z-0.150 F100.000
G1 X37.674 Y-49.435 Z-0.150 F100.000
G1 X37.674 Y-50.624 Z-0.150 F100.000
G1 X39.324 Y-50.624 Z-0.150 F100.000
G1 X39.324 Y-49.435 Z-0.150 F100.000
G1 X39.024 Y-49.435 Z-0.150 F100.000
G0 Z1.000
G0 Z1.000
G0 X39.024 Y-49.435
G0 Y-52.094
G0 Y-52.094 Z0.500
G1 X39.024 Y-52.094 Z-0.150 F100.000
G1 X37.774 Y-52.094 Z-0.150 F100.000
G1 X37.774 Y-54.895 Z-0.150 F100.000
G1 X39.224 Y-54.895 Z-0.150 F100.000
G1 X39.224 Y-52.094 Z-0.150 F100.000
G1 X39.024 Y-52.094 Z-0.150 F100.000
G0 Z1.000
G0 Z1.000
G0 X39.024 Y-52.094
G0 X40.574 Y-50.570
G0 X40.574 Y-50.570 Z0.500
G1 X40.574 Y-50.570 Z-0.150 F100.000
G1 X42.224 Y-50.570 Z-0.150 F100.000
G1 X42.224 Y-49.520 Z-0.150 F100.000
G1 X40.574 Y-49.520 Z-0.150 F100.000
G1 X40.574 Y-50.570 Z-0.150 F100.000
G0 Z1.000
G0 Z1.000
G0 X40.574 Y-50.570
G0 Y-47.670
G0 Y-47.670 Z0.500
G1 X40.574 Y-47.670 Z-0.150 F100.000
G1 X42.224 Y-47.670 Z-0.150 F100.000
G1 X42.224 Y-46.620 Z-0.150 F100.000
G1 X40.574 Y-46.620 Z-0.150 F100.000
G1 X40.574 Y-47.670 Z-0.150 F100.000
G0 Z1.000
G0 Z1.000
G0 X40.574 Y-47.670
G0 X40.873 Y-45.330
G0 X40.873 Y-45.330 Z0.500
G1 X40.873 Y-45.330 Z-0.150 F100.000
G1 X41.924 Y-45.330 Z-0.150 F100.000
G1 X41.924 Y-43.680 Z-0.150 F100.000
G1 X40.873 Y-43.680 Z-0.150 F100.000
G1 X40.873 Y-45.330 Z-0.150 F100.000
G0 Z1.000
G0 Z1.000
G0 X40.873 Y-45.330
G0 X43.539 Y-44.019
G0 X43.539 Y-44.019 Z0.500
G1 X43.539 Y-44.019 Z-0.150 F100.000
G1 X44.939 Y-44.019 Z-0.150 F100.000
G1 X44.939 Y-43.570 Z-0.150 F100.000
G1 X43.539 Y-43.570 Z-0.150 F100.000
G1 X43.539 Y-44.019 Z-0.150 F100.000
G0 Z1.000
G0 Z1.000
G0 X43.539 Y-44.019
G0 Y-44.841
G0 Y-44.841 Z0.500
G1 X43.539 Y-44.841 Z-0.150 F100.000
G1 X43.539 Y-45.290 Z-0.150 F100.000
G1 X44.939 Y-45.290 Z-0.150 F100.000
G1 X44.939 Y-44.841 Z-0.150 F100.000
G1 X43.539 Y-44.841 Z-0.150 F100.000
G0 Z1.000
G0 Z1.000
G0 X43.539 Y-44.841
G0 Y-46.119
G0 Y-46.119 Z0.500
G1 X43.539 Y-46.119 Z-0.150 F100.000
G1 X43.539 Y-46.569 Z-0.150 F100.000
G1 X44.939 Y-46.569 Z-0.150 F100.000
G1 X44.939 Y-46.119 Z-0.150 F100.000
G1 X43.539 Y-46.119 Z-0.150 F100.000
G0 Z1.000
G0 Z1.000
G0 X43.539 Y-46.119
G0 Y-47.390
G0 Y-47.390 Z0.500
G1 X43.539 Y-47.390 Z-0.150 F100.000
G1 X43.539 Y-47.839 Z-0.150 F100.000
G1 X44.939 Y-47.839 Z-0.150 F100.000
G1 X44.939 Y-47.390 Z-0.150 F100.000
G1 X43.539 Y-47.390 Z-0.150 F100.000
G0 Z1.000
G0 Z1.000
G0 X43.539 Y-47.390
G0 Y-49.520
G0 Y-49.520 Z0.500
G1 X43.539 Y-49.520 Z-0.150 F100.000
G1 X43.424 Y-49.520 Z-0.150 F100.000
G1 X43.424 Y-50.570 Z-0.150 F100.000
G1 X45.074 Y-50.570 Z-0.150 F100.000
G1 X45.074 Y-49.520 Z-0.150 F100.000
G1 X43.539 Y-49.520 Z-0.150 F100.000
G0 Z1.000
G0 Z1.000
G0 X43.539 Y-49.520
G0 Y-52.420
G0 Y-52.420 Z0.500
G1 X43.539 Y-52.420 Z-0.150 F100.000
G1 X43.424 Y-52.420 Z-0.150 F100.000
G1 X43.424 Y-53.470 Z-0.150 F100.000
G1 X45.074 Y-53.470 Z-0.150 F100.000
G1 X45.074 Y-52.420 Z-0.150 F100.000
G1 X43.539 Y-52.420 Z-0.150 F100.000
G0 Z1.000
G0 Z1.000
G0 X43.539 Y-52.420
G0 X46.363
G0 X46.363 Z0.500
G1 X46.363 Y-52.420 Z-0.150 F100.000
G1 X46.363 Y-53.544 Z-0.150 F100.000
G1 X48.013 Y-53.544 Z-0.150 F100.000
G1 X48.013 Y-52.355 Z-0.150 F100.000
G1 X46.363 Y-52.355 Z-0.150 F100.000
G1 X46.363 Y-52.420 Z-0.150 F100.000
G0 Z1.000
G0 Z1.000
G0 X46.363 Y-52.420
G0 X46.365 Y-50.675
G0 X46.365 Y-50.675 Z0.500
G1 X46.365 Y-50.675 Z-0.150 F100.000
G1 X48.015 Y-50.675 Z-0.150 F100.000
G1 X48.015 Y-49.486 Z-0.150 F100.000
G1 X46.365 Y-49.486 Z-0.150 F100.000
G1 X46.365 Y-50.675 Z-0.150 F100.000
G0 Z1.000
G0 Z1.000
G0 X46.365 Y-50.675
G0 X48.878 Y-47.839
G0 X48.878 Y-47.839 Z0.500
G1 X48.878 Y-47.839 Z-0.150 F100.000
G1 X50.279 Y-47.839 Z-0.150 F100.000
G1 X50.279 Y-47.390 Z-0.150 F100.000
G1 X48.878 Y-47.390 Z-0.150 F100.000
G1 X48.878 Y-47.839 Z-0.150 F100.000
G0 Z1.000
G0 Z1.000
G0 X48.878 Y-47.839
G0 Y-46.570
G0 Y-46.570 Z0.500
G1 X48.878 Y-46.570 Z-0.150 F100.000
G1 X50.279 Y-46.570 Z-0.150 F100.000
G1 X50.279 Y-46.121 Z-0.150 F100.000
G1 X48.878 Y-46.121 Z-0.150 F100.000
G1 X48.878 Y-46.570 Z-0.150 F100.000
G0 Z1.000
G0 Z1.000
G0 X48.878 Y-46.570
G0 Y-45.290
G0 Y-45.290 Z0.500
G1 X48.878 Y-45.290 Z-0.150 F100.000
G1 X50.279 Y-45.290 Z-0.150 F100.000
G1 X50.279 Y-44.841 Z-0.150 F100.000
G1 X48.878 Y-44.841 Z-0.150 F100.000
G1 X48.878 Y-45.290 Z-0.150 F100.000
G0 Z1.000
G0 Z1.000
G0 X48.878 Y-45.290
G0 Y-44.019
G0 Y-44.019 Z0.500
G1 X48.878 Y-44.019 Z-0.150 F100.000
G1 X50.279 Y-44.019 Z-0.150 F100.000
G1 X50.279 Y-43.570 Z-0.150 F100.000
G1 X48.878 Y-43.570 Z-0.150 F100.000
G1 X48.878 Y-44.019 Z-0.150 F100.000
G0 Z1.000
G0 Z1.000
G0 X48.878 Y-44.019
G0 X51.484 Y-44.190
G0 X51.484 Y-44.190 Z0.500
G1 X51.484 Y-44.190 Z-0.150 F100.000
G1 X51.484 Y-45.240 Z-0.150 F100.000
G1 X53.134 Y-45.240 Z-0.150 F100.000
G1 X53.134 Y-44.190 Z-0.150 F100.000
G1 X51.484 Y-44.190 Z-0.150 F100.000
G0 Z1.000
G0 Z1.000
G0 X51.484 Y-44.190
G0 Y-47.090
G0 Y-47.090 Z0.500
G1 X51.484 Y-47.090 Z-0.150 F100.000
G1 X51.484 Y-48.140 Z-0.150 F100.000
G1 X53.134 Y-48.140 Z-0.150 F100.000
G1 X53.134 Y-47.090 Z-0.150 F100.000
G1 X51.484 Y-47.090 Z-0.150 F100.000
G0 Z1.000
G0 Z1.000
G0 X51.484 Y-47.090
G0 X51.034 Y-49.486
G0 X51.034 Y-49.486 Z0.500
G1 X51.034 Y-49.486 Z-0.150 F100.000
G1 X49.384 Y-49.486 Z-0.150 F100.000
G1 X49.384 Y-50.675 Z-0.150 F100.000
G1 X51.034 Y-50.675 Z-0.150 F100.000
G1 X51.034 Y-49.486 Z-0.150 F100.000
G0 Z1.000
G0 Z1.000
G0 X51.034 Y-49.486
G0 Y-52.355
G0 Y-52.355 Z0.500
G1 X51.034 Y-52.355 Z-0.150 F100.000
G1 X49.384 Y-52.355 Z-0.150 F100.000
G1 X49.384 Y-53.544 Z-0.150 F100.000
G1 X51.034 Y-53.544 Z-0.150 F100.000
G1 X51.034 Y-52.355 Z-0.150 F100.000
G0 Z1.000
G0 Z1.000
G0 X51.034 Y-52.355
G0 Y-54.776
G0 Y-54.776 Z0.500
G1 X51.034 Y-54.776 Z-0.150 F100.000
G1 X49.384 Y-54.776 Z-0.150 F100.000
G1 X49.384 Y-55.966 Z-0.150 F100.000
G1 X51.034 Y-55.966 Z-0.150 F100.000
G1 X51.034 Y-54.776 Z-0.150 F100.000
G0 Z1.000
G0 Z1.000
G0 X51.034 Y-54.776
G0 Y-57.644
G0 Y-57.644 Z0.500
G1 X51.034 Y-57.644 Z-0.150 F100.000
G1 X49.384 Y-57.644 Z-0.150 F100.000
G1 X49.384 Y-58.833 Z-0.150 F100.000
G1 X51.034 Y-58.833 Z-0.150 F100.000
G1 X51.034 Y-57.644 Z-0.150 F100.000
G0 Z1.000
G0 Z1.000
G0 X51.034 Y-57.644
G0 X46.974 Y-59.780
G0 X46.974 Y-59.780 Z0.500
G1 X46.974 Y-59.780 Z-0.150 F100.000
G1 X45.524 Y-59.780 Z-0.150 F100.000
G1 X45.524 Y-62.129 Z-0.150 F100.000
G1 X46.974 Y-62.129 Z-0.150 F100.000
G1 X46.974 Y-59.780 Z-0.150 F100.000
G0 Z1.000
G0 Z1.000
G0 X46.974 Y-59.780
G0 Y-63.080
G0 Y-63.080 Z0.500
G1 X46.974 Y-63.080 Z-0.150 F100.000
G1 X45.524 Y-63.080 Z-0.150 F100.000
G1 X45.524 Y-65.430 Z-0.150 F100.000
G1 X46.974 Y-65.430 Z-0.150 F100.000
G1 X46.974 Y-63.080 Z-0.150 F100.000
G0 Z1.000
G0 Z1.000
G0 X46.974 Y-63.080
G0 X49.709 Y-63.081
G0 X49.709 Y-63.081 Z0.500
G1 X49.709 Y-63.081 Z-0.150 F100.000
G1 X50.410 Y-63.081 Z-0.150 F100.000
G1 X50.410 Y-62.430 Z-0.150 F100.000
G1 X49.709 Y-62.430 Z-0.150 F100.000
G1 X49.709 Y-63.081 Z-0.150 F100.000
G0 Z1.000
G0 Z1.000
G0 X49.709 Y-63.081
G0 Y-63.929
G0 Y-63.929 Z0.500
G1 X49.709 Y-63.929 Z-0.150 F100.000
G1 X49.709 Y-64.580 Z-0.150 F100.000
G1 X50.410 Y-64.580 Z-0.150 F100.000
G1 X50.410 Y-63.929 Z-0.150 F100.000
G1 X49.709 Y-63.929 Z-0.150 F100.000
G0 Z1.000
G0 Z1.000
G0 X49.709 Y-63.929
G0 X51.574
G0 X51.574 Z0.500
G1 X51.574 Y-63.929 Z-0.150 F100.000
G1 X51.574 Y-64.680 Z-0.150 F100.000
G1 X52.324 Y-64.680 Z-0.150 F100.000
G1 X52.324 Y-63.830 Z-0.150 F100.000
G1 X51.574 Y-63.830 Z-0.150 F100.000
G1 X51.574 Y-63.929 Z-0.150 F100.000
G0 Z1.000
G0 Z1.000
G0 X51.574 Y-63.929
G0 X53.474
G0 X53.474 Z0.500
G1 X53.474 Y-63.929 Z-0.150 F100.000
G1 X53.474 Y-64.680 Z-0.150 F100.000
G1 X54.224 Y-64.680 Z-0.150 F100.000
G1 X54.224 Y-63.830 Z-0.150 F100.000
G1 X53.474 Y-63.830 Z-0.150 F100.000
G1 X53.474 Y-63.929 Z-0.150 F100.000
G0 Z1.000
G0 Z1.000
G0 X53.474 Y-63.929
G0 X53.275 Y-62.481
G0 X53.275 Y-62.481 Z0.500
G1 X53.275 Y-62.481 Z-0.150 F100.000
G1 X53.275 Y-61.630 Z-0.150 F100.000
G1 X52.525 Y-61.630 Z-0.150 F100.000
G1 X52.525 Y-62.481 Z-0.150 F100.000
G1 X53.275 Y-62.481 Z-0.150 F100.000
G0 Z1.000
G0 Z1.000
G0 X53.275 Y-62.481
G0 X55.409
G0 X55.409 Z0.500
G1 X55.409 Y-62.481 Z-0.150 F100.000
G1 X55.409 Y-63.081 Z-0.150 F100.000
G1 X56.109 Y-63.081 Z-0.150 F100.000
G1 X56.109 Y-62.430 Z-0.150 F100.000
G1 X55.409 Y-62.430 Z-0.150 F100.000
G1 X55.409 Y-62.481 Z-0.150 F100.000
G0 Z1.000
G0 Z1.000
G0 X55.409 Y-62.481
G0 Y-63.929
G0 Y-63.929 Z0.500
G1 X55.409 Y-63.929 Z-0.150 F100.000
G1 X55.409 Y-64.580 Z-0.150 F100.000
G1 X56.109 Y-64.580 Z-0.150 F100.000
G1 X56.109 Y-63.929 Z-0.150 F100.000
G1 X55.409 Y-63.929 Z-0.150 F100.000
G0 Z1.000
G0 Z1.000
G0 X55.409 Y-63.929
G0 X57.484 Y-63.229
G0 X57.484 Y-63.229 Z0.500
G1 X57.484 Y-63.229 Z-0.150 F100.000
G1 X59.834 Y-63.229 Z-0.150 F100.000
G1 X59.834 Y-61.779 Z-0.150 F100.000
G1 X57.484 Y-61.779 Z-0.150 F100.000
G1 X57.484 Y-63.229 Z-0.150 F100.000
G0 Z1.000
G0 Z1.000
G0 X57.484 Y-63.229
G0 X60.785 Y-63.230
G0 X60.785 Y-63.230 Z0.500
G1 X60.785 Y-63.230 Z-0.150 F100.000
G1 X63.134 Y-63.230 Z-0.150 F100.000
G1 X63.134 Y-61.781 Z-0.150 F100.000
G1 X60.785 Y-61.781 Z-0.150 F100.000
G1 X60.785 Y-63.230 Z-0.150 F100.000
G0 Z1.000
G0 Z1.000
G0 X60.785 Y-63.230
G0 X56.534 Y-59.635
G0 X56.534 Y-59.635 Z0.500
G1 X56.534 Y-59.635 Z-0.150 F100.000
G1 X56.534 Y-56.835 Z-0.150 F100.000
G1 X55.084 Y-56.835 Z-0.150 F100.000
G1 X55.084 Y-59.635 Z-0.150 F100.000
G1 X56.534 Y-59.635 Z-0.150 F100.000
G0 Z1.000
G0 Z1.000
G0 X56.534 Y-59.635
G0 Y-54.436
G0 Y-54.436 Z0.500
G1 X56.534 Y-54.436 Z-0.150 F100.000
G1 X56.534 Y-51.635 Z-0.150 F100.000
G1 X55.084 Y-51.635 Z-0.150 F100.000
G1 X55.084 Y-54.436 Z-0.150 F100.000
G1 X56.534 Y-54.436 Z-0.150 F100.000
G0 Z1.000
G0 Z1.000
G0 X56.534 Y-54.436
G0 X60.859 Y-48.260
G0 X60.859 Y-48.260 Z0.500
G1 X60.859 Y-48.260 Z-0.150 F100.000
G1 X61.559 Y-48.260 Z-0.150 F100.000
G1 X61.559 Y-47.609 Z-0.150 F100.000
G1 X60.859 Y-47.609 Z-0.150 F100.000
G1 X60.859 Y-48.260 Z-0.150 F100.000
G0 Z1.000
G0 Z1.000
G0 X60.859 Y-48.260
G0 Y-46.760
G0 Y-46.760 Z0.500
G1 X60.859 Y-46.760 Z-0.150 F100.000
G1 X61.559 Y-46.760 Z-0.150 F100.000
G1 X61.559 Y-46.110 Z-0.150 F100.000
G1 X60.859 Y-46.110 Z-0.150 F100.000
G1 X60.859 Y-46.760 Z-0.150 F100.000
G0 Z1.000
G0 Z1.000
G0 X60.859 Y-46.760
G0 X62.974
G0 X62.974 Z0.500
G1 X62.974 Y-46.760 Z-0.150 F100.000
G1 X62.974 Y-47.135 Z-0.150 F100.000
G1 X63.424 Y-47.135 Z-0.150 F100.000
G1 X63.424 Y-45.735 Z-0.150 F100.000
G1 X62.974 Y-45.735 Z-0.150 F100.000
G1 X62.974 Y-46.760 Z-0.150 F100.000
G0 Z1.000
G0 Z1.000
G0 X62.974 Y-46.760
G0 X64.245
G0 X64.245 Z0.500
G1 X64.245 Y-46.760 Z-0.150 F100.000
G1 X64.245 Y-47.135 Z-0.150 F100.000
G1 X64.694 Y-47.135 Z-0.150 F100.000
G1 X64.694 Y-45.735 Z-0.150 F100.000
G1 X64.245 Y-45.735 Z-0.150 F100.000
G1 X64.245 Y-46.760 Z-0.150 F100.000
G0 Z1.000
G0 Z1.000
G0 X64.245 Y-46.760
G0 X65.525
G0 X65.525 Z0.500
G1 X65.525 Y-46.760 Z-0.150 F100.000
G1 X65.525 Y-47.135 Z-0.150 F100.000
G1 X65.975 Y-47.135 Z-0.150 F100.000
G1 X65.975 Y-45.735 Z-0.150 F100.000
G1 X65.525 Y-45.735 Z-0.150 F100.000
G1 X65.525 Y-46.760 Z-0.150 F100.000
G0 Z1.000
G0 Z1.000
G0 X65.525 Y-46.760
G0 X66.794
G0 X66.794 Z0.500
G1 X66.794 Y-46.760 Z-0.150 F100.000
G1 X66.794 Y-47.135 Z-0.150 F100.000
G1 X67.243 Y-47.135 Z-0.150 F100.000
G1 X67.243 Y-45.735 Z-0.150 F100.000
G1 X66.794 Y-45.735 Z-0.150 F100.000
G1 X66.794 Y-46.760 Z-0.150 F100.000
G0 Z1.000
G0 Z1.000
G0 X66.794 Y-46.760
G0 X66.034 Y-44.580
G0 X66.034 Y-44.580 Z0.500
G1 X66.034 Y-44.580 Z-0.150 F100.000
G1 X66.034 Y-43.830 Z-0.150 F100.000
G1 X65.684 Y-43.830 Z-0.150 F100.000
G1 X65.684 Y-44.580 Z-0.150 F100.000
G1 X66.034 Y-44.580 Z-0.150 F100.000
G0 Z1.000
G0 Z1.000
G0 X66.034 Y-44.580
G0 X64.535
G0 X64.535 Z0.500
G1 X64.535 Y-44.580 Z-0.150 F100.000
G1 X64.535 Y-43.830 Z-0.150 F100.000
G1 X64.184 Y-43.830 Z-0.150 F100.000
G1 X64.184 Y-44.580 Z-0.150 F100.000
G1 X64.535 Y-44.580 Z-0.150 F100.000
G0 Z1.000
G0 Z1.000
G0 X64.535 Y-44.580
G0 Y-42.710
G0 Y-42.710 Z0.500
G1 X64.535 Y-42.710 Z-0.150 F100.000
G1 X64.735 Y-42.710 Z-0.150 F100.000
G1 X64.735 Y-42.360 Z-0.150 F100.000
G1 X63.985 Y-42.360 Z-0.150 F100.000
G1 X63.985 Y-42.710 Z-0.150 F100.000
G1 X64.535 Y-42.710 Z-0.150 F100.000
G0 Z1.000
G0 Z1.000
G0 X64.535 Y-42.710
G0 Y-41.209
G0 Y-41.209 Z0.500
G1 X64.535 Y-41.209 Z-0.150 F100.000
G1 X64.735 Y-41.209 Z-0.150 F100.000
G1 X64.735 Y-40.859 Z-0.150 F100.000
G1 X63.985 Y-40.859 Z-0.150 F100.000
G1 X63.985 Y-41.209 Z-0.150 F100.000
G1 X64.535 Y-41.209 Z-0.150 F100.000
G0 Z1.000
G0 Z1.000
G0 X64.535 Y-41.209
G0 Y-39.650
G0 Y-39.650 Z0.500
G1 X64.535 Y-39.650 Z-0.150 F100.000
G1 X64.735 Y-39.650 Z-0.150 F100.000
G1 X64.735 Y-39.299 Z-0.150 F100.000
G1 X63.985 Y-39.299 Z-0.150 F100.000
G1 X63.985 Y-39.650 Z-0.150 F100.000
G1 X64.535 Y-39.650 Z-0.150 F100.000
G0 Z1.000
G0 Z1.000
G0 X64.535 Y-39.650
G0 Y-38.150
G0 Y-38.150 Z0.500
G1 X64.535 Y-38.150 Z-0.150 F100.000
G1 X64.735 Y-38.150 Z-0.150 F100.000
G1 X64.735 Y-37.800 Z-0.150 F100.000
G1 X63.985 Y-37.800 Z-0.150 F100.000
G1 X63.985 Y-38.150 Z-0.150 F100.000
G1 X64.535 Y-38.150 Z-0.150 F100.000
G0 Z1.000
G0 Z1.000
G0 X64.535 Y-38.150
G0 X65.849
G0 X65.849 Z0.500
G1 X65.849 Y-38.150 Z-0.150 F100.000
G1 X65.849 Y-38.200 Z-0.150 F100.000
G1 X66.549 Y-38.200 Z-0.150 F100.000
G1 X66.549 Y-37.549 Z-0.150 F100.000
G1 X65.849 Y-37.549 Z-0.150 F100.000
G1 X65.849 Y-38.150 Z-0.150 F100.000
G0 Z1.000
G0 Z1.000
G0 X65.849 Y-38.150
G0 Y-39.050
G0 Y-39.050 Z0.500
G1 X65.849 Y-39.050 Z-0.150 F100.000
G1 X65.849 Y-39.701 Z-0.150 F100.000
G1 X66.549 Y-39.701 Z-0.150 F100.000
G1 X66.549 Y-39.050 Z-0.150 F100.000
G1 X65.849 Y-39.050 Z-0.150 F100.000
G0 Z1.000
G0 Z1.000
G0 X65.849 Y-39.050
G0 Y-40.859
G0 Y-40.859 Z0.500
G1 X65.849 Y-40.859 Z-0.150 F100.000
G1 X65.824 Y-40.859 Z-0.150 F100.000
G1 X65.824 Y-41.209 Z-0.150 F100.000
G1 X66.574 Y-41.209 Z-0.150 F100.000
G1 X66.574 Y-40.859 Z-0.150 F100.000
G1 X65.849 Y-40.859 Z-0.150 F100.000
G0 Z1.000
G0 Z1.000
G0 X65.849 Y-40.859
G0 Y-42.360
G0 Y-42.360 Z0.500
G1 X65.849 Y-42.360 Z-0.150 F100.000
G1 X65.824 Y-42.360 Z-0.150 F100.000
G1 X65.824 Y-42.710 Z-0.150 F100.000
G1 X66.574 Y-42.710 Z-0.150 F100.000
G1 X66.574 Y-42.360 Z-0.150 F100.000
G1 X65.849 Y-42.360 Z-0.150 F100.000
G0 Z1.000
G0 Z1.000
G0 X65.849 Y-42.360
G0 X60.722
G0 X60.722 Z0.500
G1 X60.722 Y-42.360 Z-0.150 F100.000
G1 X60.722 Y-41.580 Z-0.150 F100.000
G1 X59.277 Y-41.580 Z-0.150 F100.000
G1 X59.277 Y-44.171 Z-0.150 F100.000
G1 X60.722 Y-44.171 Z-0.150 F100.000
G1 X60.722 Y-42.360 Z-0.150 F100.000
G0 Z1.000
G0 Z1.000
G0 X60.722 Y-42.360
G0 Y-39.271
G0 Y-39.271 Z0.500
G1 X60.722 Y-39.271 Z-0.150 F100.000
G1 X60.722 Y-36.680 Z-0.150 F100.000
G1 X59.277 Y-36.680 Z-0.150 F100.000
G1 X59.277 Y-39.271 Z-0.150 F100.000
G1 X60.722 Y-39.271 Z-0.150 F100.000
G0 Z1.000
G0 Z1.000
G0 X60.722 Y-39.271
G0 Y-35.240
G0 Y-35.240 Z0.500
G1 X60.722 Y-35.240 Z-0.150 F100.000
G1 X60.734 Y-35.240 Z-0.150 F100.000
G1 X60.734 Y-34.490 Z-0.150 F100.000
G1 X60.384 Y-34.490 Z-0.150 F100.000
G1 X60.384 Y-35.240 Z-0.150 F100.000
G1 X60.722 Y-35.240 Z-0.150 F100.000
G0 Z1.000
G0 Z1.000
G0 X60.722 Y-35.240
G0 Y-33.229
G0 Y-33.229 Z0.500
G1 X60.722 Y-33.229 Z-0.150 F100.000
G1 X61.074 Y-33.229 Z-0.150 F100.000
G1 X61.074 Y-32.879 Z-0.150 F100.000
G1 X60.325 Y-32.879 Z-0.150 F100.000
G1 X60.325 Y-33.229 Z-0.150 F100.000
G1 X60.722 Y-33.229 Z-0.150 F100.000
G0 Z1.000
G0 Z1.000
G0 X60.722 Y-33.229
G0 X59.239
G0 X59.239 Z0.500
G1 X59.239 Y-33.229 Z-0.150 F100.000
G1 X59.239 Y-32.729 Z-0.150 F100.000
G1 X58.538 Y-32.729 Z-0.150 F100.000
G1 X58.538 Y-33.380 Z-0.150 F100.000
G1 X59.239 Y-33.380 Z-0.150 F100.000
G1 X59.239 Y-33.229 Z-0.150 F100.000
G0 Z1.000
G0 Z1.000
G0 X59.239 Y-33.229
G0 Y-31.881
G0 Y-31.881 Z0.500
G1 X59.239 Y-31.881 Z-0.150 F100.000
G1 X59.239 Y-31.230 Z-0.150 F100.000
G1 X58.538 Y-31.230 Z-0.150 F100.000
G1 X58.538 Y-31.881 Z-0.150 F100.000
G1 X59.239 Y-31.881 Z-0.150 F100.000
G0 Z1.000
G0 Z1.000
G0 X59.239 Y-31.881
G0 X60.325 Y-31.730
G0 X60.325 Y-31.730 Z0.500
G1 X60.325 Y-31.730 Z-0.150 F100.000
G1 X61.074 Y-31.730 Z-0.150 F100.000
G1 X61.074 Y-31.380 Z-0.150 F100.000
G1 X60.325 Y-31.380 Z-0.150 F100.000
G1 X60.325 Y-31.730 Z-0.150 F100.000
G0 Z1.000
G0 Z1.000
G0 X60.325 Y-31.730
G0 X62.159
G0 X62.159 Z0.500
G1 X62.159 Y-31.730 Z-0.150 F100.000
G1 X62.159 Y-31.881 Z-0.150 F100.000
G1 X62.859 Y-31.881 Z-0.150 F100.000
G1 X62.859 Y-31.230 Z-0.150 F100.000
G1 X62.159 Y-31.230 Z-0.150 F100.000
G1 X62.159 Y-31.730 Z-0.150 F100.000
G0 Z1.000
G0 Z1.000
G0 X62.159 Y-31.730
G0 Y-32.729
G0 Y-32.729 Z0.500
G1 X62.159 Y-32.729 Z-0.150 F100.000
G1 X62.159 Y-33.380 Z-0.150 F100.000
G1 X62.859 Y-33.380 Z-0.150 F100.000
G1 X62.859 Y-32.729 Z-0.150 F100.000
G1 X62.159 Y-32.729 Z-0.150 F100.000
G0 Z1.000
G0 Z1.000
G0 X62.159 Y-32.729
G0 Y-34.490
G0 Y-34.490 Z0.500
G1 X62.159 Y-34.490 Z-0.150 F100.000
G1 X61.884 Y-34.490 Z-0.150 F100.000
G1 X61.884 Y-35.240 Z-0.150 F100.000
G1 X62.234 Y-35.240 Z-0.150 F100.000
G1 X62.234 Y-34.490 Z-0.150 F100.000
G1 X62.159 Y-34.490 Z-0.150 F100.000
G0 Z1.000
G0 Z1.000
G0 X62.159 Y-34.490
G0 X63.920 Y-33.380
G0 X63.920 Y-33.380 Z0.500
G1 X63.920 Y-33.380 Z-0.150 F100.000
G1 X64.620 Y-33.380 Z-0.150 F100.000
G1 X64.620 Y-32.729 Z-0.150 F100.000
G1 X63.920 Y-32.729 Z-0.150 F100.000
G1 X63.920 Y-33.380 Z-0.150 F100.000
G0 Z1.000
G0 Z1.000
G0 X63.920 Y-33.380
G0 X63.918 Y-31.881
G0 X63.918 Y-31.881 Z0.500
G1 X63.918 Y-31.881 Z-0.150 F100.000
G1 X64.618 Y-31.881 Z-0.150 F100.000
G1 X64.618 Y-31.230 Z-0.150 F100.000
G1 X63.918 Y-31.230 Z-0.150 F100.000
G1 X63.918 Y-31.881 Z-0.150 F100.000
G0 Z1.000
G0 Z1.000
G0 X63.918 Y-31.881
G0 X52.364 Y-38.974
G0 X52.364 Y-38.974 Z0.500
G1 X52.364 Y-38.974 Z-0.150 F100.000
G1 X50.914 Y-38.974 Z-0.150 F100.000
G1 X50.914 Y-41.775 Z-0.150 F100.000
G1 X52.364 Y-41.775 Z-0.150 F100.000
G1 X52.364 Y-38.974 Z-0.150 F100.000
G0 Z1.000
G0 Z1.000
G0 X52.364 Y-38.974
G0 X62.974 Y-51.075
G0 X62.974 Y-51.075 Z0.500
G1 X62.974 Y-51.075 Z-0.150 F100.000
G1 X62.974 Y-52.475 Z-0.150 F100.000
G1 X63.424 Y-52.475 Z-0.150 F100.000
G1 X63.424 Y-51.075 Z-0.150 F100.000
G1 X62.974 Y-51.075 Z-0.150 F100.000
G0 Z1.000
G0 Z1.000
G0 X62.974 Y-51.075
G0 X64.244
G0 X64.244 Z0.500
G1 X64.244 Y-51.075 Z-0.150 F100.000
G1 X64.244 Y-52.475 Z-0.150 F100.000
G1 X64.693 Y-52.475 Z-0.150 F100.000
G1 X64.693 Y-51.075 Z-0.150 F100.000
G1 X64.244 Y-51.075 Z-0.150 F100.000
G0 Z1.000
G0 Z1.000
G0 X64.244 Y-51.075
G0 X65.524
G0 X65.524 Z0.500
G1 X65.524 Y-51.075 Z-0.150 F100.000
G1 X65.524 Y-52.475 Z-0.150 F100.000
G1 X65.973 Y-52.475 Z-0.150 F100.000
G1 X65.973 Y-51.075 Z-0.150 F100.000
G1 X65.524 Y-51.075 Z-0.150 F100.000
G0 Z1.000
G0 Z1.000
G0 X65.524 Y-51.075
G0 X66.794
G0 X66.794 Z0.500
G1 X66.794 Y-51.075 Z-0.150 F100.000
G1 X66.794 Y-52.475 Z-0.150 F100.000
G1 X67.243 Y-52.475 Z-0.150 F100.000
G1 X67.243 Y-51.075 Z-0.150 F100.000
G1 X66.794 Y-51.075 Z-0.150 F100.000
G0 Z1.000
G0 Z1.000
G0 X66.794 Y-51.075
G0 Y-53.595
G0 Y-53.595 Z0.500
G1 X66.794 Y-53.595 Z-0.150 F100.000
G1 X66.694 Y-53.595 Z-0.150 F100.000
G1 X66.694 Y-54.295 Z-0.150 F100.000
G1 X67.344 Y-54.295 Z-0.150 F100.000
G1 X67.344 Y-53.595 Z-0.150 F100.000
G1 X66.794 Y-53.595 Z-0.150 F100.000
G0 Z1.000
G0 Z1.000
G0 X66.794 Y-53.595
G0 X65.845
G0 X65.845 Z0.500
G1 X65.845 Y-53.595 Z-0.150 F100.000
G1 X65.194 Y-53.595 Z-0.150 F100.000
G1 X65.194 Y-54.295 Z-0.150 F100.000
G1 X65.845 Y-54.295 Z-0.150 F100.000
G1 X65.845 Y-53.595 Z-0.150 F100.000
G0 Z1.000
G0 Z1.000
G0 X65.845 Y-53.595
G0 X46.885 Y-67.229
G0 X46.885 Y-67.229 Z0.500
G1 X46.885 Y-67.229 Z-0.150 F100.000
G1 X45.935 Y-67.229 Z-0.150 F100.000
G1 X45.935 Y-68.780 Z-0.150 F100.000
G1 X46.885 Y-68.780 Z-0.150 F100.000
G1 X46.885 Y-67.229 Z-0.150 F100.000
G0 Z1.000
G0 Z1.000
G0 X46.885 Y-67.229
G0 X43.683
G0 X43.683 Z0.500
G1 X43.683 Y-67.229 Z-0.150 F100.000
G1 X42.734 Y-67.229 Z-0.150 F100.000
G1 X42.734 Y-68.780 Z-0.150 F100.000
G1 X43.683 Y-68.780 Z-0.150 F100.000
G1 X43.683 Y-67.229 Z-0.150 F100.000
G0 Z1.000
G0 Z1.000
G0 X43.683 Y-67.229
G0 X39.239 Y-66.081
G0 X39.239 Y-66.081 Z0.500
G1 X39.239 Y-66.081 Z-0.150 F100.000
G1 X39.239 Y-65.430 Z-0.150 F100.000
G1 X38.539 Y-65.430 Z-0.150 F100.000
G1 X38.539 Y-66.081 Z-0.150 F100.000
G1 X39.239 Y-66.081 Z-0.150 F100.000
G0 Z1.000
G0 Z1.000
G0 X39.239 Y-66.081
G0 Y-64.581
G0 Y-64.581 Z0.500
G1 X39.239 Y-64.581 Z-0.150 F100.000
G1 X39.239 Y-63.930 Z-0.150 F100.000
G1 X38.539 Y-63.930 Z-0.150 F100.000
G1 X38.539 Y-64.581 Z-0.150 F100.000
G1 X39.239 Y-64.581 Z-0.150 F100.000
G0 Z1.000
G0 Z1.000
G0 X39.239 Y-64.581
G0 X37.144
G0 X37.144 Z0.500
G1 X37.144 Y-64.581 Z-0.150 F100.000
G1 X37.144 Y-63.555 Z-0.150 F100.000
G1 X36.695 Y-63.555 Z-0.150 F100.000
G1 X36.695 Y-64.956 Z-0.150 F100.000
G1 X37.144 Y-64.956 Z-0.150 F100.000
G1 X37.144 Y-64.581 Z-0.150 F100.000
G0 Z1.000
G0 Z1.000
G0 X37.144 Y-64.581
G0 X35.874
G0 X35.874 Z0.500
G1 X35.874 Y-64.581 Z-0.150 F100.000
G1 X35.874 Y-63.555 Z-0.150 F100.000
G1 X35.425 Y-63.555 Z-0.150 F100.000
G1 X35.425 Y-64.956 Z-0.150 F100.000
G1 X35.874 Y-64.956 Z-0.150 F100.000
G1 X35.874 Y-64.581 Z-0.150 F100.000
G0 Z1.000
G0 Z1.000
G0 X35.874 Y-64.581
G0 X34.594
G0 X34.594 Z0.500
G1 X34.594 Y-64.581 Z-0.150 F100.000
G1 X34.594 Y-63.555 Z-0.150 F100.000
G1 X34.145 Y-63.555 Z-0.150 F100.000
G1 X34.145 Y-64.956 Z-0.150 F100.000
G1 X34.594 Y-64.956 Z-0.150 F100.000
G1 X34.594 Y-64.581 Z-0.150 F100.000
G0 Z1.000
G0 Z1.000
G0 X34.594 Y-64.581
G0 X33.325
G0 X33.325 Z0.500
G1 X33.325 Y-64.581 Z-0.150 F100.000
G1 X33.325 Y-63.555 Z-0.150 F100.000
G1 X32.875 Y-63.555 Z-0.150 F100.000
G1 X32.875 Y-64.956 Z-0.150 F100.000
G1 X33.325 Y-64.956 Z-0.150 F100.000
G1 X33.325 Y-64.581 Z-0.150 F100.000
G0 Z1.000
G0 Z1.000
G0 X33.325 Y-64.581
G0 X31.464 Y-63.870
G0 X31.464 Y-63.870 Z0.500
G1 X31.464 Y-63.870 Z-0.150 F100.000
G1 X31.464 Y-63.520 Z-0.150 F100.000
G1 X30.714 Y-63.520 Z-0.150 F100.000
G1 X30.714 Y-63.870 Z-0.150 F100.000
G1 X31.464 Y-63.870 Z-0.150 F100.000
G0 Z1.000
G0 Z1.000
G0 X31.464 Y-63.870
G0 Y-65.019
G0 Y-65.019 Z0.500
G1 X31.464 Y-65.019 Z-0.150 F100.000
G1 X30.714 Y-65.019 Z-0.150 F100.000
G1 X30.714 Y-65.369 Z-0.150 F100.000
G1 X31.464 Y-65.369 Z-0.150 F100.000
G1 X31.464 Y-65.019 Z-0.150 F100.000
G0 Z1.000
G0 Z1.000
G0 X31.464 Y-65.019
G0 X31.474 Y-62.301
G0 X31.474 Y-62.301 Z0.500
G1 X31.474 Y-62.301 Z-0.150 F100.000
G1 X31.474 Y-61.551 Z-0.150 F100.000
G1 X30.924 Y-61.551 Z-0.150 F100.000
G1 X30.924 Y-62.301 Z-0.150 F100.000
G1 X31.474 Y-62.301 Z-0.150 F100.000
G0 Z1.000
G0 Z1.000
G0 X31.474 Y-62.301
G0 X32.223
G0 X32.223 Z0.500
G1 X32.223 Y-62.301 Z-0.150 F100.000
G1 X32.773 Y-62.301 Z-0.150 F100.000
G1 X32.773 Y-61.551 Z-0.150 F100.000
G1 X32.223 Y-61.551 Z-0.150 F100.000
G1 X32.223 Y-62.301 Z-0.150 F100.000
G0 Z1.000
G0 Z1.000
G0 X32.223 Y-62.301
G0 X32.124 Y-60.400
G0 X32.124 Y-60.400 Z0.500
G1 X32.124 Y-60.400 Z-0.150 F100.000
G1 X32.124 Y-59.650 Z-0.150 F100.000
G1 X31.575 Y-59.650 Z-0.150 F100.000
G1 X31.575 Y-60.400 Z-0.150 F100.000
G1 X32.124 Y-60.400 Z-0.150 F100.000
G0 Z1.000
G0 Z1.000
G0 X32.124 Y-60.400
G0 X33.994 Y-60.550
G0 X33.994 Y-60.550 Z0.500
G1 X33.994 Y-60.550 Z-0.150 F100.000
G1 X33.994 Y-60.900 Z-0.150 F100.000
G1 X34.744 Y-60.900 Z-0.150 F100.000
G1 X34.744 Y-60.550 Z-0.150 F100.000
G1 X33.994 Y-60.550 Z-0.150 F100.000
G0 Z1.000
G0 Z1.000
G0 X33.994 Y-60.550
G0 Y-62.049
G0 Y-62.049 Z0.500
G1 X33.994 Y-62.049 Z-0.150 F100.000
G1 X33.994 Y-62.400 Z-0.150 F100.000
G1 X34.744 Y-62.400 Z-0.150 F100.000
G1 X34.744 Y-62.049 Z-0.150 F100.000
G1 X33.994 Y-62.049 Z-0.150 F100.000
G0 Z1.000
G0 Z1.000
G0 X33.994 Y-62.049
G0 X34.145 Y-68.894
G0 X34.145 Y-68.894 Z0.500
G1 X34.145 Y-68.894 Z-0.150 F100.000
G1 X34.145 Y-70.294 Z-0.150 F100.000
G1 X34.594 Y-70.294 Z-0.150 F100.000
G1 X34.594 Y-68.894 Z-0.150 F100.000
G1 X34.145 Y-68.894 Z-0.150 F100.000
G0 Z1.000
G0 Z1.000
G0 X34.145 Y-68.894
G0 X33.323
G0 X33.323 Z0.500
G1 X33.323 Y-68.894 Z-0.150 F100.000
G1 X32.874 Y-68.894 Z-0.150 F100.000
G1 X32.874 Y-70.294 Z-0.150 F100.000
G1 X33.323 Y-70.294 Z-0.150 F100.000
G1 X33.323 Y-68.894 Z-0.150 F100.000
G0 Z1.000
G0 Z1.000
G0 X33.323 Y-68.894
G0 X35.425
G0 X35.425 Z0.500
G1 X35.425 Y-68.894 Z-0.150 F100.000
G1 X35.425 Y-70.294 Z-0.150 F100.000
G1 X35.874 Y-70.294 Z-0.150 F100.000
G1 X35.874 Y-68.894 Z-0.150 F100.000
G1 X35.425 Y-68.894 Z-0.150 F100.000
G0 Z1.000
G0 Z1.000
G0 X35.425 Y-68.894
G0 X36.694
G0 X36.694 Z0.500
G1 X36.694 Y-68.894 Z-0.150 F100.000
G1 X36.694 Y-70.294 Z-0.150 F100.000
G1 X37.143 Y-70.294 Z-0.150 F100.000
G1 X37.143 Y-68.894 Z-0.150 F100.000
G1 X36.694 Y-68.894 Z-0.150 F100.000
G0 Z1.000
G0 Z1.000
G0 X36.694 Y-68.894
G0 X37.774 Y-60.095
G0 X37.774 Y-60.095 Z0.500
G1 X37.774 Y-60.095 Z-0.150 F100.000
G1 X39.224 Y-60.095 Z-0.150 F100.000
G1 X39.224 Y-57.295 Z-0.150 F100.000
G1 X37.774 Y-57.295 Z-0.150 F100.000
G1 X37.774 Y-60.095 Z-0.150 F100.000
G0 Z1.000
G0 Z1.000
G0 X37.774 Y-60.095
G0 X1.371 Y-69.441
G0 X1.371 Y-69.441 Z0.500
G1 X1.371 Y-69.441 Z-0.150 F100.000
G1 X1.051 Y-68.963 Z-0.150 F100.000
G1 X0.573 Y-68.643 Z-0.150 F100.000
G1 X0.009 Y-68.532 Z-0.150 F100.000
G1 X-0.555 Y-68.643 Z-0.150 F100.000
G1 X-1.033 Y-68.963 Z-0.150 F100.000
G1 X-1.353 Y-69.441 Z-0.150 F100.000
G1 X-1.464 Y-70.005 Z-0.150 F100.000
G1 X-1.353 Y-70.569 Z-0.150 F100.000
G1 X-1.033 Y-71.047 Z-0.150 F100.000
G1 X-0.555 Y-71.367 Z-0.150 F100.000
G1 X0.009 Y-71.478 Z-0.150 F100.000
G1 X0.573 Y-71.367 Z-0.150 F100.000
G1 X1.051 Y-71.047 Z-0.150 F100.000
G1 X1.371 Y-70.569 Z-0.150 F100.000
G1 X1.482 Y-70.005 Z-0.150 F100.000
G1 X1.371 Y-69.441 Z-0.150 F100.000
G0 Z1.000
G0 Z1.000
G0 X1.371 Y-69.441
G0 X82.536 Y-70.005
G0 X82.536 Y-70.005 Z0.500
G1 X82.536 Y-70.005 Z-0.150 F100.000
G1 X82.647 Y-70.569 Z-0.150 F100.000
G1 X82.967 Y-71.047 Z-0.150 F100.000
G1 X83.445 Y-71.367 Z-0.150 F100.000
G1 X84.009 Y-71.478 Z-0.150 F100.000
G1 X84.573 Y-71.367 Z-0.150 F100.000
G1 X85.051 Y-71.047 Z-0.150 F100.000
G1 X85.371 Y-70.569 Z-0.150 F100.000
G1 X85.482 Y-70.005 Z-0.150 F100.000
G1 X85.371 Y-69.441 Z-0.150 F100.000
G1 X85.051 Y-68.963 Z-0.150 F100.000
G1 X84.573 Y-68.643 Z-0.150 F100.000
G1 X84.009 Y-68.532 Z-0.150 F100.000
G1 X83.445 Y-68.643 Z-0.150 F100.000
G1 X82.967 Y-68.963 Z-0.150 F100.000
G1 X82.647 Y-69.441 Z-0.150 F100.000
G1 X82.536 Y-70.005 Z-0.150 F100.000
G0 Z1.000
G0 Z1.000
G0 X82.536 Y-70.005
G0 X84.009 Y-1.478
G0 X84.009 Y-1.478 Z0.500
G1 X84.009 Y-1.478 Z-0.150 F100.000
G1 X84.573 Y-1.366 Z-0.150 F100.000
G1 X85.051 Y-1.047 Z-0.150 F100.000
G1 X85.371 Y-0.569 Z-0.150 F100.000
G1 X85.482 Y-0.005 Z-0.150 F100.000
G1 X85.371 Y0.559 Z-0.150 F100.000
G1 X85.051 Y1.038 Z-0.150 F100.000
G1 X84.573 Y1.356 Z-0.150 F100.000
G1 X84.009 Y1.468 Z-0.150 F100.000
G1 X83.445 Y1.356 Z-0.150 F100.000
G1 X82.967 Y1.038 Z-0.150 F100.000
G1 X82.647 Y0.559 Z-0.150 F100.000
G1 X82.536 Y-0.005 Z-0.150 F100.000
G1 X82.647 Y-0.569 Z-0.150 F100.000
G1 X82.967 Y-1.047 Z-0.150 F100.000
G1 X83.445 Y-1.366 Z-0.150 F100.000
G1 X84.009 Y-1.478 Z-0.150 F100.000
G0 Z1.000
G0 Z1.000
(Finish operation: Profile)
(Begin postamble)
M5
G17 G90
M2
