(Exported by FreeCAD)
(Post Processor: grbl_post)
(Output Time:2023-03-07 21:26:30.874419)
(Begin preamble)
G17 G90
G21
(Begin operation: G54)
(Path: G54)
G54
G0 Z5.100
(Finish operation: G54)
(Begin operation: ballend-015mm001)
(Path: ballend-015mm001)
(ballend-015mm001)
(Begin toolchange)
( M6 T2 )
M3 S10000
(Finish operation: ballend-015mm001)
(Begin operation: Profile)
(Path: Profile)
(Profile)
(Compensated Tool Path. Diameter: 0.15)
G0 Z1.000
G0 X1.646 Y1.583
G0 Z0.500
G1 X1.646 Y1.583 Z-0.200 F100.000
G1 X0.907 Y2.076 Z-0.200 F150.000
G1 X0.038 Y2.248 Z-0.200 F150.000
G1 X-0.833 Y2.076 Z-0.200 F150.000
G1 X-1.570 Y1.583 Z-0.200 F150.000
G1 X-2.063 Y0.845 Z-0.200 F150.000
G1 X-2.236 Y-0.025 Z-0.200 F150.000
G1 X-2.063 Y-0.896 Z-0.200 F150.000
G1 X-1.570 Y-1.633 Z-0.200 F150.000
G1 X-0.833 Y-2.125 Z-0.200 F150.000
G1 X0.038 Y-2.298 Z-0.200 F150.000
G1 X0.907 Y-2.125 Z-0.200 F150.000
G1 X1.646 Y-1.633 Z-0.200 F150.000
G1 X2.138 Y-0.896 Z-0.200 F150.000
G1 X2.311 Y-0.025 Z-0.200 F150.000
G1 X2.138 Y0.845 Z-0.200 F150.000
G1 X1.646 Y1.583 Z-0.200 F150.000
G1 X1.646 Y1.583 Z-0.400 F100.000
G1 X0.907 Y2.076 Z-0.400 F150.000
G1 X0.038 Y2.248 Z-0.400 F150.000
G1 X-0.833 Y2.076 Z-0.400 F150.000
G1 X-1.570 Y1.583 Z-0.400 F150.000
G1 X-2.063 Y0.845 Z-0.400 F150.000
G1 X-2.236 Y-0.025 Z-0.400 F150.000
G1 X-2.063 Y-0.896 Z-0.400 F150.000
G1 X-1.570 Y-1.633 Z-0.400 F150.000
G1 X-0.833 Y-2.125 Z-0.400 F150.000
G1 X0.038 Y-2.298 Z-0.400 F150.000
G1 X0.907 Y-2.125 Z-0.400 F150.000
G1 X1.646 Y-1.633 Z-0.400 F150.000
G1 X2.138 Y-0.896 Z-0.400 F150.000
G1 X2.311 Y-0.025 Z-0.400 F150.000
G1 X2.138 Y0.845 Z-0.400 F150.000
G1 X1.646 Y1.583 Z-0.400 F150.000
G1 X1.646 Y1.583 Z-0.600 F100.000
G1 X0.907 Y2.076 Z-0.600 F150.000
G1 X0.038 Y2.248 Z-0.600 F150.000
G1 X-0.833 Y2.076 Z-0.600 F150.000
G1 X-1.570 Y1.583 Z-0.600 F150.000
G1 X-2.063 Y0.845 Z-0.600 F150.000
G1 X-2.236 Y-0.025 Z-0.600 F150.000
G1 X-2.063 Y-0.896 Z-0.600 F150.000
G1 X-1.570 Y-1.633 Z-0.600 F150.000
G1 X-0.833 Y-2.125 Z-0.600 F150.000
G1 X0.038 Y-2.298 Z-0.600 F150.000
G1 X0.907 Y-2.125 Z-0.600 F150.000
G1 X1.646 Y-1.633 Z-0.600 F150.000
G1 X2.138 Y-0.896 Z-0.600 F150.000
G1 X2.311 Y-0.025 Z-0.600 F150.000
G1 X2.138 Y0.845 Z-0.600 F150.000
G1 X1.646 Y1.583 Z-0.600 F150.000
G0 Z1.000
G0 Z1.000
G0 X1.646 Y1.583
G0 X16.192 Y18.461
G0 X16.192 Y18.461 Z0.500
G1 X16.192 Y18.461 Z-0.200 F100.000
G1 X16.542 Y18.461 Z-0.200 F150.000
G1 X16.542 Y19.210 Z-0.200 F150.000
G1 X16.192 Y19.210 Z-0.200 F150.000
G1 X16.192 Y18.461 Z-0.200 F150.000
G1 X16.192 Y18.461 Z-0.400 F100.000
G1 X16.542 Y18.461 Z-0.400 F150.000
G1 X16.542 Y19.210 Z-0.400 F150.000
G1 X16.192 Y19.210 Z-0.400 F150.000
G1 X16.192 Y18.461 Z-0.400 F150.000
G1 X16.192 Y18.461 Z-0.600 F100.000
G1 X16.542 Y18.461 Z-0.600 F150.000
G1 X16.542 Y19.210 Z-0.600 F150.000
G1 X16.192 Y19.210 Z-0.600 F150.000
G1 X16.192 Y18.461 Z-0.600 F150.000
G0 Z1.000
G0 Z1.000
G0 X16.192 Y18.461
G0 Y20.361
G0 Y20.361 Z0.500
G1 X16.192 Y20.361 Z-0.200 F100.000
G1 X16.542 Y20.361 Z-0.200 F150.000
G1 X16.542 Y21.111 Z-0.200 F150.000
G1 X16.192 Y21.111 Z-0.200 F150.000
G1 X16.192 Y20.361 Z-0.200 F150.000
G1 X16.192 Y20.361 Z-0.400 F100.000
G1 X16.542 Y20.361 Z-0.400 F150.000
G1 X16.542 Y21.111 Z-0.400 F150.000
G1 X16.192 Y21.111 Z-0.400 F150.000
G1 X16.192 Y20.361 Z-0.400 F150.000
G1 X16.192 Y20.361 Z-0.600 F100.000
G1 X16.542 Y20.361 Z-0.600 F150.000
G1 X16.542 Y21.111 Z-0.600 F150.000
G1 X16.192 Y21.111 Z-0.600 F150.000
G1 X16.192 Y20.361 Z-0.600 F150.000
G0 Z1.000
G0 Z1.000
G0 X16.192 Y20.361
G0 X17.693 Y20.359
G0 X17.693 Y20.359 Z0.500
G1 X17.693 Y20.359 Z-0.200 F100.000
G1 X18.043 Y20.359 Z-0.200 F150.000
G1 X18.043 Y21.109 Z-0.200 F150.000
G1 X17.693 Y21.109 Z-0.200 F150.000
G1 X17.693 Y20.359 Z-0.200 F150.000
G1 X17.693 Y20.359 Z-0.400 F100.000
G1 X18.043 Y20.359 Z-0.400 F150.000
G1 X18.043 Y21.109 Z-0.400 F150.000
G1 X17.693 Y21.109 Z-0.400 F150.000
G1 X17.693 Y20.359 Z-0.400 F150.000
G1 X17.693 Y20.359 Z-0.600 F100.000
G1 X18.043 Y20.359 Z-0.600 F150.000
G1 X18.043 Y21.109 Z-0.600 F150.000
G1 X17.693 Y21.109 Z-0.600 F150.000
G1 X17.693 Y20.359 Z-0.600 F150.000
G0 Z1.000
G0 Z1.000
G0 X17.693 Y20.359
G0 Y19.210
G0 Y19.210 Z0.500
G1 X17.693 Y19.210 Z-0.200 F100.000
G1 X17.693 Y18.461 Z-0.200 F150.000
G1 X18.043 Y18.461 Z-0.200 F150.000
G1 X18.043 Y19.210 Z-0.200 F150.000
G1 X17.693 Y19.210 Z-0.200 F150.000
G1 X17.693 Y19.210 Z-0.400 F100.000
G1 X17.693 Y18.461 Z-0.400 F150.000
G1 X18.043 Y18.461 Z-0.400 F150.000
G1 X18.043 Y19.210 Z-0.400 F150.000
G1 X17.693 Y19.210 Z-0.400 F150.000
G1 X17.693 Y19.210 Z-0.600 F100.000
G1 X17.693 Y18.461 Z-0.600 F150.000
G1 X18.043 Y18.461 Z-0.600 F150.000
G1 X18.043 Y19.210 Z-0.600 F150.000
G1 X17.693 Y19.210 Z-0.600 F150.000
G0 Z1.000
G0 Z1.000
G0 X17.693 Y19.210
G0 X19.842 Y18.425
G0 X19.842 Y18.425 Z0.500
G1 X19.842 Y18.425 Z-0.200 F100.000
G1 X19.842 Y17.725 Z-0.200 F150.000
G1 X20.493 Y17.725 Z-0.200 F150.000
G1 X20.493 Y18.425 Z-0.200 F150.000
G1 X19.842 Y18.425 Z-0.200 F150.000
G1 X19.842 Y18.425 Z-0.400 F100.000
G1 X19.842 Y17.725 Z-0.400 F150.000
G1 X20.493 Y17.725 Z-0.400 F150.000
G1 X20.493 Y18.425 Z-0.400 F150.000
G1 X19.842 Y18.425 Z-0.400 F150.000
G1 X19.842 Y18.425 Z-0.600 F100.000
G1 X19.842 Y17.725 Z-0.600 F150.000
G1 X20.493 Y17.725 Z-0.600 F150.000
G1 X20.493 Y18.425 Z-0.600 F150.000
G1 X19.842 Y18.425 Z-0.600 F150.000
G0 Z1.000
G0 Z1.000
G0 X19.842 Y18.425
G0 X21.342
G0 X21.342 Z0.500
G1 X21.342 Y18.425 Z-0.200 F100.000
G1 X21.342 Y17.725 Z-0.200 F150.000
G1 X21.993 Y17.725 Z-0.200 F150.000
G1 X21.993 Y18.425 Z-0.200 F150.000
G1 X21.342 Y18.425 Z-0.200 F150.000
G1 X21.342 Y18.425 Z-0.400 F100.000
G1 X21.342 Y17.725 Z-0.400 F150.000
G1 X21.993 Y17.725 Z-0.400 F150.000
G1 X21.993 Y18.425 Z-0.400 F150.000
G1 X21.342 Y18.425 Z-0.400 F150.000
G1 X21.342 Y18.425 Z-0.600 F100.000
G1 X21.342 Y17.725 Z-0.600 F150.000
G1 X21.993 Y17.725 Z-0.600 F150.000
G1 X21.993 Y18.425 Z-0.600 F150.000
G1 X21.342 Y18.425 Z-0.600 F150.000
G0 Z1.000
G0 Z1.000
G0 X21.342 Y18.425
G0 X20.868 Y19.840
G0 X20.868 Y19.840 Z0.500
G1 X20.868 Y19.840 Z-0.200 F100.000
G1 X20.868 Y20.289 Z-0.200 F150.000
G1 X19.467 Y20.289 Z-0.200 F150.000
G1 X19.467 Y19.840 Z-0.200 F150.000
G1 X20.868 Y19.840 Z-0.200 F150.000
G1 X20.868 Y19.840 Z-0.400 F100.000
G1 X20.868 Y20.289 Z-0.400 F150.000
G1 X19.467 Y20.289 Z-0.400 F150.000
G1 X19.467 Y19.840 Z-0.400 F150.000
G1 X20.868 Y19.840 Z-0.400 F150.000
G1 X20.868 Y19.840 Z-0.600 F100.000
G1 X20.868 Y20.289 Z-0.600 F150.000
G1 X19.467 Y20.289 Z-0.600 F150.000
G1 X19.467 Y19.840 Z-0.600 F150.000
G1 X20.868 Y19.840 Z-0.600 F150.000
G0 Z1.000
G0 Z1.000
G0 X20.868 Y19.840
G0 Y21.111
G0 Y21.111 Z0.500
G1 X20.868 Y21.111 Z-0.200 F100.000
G1 X20.868 Y21.560 Z-0.200 F150.000
G1 X19.467 Y21.560 Z-0.200 F150.000
G1 X19.467 Y21.111 Z-0.200 F150.000
G1 X20.868 Y21.111 Z-0.200 F150.000
G1 X20.868 Y21.111 Z-0.400 F100.000
G1 X20.868 Y21.560 Z-0.400 F150.000
G1 X19.467 Y21.560 Z-0.400 F150.000
G1 X19.467 Y21.111 Z-0.400 F150.000
G1 X20.868 Y21.111 Z-0.400 F150.000
G1 X20.868 Y21.111 Z-0.600 F100.000
G1 X20.868 Y21.560 Z-0.600 F150.000
G1 X19.467 Y21.560 Z-0.600 F150.000
G1 X19.467 Y21.111 Z-0.600 F150.000
G1 X20.868 Y21.111 Z-0.600 F150.000
G0 Z1.000
G0 Z1.000
G0 X20.868 Y21.111
G0 Y22.391
G0 Y22.391 Z0.500
G1 X20.868 Y22.391 Z-0.200 F100.000
G1 X20.868 Y22.840 Z-0.200 F150.000
G1 X19.467 Y22.840 Z-0.200 F150.000
G1 X19.467 Y22.391 Z-0.200 F150.000
G1 X20.868 Y22.391 Z-0.200 F150.000
G1 X20.868 Y22.391 Z-0.400 F100.000
G1 X20.868 Y22.840 Z-0.400 F150.000
G1 X19.467 Y22.840 Z-0.400 F150.000
G1 X19.467 Y22.391 Z-0.400 F150.000
G1 X20.868 Y22.391 Z-0.400 F150.000
G1 X20.868 Y22.391 Z-0.600 F100.000
G1 X20.868 Y22.840 Z-0.600 F150.000
G1 X19.467 Y22.840 Z-0.600 F150.000
G1 X19.467 Y22.391 Z-0.600 F150.000
G1 X20.868 Y22.391 Z-0.600 F150.000
G0 Z1.000
G0 Z1.000
G0 X20.868 Y22.391
G0 Y23.661
G0 Y23.661 Z0.500
G1 X20.868 Y23.661 Z-0.200 F100.000
G1 X20.868 Y24.111 Z-0.200 F150.000
G1 X19.467 Y24.111 Z-0.200 F150.000
G1 X19.467 Y23.661 Z-0.200 F150.000
G1 X20.868 Y23.661 Z-0.200 F150.000
G1 X20.868 Y23.661 Z-0.400 F100.000
G1 X20.868 Y24.111 Z-0.400 F150.000
G1 X19.467 Y24.111 Z-0.400 F150.000
G1 X19.467 Y23.661 Z-0.400 F150.000
G1 X20.868 Y23.661 Z-0.400 F150.000
G1 X20.868 Y23.661 Z-0.600 F100.000
G1 X20.868 Y24.111 Z-0.600 F150.000
G1 X19.467 Y24.111 Z-0.600 F150.000
G1 X19.467 Y23.661 Z-0.600 F150.000
G1 X20.868 Y23.661 Z-0.600 F150.000
G0 Z1.000
G0 Z1.000
G0 X20.868 Y23.661
G0 X20.493 Y25.585
G0 X20.493 Y25.585 Z0.500
G1 X20.493 Y25.585 Z-0.200 F100.000
G1 X20.493 Y26.285 Z-0.200 F150.000
G1 X19.842 Y26.285 Z-0.200 F150.000
G1 X19.842 Y25.585 Z-0.200 F150.000
G1 X20.493 Y25.585 Z-0.200 F150.000
G1 X20.493 Y25.585 Z-0.400 F100.000
G1 X20.493 Y26.285 Z-0.400 F150.000
G1 X19.842 Y26.285 Z-0.400 F150.000
G1 X19.842 Y25.585 Z-0.400 F150.000
G1 X20.493 Y25.585 Z-0.400 F150.000
G1 X20.493 Y25.585 Z-0.600 F100.000
G1 X20.493 Y26.285 Z-0.600 F150.000
G1 X19.842 Y26.285 Z-0.600 F150.000
G1 X19.842 Y25.585 Z-0.600 F150.000
G1 X20.493 Y25.585 Z-0.600 F150.000
G0 Z1.000
G0 Z1.000
G0 X20.493 Y25.585
G0 X18.994
G0 X18.994 Z0.500
G1 X18.994 Y25.585 Z-0.200 F100.000
G1 X18.994 Y26.285 Z-0.200 F150.000
G1 X18.343 Y26.285 Z-0.200 F150.000
G1 X18.343 Y25.585 Z-0.200 F150.000
G1 X18.994 Y25.585 Z-0.200 F150.000
G1 X18.994 Y25.585 Z-0.400 F100.000
G1 X18.994 Y26.285 Z-0.400 F150.000
G1 X18.343 Y26.285 Z-0.400 F150.000
G1 X18.343 Y25.585 Z-0.400 F150.000
G1 X18.994 Y25.585 Z-0.400 F150.000
G1 X18.994 Y25.585 Z-0.600 F100.000
G1 X18.994 Y26.285 Z-0.600 F150.000
G1 X18.343 Y26.285 Z-0.600 F150.000
G1 X18.343 Y25.585 Z-0.600 F150.000
G1 X18.994 Y25.585 Z-0.600 F150.000
G0 Z1.000
G0 Z1.000
G0 X18.994 Y25.585
G0 X17.193
G0 X17.193 Z0.500
G1 X17.193 Y25.585 Z-0.200 F100.000
G1 X17.193 Y26.209 Z-0.200 F150.000
G1 X15.543 Y26.209 Z-0.200 F150.000
G1 X15.543 Y25.159 Z-0.200 F150.000
G1 X17.193 Y25.159 Z-0.200 F150.000
G1 X17.193 Y25.585 Z-0.200 F150.000
G1 X17.193 Y25.585 Z-0.400 F100.000
G1 X17.193 Y26.209 Z-0.400 F150.000
G1 X15.543 Y26.209 Z-0.400 F150.000
G1 X15.543 Y25.159 Z-0.400 F150.000
G1 X17.193 Y25.159 Z-0.400 F150.000
G1 X17.193 Y25.585 Z-0.400 F150.000
G1 X17.193 Y25.585 Z-0.600 F100.000
G1 X17.193 Y26.209 Z-0.600 F150.000
G1 X15.543 Y26.209 Z-0.600 F150.000
G1 X15.543 Y25.159 Z-0.600 F150.000
G1 X17.193 Y25.159 Z-0.600 F150.000
G1 X17.193 Y25.585 Z-0.600 F150.000
G0 Z1.000
G0 Z1.000
G0 X17.193 Y25.585
G0 Y27.360
G0 Y27.360 Z0.500
G1 X17.193 Y27.360 Z-0.200 F100.000
G1 X17.343 Y27.360 Z-0.200 F150.000
G1 X17.343 Y28.110 Z-0.200 F150.000
G1 X16.993 Y28.110 Z-0.200 F150.000
G1 X16.993 Y27.360 Z-0.200 F150.000
G1 X17.193 Y27.360 Z-0.200 F150.000
G1 X17.193 Y27.360 Z-0.400 F100.000
G1 X17.343 Y27.360 Z-0.400 F150.000
G1 X17.343 Y28.110 Z-0.400 F150.000
G1 X16.993 Y28.110 Z-0.400 F150.000
G1 X16.993 Y27.360 Z-0.400 F150.000
G1 X17.193 Y27.360 Z-0.400 F150.000
G1 X17.193 Y27.360 Z-0.600 F100.000
G1 X17.343 Y27.360 Z-0.600 F150.000
G1 X17.343 Y28.110 Z-0.600 F150.000
G1 X16.993 Y28.110 Z-0.600 F150.000
G1 X16.993 Y27.360 Z-0.600 F150.000
G1 X17.193 Y27.360 Z-0.600 F150.000
G0 Z1.000
G0 Z1.000
G0 X17.193 Y27.360
G0 X15.842
G0 X15.842 Z0.500
G1 X15.842 Y27.360 Z-0.200 F100.000
G1 X15.842 Y28.110 Z-0.200 F150.000
G1 X15.492 Y28.110 Z-0.200 F150.000
G1 X15.492 Y27.360 Z-0.200 F150.000
G1 X15.842 Y27.360 Z-0.200 F150.000
G1 X15.842 Y27.360 Z-0.400 F100.000
G1 X15.842 Y28.110 Z-0.400 F150.000
G1 X15.492 Y28.110 Z-0.400 F150.000
G1 X15.492 Y27.360 Z-0.400 F150.000
G1 X15.842 Y27.360 Z-0.400 F150.000
G1 X15.842 Y27.360 Z-0.600 F100.000
G1 X15.842 Y28.110 Z-0.600 F150.000
G1 X15.492 Y28.110 Z-0.600 F150.000
G1 X15.492 Y27.360 Z-0.600 F150.000
G1 X15.842 Y27.360 Z-0.600 F150.000
G0 Z1.000
G0 Z1.000
G0 X15.842 Y27.360
G0 X14.343
G0 X14.343 Z0.500
G1 X14.343 Y27.360 Z-0.200 F100.000
G1 X14.343 Y28.110 Z-0.200 F150.000
G1 X13.993 Y28.110 Z-0.200 F150.000
G1 X13.993 Y27.360 Z-0.200 F150.000
G1 X14.343 Y27.360 Z-0.200 F150.000
G1 X14.343 Y27.360 Z-0.400 F100.000
G1 X14.343 Y28.110 Z-0.400 F150.000
G1 X13.993 Y28.110 Z-0.400 F150.000
G1 X13.993 Y27.360 Z-0.400 F150.000
G1 X14.343 Y27.360 Z-0.400 F150.000
G1 X14.343 Y27.360 Z-0.600 F100.000
G1 X14.343 Y28.110 Z-0.600 F150.000
G1 X13.993 Y28.110 Z-0.600 F150.000
G1 X13.993 Y27.360 Z-0.600 F150.000
G1 X14.343 Y27.360 Z-0.600 F150.000
G0 Z1.000
G0 Z1.000
G0 X14.343 Y27.360
G0 Y25.859
G0 Y25.859 Z0.500
G1 X14.343 Y25.859 Z-0.200 F100.000
G1 X13.593 Y25.859 Z-0.200 F150.000
G1 X13.593 Y25.509 Z-0.200 F150.000
G1 X14.343 Y25.509 Z-0.200 F150.000
G1 X14.343 Y25.859 Z-0.200 F150.000
G1 X14.343 Y25.859 Z-0.400 F100.000
G1 X13.593 Y25.859 Z-0.400 F150.000
G1 X13.593 Y25.509 Z-0.400 F150.000
G1 X14.343 Y25.509 Z-0.400 F150.000
G1 X14.343 Y25.859 Z-0.400 F150.000
G1 X14.343 Y25.859 Z-0.600 F100.000
G1 X13.593 Y25.859 Z-0.600 F150.000
G1 X13.593 Y25.509 Z-0.600 F150.000
G1 X14.343 Y25.509 Z-0.600 F150.000
G1 X14.343 Y25.859 Z-0.600 F150.000
G0 Z1.000
G0 Z1.000
G0 X14.343 Y25.859
G0 Y24.360
G0 Y24.360 Z0.500
G1 X14.343 Y24.360 Z-0.200 F100.000
G1 X13.593 Y24.360 Z-0.200 F150.000
G1 X13.593 Y24.010 Z-0.200 F150.000
G1 X14.343 Y24.010 Z-0.200 F150.000
G1 X14.343 Y24.360 Z-0.200 F150.000
G1 X14.343 Y24.360 Z-0.400 F100.000
G1 X13.593 Y24.360 Z-0.400 F150.000
G1 X13.593 Y24.010 Z-0.400 F150.000
G1 X14.343 Y24.010 Z-0.400 F150.000
G1 X14.343 Y24.360 Z-0.400 F150.000
G1 X14.343 Y24.360 Z-0.600 F100.000
G1 X13.593 Y24.360 Z-0.600 F150.000
G1 X13.593 Y24.010 Z-0.600 F150.000
G1 X14.343 Y24.010 Z-0.600 F150.000
G1 X14.343 Y24.360 Z-0.600 F150.000
G0 Z1.000
G0 Z1.000
G0 X14.343 Y24.360
G0 X15.543 Y23.310
G0 X15.543 Y23.310 Z0.500
G1 X15.543 Y23.310 Z-0.200 F100.000
G1 X15.543 Y22.260 Z-0.200 F150.000
G1 X17.193 Y22.260 Z-0.200 F150.000
G1 X17.193 Y23.310 Z-0.200 F150.000
G1 X15.543 Y23.310 Z-0.200 F150.000
G1 X15.543 Y23.310 Z-0.400 F100.000
G1 X15.543 Y22.260 Z-0.400 F150.000
G1 X17.193 Y22.260 Z-0.400 F150.000
G1 X17.193 Y23.310 Z-0.400 F150.000
G1 X15.543 Y23.310 Z-0.400 F150.000
G1 X15.543 Y23.310 Z-0.600 F100.000
G1 X15.543 Y22.260 Z-0.600 F150.000
G1 X17.193 Y22.260 Z-0.600 F150.000
G1 X17.193 Y23.310 Z-0.600 F150.000
G1 X15.543 Y23.310 Z-0.600 F150.000
G0 Z1.000
G0 Z1.000
G0 X15.543 Y23.310
G0 X18.492 Y27.360
G0 X18.492 Y27.360 Z0.500
G1 X18.492 Y27.360 Z-0.200 F100.000
G1 X18.842 Y27.360 Z-0.200 F150.000
G1 X18.842 Y28.110 Z-0.200 F150.000
G1 X18.492 Y28.110 Z-0.200 F150.000
G1 X18.492 Y27.360 Z-0.200 F150.000
G1 X18.492 Y27.360 Z-0.400 F100.000
G1 X18.842 Y27.360 Z-0.400 F150.000
G1 X18.842 Y28.110 Z-0.400 F150.000
G1 X18.492 Y28.110 Z-0.400 F150.000
G1 X18.492 Y27.360 Z-0.400 F150.000
G1 X18.492 Y27.360 Z-0.600 F100.000
G1 X18.842 Y27.360 Z-0.600 F150.000
G1 X18.842 Y28.110 Z-0.600 F150.000
G1 X18.492 Y28.110 Z-0.600 F150.000
G1 X18.492 Y27.360 Z-0.600 F150.000
G0 Z1.000
G0 Z1.000
G0 X18.492 Y27.360
G0 X21.832 Y26.370
G0 X21.832 Y26.370 Z0.500
G1 X21.832 Y26.370 Z-0.200 F100.000
G1 X21.832 Y25.620 Z-0.200 F150.000
G1 X22.182 Y25.620 Z-0.200 F150.000
G1 X22.182 Y26.370 Z-0.200 F150.000
G1 X21.832 Y26.370 Z-0.200 F150.000
G1 X21.832 Y26.370 Z-0.400 F100.000
G1 X21.832 Y25.620 Z-0.400 F150.000
G1 X22.182 Y25.620 Z-0.400 F150.000
G1 X22.182 Y26.370 Z-0.400 F150.000
G1 X21.832 Y26.370 Z-0.400 F150.000
G1 X21.832 Y26.370 Z-0.600 F100.000
G1 X21.832 Y25.620 Z-0.600 F150.000
G1 X22.182 Y25.620 Z-0.600 F150.000
G1 X22.182 Y26.370 Z-0.600 F150.000
G1 X21.832 Y26.370 Z-0.600 F150.000
G0 Z1.000
G0 Z1.000
G0 X21.832 Y26.370
G0 X23.333 Y26.369
G0 X23.333 Y26.369 Z0.500
G1 X23.333 Y26.369 Z-0.200 F100.000
G1 X23.333 Y25.619 Z-0.200 F150.000
G1 X23.683 Y25.619 Z-0.200 F150.000
G1 X23.683 Y26.369 Z-0.200 F150.000
G1 X23.333 Y26.369 Z-0.200 F150.000
G1 X23.333 Y26.369 Z-0.400 F100.000
G1 X23.333 Y25.619 Z-0.400 F150.000
G1 X23.683 Y25.619 Z-0.400 F150.000
G1 X23.683 Y26.369 Z-0.400 F150.000
G1 X23.333 Y26.369 Z-0.400 F150.000
G1 X23.333 Y26.369 Z-0.600 F100.000
G1 X23.333 Y25.619 Z-0.600 F150.000
G1 X23.683 Y25.619 Z-0.600 F150.000
G1 X23.683 Y26.369 Z-0.600 F150.000
G1 X23.333 Y26.369 Z-0.600 F150.000
G0 Z1.000
G0 Z1.000
G0 X23.333 Y26.369
G0 X25.433 Y26.370
G0 X25.433 Y26.370 Z0.500
G1 X25.433 Y26.370 Z-0.200 F100.000
G1 X25.433 Y25.620 Z-0.200 F150.000
G1 X25.783 Y25.620 Z-0.200 F150.000
G1 X25.783 Y26.370 Z-0.200 F150.000
G1 X25.433 Y26.370 Z-0.200 F150.000
G1 X25.433 Y26.370 Z-0.400 F100.000
G1 X25.433 Y25.620 Z-0.400 F150.000
G1 X25.783 Y25.620 Z-0.400 F150.000
G1 X25.783 Y26.370 Z-0.400 F150.000
G1 X25.433 Y26.370 Z-0.400 F150.000
G1 X25.433 Y26.370 Z-0.600 F100.000
G1 X25.433 Y25.620 Z-0.600 F150.000
G1 X25.783 Y25.620 Z-0.600 F150.000
G1 X25.783 Y26.370 Z-0.600 F150.000
G1 X25.433 Y26.370 Z-0.600 F150.000
G0 Z1.000
G0 Z1.000
G0 X25.433 Y26.370
G0 X26.932 Y26.369
G0 X26.932 Y26.369 Z0.500
G1 X26.932 Y26.369 Z-0.200 F100.000
G1 X26.932 Y25.619 Z-0.200 F150.000
G1 X27.282 Y25.619 Z-0.200 F150.000
G1 X27.282 Y26.369 Z-0.200 F150.000
G1 X26.932 Y26.369 Z-0.200 F150.000
G1 X26.932 Y26.369 Z-0.400 F100.000
G1 X26.932 Y25.619 Z-0.400 F150.000
G1 X27.282 Y25.619 Z-0.400 F150.000
G1 X27.282 Y26.369 Z-0.400 F150.000
G1 X26.932 Y26.369 Z-0.400 F150.000
G1 X26.932 Y26.369 Z-0.600 F100.000
G1 X26.932 Y25.619 Z-0.600 F150.000
G1 X27.282 Y25.619 Z-0.600 F150.000
G1 X27.282 Y26.369 Z-0.600 F150.000
G1 X26.932 Y26.369 Z-0.600 F150.000
G0 Z1.000
G0 Z1.000
G0 X26.932 Y26.369
G0 Y27.550
G0 Y27.550 Z0.500
G1 X26.932 Y27.550 Z-0.200 F100.000
G1 X27.313 Y27.550 Z-0.200 F150.000
G1 X27.313 Y27.900 Z-0.200 F150.000
G1 X26.563 Y27.900 Z-0.200 F150.000
G1 X26.563 Y27.550 Z-0.200 F150.000
G1 X26.932 Y27.550 Z-0.200 F150.000
G1 X26.932 Y27.550 Z-0.400 F100.000
G1 X27.313 Y27.550 Z-0.400 F150.000
G1 X27.313 Y27.900 Z-0.400 F150.000
G1 X26.563 Y27.900 Z-0.400 F150.000
G1 X26.563 Y27.550 Z-0.400 F150.000
G1 X26.932 Y27.550 Z-0.400 F150.000
G1 X26.932 Y27.550 Z-0.600 F100.000
G1 X27.313 Y27.550 Z-0.600 F150.000
G1 X27.313 Y27.900 Z-0.600 F150.000
G1 X26.563 Y27.900 Z-0.600 F150.000
G1 X26.563 Y27.550 Z-0.600 F150.000
G1 X26.932 Y27.550 Z-0.600 F150.000
G0 Z1.000
G0 Z1.000
G0 X26.932 Y27.550
G0 Y29.049
G0 Y29.049 Z0.500
G1 X26.932 Y29.049 Z-0.200 F100.000
G1 X27.313 Y29.049 Z-0.200 F150.000
G1 X27.313 Y29.399 Z-0.200 F150.000
G1 X26.563 Y29.399 Z-0.200 F150.000
G1 X26.563 Y29.049 Z-0.200 F150.000
G1 X26.932 Y29.049 Z-0.200 F150.000
G1 X26.932 Y29.049 Z-0.400 F100.000
G1 X27.313 Y29.049 Z-0.400 F150.000
G1 X27.313 Y29.399 Z-0.400 F150.000
G1 X26.563 Y29.399 Z-0.400 F150.000
G1 X26.563 Y29.049 Z-0.400 F150.000
G1 X26.932 Y29.049 Z-0.400 F150.000
G1 X26.932 Y29.049 Z-0.600 F100.000
G1 X27.313 Y29.049 Z-0.600 F150.000
G1 X27.313 Y29.399 Z-0.600 F150.000
G1 X26.563 Y29.399 Z-0.600 F150.000
G1 X26.563 Y29.049 Z-0.600 F150.000
G1 X26.932 Y29.049 Z-0.600 F150.000
G0 Z1.000
G0 Z1.000
G0 X26.932 Y29.049
G0 X25.432
G0 X25.432 Z0.500
G1 X25.432 Y29.049 Z-0.200 F100.000
G1 X25.432 Y29.219 Z-0.200 F150.000
G1 X24.382 Y29.219 Z-0.200 F150.000
G1 X24.382 Y27.569 Z-0.200 F150.000
G1 X25.432 Y27.569 Z-0.200 F150.000
G1 X25.432 Y29.049 Z-0.200 F150.000
G1 X25.432 Y29.049 Z-0.400 F100.000
G1 X25.432 Y29.219 Z-0.400 F150.000
G1 X24.382 Y29.219 Z-0.400 F150.000
G1 X24.382 Y27.569 Z-0.400 F150.000
G1 X25.432 Y27.569 Z-0.400 F150.000
G1 X25.432 Y29.049 Z-0.400 F150.000
G1 X25.432 Y29.049 Z-0.600 F100.000
G1 X25.432 Y29.219 Z-0.600 F150.000
G1 X24.382 Y29.219 Z-0.600 F150.000
G1 X24.382 Y27.569 Z-0.600 F150.000
G1 X25.432 Y27.569 Z-0.600 F150.000
G1 X25.432 Y29.049 Z-0.600 F150.000
G0 Z1.000
G0 Z1.000
G0 X25.432 Y29.049
G0 X22.532
G0 X22.532 Z0.500
G1 X22.532 Y29.049 Z-0.200 F100.000
G1 X22.532 Y29.221 Z-0.200 F150.000
G1 X21.482 Y29.221 Z-0.200 F150.000
G1 X21.482 Y27.571 Z-0.200 F150.000
G1 X22.532 Y27.571 Z-0.200 F150.000
G1 X22.532 Y29.049 Z-0.200 F150.000
G1 X22.532 Y29.049 Z-0.400 F100.000
G1 X22.532 Y29.221 Z-0.400 F150.000
G1 X21.482 Y29.221 Z-0.400 F150.000
G1 X21.482 Y27.571 Z-0.400 F150.000
G1 X22.532 Y27.571 Z-0.400 F150.000
G1 X22.532 Y29.049 Z-0.400 F150.000
G1 X22.532 Y29.049 Z-0.600 F100.000
G1 X22.532 Y29.221 Z-0.600 F150.000
G1 X21.482 Y29.221 Z-0.600 F150.000
G1 X21.482 Y27.571 Z-0.600 F150.000
G1 X22.532 Y27.571 Z-0.600 F150.000
G1 X22.532 Y29.049 Z-0.600 F150.000
G0 Z1.000
G0 Z1.000
G0 X22.532 Y29.049
G0 X24.807 Y24.109
G0 X24.807 Y24.109 Z0.500
G1 X24.807 Y24.109 Z-0.200 F100.000
G1 X24.807 Y23.660 Z-0.200 F150.000
G1 X26.208 Y23.660 Z-0.200 F150.000
G1 X26.208 Y24.109 Z-0.200 F150.000
G1 X24.807 Y24.109 Z-0.200 F150.000
G1 X24.807 Y24.109 Z-0.400 F100.000
G1 X24.807 Y23.660 Z-0.400 F150.000
G1 X26.208 Y23.660 Z-0.400 F150.000
G1 X26.208 Y24.109 Z-0.400 F150.000
G1 X24.807 Y24.109 Z-0.400 F150.000
G1 X24.807 Y24.109 Z-0.600 F100.000
G1 X24.807 Y23.660 Z-0.600 F150.000
G1 X26.208 Y23.660 Z-0.600 F150.000
G1 X26.208 Y24.109 Z-0.600 F150.000
G1 X24.807 Y24.109 Z-0.600 F150.000
G0 Z1.000
G0 Z1.000
G0 X24.807 Y24.109
G0 Y22.840
G0 Y22.840 Z0.500
G1 X24.807 Y22.840 Z-0.200 F100.000
G1 X24.807 Y22.391 Z-0.200 F150.000
G1 X26.208 Y22.391 Z-0.200 F150.000
G1 X26.208 Y22.840 Z-0.200 F150.000
G1 X24.807 Y22.840 Z-0.200 F150.000
G1 X24.807 Y22.840 Z-0.400 F100.000
G1 X24.807 Y22.391 Z-0.400 F150.000
G1 X26.208 Y22.391 Z-0.400 F150.000
G1 X26.208 Y22.840 Z-0.400 F150.000
G1 X24.807 Y22.840 Z-0.400 F150.000
G1 X24.807 Y22.840 Z-0.600 F100.000
G1 X24.807 Y22.391 Z-0.600 F150.000
G1 X26.208 Y22.391 Z-0.600 F150.000
G1 X26.208 Y22.840 Z-0.600 F150.000
G1 X24.807 Y22.840 Z-0.600 F150.000
G0 Z1.000
G0 Z1.000
G0 X24.807 Y22.840
G0 Y21.560
G0 Y21.560 Z0.500
G1 X24.807 Y21.560 Z-0.200 F100.000
G1 X24.807 Y21.111 Z-0.200 F150.000
G1 X26.208 Y21.111 Z-0.200 F150.000
G1 X26.208 Y21.560 Z-0.200 F150.000
G1 X24.807 Y21.560 Z-0.200 F150.000
G1 X24.807 Y21.560 Z-0.400 F100.000
G1 X24.807 Y21.111 Z-0.400 F150.000
G1 X26.208 Y21.111 Z-0.400 F150.000
G1 X26.208 Y21.560 Z-0.400 F150.000
G1 X24.807 Y21.560 Z-0.400 F150.000
G1 X24.807 Y21.560 Z-0.600 F100.000
G1 X24.807 Y21.111 Z-0.600 F150.000
G1 X26.208 Y21.111 Z-0.600 F150.000
G1 X26.208 Y21.560 Z-0.600 F150.000
G1 X24.807 Y21.560 Z-0.600 F150.000
G0 Z1.000
G0 Z1.000
G0 X24.807 Y21.560
G0 Y20.289
G0 Y20.289 Z0.500
G1 X24.807 Y20.289 Z-0.200 F100.000
G1 X24.807 Y19.840 Z-0.200 F150.000
G1 X26.208 Y19.840 Z-0.200 F150.000
G1 X26.208 Y20.289 Z-0.200 F150.000
G1 X24.807 Y20.289 Z-0.200 F150.000
G1 X24.807 Y20.289 Z-0.400 F100.000
G1 X24.807 Y19.840 Z-0.400 F150.000
G1 X26.208 Y19.840 Z-0.400 F150.000
G1 X26.208 Y20.289 Z-0.400 F150.000
G1 X24.807 Y20.289 Z-0.400 F150.000
G1 X24.807 Y20.289 Z-0.600 F100.000
G1 X24.807 Y19.840 Z-0.600 F150.000
G1 X26.208 Y19.840 Z-0.600 F150.000
G1 X26.208 Y20.289 Z-0.600 F150.000
G1 X24.807 Y20.289 Z-0.600 F150.000
G0 Z1.000
G0 Z1.000
G0 X24.807 Y20.289
G0 X27.338 Y22.060
G0 X27.338 Y22.060 Z0.500
G1 X27.338 Y22.060 Z-0.200 F100.000
G1 X28.038 Y22.060 Z-0.200 F150.000
G1 X28.038 Y22.710 Z-0.200 F150.000
G1 X27.338 Y22.710 Z-0.200 F150.000
G1 X27.338 Y22.060 Z-0.200 F150.000
G1 X27.338 Y22.060 Z-0.400 F100.000
G1 X28.038 Y22.060 Z-0.400 F150.000
G1 X28.038 Y22.710 Z-0.400 F150.000
G1 X27.338 Y22.710 Z-0.400 F150.000
G1 X27.338 Y22.060 Z-0.400 F150.000
G1 X27.338 Y22.060 Z-0.600 F100.000
G1 X28.038 Y22.060 Z-0.600 F150.000
G1 X28.038 Y22.710 Z-0.600 F150.000
G1 X27.338 Y22.710 Z-0.600 F150.000
G1 X27.338 Y22.060 Z-0.600 F150.000
G0 Z1.000
G0 Z1.000
G0 X27.338 Y22.060
G0 Y23.559
G0 Y23.559 Z0.500
G1 X27.338 Y23.559 Z-0.200 F100.000
G1 X28.038 Y23.559 Z-0.200 F150.000
G1 X28.038 Y24.210 Z-0.200 F150.000
G1 X27.338 Y24.210 Z-0.200 F150.000
G1 X27.338 Y23.559 Z-0.200 F150.000
G1 X27.338 Y23.559 Z-0.400 F100.000
G1 X28.038 Y23.559 Z-0.400 F150.000
G1 X28.038 Y24.210 Z-0.400 F150.000
G1 X27.338 Y24.210 Z-0.400 F150.000
G1 X27.338 Y23.559 Z-0.400 F150.000
G1 X27.338 Y23.559 Z-0.600 F100.000
G1 X28.038 Y23.559 Z-0.600 F150.000
G1 X28.038 Y24.210 Z-0.600 F150.000
G1 X27.338 Y24.210 Z-0.600 F150.000
G1 X27.338 Y23.559 Z-0.600 F150.000
G0 Z1.000
G0 Z1.000
G0 X27.338 Y23.559
G0 X30.546 Y25.920
G0 X30.546 Y25.920 Z0.500
G1 X30.546 Y25.920 Z-0.200 F100.000
G1 X31.990 Y25.920 Z-0.200 F150.000
G1 X31.990 Y28.511 Z-0.200 F150.000
G1 X30.546 Y28.511 Z-0.200 F150.000
G1 X30.546 Y25.920 Z-0.200 F150.000
G1 X30.546 Y25.920 Z-0.400 F100.000
G1 X31.990 Y25.920 Z-0.400 F150.000
G1 X31.990 Y28.511 Z-0.400 F150.000
G1 X30.546 Y28.511 Z-0.400 F150.000
G1 X30.546 Y25.920 Z-0.400 F150.000
G1 X30.546 Y25.920 Z-0.600 F100.000
G1 X31.990 Y25.920 Z-0.600 F150.000
G1 X31.990 Y28.511 Z-0.600 F150.000
G1 X30.546 Y28.511 Z-0.600 F150.000
G1 X30.546 Y25.920 Z-0.600 F150.000
G0 Z1.000
G0 Z1.000
G0 X30.546 Y25.920
G0 Y30.820
G0 Y30.820 Z0.500
G1 X30.546 Y30.820 Z-0.200 F100.000
G1 X31.990 Y30.820 Z-0.200 F150.000
G1 X31.990 Y33.411 Z-0.200 F150.000
G1 X30.546 Y33.411 Z-0.200 F150.000
G1 X30.546 Y30.820 Z-0.200 F150.000
G1 X30.546 Y30.820 Z-0.400 F100.000
G1 X31.990 Y30.820 Z-0.400 F150.000
G1 X31.990 Y33.411 Z-0.400 F150.000
G1 X30.546 Y33.411 Z-0.400 F150.000
G1 X30.546 Y30.820 Z-0.400 F150.000
G1 X30.546 Y30.820 Z-0.600 F100.000
G1 X31.990 Y30.820 Z-0.600 F150.000
G1 X31.990 Y33.411 Z-0.600 F150.000
G1 X30.546 Y33.411 Z-0.600 F150.000
G1 X30.546 Y30.820 Z-0.600 F150.000
G0 Z1.000
G0 Z1.000
G0 X30.546 Y30.820
G0 X31.093 Y34.840
G0 X31.093 Y34.840 Z0.500
G1 X31.093 Y34.840 Z-0.200 F100.000
G1 X31.443 Y34.840 Z-0.200 F150.000
G1 X31.443 Y35.590 Z-0.200 F150.000
G1 X31.093 Y35.590 Z-0.200 F150.000
G1 X31.093 Y34.840 Z-0.200 F150.000
G1 X31.093 Y34.840 Z-0.400 F100.000
G1 X31.443 Y34.840 Z-0.400 F150.000
G1 X31.443 Y35.590 Z-0.400 F150.000
G1 X31.093 Y35.590 Z-0.400 F150.000
G1 X31.093 Y34.840 Z-0.400 F150.000
G1 X31.093 Y34.840 Z-0.600 F100.000
G1 X31.443 Y34.840 Z-0.600 F150.000
G1 X31.443 Y35.590 Z-0.600 F150.000
G1 X31.093 Y35.590 Z-0.600 F150.000
G1 X31.093 Y34.840 Z-0.600 F150.000
G0 Z1.000
G0 Z1.000
G0 X31.093 Y34.840
G0 X32.592
G0 X32.592 Z0.500
G1 X32.592 Y34.840 Z-0.200 F100.000
G1 X32.942 Y34.840 Z-0.200 F150.000
G1 X32.942 Y35.590 Z-0.200 F150.000
G1 X32.592 Y35.590 Z-0.200 F150.000
G1 X32.592 Y34.840 Z-0.200 F150.000
G1 X32.592 Y34.840 Z-0.400 F100.000
G1 X32.942 Y34.840 Z-0.400 F150.000
G1 X32.942 Y35.590 Z-0.400 F150.000
G1 X32.592 Y35.590 Z-0.400 F150.000
G1 X32.592 Y34.840 Z-0.400 F150.000
G1 X32.592 Y34.840 Z-0.600 F100.000
G1 X32.942 Y34.840 Z-0.600 F150.000
G1 X32.942 Y35.590 Z-0.600 F150.000
G1 X32.592 Y35.590 Z-0.600 F150.000
G1 X32.592 Y34.840 Z-0.600 F150.000
G0 Z1.000
G0 Z1.000
G0 X32.592 Y34.840
G0 X32.533 Y39.489
G0 X32.533 Y39.489 Z0.500
G1 X32.533 Y39.489 Z-0.200 F100.000
G1 X32.533 Y40.041 Z-0.200 F150.000
G1 X31.192 Y40.041 Z-0.200 F150.000
G1 X31.192 Y39.489 Z-0.200 F150.000
G1 X32.533 Y39.489 Z-0.200 F150.000
G1 X32.533 Y39.489 Z-0.400 F100.000
G1 X32.533 Y40.041 Z-0.400 F150.000
G1 X31.192 Y40.041 Z-0.400 F150.000
G1 X31.192 Y39.489 Z-0.400 F150.000
G1 X32.533 Y39.489 Z-0.400 F150.000
G1 X32.533 Y39.489 Z-0.600 F100.000
G1 X32.533 Y40.041 Z-0.600 F150.000
G1 X31.192 Y40.041 Z-0.600 F150.000
G1 X31.192 Y39.489 Z-0.600 F150.000
G1 X32.533 Y39.489 Z-0.600 F150.000
G0 Z1.000
G0 Z1.000
G0 X32.533 Y39.489
G0 Y42.029
G0 Y42.029 Z0.500
G1 X32.533 Y42.029 Z-0.200 F100.000
G1 X32.533 Y42.581 Z-0.200 F150.000
G1 X31.192 Y42.581 Z-0.200 F150.000
G1 X31.192 Y42.029 Z-0.200 F150.000
G1 X32.533 Y42.029 Z-0.200 F150.000
G1 X32.533 Y42.029 Z-0.400 F100.000
G1 X32.533 Y42.581 Z-0.400 F150.000
G1 X31.192 Y42.581 Z-0.400 F150.000
G1 X31.192 Y42.029 Z-0.400 F150.000
G1 X32.533 Y42.029 Z-0.400 F150.000
G1 X32.533 Y42.029 Z-0.600 F100.000
G1 X32.533 Y42.581 Z-0.600 F150.000
G1 X31.192 Y42.581 Z-0.600 F150.000
G1 X31.192 Y42.029 Z-0.600 F150.000
G1 X32.533 Y42.029 Z-0.600 F150.000
G0 Z1.000
G0 Z1.000
G0 X32.533 Y42.029
G0 Y44.569
G0 Y44.569 Z0.500
G1 X32.533 Y44.569 Z-0.200 F100.000
G1 X32.533 Y45.120 Z-0.200 F150.000
G1 X31.192 Y45.120 Z-0.200 F150.000
G1 X31.192 Y44.569 Z-0.200 F150.000
G1 X32.533 Y44.569 Z-0.200 F150.000
G1 X32.533 Y44.569 Z-0.400 F100.000
G1 X32.533 Y45.120 Z-0.400 F150.000
G1 X31.192 Y45.120 Z-0.400 F150.000
G1 X31.192 Y44.569 Z-0.400 F150.000
G1 X32.533 Y44.569 Z-0.400 F150.000
G1 X32.533 Y44.569 Z-0.600 F100.000
G1 X32.533 Y45.120 Z-0.600 F150.000
G1 X31.192 Y45.120 Z-0.600 F150.000
G1 X31.192 Y44.569 Z-0.600 F150.000
G1 X32.533 Y44.569 Z-0.600 F150.000
G0 Z1.000
G0 Z1.000
G0 X32.533 Y44.569
G0 Y47.110
G0 Y47.110 Z0.500
G1 X32.533 Y47.110 Z-0.200 F100.000
G1 X32.533 Y47.661 Z-0.200 F150.000
G1 X31.192 Y47.661 Z-0.200 F150.000
G1 X31.192 Y47.110 Z-0.200 F150.000
G1 X32.533 Y47.110 Z-0.200 F150.000
G1 X32.533 Y47.110 Z-0.400 F100.000
G1 X32.533 Y47.661 Z-0.400 F150.000
G1 X31.192 Y47.661 Z-0.400 F150.000
G1 X31.192 Y47.110 Z-0.400 F150.000
G1 X32.533 Y47.110 Z-0.400 F150.000
G1 X32.533 Y47.110 Z-0.600 F100.000
G1 X32.533 Y47.661 Z-0.600 F150.000
G1 X31.192 Y47.661 Z-0.600 F150.000
G1 X31.192 Y47.110 Z-0.600 F150.000
G1 X32.533 Y47.110 Z-0.600 F150.000
G0 Z1.000
G0 Z1.000
G0 X32.533 Y47.110
G0 X38.342
G0 X38.342 Z0.500
G1 X38.342 Y47.110 Z-0.200 F100.000
G1 X39.684 Y47.110 Z-0.200 F150.000
G1 X39.684 Y47.661 Z-0.200 F150.000
G1 X38.342 Y47.661 Z-0.200 F150.000
G1 X38.342 Y47.110 Z-0.200 F150.000
G1 X38.342 Y47.110 Z-0.400 F100.000
G1 X39.684 Y47.110 Z-0.400 F150.000
G1 X39.684 Y47.661 Z-0.400 F150.000
G1 X38.342 Y47.661 Z-0.400 F150.000
G1 X38.342 Y47.110 Z-0.400 F150.000
G1 X38.342 Y47.110 Z-0.600 F100.000
G1 X39.684 Y47.110 Z-0.600 F150.000
G1 X39.684 Y47.661 Z-0.600 F150.000
G1 X38.342 Y47.661 Z-0.600 F150.000
G1 X38.342 Y47.110 Z-0.600 F150.000
G0 Z1.000
G0 Z1.000
G0 X38.342 Y47.110
G0 Y45.120
G0 Y45.120 Z0.500
G1 X38.342 Y45.120 Z-0.200 F100.000
G1 X38.342 Y44.569 Z-0.200 F150.000
G1 X39.684 Y44.569 Z-0.200 F150.000
G1 X39.684 Y45.120 Z-0.200 F150.000
G1 X38.342 Y45.120 Z-0.200 F150.000
G1 X38.342 Y45.120 Z-0.400 F100.000
G1 X38.342 Y44.569 Z-0.400 F150.000
G1 X39.684 Y44.569 Z-0.400 F150.000
G1 X39.684 Y45.120 Z-0.400 F150.000
G1 X38.342 Y45.120 Z-0.400 F150.000
G1 X38.342 Y45.120 Z-0.600 F100.000
G1 X38.342 Y44.569 Z-0.600 F150.000
G1 X39.684 Y44.569 Z-0.600 F150.000
G1 X39.684 Y45.120 Z-0.600 F150.000
G1 X38.342 Y45.120 Z-0.600 F150.000
G0 Z1.000
G0 Z1.000
G0 X38.342 Y45.120
G0 Y42.581
G0 Y42.581 Z0.500
G1 X38.342 Y42.581 Z-0.200 F100.000
G1 X38.342 Y42.029 Z-0.200 F150.000
G1 X39.684 Y42.029 Z-0.200 F150.000
G1 X39.684 Y42.581 Z-0.200 F150.000
G1 X38.342 Y42.581 Z-0.200 F150.000
G1 X38.342 Y42.581 Z-0.400 F100.000
G1 X38.342 Y42.029 Z-0.400 F150.000
G1 X39.684 Y42.029 Z-0.400 F150.000
G1 X39.684 Y42.581 Z-0.400 F150.000
G1 X38.342 Y42.581 Z-0.400 F150.000
G1 X38.342 Y42.581 Z-0.600 F100.000
G1 X38.342 Y42.029 Z-0.600 F150.000
G1 X39.684 Y42.029 Z-0.600 F150.000
G1 X39.684 Y42.581 Z-0.600 F150.000
G1 X38.342 Y42.581 Z-0.600 F150.000
G0 Z1.000
G0 Z1.000
G0 X38.342 Y42.581
G0 Y40.041
G0 Y40.041 Z0.500
G1 X38.342 Y40.041 Z-0.200 F100.000
G1 X38.342 Y39.489 Z-0.200 F150.000
G1 X39.684 Y39.489 Z-0.200 F150.000
G1 X39.684 Y40.041 Z-0.200 F150.000
G1 X38.342 Y40.041 Z-0.200 F150.000
G1 X38.342 Y40.041 Z-0.400 F100.000
G1 X38.342 Y39.489 Z-0.400 F150.000
G1 X39.684 Y39.489 Z-0.400 F150.000
G1 X39.684 Y40.041 Z-0.400 F150.000
G1 X38.342 Y40.041 Z-0.400 F150.000
G1 X38.342 Y40.041 Z-0.600 F100.000
G1 X38.342 Y39.489 Z-0.600 F150.000
G1 X39.684 Y39.489 Z-0.600 F150.000
G1 X39.684 Y40.041 Z-0.600 F150.000
G1 X38.342 Y40.041 Z-0.600 F150.000
G0 Z1.000
G0 Z1.000
G0 X38.342 Y40.041
G0 X41.183
G0 X41.183 Z0.500
G1 X41.183 Y40.041 Z-0.200 F100.000
G1 X41.183 Y38.650 Z-0.200 F150.000
G1 X41.632 Y38.650 Z-0.200 F150.000
G1 X41.632 Y40.300 Z-0.200 F150.000
G1 X41.183 Y40.300 Z-0.200 F150.000
G1 X41.183 Y40.041 Z-0.200 F150.000
G1 X41.183 Y40.041 Z-0.400 F100.000
G1 X41.183 Y38.650 Z-0.400 F150.000
G1 X41.632 Y38.650 Z-0.400 F150.000
G1 X41.632 Y40.300 Z-0.400 F150.000
G1 X41.183 Y40.300 Z-0.400 F150.000
G1 X41.183 Y40.041 Z-0.400 F150.000
G1 X41.183 Y40.041 Z-0.600 F100.000
G1 X41.183 Y38.650 Z-0.600 F150.000
G1 X41.632 Y38.650 Z-0.600 F150.000
G1 X41.632 Y40.300 Z-0.600 F150.000
G1 X41.183 Y40.300 Z-0.600 F150.000
G1 X41.183 Y40.041 Z-0.600 F150.000
G0 Z1.000
G0 Z1.000
G0 X41.183 Y40.041
G0 X43.682
G0 X43.682 Z0.500
G1 X43.682 Y40.041 Z-0.200 F100.000
G1 X43.682 Y38.650 Z-0.200 F150.000
G1 X44.132 Y38.650 Z-0.200 F150.000
G1 X44.132 Y40.300 Z-0.200 F150.000
G1 X43.682 Y40.300 Z-0.200 F150.000
G1 X43.682 Y40.041 Z-0.200 F150.000
G1 X43.682 Y40.041 Z-0.400 F100.000
G1 X43.682 Y38.650 Z-0.400 F150.000
G1 X44.132 Y38.650 Z-0.400 F150.000
G1 X44.132 Y40.300 Z-0.400 F150.000
G1 X43.682 Y40.300 Z-0.400 F150.000
G1 X43.682 Y40.041 Z-0.400 F150.000
G1 X43.682 Y40.041 Z-0.600 F100.000
G1 X43.682 Y38.650 Z-0.600 F150.000
G1 X44.132 Y38.650 Z-0.600 F150.000
G1 X44.132 Y40.300 Z-0.600 F150.000
G1 X43.682 Y40.300 Z-0.600 F150.000
G1 X43.682 Y40.041 Z-0.600 F150.000
G0 Z1.000
G0 Z1.000
G0 X43.682 Y40.041
G0 X42.243 Y37.429
G0 X42.243 Y37.429 Z0.500
G1 X42.243 Y37.429 Z-0.200 F100.000
G1 X41.493 Y37.429 Z-0.200 F150.000
G1 X41.493 Y36.579 Z-0.200 F150.000
G1 X42.243 Y36.579 Z-0.200 F150.000
G1 X42.243 Y37.429 Z-0.200 F150.000
G1 X42.243 Y37.429 Z-0.400 F100.000
G1 X41.493 Y37.429 Z-0.400 F150.000
G1 X41.493 Y36.579 Z-0.400 F150.000
G1 X42.243 Y36.579 Z-0.400 F150.000
G1 X42.243 Y37.429 Z-0.400 F150.000
G1 X42.243 Y37.429 Z-0.600 F100.000
G1 X41.493 Y37.429 Z-0.600 F150.000
G1 X41.493 Y36.579 Z-0.600 F150.000
G1 X42.243 Y36.579 Z-0.600 F150.000
G1 X42.243 Y37.429 Z-0.600 F150.000
G0 Z1.000
G0 Z1.000
G0 X42.243 Y37.429
G0 X41.292 Y35.230
G0 X41.292 Y35.230 Z0.500
G1 X41.292 Y35.230 Z-0.200 F100.000
G1 X40.542 Y35.230 Z-0.200 F150.000
G1 X40.542 Y34.380 Z-0.200 F150.000
G1 X41.292 Y34.380 Z-0.200 F150.000
G1 X41.292 Y35.230 Z-0.200 F150.000
G1 X41.292 Y35.230 Z-0.400 F100.000
G1 X40.542 Y35.230 Z-0.400 F150.000
G1 X40.542 Y34.380 Z-0.400 F150.000
G1 X41.292 Y34.380 Z-0.400 F150.000
G1 X41.292 Y35.230 Z-0.400 F150.000
G1 X41.292 Y35.230 Z-0.600 F100.000
G1 X40.542 Y35.230 Z-0.600 F150.000
G1 X40.542 Y34.380 Z-0.600 F150.000
G1 X41.292 Y34.380 Z-0.600 F150.000
G1 X41.292 Y35.230 Z-0.600 F150.000
G0 Z1.000
G0 Z1.000
G0 X41.292 Y35.230
G0 X39.338 Y35.156
G0 X39.338 Y35.156 Z0.500
G1 X39.338 Y35.156 Z-0.200 F100.000
G1 X38.687 Y35.156 Z-0.200 F150.000
G1 X38.687 Y34.455 Z-0.200 F150.000
G1 X39.338 Y34.455 Z-0.200 F150.000
G1 X39.338 Y35.156 Z-0.200 F150.000
G1 X39.338 Y35.156 Z-0.400 F100.000
G1 X38.687 Y35.156 Z-0.400 F150.000
G1 X38.687 Y34.455 Z-0.400 F150.000
G1 X39.338 Y34.455 Z-0.400 F150.000
G1 X39.338 Y35.156 Z-0.400 F150.000
G1 X39.338 Y35.156 Z-0.600 F100.000
G1 X38.687 Y35.156 Z-0.600 F150.000
G1 X38.687 Y34.455 Z-0.600 F150.000
G1 X39.338 Y34.455 Z-0.600 F150.000
G1 X39.338 Y35.156 Z-0.600 F150.000
G0 Z1.000
G0 Z1.000
G0 X39.338 Y35.156
G0 X37.839
G0 X37.839 Z0.500
G1 X37.839 Y35.156 Z-0.200 F100.000
G1 X37.188 Y35.156 Z-0.200 F150.000
G1 X37.188 Y34.455 Z-0.200 F150.000
G1 X37.839 Y34.455 Z-0.200 F150.000
G1 X37.839 Y35.156 Z-0.200 F150.000
G1 X37.839 Y35.156 Z-0.400 F100.000
G1 X37.188 Y35.156 Z-0.400 F150.000
G1 X37.188 Y34.455 Z-0.400 F150.000
G1 X37.839 Y34.455 Z-0.400 F150.000
G1 X37.839 Y35.156 Z-0.400 F150.000
G1 X37.839 Y35.156 Z-0.600 F100.000
G1 X37.188 Y35.156 Z-0.600 F150.000
G1 X37.188 Y34.455 Z-0.600 F150.000
G1 X37.839 Y34.455 Z-0.600 F150.000
G1 X37.839 Y35.156 Z-0.600 F150.000
G0 Z1.000
G0 Z1.000
G0 X37.839 Y35.156
G0 X37.188 Y36.850
G0 X37.188 Y36.850 Z0.500
G1 X37.188 Y36.850 Z-0.200 F100.000
G1 X37.188 Y37.100 Z-0.200 F150.000
G1 X36.438 Y37.100 Z-0.200 F150.000
G1 X36.438 Y36.850 Z-0.200 F150.000
G1 X37.188 Y36.850 Z-0.200 F150.000
G1 X37.188 Y36.850 Z-0.400 F100.000
G1 X37.188 Y37.100 Z-0.400 F150.000
G1 X36.438 Y37.100 Z-0.400 F150.000
G1 X36.438 Y36.850 Z-0.400 F150.000
G1 X37.188 Y36.850 Z-0.400 F150.000
G1 X37.188 Y36.850 Z-0.600 F100.000
G1 X37.188 Y37.100 Z-0.600 F150.000
G1 X36.438 Y37.100 Z-0.600 F150.000
G1 X36.438 Y36.850 Z-0.600 F150.000
G1 X37.188 Y36.850 Z-0.600 F150.000
G0 Z1.000
G0 Z1.000
G0 X37.188 Y36.850
G0 X38.637
G0 X38.637 Z0.500
G1 X38.637 Y36.850 Z-0.200 F100.000
G1 X39.387 Y36.850 Z-0.200 F150.000
G1 X39.387 Y37.100 Z-0.200 F150.000
G1 X38.637 Y37.100 Z-0.200 F150.000
G1 X38.637 Y36.850 Z-0.200 F150.000
G1 X38.637 Y36.850 Z-0.400 F100.000
G1 X39.387 Y36.850 Z-0.400 F150.000
G1 X39.387 Y37.100 Z-0.400 F150.000
G1 X38.637 Y37.100 Z-0.400 F150.000
G1 X38.637 Y36.850 Z-0.400 F150.000
G1 X38.637 Y36.850 Z-0.600 F100.000
G1 X39.387 Y36.850 Z-0.600 F150.000
G1 X39.387 Y37.100 Z-0.600 F150.000
G1 X38.637 Y37.100 Z-0.600 F150.000
G1 X38.637 Y36.850 Z-0.600 F150.000
G0 Z1.000
G0 Z1.000
G0 X38.637 Y36.850
G0 X42.442 Y35.230
G0 X42.442 Y35.230 Z0.500
G1 X42.442 Y35.230 Z-0.200 F100.000
G1 X42.442 Y34.380 Z-0.200 F150.000
G1 X43.192 Y34.380 Z-0.200 F150.000
G1 X43.192 Y35.230 Z-0.200 F150.000
G1 X42.442 Y35.230 Z-0.200 F150.000
G1 X42.442 Y35.230 Z-0.400 F100.000
G1 X42.442 Y34.380 Z-0.400 F150.000
G1 X43.192 Y34.380 Z-0.400 F150.000
G1 X43.192 Y35.230 Z-0.400 F150.000
G1 X42.442 Y35.230 Z-0.400 F150.000
G1 X42.442 Y35.230 Z-0.600 F100.000
G1 X42.442 Y34.380 Z-0.600 F150.000
G1 X43.192 Y34.380 Z-0.600 F150.000
G1 X43.192 Y35.230 Z-0.600 F150.000
G1 X42.442 Y35.230 Z-0.600 F150.000
G0 Z1.000
G0 Z1.000
G0 X42.442 Y35.230
G0 X44.367 Y35.131
G0 X44.367 Y35.131 Z0.500
G1 X44.367 Y35.131 Z-0.200 F100.000
G1 X44.367 Y34.480 Z-0.200 F150.000
G1 X45.067 Y34.480 Z-0.200 F150.000
G1 X45.067 Y35.131 Z-0.200 F150.000
G1 X44.367 Y35.131 Z-0.200 F150.000
G1 X44.367 Y35.131 Z-0.400 F100.000
G1 X44.367 Y34.480 Z-0.400 F150.000
G1 X45.067 Y34.480 Z-0.400 F150.000
G1 X45.067 Y35.131 Z-0.400 F150.000
G1 X44.367 Y35.131 Z-0.400 F150.000
G1 X44.367 Y35.131 Z-0.600 F100.000
G1 X44.367 Y34.480 Z-0.600 F150.000
G1 X45.067 Y34.480 Z-0.600 F150.000
G1 X45.067 Y35.131 Z-0.600 F150.000
G1 X44.367 Y35.131 Z-0.600 F150.000
G0 Z1.000
G0 Z1.000
G0 X44.367 Y35.131
G0 Y35.979
G0 Y35.979 Z0.500
G1 X44.367 Y35.979 Z-0.200 F100.000
G1 X45.067 Y35.979 Z-0.200 F150.000
G1 X45.067 Y36.630 Z-0.200 F150.000
G1 X44.367 Y36.630 Z-0.200 F150.000
G1 X44.367 Y35.979 Z-0.200 F150.000
G1 X44.367 Y35.979 Z-0.400 F100.000
G1 X45.067 Y35.979 Z-0.400 F150.000
G1 X45.067 Y36.630 Z-0.400 F150.000
G1 X44.367 Y36.630 Z-0.400 F150.000
G1 X44.367 Y35.979 Z-0.400 F150.000
G1 X44.367 Y35.979 Z-0.600 F100.000
G1 X45.067 Y35.979 Z-0.600 F150.000
G1 X45.067 Y36.630 Z-0.600 F150.000
G1 X44.367 Y36.630 Z-0.600 F150.000
G1 X44.367 Y35.979 Z-0.600 F150.000
G0 Z1.000
G0 Z1.000
G0 X44.367 Y35.979
G0 X48.942
G0 X48.942 Z0.500
G1 X48.942 Y35.979 Z-0.200 F100.000
G1 X48.942 Y33.405 Z-0.200 F150.000
G1 X50.392 Y33.405 Z-0.200 F150.000
G1 X50.392 Y36.206 Z-0.200 F150.000
G1 X48.942 Y36.206 Z-0.200 F150.000
G1 X48.942 Y35.979 Z-0.200 F150.000
G1 X48.942 Y35.979 Z-0.400 F100.000
G1 X48.942 Y33.405 Z-0.400 F150.000
G1 X50.392 Y33.405 Z-0.400 F150.000
G1 X50.392 Y36.206 Z-0.400 F150.000
G1 X48.942 Y36.206 Z-0.400 F150.000
G1 X48.942 Y35.979 Z-0.400 F150.000
G1 X48.942 Y35.979 Z-0.600 F100.000
G1 X48.942 Y33.405 Z-0.600 F150.000
G1 X50.392 Y33.405 Z-0.600 F150.000
G1 X50.392 Y36.206 Z-0.600 F150.000
G1 X48.942 Y36.206 Z-0.600 F150.000
G1 X48.942 Y35.979 Z-0.600 F150.000
G0 Z1.000
G0 Z1.000
G0 X48.942 Y35.979
G0 Y37.975
G0 Y37.975 Z0.500
G1 X48.942 Y37.975 Z-0.200 F100.000
G1 X50.468 Y37.975 Z-0.200 F150.000
G1 X50.468 Y40.475 Z-0.200 F150.000
G1 X48.868 Y40.475 Z-0.200 F150.000
G1 X48.868 Y37.975 Z-0.200 F150.000
G1 X48.942 Y37.975 Z-0.200 F150.000
G1 X48.942 Y37.975 Z-0.400 F100.000
G1 X50.468 Y37.975 Z-0.400 F150.000
G1 X50.468 Y40.475 Z-0.400 F150.000
G1 X48.868 Y40.475 Z-0.400 F150.000
G1 X48.868 Y37.975 Z-0.400 F150.000
G1 X48.942 Y37.975 Z-0.400 F150.000
G1 X48.942 Y37.975 Z-0.600 F100.000
G1 X50.468 Y37.975 Z-0.600 F150.000
G1 X50.468 Y40.475 Z-0.600 F150.000
G1 X48.868 Y40.475 Z-0.600 F150.000
G1 X48.868 Y37.975 Z-0.600 F150.000
G1 X48.942 Y37.975 Z-0.600 F150.000
G0 Z1.000
G0 Z1.000
G0 X48.942 Y37.975
G0 Y42.274
G0 Y42.274 Z0.500
G1 X48.942 Y42.274 Z-0.200 F100.000
G1 X50.468 Y42.274 Z-0.200 F150.000
G1 X50.468 Y44.774 Z-0.200 F150.000
G1 X48.868 Y44.774 Z-0.200 F150.000
G1 X48.868 Y42.274 Z-0.200 F150.000
G1 X48.942 Y42.274 Z-0.200 F150.000
G1 X48.942 Y42.274 Z-0.400 F100.000
G1 X50.468 Y42.274 Z-0.400 F150.000
G1 X50.468 Y44.774 Z-0.400 F150.000
G1 X48.868 Y44.774 Z-0.400 F150.000
G1 X48.868 Y42.274 Z-0.400 F150.000
G1 X48.942 Y42.274 Z-0.400 F150.000
G1 X48.942 Y42.274 Z-0.600 F100.000
G1 X50.468 Y42.274 Z-0.600 F150.000
G1 X50.468 Y44.774 Z-0.600 F150.000
G1 X48.868 Y44.774 Z-0.600 F150.000
G1 X48.868 Y42.274 Z-0.600 F150.000
G1 X48.942 Y42.274 Z-0.600 F150.000
G0 Z1.000
G0 Z1.000
G0 X48.942 Y42.274
G0 X44.132 Y44.950
G0 X44.132 Y44.950 Z0.500
G1 X44.132 Y44.950 Z-0.200 F100.000
G1 X44.132 Y46.600 Z-0.200 F150.000
G1 X43.682 Y46.600 Z-0.200 F150.000
G1 X43.682 Y44.950 Z-0.200 F150.000
G1 X44.132 Y44.950 Z-0.200 F150.000
G1 X44.132 Y44.950 Z-0.400 F100.000
G1 X44.132 Y46.600 Z-0.400 F150.000
G1 X43.682 Y46.600 Z-0.400 F150.000
G1 X43.682 Y44.950 Z-0.400 F150.000
G1 X44.132 Y44.950 Z-0.400 F150.000
G1 X44.132 Y44.950 Z-0.600 F100.000
G1 X44.132 Y46.600 Z-0.600 F150.000
G1 X43.682 Y46.600 Z-0.600 F150.000
G1 X43.682 Y44.950 Z-0.600 F150.000
G1 X44.132 Y44.950 Z-0.600 F150.000
G0 Z1.000
G0 Z1.000
G0 X44.132 Y44.950
G0 X41.632
G0 X41.632 Z0.500
G1 X41.632 Y44.950 Z-0.200 F100.000
G1 X41.632 Y46.600 Z-0.200 F150.000
G1 X41.183 Y46.600 Z-0.200 F150.000
G1 X41.183 Y44.950 Z-0.200 F150.000
G1 X41.632 Y44.950 Z-0.200 F150.000
G1 X41.632 Y44.950 Z-0.400 F100.000
G1 X41.632 Y46.600 Z-0.400 F150.000
G1 X41.183 Y46.600 Z-0.400 F150.000
G1 X41.183 Y44.950 Z-0.400 F150.000
G1 X41.632 Y44.950 Z-0.400 F150.000
G1 X41.632 Y44.950 Z-0.600 F100.000
G1 X41.632 Y46.600 Z-0.600 F150.000
G1 X41.183 Y46.600 Z-0.600 F150.000
G1 X41.183 Y44.950 Z-0.600 F150.000
G1 X41.632 Y44.950 Z-0.600 F150.000
G0 Z1.000
G0 Z1.000
G0 X41.632 Y44.950
G0 X39.997 Y29.200
G0 X39.997 Y29.200 Z0.500
G1 X39.997 Y29.200 Z-0.200 F100.000
G1 X38.807 Y29.200 Z-0.200 F150.000
G1 X38.807 Y27.550 Z-0.200 F150.000
G1 X39.997 Y27.550 Z-0.200 F150.000
G1 X39.997 Y29.200 Z-0.200 F150.000
G1 X39.997 Y29.200 Z-0.400 F100.000
G1 X38.807 Y29.200 Z-0.400 F150.000
G1 X38.807 Y27.550 Z-0.400 F150.000
G1 X39.997 Y27.550 Z-0.400 F150.000
G1 X39.997 Y29.200 Z-0.400 F150.000
G1 X39.997 Y29.200 Z-0.600 F100.000
G1 X38.807 Y29.200 Z-0.600 F150.000
G1 X38.807 Y27.550 Z-0.600 F150.000
G1 X39.997 Y27.550 Z-0.600 F150.000
G1 X39.997 Y29.200 Z-0.600 F150.000
G0 Z1.000
G0 Z1.000
G0 X39.997 Y29.200
G0 X37.129
G0 X37.129 Z0.500
G1 X37.129 Y29.200 Z-0.200 F100.000
G1 X35.939 Y29.200 Z-0.200 F150.000
G1 X35.939 Y27.550 Z-0.200 F150.000
G1 X37.129 Y27.550 Z-0.200 F150.000
G1 X37.129 Y29.200 Z-0.200 F150.000
G1 X37.129 Y29.200 Z-0.400 F100.000
G1 X35.939 Y29.200 Z-0.400 F150.000
G1 X35.939 Y27.550 Z-0.400 F150.000
G1 X37.129 Y27.550 Z-0.400 F150.000
G1 X37.129 Y29.200 Z-0.400 F150.000
G1 X37.129 Y29.200 Z-0.600 F100.000
G1 X35.939 Y29.200 Z-0.600 F150.000
G1 X35.939 Y27.550 Z-0.600 F150.000
G1 X37.129 Y27.550 Z-0.600 F150.000
G1 X37.129 Y29.200 Z-0.600 F150.000
G0 Z1.000
G0 Z1.000
G0 X37.129 Y29.200
G0 X37.053 Y26.300
G0 X37.053 Y26.300 Z0.500
G1 X37.053 Y26.300 Z-0.200 F100.000
G1 X36.002 Y26.300 Z-0.200 F150.000
G1 X36.002 Y24.650 Z-0.200 F150.000
G1 X37.053 Y24.650 Z-0.200 F150.000
G1 X37.053 Y26.300 Z-0.200 F150.000
G1 X37.053 Y26.300 Z-0.400 F100.000
G1 X36.002 Y26.300 Z-0.400 F150.000
G1 X36.002 Y24.650 Z-0.400 F150.000
G1 X37.053 Y24.650 Z-0.400 F150.000
G1 X37.053 Y26.300 Z-0.400 F150.000
G1 X37.053 Y26.300 Z-0.600 F100.000
G1 X36.002 Y26.300 Z-0.600 F150.000
G1 X36.002 Y24.650 Z-0.600 F150.000
G1 X37.053 Y24.650 Z-0.600 F150.000
G1 X37.053 Y26.300 Z-0.600 F150.000
G0 Z1.000
G0 Z1.000
G0 X37.053 Y26.300
G0 Y23.413
G0 Y23.413 Z0.500
G1 X37.053 Y23.413 Z-0.200 F100.000
G1 X35.702 Y23.413 Z-0.200 F150.000
G1 X35.702 Y22.224 Z-0.200 F150.000
G1 X37.352 Y22.224 Z-0.200 F150.000
G1 X37.352 Y23.413 Z-0.200 F150.000
G1 X37.053 Y23.413 Z-0.200 F150.000
G1 X37.053 Y23.413 Z-0.400 F100.000
G1 X35.702 Y23.413 Z-0.400 F150.000
G1 X35.702 Y22.224 Z-0.400 F150.000
G1 X37.352 Y22.224 Z-0.400 F150.000
G1 X37.352 Y23.413 Z-0.400 F150.000
G1 X37.053 Y23.413 Z-0.400 F150.000
G1 X37.053 Y23.413 Z-0.600 F100.000
G1 X35.702 Y23.413 Z-0.600 F150.000
G1 X35.702 Y22.224 Z-0.600 F150.000
G1 X37.352 Y22.224 Z-0.600 F150.000
G1 X37.352 Y23.413 Z-0.600 F150.000
G1 X37.053 Y23.413 Z-0.600 F150.000
G0 Z1.000
G0 Z1.000
G0 X37.053 Y23.413
G0 Y20.546
G0 Y20.546 Z0.500
G1 X37.053 Y20.546 Z-0.200 F100.000
G1 X35.702 Y20.546 Z-0.200 F150.000
G1 X35.702 Y19.356 Z-0.200 F150.000
G1 X37.352 Y19.356 Z-0.200 F150.000
G1 X37.352 Y20.546 Z-0.200 F150.000
G1 X37.053 Y20.546 Z-0.200 F150.000
G1 X37.053 Y20.546 Z-0.400 F100.000
G1 X35.702 Y20.546 Z-0.400 F150.000
G1 X35.702 Y19.356 Z-0.400 F150.000
G1 X37.352 Y19.356 Z-0.400 F150.000
G1 X37.352 Y20.546 Z-0.400 F150.000
G1 X37.053 Y20.546 Z-0.400 F150.000
G1 X37.053 Y20.546 Z-0.600 F100.000
G1 X35.702 Y20.546 Z-0.600 F150.000
G1 X35.702 Y19.356 Z-0.600 F150.000
G1 X37.352 Y19.356 Z-0.600 F150.000
G1 X37.352 Y20.546 Z-0.600 F150.000
G1 X37.053 Y20.546 Z-0.600 F150.000
G0 Z1.000
G0 Z1.000
G0 X37.053 Y20.546
G0 Y17.885
G0 Y17.885 Z0.500
G1 X37.053 Y17.885 Z-0.200 F100.000
G1 X35.803 Y17.885 Z-0.200 F150.000
G1 X35.803 Y15.084 Z-0.200 F150.000
G1 X37.253 Y15.084 Z-0.200 F150.000
G1 X37.253 Y17.885 Z-0.200 F150.000
G1 X37.053 Y17.885 Z-0.200 F150.000
G1 X37.053 Y17.885 Z-0.400 F100.000
G1 X35.803 Y17.885 Z-0.400 F150.000
G1 X35.803 Y15.084 Z-0.400 F150.000
G1 X37.253 Y15.084 Z-0.400 F150.000
G1 X37.253 Y17.885 Z-0.400 F150.000
G1 X37.053 Y17.885 Z-0.400 F150.000
G1 X37.053 Y17.885 Z-0.600 F100.000
G1 X35.803 Y17.885 Z-0.600 F150.000
G1 X35.803 Y15.084 Z-0.600 F150.000
G1 X37.253 Y15.084 Z-0.600 F150.000
G1 X37.253 Y17.885 Z-0.600 F150.000
G1 X37.053 Y17.885 Z-0.600 F150.000
G0 Z1.000
G0 Z1.000
G0 X37.053 Y17.885
G0 X38.603 Y19.410
G0 X38.603 Y19.410 Z0.500
G1 X38.603 Y19.410 Z-0.200 F100.000
G1 X40.253 Y19.410 Z-0.200 F150.000
G1 X40.253 Y20.460 Z-0.200 F150.000
G1 X38.603 Y20.460 Z-0.200 F150.000
G1 X38.603 Y19.410 Z-0.200 F150.000
G1 X38.603 Y19.410 Z-0.400 F100.000
G1 X40.253 Y19.410 Z-0.400 F150.000
G1 X40.253 Y20.460 Z-0.400 F150.000
G1 X38.603 Y20.460 Z-0.400 F150.000
G1 X38.603 Y19.410 Z-0.400 F150.000
G1 X38.603 Y19.410 Z-0.600 F100.000
G1 X40.253 Y19.410 Z-0.600 F150.000
G1 X40.253 Y20.460 Z-0.600 F150.000
G1 X38.603 Y20.460 Z-0.600 F150.000
G1 X38.603 Y19.410 Z-0.600 F150.000
G0 Z1.000
G0 Z1.000
G0 X38.603 Y19.410
G0 Y22.309
G0 Y22.309 Z0.500
G1 X38.603 Y22.309 Z-0.200 F100.000
G1 X40.253 Y22.309 Z-0.200 F150.000
G1 X40.253 Y23.359 Z-0.200 F150.000
G1 X38.603 Y23.359 Z-0.200 F150.000
G1 X38.603 Y22.309 Z-0.200 F150.000
G1 X38.603 Y22.309 Z-0.400 F100.000
G1 X40.253 Y22.309 Z-0.400 F150.000
G1 X40.253 Y23.359 Z-0.400 F150.000
G1 X38.603 Y23.359 Z-0.400 F150.000
G1 X38.603 Y22.309 Z-0.400 F150.000
G1 X38.603 Y22.309 Z-0.600 F100.000
G1 X40.253 Y22.309 Z-0.600 F150.000
G1 X40.253 Y23.359 Z-0.600 F150.000
G1 X38.603 Y23.359 Z-0.600 F150.000
G1 X38.603 Y22.309 Z-0.600 F150.000
G0 Z1.000
G0 Z1.000
G0 X38.603 Y22.309
G0 X38.902 Y24.650
G0 X38.902 Y24.650 Z0.500
G1 X38.902 Y24.650 Z-0.200 F100.000
G1 X39.952 Y24.650 Z-0.200 F150.000
G1 X39.952 Y26.300 Z-0.200 F150.000
G1 X38.902 Y26.300 Z-0.200 F150.000
G1 X38.902 Y24.650 Z-0.200 F150.000
G1 X38.902 Y24.650 Z-0.400 F100.000
G1 X39.952 Y24.650 Z-0.400 F150.000
G1 X39.952 Y26.300 Z-0.400 F150.000
G1 X38.902 Y26.300 Z-0.400 F150.000
G1 X38.902 Y24.650 Z-0.400 F150.000
G1 X38.902 Y24.650 Z-0.600 F100.000
G1 X39.952 Y24.650 Z-0.600 F150.000
G1 X39.952 Y26.300 Z-0.600 F150.000
G1 X38.902 Y26.300 Z-0.600 F150.000
G1 X38.902 Y24.650 Z-0.600 F150.000
G0 Z1.000
G0 Z1.000
G0 X38.902 Y24.650
G0 X41.567 Y25.961
G0 X41.567 Y25.961 Z0.500
G1 X41.567 Y25.961 Z-0.200 F100.000
G1 X42.968 Y25.961 Z-0.200 F150.000
G1 X42.968 Y26.411 Z-0.200 F150.000
G1 X41.567 Y26.411 Z-0.200 F150.000
G1 X41.567 Y25.961 Z-0.200 F150.000
G1 X41.567 Y25.961 Z-0.400 F100.000
G1 X42.968 Y25.961 Z-0.400 F150.000
G1 X42.968 Y26.411 Z-0.400 F150.000
G1 X41.567 Y26.411 Z-0.400 F150.000
G1 X41.567 Y25.961 Z-0.400 F150.000
G1 X41.567 Y25.961 Z-0.600 F100.000
G1 X42.968 Y25.961 Z-0.600 F150.000
G1 X42.968 Y26.411 Z-0.600 F150.000
G1 X41.567 Y26.411 Z-0.600 F150.000
G1 X41.567 Y25.961 Z-0.600 F150.000
G0 Z1.000
G0 Z1.000
G0 X41.567 Y25.961
G0 Y25.140
G0 Y25.140 Z0.500
G1 X41.567 Y25.140 Z-0.200 F100.000
G1 X41.567 Y24.691 Z-0.200 F150.000
G1 X42.968 Y24.691 Z-0.200 F150.000
G1 X42.968 Y25.140 Z-0.200 F150.000
G1 X41.567 Y25.140 Z-0.200 F150.000
G1 X41.567 Y25.140 Z-0.400 F100.000
G1 X41.567 Y24.691 Z-0.400 F150.000
G1 X42.968 Y24.691 Z-0.400 F150.000
G1 X42.968 Y25.140 Z-0.400 F150.000
G1 X41.567 Y25.140 Z-0.400 F150.000
G1 X41.567 Y25.140 Z-0.600 F100.000
G1 X41.567 Y24.691 Z-0.600 F150.000
G1 X42.968 Y24.691 Z-0.600 F150.000
G1 X42.968 Y25.140 Z-0.600 F150.000
G1 X41.567 Y25.140 Z-0.600 F150.000
G0 Z1.000
G0 Z1.000
G0 X41.567 Y25.140
G0 Y23.860
G0 Y23.860 Z0.500
G1 X41.567 Y23.860 Z-0.200 F100.000
G1 X41.567 Y23.410 Z-0.200 F150.000
G1 X42.968 Y23.410 Z-0.200 F150.000
G1 X42.968 Y23.860 Z-0.200 F150.000
G1 X41.567 Y23.860 Z-0.200 F150.000
G1 X41.567 Y23.860 Z-0.400 F100.000
G1 X41.567 Y23.410 Z-0.400 F150.000
G1 X42.968 Y23.410 Z-0.400 F150.000
G1 X42.968 Y23.860 Z-0.400 F150.000
G1 X41.567 Y23.860 Z-0.400 F150.000
G1 X41.567 Y23.860 Z-0.600 F100.000
G1 X41.567 Y23.410 Z-0.600 F150.000
G1 X42.968 Y23.410 Z-0.600 F150.000
G1 X42.968 Y23.860 Z-0.600 F150.000
G1 X41.567 Y23.860 Z-0.600 F150.000
G0 Z1.000
G0 Z1.000
G0 X41.567 Y23.860
G0 Y22.591
G0 Y22.591 Z0.500
G1 X41.567 Y22.591 Z-0.200 F100.000
G1 X41.567 Y22.141 Z-0.200 F150.000
G1 X42.968 Y22.141 Z-0.200 F150.000
G1 X42.968 Y22.591 Z-0.200 F150.000
G1 X41.567 Y22.591 Z-0.200 F150.000
G1 X41.567 Y22.591 Z-0.400 F100.000
G1 X41.567 Y22.141 Z-0.400 F150.000
G1 X42.968 Y22.141 Z-0.400 F150.000
G1 X42.968 Y22.591 Z-0.400 F150.000
G1 X41.567 Y22.591 Z-0.400 F150.000
G1 X41.567 Y22.591 Z-0.600 F100.000
G1 X41.567 Y22.141 Z-0.600 F150.000
G1 X42.968 Y22.141 Z-0.600 F150.000
G1 X42.968 Y22.591 Z-0.600 F150.000
G1 X41.567 Y22.591 Z-0.600 F150.000
G0 Z1.000
G0 Z1.000
G0 X41.567 Y22.591
G0 Y20.460
G0 Y20.460 Z0.500
G1 X41.567 Y20.460 Z-0.200 F100.000
G1 X41.453 Y20.460 Z-0.200 F150.000
G1 X41.453 Y19.410 Z-0.200 F150.000
G1 X43.103 Y19.410 Z-0.200 F150.000
G1 X43.103 Y20.460 Z-0.200 F150.000
G1 X41.567 Y20.460 Z-0.200 F150.000
G1 X41.567 Y20.460 Z-0.400 F100.000
G1 X41.453 Y20.460 Z-0.400 F150.000
G1 X41.453 Y19.410 Z-0.400 F150.000
G1 X43.103 Y19.410 Z-0.400 F150.000
G1 X43.103 Y20.460 Z-0.400 F150.000
G1 X41.567 Y20.460 Z-0.400 F150.000
G1 X41.567 Y20.460 Z-0.600 F100.000
G1 X41.453 Y20.460 Z-0.600 F150.000
G1 X41.453 Y19.410 Z-0.600 F150.000
G1 X43.103 Y19.410 Z-0.600 F150.000
G1 X43.103 Y20.460 Z-0.600 F150.000
G1 X41.567 Y20.460 Z-0.600 F150.000
G0 Z1.000
G0 Z1.000
G0 X41.567 Y20.460
G0 Y17.561
G0 Y17.561 Z0.500
G1 X41.567 Y17.561 Z-0.200 F100.000
G1 X41.453 Y17.561 Z-0.200 F150.000
G1 X41.453 Y16.511 Z-0.200 F150.000
G1 X43.103 Y16.511 Z-0.200 F150.000
G1 X43.103 Y17.561 Z-0.200 F150.000
G1 X41.567 Y17.561 Z-0.200 F150.000
G1 X41.567 Y17.561 Z-0.400 F100.000
G1 X41.453 Y17.561 Z-0.400 F150.000
G1 X41.453 Y16.511 Z-0.400 F150.000
G1 X43.103 Y16.511 Z-0.400 F150.000
G1 X43.103 Y17.561 Z-0.400 F150.000
G1 X41.567 Y17.561 Z-0.400 F150.000
G1 X41.567 Y17.561 Z-0.600 F100.000
G1 X41.453 Y17.561 Z-0.600 F150.000
G1 X41.453 Y16.511 Z-0.600 F150.000
G1 X43.103 Y16.511 Z-0.600 F150.000
G1 X43.103 Y17.561 Z-0.600 F150.000
G1 X41.567 Y17.561 Z-0.600 F150.000
G0 Z1.000
G0 Z1.000
G0 X41.567 Y17.561
G0 X44.392
G0 X44.392 Z0.500
G1 X44.392 Y17.561 Z-0.200 F100.000
G1 X44.392 Y16.436 Z-0.200 F150.000
G1 X46.042 Y16.436 Z-0.200 F150.000
G1 X46.042 Y17.625 Z-0.200 F150.000
G1 X44.392 Y17.625 Z-0.200 F150.000
G1 X44.392 Y17.561 Z-0.200 F150.000
G1 X44.392 Y17.561 Z-0.400 F100.000
G1 X44.392 Y16.436 Z-0.400 F150.000
G1 X46.042 Y16.436 Z-0.400 F150.000
G1 X46.042 Y17.625 Z-0.400 F150.000
G1 X44.392 Y17.625 Z-0.400 F150.000
G1 X44.392 Y17.561 Z-0.400 F150.000
G1 X44.392 Y17.561 Z-0.600 F100.000
G1 X44.392 Y16.436 Z-0.600 F150.000
G1 X46.042 Y16.436 Z-0.600 F150.000
G1 X46.042 Y17.625 Z-0.600 F150.000
G1 X44.392 Y17.625 Z-0.600 F150.000
G1 X44.392 Y17.561 Z-0.600 F150.000
G0 Z1.000
G0 Z1.000
G0 X44.392 Y17.561
G0 X44.394 Y19.304
G0 X44.394 Y19.304 Z0.500
G1 X44.394 Y19.304 Z-0.200 F100.000
G1 X46.044 Y19.304 Z-0.200 F150.000
G1 X46.044 Y20.493 Z-0.200 F150.000
G1 X44.394 Y20.493 Z-0.200 F150.000
G1 X44.394 Y19.304 Z-0.200 F150.000
G1 X44.394 Y19.304 Z-0.400 F100.000
G1 X46.044 Y19.304 Z-0.400 F150.000
G1 X46.044 Y20.493 Z-0.400 F150.000
G1 X44.394 Y20.493 Z-0.400 F150.000
G1 X44.394 Y19.304 Z-0.400 F150.000
G1 X44.394 Y19.304 Z-0.600 F100.000
G1 X46.044 Y19.304 Z-0.600 F150.000
G1 X46.044 Y20.493 Z-0.600 F150.000
G1 X44.394 Y20.493 Z-0.600 F150.000
G1 X44.394 Y19.304 Z-0.600 F150.000
G0 Z1.000
G0 Z1.000
G0 X44.394 Y19.304
G0 X46.907 Y22.140
G0 X46.907 Y22.140 Z0.500
G1 X46.907 Y22.140 Z-0.200 F100.000
G1 X48.308 Y22.140 Z-0.200 F150.000
G1 X48.308 Y22.589 Z-0.200 F150.000
G1 X46.907 Y22.589 Z-0.200 F150.000
G1 X46.907 Y22.140 Z-0.200 F150.000
G1 X46.907 Y22.140 Z-0.400 F100.000
G1 X48.308 Y22.140 Z-0.400 F150.000
G1 X48.308 Y22.589 Z-0.400 F150.000
G1 X46.907 Y22.589 Z-0.400 F150.000
G1 X46.907 Y22.140 Z-0.400 F150.000
G1 X46.907 Y22.140 Z-0.600 F100.000
G1 X48.308 Y22.140 Z-0.600 F150.000
G1 X48.308 Y22.589 Z-0.600 F150.000
G1 X46.907 Y22.589 Z-0.600 F150.000
G1 X46.907 Y22.140 Z-0.600 F150.000
G0 Z1.000
G0 Z1.000
G0 X46.907 Y22.140
G0 Y23.410
G0 Y23.410 Z0.500
G1 X46.907 Y23.410 Z-0.200 F100.000
G1 X48.308 Y23.410 Z-0.200 F150.000
G1 X48.308 Y23.860 Z-0.200 F150.000
G1 X46.907 Y23.860 Z-0.200 F150.000
G1 X46.907 Y23.410 Z-0.200 F150.000
G1 X46.907 Y23.410 Z-0.400 F100.000
G1 X48.308 Y23.410 Z-0.400 F150.000
G1 X48.308 Y23.860 Z-0.400 F150.000
G1 X46.907 Y23.860 Z-0.400 F150.000
G1 X46.907 Y23.410 Z-0.400 F150.000
G1 X46.907 Y23.410 Z-0.600 F100.000
G1 X48.308 Y23.410 Z-0.600 F150.000
G1 X48.308 Y23.860 Z-0.600 F150.000
G1 X46.907 Y23.860 Z-0.600 F150.000
G1 X46.907 Y23.410 Z-0.600 F150.000
G0 Z1.000
G0 Z1.000
G0 X46.907 Y23.410
G0 Y24.691
G0 Y24.691 Z0.500
G1 X46.907 Y24.691 Z-0.200 F100.000
G1 X48.308 Y24.691 Z-0.200 F150.000
G1 X48.308 Y25.140 Z-0.200 F150.000
G1 X46.907 Y25.140 Z-0.200 F150.000
G1 X46.907 Y24.691 Z-0.200 F150.000
G1 X46.907 Y24.691 Z-0.400 F100.000
G1 X48.308 Y24.691 Z-0.400 F150.000
G1 X48.308 Y25.140 Z-0.400 F150.000
G1 X46.907 Y25.140 Z-0.400 F150.000
G1 X46.907 Y24.691 Z-0.400 F150.000
G1 X46.907 Y24.691 Z-0.600 F100.000
G1 X48.308 Y24.691 Z-0.600 F150.000
G1 X48.308 Y25.140 Z-0.600 F150.000
G1 X46.907 Y25.140 Z-0.600 F150.000
G1 X46.907 Y24.691 Z-0.600 F150.000
G0 Z1.000
G0 Z1.000
G0 X46.907 Y24.691
G0 Y25.960
G0 Y25.960 Z0.500
G1 X46.907 Y25.960 Z-0.200 F100.000
G1 X48.308 Y25.960 Z-0.200 F150.000
G1 X48.308 Y26.409 Z-0.200 F150.000
G1 X46.907 Y26.409 Z-0.200 F150.000
G1 X46.907 Y25.960 Z-0.200 F150.000
G1 X46.907 Y25.960 Z-0.400 F100.000
G1 X48.308 Y25.960 Z-0.400 F150.000
G1 X48.308 Y26.409 Z-0.400 F150.000
G1 X46.907 Y26.409 Z-0.400 F150.000
G1 X46.907 Y25.960 Z-0.400 F150.000
G1 X46.907 Y25.960 Z-0.600 F100.000
G1 X48.308 Y25.960 Z-0.600 F150.000
G1 X48.308 Y26.409 Z-0.600 F150.000
G1 X46.907 Y26.409 Z-0.600 F150.000
G1 X46.907 Y25.960 Z-0.600 F150.000
G0 Z1.000
G0 Z1.000
G0 X46.907 Y25.960
G0 X49.513 Y25.790
G0 X49.513 Y25.790 Z0.500
G1 X49.513 Y25.790 Z-0.200 F100.000
G1 X49.513 Y24.740 Z-0.200 F150.000
G1 X51.163 Y24.740 Z-0.200 F150.000
G1 X51.163 Y25.790 Z-0.200 F150.000
G1 X49.513 Y25.790 Z-0.200 F150.000
G1 X49.513 Y25.790 Z-0.400 F100.000
G1 X49.513 Y24.740 Z-0.400 F150.000
G1 X51.163 Y24.740 Z-0.400 F150.000
G1 X51.163 Y25.790 Z-0.400 F150.000
G1 X49.513 Y25.790 Z-0.400 F150.000
G1 X49.513 Y25.790 Z-0.600 F100.000
G1 X49.513 Y24.740 Z-0.600 F150.000
G1 X51.163 Y24.740 Z-0.600 F150.000
G1 X51.163 Y25.790 Z-0.600 F150.000
G1 X49.513 Y25.790 Z-0.600 F150.000
G0 Z1.000
G0 Z1.000
G0 X49.513 Y25.790
G0 Y22.890
G0 Y22.890 Z0.500
G1 X49.513 Y22.890 Z-0.200 F100.000
G1 X49.513 Y21.839 Z-0.200 F150.000
G1 X51.163 Y21.839 Z-0.200 F150.000
G1 X51.163 Y22.890 Z-0.200 F150.000
G1 X49.513 Y22.890 Z-0.200 F150.000
G1 X49.513 Y22.890 Z-0.400 F100.000
G1 X49.513 Y21.839 Z-0.400 F150.000
G1 X51.163 Y21.839 Z-0.400 F150.000
G1 X51.163 Y22.890 Z-0.400 F150.000
G1 X49.513 Y22.890 Z-0.400 F150.000
G1 X49.513 Y22.890 Z-0.600 F100.000
G1 X49.513 Y21.839 Z-0.600 F150.000
G1 X51.163 Y21.839 Z-0.600 F150.000
G1 X51.163 Y22.890 Z-0.600 F150.000
G1 X49.513 Y22.890 Z-0.600 F150.000
G0 Z1.000
G0 Z1.000
G0 X49.513 Y22.890
G0 X49.063 Y20.493
G0 X49.063 Y20.493 Z0.500
G1 X49.063 Y20.493 Z-0.200 F100.000
G1 X47.413 Y20.493 Z-0.200 F150.000
G1 X47.413 Y19.304 Z-0.200 F150.000
G1 X49.063 Y19.304 Z-0.200 F150.000
G1 X49.063 Y20.493 Z-0.200 F150.000
G1 X49.063 Y20.493 Z-0.400 F100.000
G1 X47.413 Y20.493 Z-0.400 F150.000
G1 X47.413 Y19.304 Z-0.400 F150.000
G1 X49.063 Y19.304 Z-0.400 F150.000
G1 X49.063 Y20.493 Z-0.400 F150.000
G1 X49.063 Y20.493 Z-0.600 F100.000
G1 X47.413 Y20.493 Z-0.600 F150.000
G1 X47.413 Y19.304 Z-0.600 F150.000
G1 X49.063 Y19.304 Z-0.600 F150.000
G1 X49.063 Y20.493 Z-0.600 F150.000
G0 Z1.000
G0 Z1.000
G0 X49.063 Y20.493
G0 Y17.625
G0 Y17.625 Z0.500
G1 X49.063 Y17.625 Z-0.200 F100.000
G1 X47.413 Y17.625 Z-0.200 F150.000
G1 X47.413 Y16.436 Z-0.200 F150.000
G1 X49.063 Y16.436 Z-0.200 F150.000
G1 X49.063 Y17.625 Z-0.200 F150.000
G1 X49.063 Y17.625 Z-0.400 F100.000
G1 X47.413 Y17.625 Z-0.400 F150.000
G1 X47.413 Y16.436 Z-0.400 F150.000
G1 X49.063 Y16.436 Z-0.400 F150.000
G1 X49.063 Y17.625 Z-0.400 F150.000
G1 X49.063 Y17.625 Z-0.600 F100.000
G1 X47.413 Y17.625 Z-0.600 F150.000
G1 X47.413 Y16.436 Z-0.600 F150.000
G1 X49.063 Y16.436 Z-0.600 F150.000
G1 X49.063 Y17.625 Z-0.600 F150.000
G0 Z1.000
G0 Z1.000
G0 X49.063 Y17.625
G0 Y15.204
G0 Y15.204 Z0.500
G1 X49.063 Y15.204 Z-0.200 F100.000
G1 X47.413 Y15.204 Z-0.200 F150.000
G1 X47.413 Y14.015 Z-0.200 F150.000
G1 X49.063 Y14.015 Z-0.200 F150.000
G1 X49.063 Y15.204 Z-0.200 F150.000
G1 X49.063 Y15.204 Z-0.400 F100.000
G1 X47.413 Y15.204 Z-0.400 F150.000
G1 X47.413 Y14.015 Z-0.400 F150.000
G1 X49.063 Y14.015 Z-0.400 F150.000
G1 X49.063 Y15.204 Z-0.400 F150.000
G1 X49.063 Y15.204 Z-0.600 F100.000
G1 X47.413 Y15.204 Z-0.600 F150.000
G1 X47.413 Y14.015 Z-0.600 F150.000
G1 X49.063 Y14.015 Z-0.600 F150.000
G1 X49.063 Y15.204 Z-0.600 F150.000
G0 Z1.000
G0 Z1.000
G0 X49.063 Y15.204
G0 Y12.335
G0 Y12.335 Z0.500
G1 X49.063 Y12.335 Z-0.200 F100.000
G1 X47.413 Y12.335 Z-0.200 F150.000
G1 X47.413 Y11.146 Z-0.200 F150.000
G1 X49.063 Y11.146 Z-0.200 F150.000
G1 X49.063 Y12.335 Z-0.200 F150.000
G1 X49.063 Y12.335 Z-0.400 F100.000
G1 X47.413 Y12.335 Z-0.400 F150.000
G1 X47.413 Y11.146 Z-0.400 F150.000
G1 X49.063 Y11.146 Z-0.400 F150.000
G1 X49.063 Y12.335 Z-0.400 F150.000
G1 X49.063 Y12.335 Z-0.600 F100.000
G1 X47.413 Y12.335 Z-0.600 F150.000
G1 X47.413 Y11.146 Z-0.600 F150.000
G1 X49.063 Y11.146 Z-0.600 F150.000
G1 X49.063 Y12.335 Z-0.600 F150.000
G0 Z1.000
G0 Z1.000
G0 X49.063 Y12.335
G0 X45.003 Y10.199
G0 X45.003 Y10.199 Z0.500
G1 X45.003 Y10.199 Z-0.200 F100.000
G1 X43.553 Y10.199 Z-0.200 F150.000
G1 X43.553 Y7.850 Z-0.200 F150.000
G1 X45.003 Y7.850 Z-0.200 F150.000
G1 X45.003 Y10.199 Z-0.200 F150.000
G1 X45.003 Y10.199 Z-0.400 F100.000
G1 X43.553 Y10.199 Z-0.400 F150.000
G1 X43.553 Y7.850 Z-0.400 F150.000
G1 X45.003 Y7.850 Z-0.400 F150.000
G1 X45.003 Y10.199 Z-0.400 F150.000
G1 X45.003 Y10.199 Z-0.600 F100.000
G1 X43.553 Y10.199 Z-0.600 F150.000
G1 X43.553 Y7.850 Z-0.600 F150.000
G1 X45.003 Y7.850 Z-0.600 F150.000
G1 X45.003 Y10.199 Z-0.600 F150.000
G0 Z1.000
G0 Z1.000
G0 X45.003 Y10.199
G0 Y6.900
G0 Y6.900 Z0.500
G1 X45.003 Y6.900 Z-0.200 F100.000
G1 X43.553 Y6.900 Z-0.200 F150.000
G1 X43.553 Y4.550 Z-0.200 F150.000
G1 X45.003 Y4.550 Z-0.200 F150.000
G1 X45.003 Y6.900 Z-0.200 F150.000
G1 X45.003 Y6.900 Z-0.400 F100.000
G1 X43.553 Y6.900 Z-0.400 F150.000
G1 X43.553 Y4.550 Z-0.400 F150.000
G1 X45.003 Y4.550 Z-0.400 F150.000
G1 X45.003 Y6.900 Z-0.400 F150.000
G1 X45.003 Y6.900 Z-0.600 F100.000
G1 X43.553 Y6.900 Z-0.600 F150.000
G1 X43.553 Y4.550 Z-0.600 F150.000
G1 X45.003 Y4.550 Z-0.600 F150.000
G1 X45.003 Y6.900 Z-0.600 F150.000
G0 Z1.000
G0 Z1.000
G0 X45.003 Y6.900
G0 X47.737 Y6.899
G0 X47.737 Y6.899 Z0.500
G1 X47.737 Y6.899 Z-0.200 F100.000
G1 X48.437 Y6.899 Z-0.200 F150.000
G1 X48.437 Y7.549 Z-0.200 F150.000
G1 X47.737 Y7.549 Z-0.200 F150.000
G1 X47.737 Y6.899 Z-0.200 F150.000
G1 X47.737 Y6.899 Z-0.400 F100.000
G1 X48.437 Y6.899 Z-0.400 F150.000
G1 X48.437 Y7.549 Z-0.400 F150.000
G1 X47.737 Y7.549 Z-0.400 F150.000
G1 X47.737 Y6.899 Z-0.400 F150.000
G1 X47.737 Y6.899 Z-0.600 F100.000
G1 X48.437 Y6.899 Z-0.600 F150.000
G1 X48.437 Y7.549 Z-0.600 F150.000
G1 X47.737 Y7.549 Z-0.600 F150.000
G1 X47.737 Y6.899 Z-0.600 F150.000
G0 Z1.000
G0 Z1.000
G0 X47.737 Y6.899
G0 X47.738 Y6.050
G0 X47.738 Y6.050 Z0.500
G1 X47.738 Y6.050 Z-0.200 F100.000
G1 X47.738 Y5.399 Z-0.200 F150.000
G1 X48.438 Y5.399 Z-0.200 F150.000
G1 X48.438 Y6.050 Z-0.200 F150.000
G1 X47.738 Y6.050 Z-0.200 F150.000
G1 X47.738 Y6.050 Z-0.400 F100.000
G1 X47.738 Y5.399 Z-0.400 F150.000
G1 X48.438 Y5.399 Z-0.400 F150.000
G1 X48.438 Y6.050 Z-0.400 F150.000
G1 X47.738 Y6.050 Z-0.400 F150.000
G1 X47.738 Y6.050 Z-0.600 F100.000
G1 X47.738 Y5.399 Z-0.600 F150.000
G1 X48.438 Y5.399 Z-0.600 F150.000
G1 X48.438 Y6.050 Z-0.600 F150.000
G1 X47.738 Y6.050 Z-0.600 F150.000
G0 Z1.000
G0 Z1.000
G0 X47.738 Y6.050
G0 X49.602
G0 X49.602 Z0.500
G1 X49.602 Y6.050 Z-0.200 F100.000
G1 X49.602 Y5.300 Z-0.200 F150.000
G1 X50.352 Y5.300 Z-0.200 F150.000
G1 X50.352 Y6.151 Z-0.200 F150.000
G1 X49.602 Y6.151 Z-0.200 F150.000
G1 X49.602 Y6.050 Z-0.200 F150.000
G1 X49.602 Y6.050 Z-0.400 F100.000
G1 X49.602 Y5.300 Z-0.400 F150.000
G1 X50.352 Y5.300 Z-0.400 F150.000
G1 X50.352 Y6.151 Z-0.400 F150.000
G1 X49.602 Y6.151 Z-0.400 F150.000
G1 X49.602 Y6.050 Z-0.400 F150.000
G1 X49.602 Y6.050 Z-0.600 F100.000
G1 X49.602 Y5.300 Z-0.600 F150.000
G1 X50.352 Y5.300 Z-0.600 F150.000
G1 X50.352 Y6.151 Z-0.600 F150.000
G1 X49.602 Y6.151 Z-0.600 F150.000
G1 X49.602 Y6.050 Z-0.600 F150.000
G0 Z1.000
G0 Z1.000
G0 X49.602 Y6.050
G0 X51.503
G0 X51.503 Z0.500
G1 X51.503 Y6.050 Z-0.200 F100.000
G1 X51.503 Y5.300 Z-0.200 F150.000
G1 X52.253 Y5.300 Z-0.200 F150.000
G1 X52.253 Y6.151 Z-0.200 F150.000
G1 X51.503 Y6.151 Z-0.200 F150.000
G1 X51.503 Y6.050 Z-0.200 F150.000
G1 X51.503 Y6.050 Z-0.400 F100.000
G1 X51.503 Y5.300 Z-0.400 F150.000
G1 X52.253 Y5.300 Z-0.400 F150.000
G1 X52.253 Y6.151 Z-0.400 F150.000
G1 X51.503 Y6.151 Z-0.400 F150.000
G1 X51.503 Y6.050 Z-0.400 F150.000
G1 X51.503 Y6.050 Z-0.600 F100.000
G1 X51.503 Y5.300 Z-0.600 F150.000
G1 X52.253 Y5.300 Z-0.600 F150.000
G1 X52.253 Y6.151 Z-0.600 F150.000
G1 X51.503 Y6.151 Z-0.600 F150.000
G1 X51.503 Y6.050 Z-0.600 F150.000
G0 Z1.000
G0 Z1.000
G0 X51.503 Y6.050
G0 X51.303 Y7.499
G0 X51.303 Y7.499 Z0.500
G1 X51.303 Y7.499 Z-0.200 F100.000
G1 X51.303 Y8.350 Z-0.200 F150.000
G1 X50.554 Y8.350 Z-0.200 F150.000
G1 X50.554 Y7.499 Z-0.200 F150.000
G1 X51.303 Y7.499 Z-0.200 F150.000
G1 X51.303 Y7.499 Z-0.400 F100.000
G1 X51.303 Y8.350 Z-0.400 F150.000
G1 X50.554 Y8.350 Z-0.400 F150.000
G1 X50.554 Y7.499 Z-0.400 F150.000
G1 X51.303 Y7.499 Z-0.400 F150.000
G1 X51.303 Y7.499 Z-0.600 F100.000
G1 X51.303 Y8.350 Z-0.600 F150.000
G1 X50.554 Y8.350 Z-0.600 F150.000
G1 X50.554 Y7.499 Z-0.600 F150.000
G1 X51.303 Y7.499 Z-0.600 F150.000
G0 Z1.000
G0 Z1.000
G0 X51.303 Y7.499
G0 X53.437
G0 X53.437 Z0.500
G1 X53.437 Y7.499 Z-0.200 F100.000
G1 X53.437 Y6.899 Z-0.200 F150.000
G1 X54.138 Y6.899 Z-0.200 F150.000
G1 X54.138 Y7.549 Z-0.200 F150.000
G1 X53.437 Y7.549 Z-0.200 F150.000
G1 X53.437 Y7.499 Z-0.200 F150.000
G1 X53.437 Y7.499 Z-0.400 F100.000
G1 X53.437 Y6.899 Z-0.400 F150.000
G1 X54.138 Y6.899 Z-0.400 F150.000
G1 X54.138 Y7.549 Z-0.400 F150.000
G1 X53.437 Y7.549 Z-0.400 F150.000
G1 X53.437 Y7.499 Z-0.400 F150.000
G1 X53.437 Y7.499 Z-0.600 F100.000
G1 X53.437 Y6.899 Z-0.600 F150.000
G1 X54.138 Y6.899 Z-0.600 F150.000
G1 X54.138 Y7.549 Z-0.600 F150.000
G1 X53.437 Y7.549 Z-0.600 F150.000
G1 X53.437 Y7.499 Z-0.600 F150.000
G0 Z1.000
G0 Z1.000
G0 X53.437 Y7.499
G0 Y6.050
G0 Y6.050 Z0.500
G1 X53.437 Y6.050 Z-0.200 F100.000
G1 X53.437 Y5.399 Z-0.200 F150.000
G1 X54.138 Y5.399 Z-0.200 F150.000
G1 X54.138 Y6.050 Z-0.200 F150.000
G1 X53.437 Y6.050 Z-0.200 F150.000
G1 X53.437 Y6.050 Z-0.400 F100.000
G1 X53.437 Y5.399 Z-0.400 F150.000
G1 X54.138 Y5.399 Z-0.400 F150.000
G1 X54.138 Y6.050 Z-0.400 F150.000
G1 X53.437 Y6.050 Z-0.400 F150.000
G1 X53.437 Y6.050 Z-0.600 F100.000
G1 X53.437 Y5.399 Z-0.600 F150.000
G1 X54.138 Y5.399 Z-0.600 F150.000
G1 X54.138 Y6.050 Z-0.600 F150.000
G1 X53.437 Y6.050 Z-0.600 F150.000
G0 Z1.000
G0 Z1.000
G0 X53.437 Y6.050
G0 X55.513 Y6.750
G0 X55.513 Y6.750 Z0.500
G1 X55.513 Y6.750 Z-0.200 F100.000
G1 X57.863 Y6.750 Z-0.200 F150.000
G1 X57.863 Y8.200 Z-0.200 F150.000
G1 X55.513 Y8.200 Z-0.200 F150.000
G1 X55.513 Y6.750 Z-0.200 F150.000
G1 X55.513 Y6.750 Z-0.400 F100.000
G1 X57.863 Y6.750 Z-0.400 F150.000
G1 X57.863 Y8.200 Z-0.400 F150.000
G1 X55.513 Y8.200 Z-0.400 F150.000
G1 X55.513 Y6.750 Z-0.400 F150.000
G1 X55.513 Y6.750 Z-0.600 F100.000
G1 X57.863 Y6.750 Z-0.600 F150.000
G1 X57.863 Y8.200 Z-0.600 F150.000
G1 X55.513 Y8.200 Z-0.600 F150.000
G1 X55.513 Y6.750 Z-0.600 F150.000
G0 Z1.000
G0 Z1.000
G0 X55.513 Y6.750
G0 X58.813
G0 X58.813 Z0.500
G1 X58.813 Y6.750 Z-0.200 F100.000
G1 X61.163 Y6.750 Z-0.200 F150.000
G1 X61.163 Y8.200 Z-0.200 F150.000
G1 X58.813 Y8.200 Z-0.200 F150.000
G1 X58.813 Y6.750 Z-0.200 F150.000
G1 X58.813 Y6.750 Z-0.400 F100.000
G1 X61.163 Y6.750 Z-0.400 F150.000
G1 X61.163 Y8.200 Z-0.400 F150.000
G1 X58.813 Y8.200 Z-0.400 F150.000
G1 X58.813 Y6.750 Z-0.400 F150.000
G1 X58.813 Y6.750 Z-0.600 F100.000
G1 X61.163 Y6.750 Z-0.600 F150.000
G1 X61.163 Y8.200 Z-0.600 F150.000
G1 X58.813 Y8.200 Z-0.600 F150.000
G1 X58.813 Y6.750 Z-0.600 F150.000
G0 Z1.000
G0 Z1.000
G0 X58.813 Y6.750
G0 X54.562 Y10.345
G0 X54.562 Y10.345 Z0.500
G1 X54.562 Y10.345 Z-0.200 F100.000
G1 X54.562 Y13.145 Z-0.200 F150.000
G1 X53.112 Y13.145 Z-0.200 F150.000
G1 X53.112 Y10.345 Z-0.200 F150.000
G1 X54.562 Y10.345 Z-0.200 F150.000
G1 X54.562 Y10.345 Z-0.400 F100.000
G1 X54.562 Y13.145 Z-0.400 F150.000
G1 X53.112 Y13.145 Z-0.400 F150.000
G1 X53.112 Y10.345 Z-0.400 F150.000
G1 X54.562 Y10.345 Z-0.400 F150.000
G1 X54.562 Y10.345 Z-0.600 F100.000
G1 X54.562 Y13.145 Z-0.600 F150.000
G1 X53.112 Y13.145 Z-0.600 F150.000
G1 X53.112 Y10.345 Z-0.600 F150.000
G1 X54.562 Y10.345 Z-0.600 F150.000
G0 Z1.000
G0 Z1.000
G0 X54.562 Y10.345
G0 Y15.544
G0 Y15.544 Z0.500
G1 X54.562 Y15.544 Z-0.200 F100.000
G1 X54.562 Y18.345 Z-0.200 F150.000
G1 X53.112 Y18.345 Z-0.200 F150.000
G1 X53.112 Y15.544 Z-0.200 F150.000
G1 X54.562 Y15.544 Z-0.200 F150.000
G1 X54.562 Y15.544 Z-0.400 F100.000
G1 X54.562 Y18.345 Z-0.400 F150.000
G1 X53.112 Y18.345 Z-0.400 F150.000
G1 X53.112 Y15.544 Z-0.400 F150.000
G1 X54.562 Y15.544 Z-0.400 F150.000
G1 X54.562 Y15.544 Z-0.600 F100.000
G1 X54.562 Y18.345 Z-0.600 F150.000
G1 X53.112 Y18.345 Z-0.600 F150.000
G1 X53.112 Y15.544 Z-0.600 F150.000
G1 X54.562 Y15.544 Z-0.600 F150.000
G0 Z1.000
G0 Z1.000
G0 X54.562 Y15.544
G0 X58.888 Y21.719
G0 X58.888 Y21.719 Z0.500
G1 X58.888 Y21.719 Z-0.200 F100.000
G1 X59.588 Y21.719 Z-0.200 F150.000
G1 X59.588 Y22.370 Z-0.200 F150.000
G1 X58.888 Y22.370 Z-0.200 F150.000
G1 X58.888 Y21.719 Z-0.200 F150.000
G1 X58.888 Y21.719 Z-0.400 F100.000
G1 X59.588 Y21.719 Z-0.400 F150.000
G1 X59.588 Y22.370 Z-0.400 F150.000
G1 X58.888 Y22.370 Z-0.400 F150.000
G1 X58.888 Y21.719 Z-0.400 F150.000
G1 X58.888 Y21.719 Z-0.600 F100.000
G1 X59.588 Y21.719 Z-0.600 F150.000
G1 X59.588 Y22.370 Z-0.600 F150.000
G1 X58.888 Y22.370 Z-0.600 F150.000
G1 X58.888 Y21.719 Z-0.600 F150.000
G0 Z1.000
G0 Z1.000
G0 X58.888 Y21.719
G0 Y23.219
G0 Y23.219 Z0.500
G1 X58.888 Y23.219 Z-0.200 F100.000
G1 X59.588 Y23.219 Z-0.200 F150.000
G1 X59.588 Y23.870 Z-0.200 F150.000
G1 X58.888 Y23.870 Z-0.200 F150.000
G1 X58.888 Y23.219 Z-0.200 F150.000
G1 X58.888 Y23.219 Z-0.400 F100.000
G1 X59.588 Y23.219 Z-0.400 F150.000
G1 X59.588 Y23.870 Z-0.400 F150.000
G1 X58.888 Y23.870 Z-0.400 F150.000
G1 X58.888 Y23.219 Z-0.400 F150.000
G1 X58.888 Y23.219 Z-0.600 F100.000
G1 X59.588 Y23.219 Z-0.600 F150.000
G1 X59.588 Y23.870 Z-0.600 F150.000
G1 X58.888 Y23.870 Z-0.600 F150.000
G1 X58.888 Y23.219 Z-0.600 F150.000
G0 Z1.000
G0 Z1.000
G0 X58.888 Y23.219
G0 X61.003
G0 X61.003 Z0.500
G1 X61.003 Y23.219 Z-0.200 F100.000
G1 X61.003 Y22.844 Z-0.200 F150.000
G1 X61.453 Y22.844 Z-0.200 F150.000
G1 X61.453 Y24.244 Z-0.200 F150.000
G1 X61.003 Y24.244 Z-0.200 F150.000
G1 X61.003 Y23.219 Z-0.200 F150.000
G1 X61.003 Y23.219 Z-0.400 F100.000
G1 X61.003 Y22.844 Z-0.400 F150.000
G1 X61.453 Y22.844 Z-0.400 F150.000
G1 X61.453 Y24.244 Z-0.400 F150.000
G1 X61.003 Y24.244 Z-0.400 F150.000
G1 X61.003 Y23.219 Z-0.400 F150.000
G1 X61.003 Y23.219 Z-0.600 F100.000
G1 X61.003 Y22.844 Z-0.600 F150.000
G1 X61.453 Y22.844 Z-0.600 F150.000
G1 X61.453 Y24.244 Z-0.600 F150.000
G1 X61.003 Y24.244 Z-0.600 F150.000
G1 X61.003 Y23.219 Z-0.600 F150.000
G0 Z1.000
G0 Z1.000
G0 X61.003 Y23.219
G0 X62.274
G0 X62.274 Z0.500
G1 X62.274 Y23.219 Z-0.200 F100.000
G1 X62.274 Y22.844 Z-0.200 F150.000
G1 X62.723 Y22.844 Z-0.200 F150.000
G1 X62.723 Y24.244 Z-0.200 F150.000
G1 X62.274 Y24.244 Z-0.200 F150.000
G1 X62.274 Y23.219 Z-0.200 F150.000
G1 X62.274 Y23.219 Z-0.400 F100.000
G1 X62.274 Y22.844 Z-0.400 F150.000
G1 X62.723 Y22.844 Z-0.400 F150.000
G1 X62.723 Y24.244 Z-0.400 F150.000
G1 X62.274 Y24.244 Z-0.400 F150.000
G1 X62.274 Y23.219 Z-0.400 F150.000
G1 X62.274 Y23.219 Z-0.600 F100.000
G1 X62.274 Y22.844 Z-0.600 F150.000
G1 X62.723 Y22.844 Z-0.600 F150.000
G1 X62.723 Y24.244 Z-0.600 F150.000
G1 X62.274 Y24.244 Z-0.600 F150.000
G1 X62.274 Y23.219 Z-0.600 F150.000
G0 Z1.000
G0 Z1.000
G0 X62.274 Y23.219
G0 X63.554
G0 X63.554 Z0.500
G1 X63.554 Y23.219 Z-0.200 F100.000
G1 X63.554 Y22.844 Z-0.200 F150.000
G1 X64.003 Y22.844 Z-0.200 F150.000
G1 X64.003 Y24.244 Z-0.200 F150.000
G1 X63.554 Y24.244 Z-0.200 F150.000
G1 X63.554 Y23.219 Z-0.200 F150.000
G1 X63.554 Y23.219 Z-0.400 F100.000
G1 X63.554 Y22.844 Z-0.400 F150.000
G1 X64.003 Y22.844 Z-0.400 F150.000
G1 X64.003 Y24.244 Z-0.400 F150.000
G1 X63.554 Y24.244 Z-0.400 F150.000
G1 X63.554 Y23.219 Z-0.400 F150.000
G1 X63.554 Y23.219 Z-0.600 F100.000
G1 X63.554 Y22.844 Z-0.600 F150.000
G1 X64.003 Y22.844 Z-0.600 F150.000
G1 X64.003 Y24.244 Z-0.600 F150.000
G1 X63.554 Y24.244 Z-0.600 F150.000
G1 X63.554 Y23.219 Z-0.600 F150.000
G0 Z1.000
G0 Z1.000
G0 X63.554 Y23.219
G0 X64.823
G0 X64.823 Z0.500
G1 X64.823 Y23.219 Z-0.200 F100.000
G1 X64.823 Y22.844 Z-0.200 F150.000
G1 X65.272 Y22.844 Z-0.200 F150.000
G1 X65.272 Y24.244 Z-0.200 F150.000
G1 X64.823 Y24.244 Z-0.200 F150.000
G1 X64.823 Y23.219 Z-0.200 F150.000
G1 X64.823 Y23.219 Z-0.400 F100.000
G1 X64.823 Y22.844 Z-0.400 F150.000
G1 X65.272 Y22.844 Z-0.400 F150.000
G1 X65.272 Y24.244 Z-0.400 F150.000
G1 X64.823 Y24.244 Z-0.400 F150.000
G1 X64.823 Y23.219 Z-0.400 F150.000
G1 X64.823 Y23.219 Z-0.600 F100.000
G1 X64.823 Y22.844 Z-0.600 F150.000
G1 X65.272 Y22.844 Z-0.600 F150.000
G1 X65.272 Y24.244 Z-0.600 F150.000
G1 X64.823 Y24.244 Z-0.600 F150.000
G1 X64.823 Y23.219 Z-0.600 F150.000
G0 Z1.000
G0 Z1.000
G0 X64.823 Y23.219
G0 X64.062 Y25.400
G0 X64.062 Y25.400 Z0.500
G1 X64.062 Y25.400 Z-0.200 F100.000
G1 X64.062 Y26.150 Z-0.200 F150.000
G1 X63.712 Y26.150 Z-0.200 F150.000
G1 X63.712 Y25.400 Z-0.200 F150.000
G1 X64.062 Y25.400 Z-0.200 F150.000
G1 X64.062 Y25.400 Z-0.400 F100.000
G1 X64.062 Y26.150 Z-0.400 F150.000
G1 X63.712 Y26.150 Z-0.400 F150.000
G1 X63.712 Y25.400 Z-0.400 F150.000
G1 X64.062 Y25.400 Z-0.400 F150.000
G1 X64.062 Y25.400 Z-0.600 F100.000
G1 X64.062 Y26.150 Z-0.600 F150.000
G1 X63.712 Y26.150 Z-0.600 F150.000
G1 X63.712 Y25.400 Z-0.600 F150.000
G1 X64.062 Y25.400 Z-0.600 F150.000
G0 Z1.000
G0 Z1.000
G0 X64.062 Y25.400
G0 X62.563
G0 X62.563 Z0.500
G1 X62.563 Y25.400 Z-0.200 F100.000
G1 X62.563 Y26.150 Z-0.200 F150.000
G1 X62.213 Y26.150 Z-0.200 F150.000
G1 X62.213 Y25.400 Z-0.200 F150.000
G1 X62.563 Y25.400 Z-0.200 F150.000
G1 X62.563 Y25.400 Z-0.400 F100.000
G1 X62.563 Y26.150 Z-0.400 F150.000
G1 X62.213 Y26.150 Z-0.400 F150.000
G1 X62.213 Y25.400 Z-0.400 F150.000
G1 X62.563 Y25.400 Z-0.400 F150.000
G1 X62.563 Y25.400 Z-0.600 F100.000
G1 X62.563 Y26.150 Z-0.600 F150.000
G1 X62.213 Y26.150 Z-0.600 F150.000
G1 X62.213 Y25.400 Z-0.600 F150.000
G1 X62.563 Y25.400 Z-0.600 F150.000
G0 Z1.000
G0 Z1.000
G0 X62.563 Y25.400
G0 Y27.270
G0 Y27.270 Z0.500
G1 X62.563 Y27.270 Z-0.200 F100.000
G1 X62.763 Y27.270 Z-0.200 F150.000
G1 X62.763 Y27.620 Z-0.200 F150.000
G1 X62.013 Y27.620 Z-0.200 F150.000
G1 X62.013 Y27.270 Z-0.200 F150.000
G1 X62.563 Y27.270 Z-0.200 F150.000
G1 X62.563 Y27.270 Z-0.400 F100.000
G1 X62.763 Y27.270 Z-0.400 F150.000
G1 X62.763 Y27.620 Z-0.400 F150.000
G1 X62.013 Y27.620 Z-0.400 F150.000
G1 X62.013 Y27.270 Z-0.400 F150.000
G1 X62.563 Y27.270 Z-0.400 F150.000
G1 X62.563 Y27.270 Z-0.600 F100.000
G1 X62.763 Y27.270 Z-0.600 F150.000
G1 X62.763 Y27.620 Z-0.600 F150.000
G1 X62.013 Y27.620 Z-0.600 F150.000
G1 X62.013 Y27.270 Z-0.600 F150.000
G1 X62.563 Y27.270 Z-0.600 F150.000
G0 Z1.000
G0 Z1.000
G0 X62.563 Y27.270
G0 Y28.769
G0 Y28.769 Z0.500
G1 X62.563 Y28.769 Z-0.200 F100.000
G1 X62.763 Y28.769 Z-0.200 F150.000
G1 X62.763 Y29.120 Z-0.200 F150.000
G1 X62.013 Y29.120 Z-0.200 F150.000
G1 X62.013 Y28.769 Z-0.200 F150.000
G1 X62.563 Y28.769 Z-0.200 F150.000
G1 X62.563 Y28.769 Z-0.400 F100.000
G1 X62.763 Y28.769 Z-0.400 F150.000
G1 X62.763 Y29.120 Z-0.400 F150.000
G1 X62.013 Y29.120 Z-0.400 F150.000
G1 X62.013 Y28.769 Z-0.400 F150.000
G1 X62.563 Y28.769 Z-0.400 F150.000
G1 X62.563 Y28.769 Z-0.600 F100.000
G1 X62.763 Y28.769 Z-0.600 F150.000
G1 X62.763 Y29.120 Z-0.600 F150.000
G1 X62.013 Y29.120 Z-0.600 F150.000
G1 X62.013 Y28.769 Z-0.600 F150.000
G1 X62.563 Y28.769 Z-0.600 F150.000
G0 Z1.000
G0 Z1.000
G0 X62.563 Y28.769
G0 Y30.329
G0 Y30.329 Z0.500
G1 X62.563 Y30.329 Z-0.200 F100.000
G1 X62.763 Y30.329 Z-0.200 F150.000
G1 X62.763 Y30.680 Z-0.200 F150.000
G1 X62.013 Y30.680 Z-0.200 F150.000
G1 X62.013 Y30.329 Z-0.200 F150.000
G1 X62.563 Y30.329 Z-0.200 F150.000
G1 X62.563 Y30.329 Z-0.400 F100.000
G1 X62.763 Y30.329 Z-0.400 F150.000
G1 X62.763 Y30.680 Z-0.400 F150.000
G1 X62.013 Y30.680 Z-0.400 F150.000
G1 X62.013 Y30.329 Z-0.400 F150.000
G1 X62.563 Y30.329 Z-0.400 F150.000
G1 X62.563 Y30.329 Z-0.600 F100.000
G1 X62.763 Y30.329 Z-0.600 F150.000
G1 X62.763 Y30.680 Z-0.600 F150.000
G1 X62.013 Y30.680 Z-0.600 F150.000
G1 X62.013 Y30.329 Z-0.600 F150.000
G1 X62.563 Y30.329 Z-0.600 F150.000
G0 Z1.000
G0 Z1.000
G0 X62.563 Y30.329
G0 Y31.830
G0 Y31.830 Z0.500
G1 X62.563 Y31.830 Z-0.200 F100.000
G1 X62.763 Y31.830 Z-0.200 F150.000
G1 X62.763 Y32.180 Z-0.200 F150.000
G1 X62.013 Y32.180 Z-0.200 F150.000
G1 X62.013 Y31.830 Z-0.200 F150.000
G1 X62.563 Y31.830 Z-0.200 F150.000
G1 X62.563 Y31.830 Z-0.400 F100.000
G1 X62.763 Y31.830 Z-0.400 F150.000
G1 X62.763 Y32.180 Z-0.400 F150.000
G1 X62.013 Y32.180 Z-0.400 F150.000
G1 X62.013 Y31.830 Z-0.400 F150.000
G1 X62.563 Y31.830 Z-0.400 F150.000
G1 X62.563 Y31.830 Z-0.600 F100.000
G1 X62.763 Y31.830 Z-0.600 F150.000
G1 X62.763 Y32.180 Z-0.600 F150.000
G1 X62.013 Y32.180 Z-0.600 F150.000
G1 X62.013 Y31.830 Z-0.600 F150.000
G1 X62.563 Y31.830 Z-0.600 F150.000
G0 Z1.000
G0 Z1.000
G0 X62.563 Y31.830
G0 X63.878
G0 X63.878 Z0.500
G1 X63.878 Y31.830 Z-0.200 F100.000
G1 X63.878 Y31.779 Z-0.200 F150.000
G1 X64.578 Y31.779 Z-0.200 F150.000
G1 X64.578 Y32.430 Z-0.200 F150.000
G1 X63.878 Y32.430 Z-0.200 F150.000
G1 X63.878 Y31.830 Z-0.200 F150.000
G1 X63.878 Y31.830 Z-0.400 F100.000
G1 X63.878 Y31.779 Z-0.400 F150.000
G1 X64.578 Y31.779 Z-0.400 F150.000
G1 X64.578 Y32.430 Z-0.400 F150.000
G1 X63.878 Y32.430 Z-0.400 F150.000
G1 X63.878 Y31.830 Z-0.400 F150.000
G1 X63.878 Y31.830 Z-0.600 F100.000
G1 X63.878 Y31.779 Z-0.600 F150.000
G1 X64.578 Y31.779 Z-0.600 F150.000
G1 X64.578 Y32.430 Z-0.600 F150.000
G1 X63.878 Y32.430 Z-0.600 F150.000
G1 X63.878 Y31.830 Z-0.600 F150.000
G0 Z1.000
G0 Z1.000
G0 X63.878 Y31.830
G0 Y30.930
G0 Y30.930 Z0.500
G1 X63.878 Y30.930 Z-0.200 F100.000
G1 X63.878 Y30.280 Z-0.200 F150.000
G1 X64.578 Y30.280 Z-0.200 F150.000
G1 X64.578 Y30.930 Z-0.200 F150.000
G1 X63.878 Y30.930 Z-0.200 F150.000
G1 X63.878 Y30.930 Z-0.400 F100.000
G1 X63.878 Y30.280 Z-0.400 F150.000
G1 X64.578 Y30.280 Z-0.400 F150.000
G1 X64.578 Y30.930 Z-0.400 F150.000
G1 X63.878 Y30.930 Z-0.400 F150.000
G1 X63.878 Y30.930 Z-0.600 F100.000
G1 X63.878 Y30.280 Z-0.600 F150.000
G1 X64.578 Y30.280 Z-0.600 F150.000
G1 X64.578 Y30.930 Z-0.600 F150.000
G1 X63.878 Y30.930 Z-0.600 F150.000
G0 Z1.000
G0 Z1.000
G0 X63.878 Y30.930
G0 Y29.120
G0 Y29.120 Z0.500
G1 X63.878 Y29.120 Z-0.200 F100.000
G1 X63.853 Y29.120 Z-0.200 F150.000
G1 X63.853 Y28.769 Z-0.200 F150.000
G1 X64.603 Y28.769 Z-0.200 F150.000
G1 X64.603 Y29.120 Z-0.200 F150.000
G1 X63.878 Y29.120 Z-0.200 F150.000
G1 X63.878 Y29.120 Z-0.400 F100.000
G1 X63.853 Y29.120 Z-0.400 F150.000
G1 X63.853 Y28.769 Z-0.400 F150.000
G1 X64.603 Y28.769 Z-0.400 F150.000
G1 X64.603 Y29.120 Z-0.400 F150.000
G1 X63.878 Y29.120 Z-0.400 F150.000
G1 X63.878 Y29.120 Z-0.600 F100.000
G1 X63.853 Y29.120 Z-0.600 F150.000
G1 X63.853 Y28.769 Z-0.600 F150.000
G1 X64.603 Y28.769 Z-0.600 F150.000
G1 X64.603 Y29.120 Z-0.600 F150.000
G1 X63.878 Y29.120 Z-0.600 F150.000
G0 Z1.000
G0 Z1.000
G0 X63.878 Y29.120
G0 Y27.620
G0 Y27.620 Z0.500
G1 X63.878 Y27.620 Z-0.200 F100.000
G1 X63.853 Y27.620 Z-0.200 F150.000
G1 X63.853 Y27.270 Z-0.200 F150.000
G1 X64.603 Y27.270 Z-0.200 F150.000
G1 X64.603 Y27.620 Z-0.200 F150.000
G1 X63.878 Y27.620 Z-0.200 F150.000
G1 X63.878 Y27.620 Z-0.400 F100.000
G1 X63.853 Y27.620 Z-0.400 F150.000
G1 X63.853 Y27.270 Z-0.400 F150.000
G1 X64.603 Y27.270 Z-0.400 F150.000
G1 X64.603 Y27.620 Z-0.400 F150.000
G1 X63.878 Y27.620 Z-0.400 F150.000
G1 X63.878 Y27.620 Z-0.600 F100.000
G1 X63.853 Y27.620 Z-0.600 F150.000
G1 X63.853 Y27.270 Z-0.600 F150.000
G1 X64.603 Y27.270 Z-0.600 F150.000
G1 X64.603 Y27.620 Z-0.600 F150.000
G1 X63.878 Y27.620 Z-0.600 F150.000
G0 Z1.000
G0 Z1.000
G0 X63.878 Y27.620
G0 X58.750
G0 X58.750 Z0.500
G1 X58.750 Y27.620 Z-0.200 F100.000
G1 X58.750 Y28.400 Z-0.200 F150.000
G1 X57.306 Y28.400 Z-0.200 F150.000
G1 X57.306 Y25.809 Z-0.200 F150.000
G1 X58.750 Y25.809 Z-0.200 F150.000
G1 X58.750 Y27.620 Z-0.200 F150.000
G1 X58.750 Y27.620 Z-0.400 F100.000
G1 X58.750 Y28.400 Z-0.400 F150.000
G1 X57.306 Y28.400 Z-0.400 F150.000
G1 X57.306 Y25.809 Z-0.400 F150.000
G1 X58.750 Y25.809 Z-0.400 F150.000
G1 X58.750 Y27.620 Z-0.400 F150.000
G1 X58.750 Y27.620 Z-0.600 F100.000
G1 X58.750 Y28.400 Z-0.600 F150.000
G1 X57.306 Y28.400 Z-0.600 F150.000
G1 X57.306 Y25.809 Z-0.600 F150.000
G1 X58.750 Y25.809 Z-0.600 F150.000
G1 X58.750 Y27.620 Z-0.600 F150.000
G0 Z1.000
G0 Z1.000
G0 X58.750 Y27.620
G0 Y30.710
G0 Y30.710 Z0.500
G1 X58.750 Y30.710 Z-0.200 F100.000
G1 X58.750 Y33.301 Z-0.200 F150.000
G1 X57.306 Y33.301 Z-0.200 F150.000
G1 X57.306 Y30.710 Z-0.200 F150.000
G1 X58.750 Y30.710 Z-0.200 F150.000
G1 X58.750 Y30.710 Z-0.400 F100.000
G1 X58.750 Y33.301 Z-0.400 F150.000
G1 X57.306 Y33.301 Z-0.400 F150.000
G1 X57.306 Y30.710 Z-0.400 F150.000
G1 X58.750 Y30.710 Z-0.400 F150.000
G1 X58.750 Y30.710 Z-0.600 F100.000
G1 X58.750 Y33.301 Z-0.600 F150.000
G1 X57.306 Y33.301 Z-0.600 F150.000
G1 X57.306 Y30.710 Z-0.600 F150.000
G1 X58.750 Y30.710 Z-0.600 F150.000
G0 Z1.000
G0 Z1.000
G0 X58.750 Y30.710
G0 Y34.741
G0 Y34.741 Z0.500
G1 X58.750 Y34.741 Z-0.200 F100.000
G1 X58.763 Y34.741 Z-0.200 F150.000
G1 X58.763 Y35.490 Z-0.200 F150.000
G1 X58.412 Y35.490 Z-0.200 F150.000
G1 X58.412 Y34.741 Z-0.200 F150.000
G1 X58.750 Y34.741 Z-0.200 F150.000
G1 X58.750 Y34.741 Z-0.400 F100.000
G1 X58.763 Y34.741 Z-0.400 F150.000
G1 X58.763 Y35.490 Z-0.400 F150.000
G1 X58.412 Y35.490 Z-0.400 F150.000
G1 X58.412 Y34.741 Z-0.400 F150.000
G1 X58.750 Y34.741 Z-0.400 F150.000
G1 X58.750 Y34.741 Z-0.600 F100.000
G1 X58.763 Y34.741 Z-0.600 F150.000
G1 X58.763 Y35.490 Z-0.600 F150.000
G1 X58.412 Y35.490 Z-0.600 F150.000
G1 X58.412 Y34.741 Z-0.600 F150.000
G1 X58.750 Y34.741 Z-0.600 F150.000
G0 Z1.000
G0 Z1.000
G0 X58.750 Y34.741
G0 Y36.750
G0 Y36.750 Z0.500
G1 X58.750 Y36.750 Z-0.200 F100.000
G1 X59.103 Y36.750 Z-0.200 F150.000
G1 X59.103 Y37.100 Z-0.200 F150.000
G1 X58.353 Y37.100 Z-0.200 F150.000
G1 X58.353 Y36.750 Z-0.200 F150.000
G1 X58.750 Y36.750 Z-0.200 F150.000
G1 X58.750 Y36.750 Z-0.400 F100.000
G1 X59.103 Y36.750 Z-0.400 F150.000
G1 X59.103 Y37.100 Z-0.400 F150.000
G1 X58.353 Y37.100 Z-0.400 F150.000
G1 X58.353 Y36.750 Z-0.400 F150.000
G1 X58.750 Y36.750 Z-0.400 F150.000
G1 X58.750 Y36.750 Z-0.600 F100.000
G1 X59.103 Y36.750 Z-0.600 F150.000
G1 X59.103 Y37.100 Z-0.600 F150.000
G1 X58.353 Y37.100 Z-0.600 F150.000
G1 X58.353 Y36.750 Z-0.600 F150.000
G1 X58.750 Y36.750 Z-0.600 F150.000
G0 Z1.000
G0 Z1.000
G0 X58.750 Y36.750
G0 X57.267
G0 X57.267 Z0.500
G1 X57.267 Y36.750 Z-0.200 F100.000
G1 X57.267 Y37.250 Z-0.200 F150.000
G1 X56.567 Y37.250 Z-0.200 F150.000
G1 X56.567 Y36.599 Z-0.200 F150.000
G1 X57.267 Y36.599 Z-0.200 F150.000
G1 X57.267 Y36.750 Z-0.200 F150.000
G1 X57.267 Y36.750 Z-0.400 F100.000
G1 X57.267 Y37.250 Z-0.400 F150.000
G1 X56.567 Y37.250 Z-0.400 F150.000
G1 X56.567 Y36.599 Z-0.400 F150.000
G1 X57.267 Y36.599 Z-0.400 F150.000
G1 X57.267 Y36.750 Z-0.400 F150.000
G1 X57.267 Y36.750 Z-0.600 F100.000
G1 X57.267 Y37.250 Z-0.600 F150.000
G1 X56.567 Y37.250 Z-0.600 F150.000
G1 X56.567 Y36.599 Z-0.600 F150.000
G1 X57.267 Y36.599 Z-0.600 F150.000
G1 X57.267 Y36.750 Z-0.600 F150.000
G0 Z1.000
G0 Z1.000
G0 X57.267 Y36.750
G0 Y38.099
G0 Y38.099 Z0.500
G1 X57.267 Y38.099 Z-0.200 F100.000
G1 X57.267 Y38.749 Z-0.200 F150.000
G1 X56.567 Y38.749 Z-0.200 F150.000
G1 X56.567 Y38.099 Z-0.200 F150.000
G1 X57.267 Y38.099 Z-0.200 F150.000
G1 X57.267 Y38.099 Z-0.400 F100.000
G1 X57.267 Y38.749 Z-0.400 F150.000
G1 X56.567 Y38.749 Z-0.400 F150.000
G1 X56.567 Y38.099 Z-0.400 F150.000
G1 X57.267 Y38.099 Z-0.400 F150.000
G1 X57.267 Y38.099 Z-0.600 F100.000
G1 X57.267 Y38.749 Z-0.600 F150.000
G1 X56.567 Y38.749 Z-0.600 F150.000
G1 X56.567 Y38.099 Z-0.600 F150.000
G1 X57.267 Y38.099 Z-0.600 F150.000
G0 Z1.000
G0 Z1.000
G0 X57.267 Y38.099
G0 X58.353 Y38.249
G0 X58.353 Y38.249 Z0.500
G1 X58.353 Y38.249 Z-0.200 F100.000
G1 X59.103 Y38.249 Z-0.200 F150.000
G1 X59.103 Y38.599 Z-0.200 F150.000
G1 X58.353 Y38.599 Z-0.200 F150.000
G1 X58.353 Y38.249 Z-0.200 F150.000
G1 X58.353 Y38.249 Z-0.400 F100.000
G1 X59.103 Y38.249 Z-0.400 F150.000
G1 X59.103 Y38.599 Z-0.400 F150.000
G1 X58.353 Y38.599 Z-0.400 F150.000
G1 X58.353 Y38.249 Z-0.400 F150.000
G1 X58.353 Y38.249 Z-0.600 F100.000
G1 X59.103 Y38.249 Z-0.600 F150.000
G1 X59.103 Y38.599 Z-0.600 F150.000
G1 X58.353 Y38.599 Z-0.600 F150.000
G1 X58.353 Y38.249 Z-0.600 F150.000
G0 Z1.000
G0 Z1.000
G0 X58.353 Y38.249
G0 X60.187
G0 X60.187 Z0.500
G1 X60.187 Y38.249 Z-0.200 F100.000
G1 X60.187 Y38.099 Z-0.200 F150.000
G1 X60.887 Y38.099 Z-0.200 F150.000
G1 X60.887 Y38.749 Z-0.200 F150.000
G1 X60.187 Y38.749 Z-0.200 F150.000
G1 X60.187 Y38.249 Z-0.200 F150.000
G1 X60.187 Y38.249 Z-0.400 F100.000
G1 X60.187 Y38.099 Z-0.400 F150.000
G1 X60.887 Y38.099 Z-0.400 F150.000
G1 X60.887 Y38.749 Z-0.400 F150.000
G1 X60.187 Y38.749 Z-0.400 F150.000
G1 X60.187 Y38.249 Z-0.400 F150.000
G1 X60.187 Y38.249 Z-0.600 F100.000
G1 X60.187 Y38.099 Z-0.600 F150.000
G1 X60.887 Y38.099 Z-0.600 F150.000
G1 X60.887 Y38.749 Z-0.600 F150.000
G1 X60.187 Y38.749 Z-0.600 F150.000
G1 X60.187 Y38.249 Z-0.600 F150.000
G0 Z1.000
G0 Z1.000
G0 X60.187 Y38.249
G0 Y37.250
G0 Y37.250 Z0.500
G1 X60.187 Y37.250 Z-0.200 F100.000
G1 X60.187 Y36.599 Z-0.200 F150.000
G1 X60.887 Y36.599 Z-0.200 F150.000
G1 X60.887 Y37.250 Z-0.200 F150.000
G1 X60.187 Y37.250 Z-0.200 F150.000
G1 X60.187 Y37.250 Z-0.400 F100.000
G1 X60.187 Y36.599 Z-0.400 F150.000
G1 X60.887 Y36.599 Z-0.400 F150.000
G1 X60.887 Y37.250 Z-0.400 F150.000
G1 X60.187 Y37.250 Z-0.400 F150.000
G1 X60.187 Y37.250 Z-0.600 F100.000
G1 X60.187 Y36.599 Z-0.600 F150.000
G1 X60.887 Y36.599 Z-0.600 F150.000
G1 X60.887 Y37.250 Z-0.600 F150.000
G1 X60.187 Y37.250 Z-0.600 F150.000
G0 Z1.000
G0 Z1.000
G0 X60.187 Y37.250
G0 Y35.490
G0 Y35.490 Z0.500
G1 X60.187 Y35.490 Z-0.200 F100.000
G1 X59.913 Y35.490 Z-0.200 F150.000
G1 X59.913 Y34.741 Z-0.200 F150.000
G1 X60.263 Y34.741 Z-0.200 F150.000
G1 X60.263 Y35.490 Z-0.200 F150.000
G1 X60.187 Y35.490 Z-0.200 F150.000
G1 X60.187 Y35.490 Z-0.400 F100.000
G1 X59.913 Y35.490 Z-0.400 F150.000
G1 X59.913 Y34.741 Z-0.400 F150.000
G1 X60.263 Y34.741 Z-0.400 F150.000
G1 X60.263 Y35.490 Z-0.400 F150.000
G1 X60.187 Y35.490 Z-0.400 F150.000
G1 X60.187 Y35.490 Z-0.600 F100.000
G1 X59.913 Y35.490 Z-0.600 F150.000
G1 X59.913 Y34.741 Z-0.600 F150.000
G1 X60.263 Y34.741 Z-0.600 F150.000
G1 X60.263 Y35.490 Z-0.600 F150.000
G1 X60.187 Y35.490 Z-0.600 F150.000
G0 Z1.000
G0 Z1.000
G0 X60.187 Y35.490
G0 X61.947 Y36.599
G0 X61.947 Y36.599 Z0.500
G1 X61.947 Y36.599 Z-0.200 F100.000
G1 X62.647 Y36.599 Z-0.200 F150.000
G1 X62.647 Y37.250 Z-0.200 F150.000
G1 X61.947 Y37.250 Z-0.200 F150.000
G1 X61.947 Y36.599 Z-0.200 F150.000
G1 X61.947 Y36.599 Z-0.400 F100.000
G1 X62.647 Y36.599 Z-0.400 F150.000
G1 X62.647 Y37.250 Z-0.400 F150.000
G1 X61.947 Y37.250 Z-0.400 F150.000
G1 X61.947 Y36.599 Z-0.400 F150.000
G1 X61.947 Y36.599 Z-0.600 F100.000
G1 X62.647 Y36.599 Z-0.600 F150.000
G1 X62.647 Y37.250 Z-0.600 F150.000
G1 X61.947 Y37.250 Z-0.600 F150.000
G1 X61.947 Y36.599 Z-0.600 F150.000
G0 Z1.000
G0 Z1.000
G0 X61.947 Y36.599
G0 Y38.099
G0 Y38.099 Z0.500
G1 X61.947 Y38.099 Z-0.200 F100.000
G1 X62.647 Y38.099 Z-0.200 F150.000
G1 X62.647 Y38.749 Z-0.200 F150.000
G1 X61.947 Y38.749 Z-0.200 F150.000
G1 X61.947 Y38.099 Z-0.200 F150.000
G1 X61.947 Y38.099 Z-0.400 F100.000
G1 X62.647 Y38.099 Z-0.400 F150.000
G1 X62.647 Y38.749 Z-0.400 F150.000
G1 X61.947 Y38.749 Z-0.400 F150.000
G1 X61.947 Y38.099 Z-0.400 F150.000
G1 X61.947 Y38.099 Z-0.600 F100.000
G1 X62.647 Y38.099 Z-0.600 F150.000
G1 X62.647 Y38.749 Z-0.600 F150.000
G1 X61.947 Y38.749 Z-0.600 F150.000
G1 X61.947 Y38.099 Z-0.600 F150.000
G0 Z1.000
G0 Z1.000
G0 X61.947 Y38.099
G0 X50.392 Y31.005
G0 X50.392 Y31.005 Z0.500
G1 X50.392 Y31.005 Z-0.200 F100.000
G1 X48.942 Y31.005 Z-0.200 F150.000
G1 X48.942 Y28.205 Z-0.200 F150.000
G1 X50.392 Y28.205 Z-0.200 F150.000
G1 X50.392 Y31.005 Z-0.200 F150.000
G1 X50.392 Y31.005 Z-0.400 F100.000
G1 X48.942 Y31.005 Z-0.400 F150.000
G1 X48.942 Y28.205 Z-0.400 F150.000
G1 X50.392 Y28.205 Z-0.400 F150.000
G1 X50.392 Y31.005 Z-0.400 F150.000
G1 X50.392 Y31.005 Z-0.600 F100.000
G1 X48.942 Y31.005 Z-0.600 F150.000
G1 X48.942 Y28.205 Z-0.600 F150.000
G1 X50.392 Y28.205 Z-0.600 F150.000
G1 X50.392 Y31.005 Z-0.600 F150.000
G0 Z1.000
G0 Z1.000
G0 X50.392 Y31.005
G0 X61.003 Y18.906
G0 X61.003 Y18.906 Z0.500
G1 X61.003 Y18.906 Z-0.200 F100.000
G1 X61.003 Y17.505 Z-0.200 F150.000
G1 X61.453 Y17.505 Z-0.200 F150.000
G1 X61.453 Y18.906 Z-0.200 F150.000
G1 X61.003 Y18.906 Z-0.200 F150.000
G1 X61.003 Y18.906 Z-0.400 F100.000
G1 X61.003 Y17.505 Z-0.400 F150.000
G1 X61.453 Y17.505 Z-0.400 F150.000
G1 X61.453 Y18.906 Z-0.400 F150.000
G1 X61.003 Y18.906 Z-0.400 F150.000
G1 X61.003 Y18.906 Z-0.600 F100.000
G1 X61.003 Y17.505 Z-0.600 F150.000
G1 X61.453 Y17.505 Z-0.600 F150.000
G1 X61.453 Y18.906 Z-0.600 F150.000
G1 X61.003 Y18.906 Z-0.600 F150.000
G0 Z1.000
G0 Z1.000
G0 X61.003 Y18.906
G0 X62.272
G0 X62.272 Z0.500
G1 X62.272 Y18.906 Z-0.200 F100.000
G1 X62.272 Y17.505 Z-0.200 F150.000
G1 X62.721 Y17.505 Z-0.200 F150.000
G1 X62.721 Y18.906 Z-0.200 F150.000
G1 X62.272 Y18.906 Z-0.200 F150.000
G1 X62.272 Y18.906 Z-0.400 F100.000
G1 X62.272 Y17.505 Z-0.400 F150.000
G1 X62.721 Y17.505 Z-0.400 F150.000
G1 X62.721 Y18.906 Z-0.400 F150.000
G1 X62.272 Y18.906 Z-0.400 F150.000
G1 X62.272 Y18.906 Z-0.600 F100.000
G1 X62.272 Y17.505 Z-0.600 F150.000
G1 X62.721 Y17.505 Z-0.600 F150.000
G1 X62.721 Y18.906 Z-0.600 F150.000
G1 X62.272 Y18.906 Z-0.600 F150.000
G0 Z1.000
G0 Z1.000
G0 X62.272 Y18.906
G0 X63.552
G0 X63.552 Z0.500
G1 X63.552 Y18.906 Z-0.200 F100.000
G1 X63.552 Y17.505 Z-0.200 F150.000
G1 X64.002 Y17.505 Z-0.200 F150.000
G1 X64.002 Y18.906 Z-0.200 F150.000
G1 X63.552 Y18.906 Z-0.200 F150.000
G1 X63.552 Y18.906 Z-0.400 F100.000
G1 X63.552 Y17.505 Z-0.400 F150.000
G1 X64.002 Y17.505 Z-0.400 F150.000
G1 X64.002 Y18.906 Z-0.400 F150.000
G1 X63.552 Y18.906 Z-0.400 F150.000
G1 X63.552 Y18.906 Z-0.600 F100.000
G1 X63.552 Y17.505 Z-0.600 F150.000
G1 X64.002 Y17.505 Z-0.600 F150.000
G1 X64.002 Y18.906 Z-0.600 F150.000
G1 X63.552 Y18.906 Z-0.600 F150.000
G0 Z1.000
G0 Z1.000
G0 X63.552 Y18.906
G0 X64.823
G0 X64.823 Z0.500
G1 X64.823 Y18.906 Z-0.200 F100.000
G1 X64.823 Y17.505 Z-0.200 F150.000
G1 X65.272 Y17.505 Z-0.200 F150.000
G1 X65.272 Y18.906 Z-0.200 F150.000
G1 X64.823 Y18.906 Z-0.200 F150.000
G1 X64.823 Y18.906 Z-0.400 F100.000
G1 X64.823 Y17.505 Z-0.400 F150.000
G1 X65.272 Y17.505 Z-0.400 F150.000
G1 X65.272 Y18.906 Z-0.400 F150.000
G1 X64.823 Y18.906 Z-0.400 F150.000
G1 X64.823 Y18.906 Z-0.600 F100.000
G1 X64.823 Y17.505 Z-0.600 F150.000
G1 X65.272 Y17.505 Z-0.600 F150.000
G1 X65.272 Y18.906 Z-0.600 F150.000
G1 X64.823 Y18.906 Z-0.600 F150.000
G0 Z1.000
G0 Z1.000
G0 X64.823 Y18.906
G0 Y16.385
G0 Y16.385 Z0.500
G1 X64.823 Y16.385 Z-0.200 F100.000
G1 X64.722 Y16.385 Z-0.200 F150.000
G1 X64.722 Y15.685 Z-0.200 F150.000
G1 X65.373 Y15.685 Z-0.200 F150.000
G1 X65.373 Y16.385 Z-0.200 F150.000
G1 X64.823 Y16.385 Z-0.200 F150.000
G1 X64.823 Y16.385 Z-0.400 F100.000
G1 X64.722 Y16.385 Z-0.400 F150.000
G1 X64.722 Y15.685 Z-0.400 F150.000
G1 X65.373 Y15.685 Z-0.400 F150.000
G1 X65.373 Y16.385 Z-0.400 F150.000
G1 X64.823 Y16.385 Z-0.400 F150.000
G1 X64.823 Y16.385 Z-0.600 F100.000
G1 X64.722 Y16.385 Z-0.600 F150.000
G1 X64.722 Y15.685 Z-0.600 F150.000
G1 X65.373 Y15.685 Z-0.600 F150.000
G1 X65.373 Y16.385 Z-0.600 F150.000
G1 X64.823 Y16.385 Z-0.600 F150.000
G0 Z1.000
G0 Z1.000
G0 X64.823 Y16.385
G0 X63.874
G0 X63.874 Z0.500
G1 X63.874 Y16.385 Z-0.200 F100.000
G1 X63.223 Y16.385 Z-0.200 F150.000
G1 X63.223 Y15.685 Z-0.200 F150.000
G1 X63.874 Y15.685 Z-0.200 F150.000
G1 X63.874 Y16.385 Z-0.200 F150.000
G1 X63.874 Y16.385 Z-0.400 F100.000
G1 X63.223 Y16.385 Z-0.400 F150.000
G1 X63.223 Y15.685 Z-0.400 F150.000
G1 X63.874 Y15.685 Z-0.400 F150.000
G1 X63.874 Y16.385 Z-0.400 F150.000
G1 X63.874 Y16.385 Z-0.600 F100.000
G1 X63.223 Y16.385 Z-0.600 F150.000
G1 X63.223 Y15.685 Z-0.600 F150.000
G1 X63.874 Y15.685 Z-0.600 F150.000
G1 X63.874 Y16.385 Z-0.600 F150.000
G0 Z1.000
G0 Z1.000
G0 X63.874 Y16.385
G0 X44.913 Y2.751
G0 X44.913 Y2.751 Z0.500
G1 X44.913 Y2.751 Z-0.200 F100.000
G1 X43.964 Y2.751 Z-0.200 F150.000
G1 X43.964 Y1.201 Z-0.200 F150.000
G1 X44.913 Y1.201 Z-0.200 F150.000
G1 X44.913 Y2.751 Z-0.200 F150.000
G1 X44.913 Y2.751 Z-0.400 F100.000
G1 X43.964 Y2.751 Z-0.400 F150.000
G1 X43.964 Y1.201 Z-0.400 F150.000
G1 X44.913 Y1.201 Z-0.400 F150.000
G1 X44.913 Y2.751 Z-0.400 F150.000
G1 X44.913 Y2.751 Z-0.600 F100.000
G1 X43.964 Y2.751 Z-0.600 F150.000
G1 X43.964 Y1.201 Z-0.600 F150.000
G1 X44.913 Y1.201 Z-0.600 F150.000
G1 X44.913 Y2.751 Z-0.600 F150.000
G0 Z1.000
G0 Z1.000
G0 X44.913 Y2.751
G0 X41.712 Y2.749
G0 X41.712 Y2.749 Z0.500
G1 X41.712 Y2.749 Z-0.200 F100.000
G1 X40.763 Y2.749 Z-0.200 F150.000
G1 X40.763 Y1.199 Z-0.200 F150.000
G1 X41.712 Y1.199 Z-0.200 F150.000
G1 X41.712 Y2.749 Z-0.200 F150.000
G1 X41.712 Y2.749 Z-0.400 F100.000
G1 X40.763 Y2.749 Z-0.400 F150.000
G1 X40.763 Y1.199 Z-0.400 F150.000
G1 X41.712 Y1.199 Z-0.400 F150.000
G1 X41.712 Y2.749 Z-0.400 F150.000
G1 X41.712 Y2.749 Z-0.600 F100.000
G1 X40.763 Y2.749 Z-0.600 F150.000
G1 X40.763 Y1.199 Z-0.600 F150.000
G1 X41.712 Y1.199 Z-0.600 F150.000
G1 X41.712 Y2.749 Z-0.600 F150.000
G0 Z1.000
G0 Z1.000
G0 X41.712 Y2.749
G0 X37.268 Y3.900
G0 X37.268 Y3.900 Z0.500
G1 X37.268 Y3.900 Z-0.200 F100.000
G1 X37.268 Y4.551 Z-0.200 F150.000
G1 X36.568 Y4.551 Z-0.200 F150.000
G1 X36.568 Y3.900 Z-0.200 F150.000
G1 X37.268 Y3.900 Z-0.200 F150.000
G1 X37.268 Y3.900 Z-0.400 F100.000
G1 X37.268 Y4.551 Z-0.400 F150.000
G1 X36.568 Y4.551 Z-0.400 F150.000
G1 X36.568 Y3.900 Z-0.400 F150.000
G1 X37.268 Y3.900 Z-0.400 F150.000
G1 X37.268 Y3.900 Z-0.600 F100.000
G1 X37.268 Y4.551 Z-0.600 F150.000
G1 X36.568 Y4.551 Z-0.600 F150.000
G1 X36.568 Y3.900 Z-0.600 F150.000
G1 X37.268 Y3.900 Z-0.600 F150.000
G0 Z1.000
G0 Z1.000
G0 X37.268 Y3.900
G0 Y5.399
G0 Y5.399 Z0.500
G1 X37.268 Y5.399 Z-0.200 F100.000
G1 X37.268 Y6.050 Z-0.200 F150.000
G1 X36.568 Y6.050 Z-0.200 F150.000
G1 X36.568 Y5.399 Z-0.200 F150.000
G1 X37.268 Y5.399 Z-0.200 F150.000
G1 X37.268 Y5.399 Z-0.400 F100.000
G1 X37.268 Y6.050 Z-0.400 F150.000
G1 X36.568 Y6.050 Z-0.400 F150.000
G1 X36.568 Y5.399 Z-0.400 F150.000
G1 X37.268 Y5.399 Z-0.400 F150.000
G1 X37.268 Y5.399 Z-0.600 F100.000
G1 X37.268 Y6.050 Z-0.600 F150.000
G1 X36.568 Y6.050 Z-0.600 F150.000
G1 X36.568 Y5.399 Z-0.600 F150.000
G1 X37.268 Y5.399 Z-0.600 F150.000
G0 Z1.000
G0 Z1.000
G0 X37.268 Y5.399
G0 X35.172
G0 X35.172 Z0.500
G1 X35.172 Y5.399 Z-0.200 F100.000
G1 X35.172 Y6.425 Z-0.200 F150.000
G1 X34.723 Y6.425 Z-0.200 F150.000
G1 X34.723 Y5.024 Z-0.200 F150.000
G1 X35.172 Y5.024 Z-0.200 F150.000
G1 X35.172 Y5.399 Z-0.200 F150.000
G1 X35.172 Y5.399 Z-0.400 F100.000
G1 X35.172 Y6.425 Z-0.400 F150.000
G1 X34.723 Y6.425 Z-0.400 F150.000
G1 X34.723 Y5.024 Z-0.400 F150.000
G1 X35.172 Y5.024 Z-0.400 F150.000
G1 X35.172 Y5.399 Z-0.400 F150.000
G1 X35.172 Y5.399 Z-0.600 F100.000
G1 X35.172 Y6.425 Z-0.600 F150.000
G1 X34.723 Y6.425 Z-0.600 F150.000
G1 X34.723 Y5.024 Z-0.600 F150.000
G1 X35.172 Y5.024 Z-0.600 F150.000
G1 X35.172 Y5.399 Z-0.600 F150.000
G0 Z1.000
G0 Z1.000
G0 X35.172 Y5.399
G0 X33.903
G0 X33.903 Z0.500
G1 X33.903 Y5.399 Z-0.200 F100.000
G1 X33.903 Y6.425 Z-0.200 F150.000
G1 X33.453 Y6.425 Z-0.200 F150.000
G1 X33.453 Y5.024 Z-0.200 F150.000
G1 X33.903 Y5.024 Z-0.200 F150.000
G1 X33.903 Y5.399 Z-0.200 F150.000
G1 X33.903 Y5.399 Z-0.400 F100.000
G1 X33.903 Y6.425 Z-0.400 F150.000
G1 X33.453 Y6.425 Z-0.400 F150.000
G1 X33.453 Y5.024 Z-0.400 F150.000
G1 X33.903 Y5.024 Z-0.400 F150.000
G1 X33.903 Y5.399 Z-0.400 F150.000
G1 X33.903 Y5.399 Z-0.600 F100.000
G1 X33.903 Y6.425 Z-0.600 F150.000
G1 X33.453 Y6.425 Z-0.600 F150.000
G1 X33.453 Y5.024 Z-0.600 F150.000
G1 X33.903 Y5.024 Z-0.600 F150.000
G1 X33.903 Y5.399 Z-0.600 F150.000
G0 Z1.000
G0 Z1.000
G0 X33.903 Y5.399
G0 X32.622
G0 X32.622 Z0.500
G1 X32.622 Y5.399 Z-0.200 F100.000
G1 X32.622 Y6.425 Z-0.200 F150.000
G1 X32.173 Y6.425 Z-0.200 F150.000
G1 X32.173 Y5.024 Z-0.200 F150.000
G1 X32.622 Y5.024 Z-0.200 F150.000
G1 X32.622 Y5.399 Z-0.200 F150.000
G1 X32.622 Y5.399 Z-0.400 F100.000
G1 X32.622 Y6.425 Z-0.400 F150.000
G1 X32.173 Y6.425 Z-0.400 F150.000
G1 X32.173 Y5.024 Z-0.400 F150.000
G1 X32.622 Y5.024 Z-0.400 F150.000
G1 X32.622 Y5.399 Z-0.400 F150.000
G1 X32.622 Y5.399 Z-0.600 F100.000
G1 X32.622 Y6.425 Z-0.600 F150.000
G1 X32.173 Y6.425 Z-0.600 F150.000
G1 X32.173 Y5.024 Z-0.600 F150.000
G1 X32.622 Y5.024 Z-0.600 F150.000
G1 X32.622 Y5.399 Z-0.600 F150.000
G0 Z1.000
G0 Z1.000
G0 X32.622 Y5.399
G0 X31.352
G0 X31.352 Z0.500
G1 X31.352 Y5.399 Z-0.200 F100.000
G1 X31.352 Y6.425 Z-0.200 F150.000
G1 X30.902 Y6.425 Z-0.200 F150.000
G1 X30.902 Y5.024 Z-0.200 F150.000
G1 X31.352 Y5.024 Z-0.200 F150.000
G1 X31.352 Y5.399 Z-0.200 F150.000
G1 X31.352 Y5.399 Z-0.400 F100.000
G1 X31.352 Y6.425 Z-0.400 F150.000
G1 X30.902 Y6.425 Z-0.400 F150.000
G1 X30.902 Y5.024 Z-0.400 F150.000
G1 X31.352 Y5.024 Z-0.400 F150.000
G1 X31.352 Y5.399 Z-0.400 F150.000
G1 X31.352 Y5.399 Z-0.600 F100.000
G1 X31.352 Y6.425 Z-0.600 F150.000
G1 X30.902 Y6.425 Z-0.600 F150.000
G1 X30.902 Y5.024 Z-0.600 F150.000
G1 X31.352 Y5.024 Z-0.600 F150.000
G1 X31.352 Y5.399 Z-0.600 F150.000
G0 Z1.000
G0 Z1.000
G0 X31.352 Y5.399
G0 X29.493 Y6.109
G0 X29.493 Y6.109 Z0.500
G1 X29.493 Y6.109 Z-0.200 F100.000
G1 X29.493 Y6.459 Z-0.200 F150.000
G1 X28.743 Y6.459 Z-0.200 F150.000
G1 X28.743 Y6.109 Z-0.200 F150.000
G1 X29.493 Y6.109 Z-0.200 F150.000
G1 X29.493 Y6.109 Z-0.400 F100.000
G1 X29.493 Y6.459 Z-0.400 F150.000
G1 X28.743 Y6.459 Z-0.400 F150.000
G1 X28.743 Y6.109 Z-0.400 F150.000
G1 X29.493 Y6.109 Z-0.400 F150.000
G1 X29.493 Y6.109 Z-0.600 F100.000
G1 X29.493 Y6.459 Z-0.600 F150.000
G1 X28.743 Y6.459 Z-0.600 F150.000
G1 X28.743 Y6.109 Z-0.600 F150.000
G1 X29.493 Y6.109 Z-0.600 F150.000
G0 Z1.000
G0 Z1.000
G0 X29.493 Y6.109
G0 Y4.960
G0 Y4.960 Z0.500
G1 X29.493 Y4.960 Z-0.200 F100.000
G1 X28.743 Y4.960 Z-0.200 F150.000
G1 X28.743 Y4.610 Z-0.200 F150.000
G1 X29.493 Y4.610 Z-0.200 F150.000
G1 X29.493 Y4.960 Z-0.200 F150.000
G1 X29.493 Y4.960 Z-0.400 F100.000
G1 X28.743 Y4.960 Z-0.400 F150.000
G1 X28.743 Y4.610 Z-0.400 F150.000
G1 X29.493 Y4.610 Z-0.400 F150.000
G1 X29.493 Y4.960 Z-0.400 F150.000
G1 X29.493 Y4.960 Z-0.600 F100.000
G1 X28.743 Y4.960 Z-0.600 F150.000
G1 X28.743 Y4.610 Z-0.600 F150.000
G1 X29.493 Y4.610 Z-0.600 F150.000
G1 X29.493 Y4.960 Z-0.600 F150.000
G0 Z1.000
G0 Z1.000
G0 X29.493 Y4.960
G0 X29.502 Y7.680
G0 X29.502 Y7.680 Z0.500
G1 X29.502 Y7.680 Z-0.200 F100.000
G1 X29.502 Y8.430 Z-0.200 F150.000
G1 X28.953 Y8.430 Z-0.200 F150.000
G1 X28.953 Y7.680 Z-0.200 F150.000
G1 X29.502 Y7.680 Z-0.200 F150.000
G1 X29.502 Y7.680 Z-0.400 F100.000
G1 X29.502 Y8.430 Z-0.400 F150.000
G1 X28.953 Y8.430 Z-0.400 F150.000
G1 X28.953 Y7.680 Z-0.400 F150.000
G1 X29.502 Y7.680 Z-0.400 F150.000
G1 X29.502 Y7.680 Z-0.600 F100.000
G1 X29.502 Y8.430 Z-0.600 F150.000
G1 X28.953 Y8.430 Z-0.600 F150.000
G1 X28.953 Y7.680 Z-0.600 F150.000
G1 X29.502 Y7.680 Z-0.600 F150.000
G0 Z1.000
G0 Z1.000
G0 X29.502 Y7.680
G0 X30.252
G0 X30.252 Z0.500
G1 X30.252 Y7.680 Z-0.200 F100.000
G1 X30.802 Y7.680 Z-0.200 F150.000
G1 X30.802 Y8.430 Z-0.200 F150.000
G1 X30.252 Y8.430 Z-0.200 F150.000
G1 X30.252 Y7.680 Z-0.200 F150.000
G1 X30.252 Y7.680 Z-0.400 F100.000
G1 X30.802 Y7.680 Z-0.400 F150.000
G1 X30.802 Y8.430 Z-0.400 F150.000
G1 X30.252 Y8.430 Z-0.400 F150.000
G1 X30.252 Y7.680 Z-0.400 F150.000
G1 X30.252 Y7.680 Z-0.600 F100.000
G1 X30.802 Y7.680 Z-0.600 F150.000
G1 X30.802 Y8.430 Z-0.600 F150.000
G1 X30.252 Y8.430 Z-0.600 F150.000
G1 X30.252 Y7.680 Z-0.600 F150.000
G0 Z1.000
G0 Z1.000
G0 X30.252 Y7.680
G0 X30.153 Y9.580
G0 X30.153 Y9.580 Z0.500
G1 X30.153 Y9.580 Z-0.200 F100.000
G1 X30.153 Y10.330 Z-0.200 F150.000
G1 X29.603 Y10.330 Z-0.200 F150.000
G1 X29.603 Y9.580 Z-0.200 F150.000
G1 X30.153 Y9.580 Z-0.200 F150.000
G1 X30.153 Y9.580 Z-0.400 F100.000
G1 X30.153 Y10.330 Z-0.400 F150.000
G1 X29.603 Y10.330 Z-0.400 F150.000
G1 X29.603 Y9.580 Z-0.400 F150.000
G1 X30.153 Y9.580 Z-0.400 F150.000
G1 X30.153 Y9.580 Z-0.600 F100.000
G1 X30.153 Y10.330 Z-0.600 F150.000
G1 X29.603 Y10.330 Z-0.600 F150.000
G1 X29.603 Y9.580 Z-0.600 F150.000
G1 X30.153 Y9.580 Z-0.600 F150.000
G0 Z1.000
G0 Z1.000
G0 X30.153 Y9.580
G0 X32.023 Y9.430
G0 X32.023 Y9.430 Z0.500
G1 X32.023 Y9.430 Z-0.200 F100.000
G1 X32.023 Y9.080 Z-0.200 F150.000
G1 X32.773 Y9.080 Z-0.200 F150.000
G1 X32.773 Y9.430 Z-0.200 F150.000
G1 X32.023 Y9.430 Z-0.200 F150.000
G1 X32.023 Y9.430 Z-0.400 F100.000
G1 X32.023 Y9.080 Z-0.400 F150.000
G1 X32.773 Y9.080 Z-0.400 F150.000
G1 X32.773 Y9.430 Z-0.400 F150.000
G1 X32.023 Y9.430 Z-0.400 F150.000
G1 X32.023 Y9.430 Z-0.600 F100.000
G1 X32.023 Y9.080 Z-0.600 F150.000
G1 X32.773 Y9.080 Z-0.600 F150.000
G1 X32.773 Y9.430 Z-0.600 F150.000
G1 X32.023 Y9.430 Z-0.600 F150.000
G0 Z1.000
G0 Z1.000
G0 X32.023 Y9.430
G0 Y7.930
G0 Y7.930 Z0.500
G1 X32.023 Y7.930 Z-0.200 F100.000
G1 X32.023 Y7.579 Z-0.200 F150.000
G1 X32.773 Y7.579 Z-0.200 F150.000
G1 X32.773 Y7.930 Z-0.200 F150.000
G1 X32.023 Y7.930 Z-0.200 F150.000
G1 X32.023 Y7.930 Z-0.400 F100.000
G1 X32.023 Y7.579 Z-0.400 F150.000
G1 X32.773 Y7.579 Z-0.400 F150.000
G1 X32.773 Y7.930 Z-0.400 F150.000
G1 X32.023 Y7.930 Z-0.400 F150.000
G1 X32.023 Y7.930 Z-0.600 F100.000
G1 X32.023 Y7.579 Z-0.600 F150.000
G1 X32.773 Y7.579 Z-0.600 F150.000
G1 X32.773 Y7.930 Z-0.600 F150.000
G1 X32.023 Y7.930 Z-0.600 F150.000
G0 Z1.000
G0 Z1.000
G0 X32.023 Y7.930
G0 X32.173 Y1.085
G0 X32.173 Y1.085 Z0.500
G1 X32.173 Y1.085 Z-0.200 F100.000
G1 X32.173 Y-0.315 Z-0.200 F150.000
G1 X32.622 Y-0.315 Z-0.200 F150.000
G1 X32.622 Y1.085 Z-0.200 F150.000
G1 X32.173 Y1.085 Z-0.200 F150.000
G1 X32.173 Y1.085 Z-0.400 F100.000
G1 X32.173 Y-0.315 Z-0.400 F150.000
G1 X32.622 Y-0.315 Z-0.400 F150.000
G1 X32.622 Y1.085 Z-0.400 F150.000
